/* XPM */
static char * pickaxe500_xpm[] = {
"512 512 7569 2",
"  	c None",
". 	c #5B5B5B",
"+ 	c #656565",
"@ 	c #686868",
"# 	c #6C6C6C",
"$ 	c #636363",
"% 	c #484848",
"& 	c #454545",
"* 	c #464646",
"= 	c #4D4D4D",
"- 	c #535353",
"; 	c #525252",
"> 	c #515151",
", 	c #505050",
"' 	c #595959",
") 	c #616161",
"! 	c #696969",
"~ 	c #757575",
"{ 	c #808080",
"] 	c #8C8C8C",
"^ 	c #424242",
"/ 	c #555555",
"( 	c #585858",
"_ 	c #707070",
": 	c #919191",
"< 	c #787878",
"[ 	c #575757",
"} 	c #494949",
"| 	c #444444",
"1 	c #545454",
"2 	c #737373",
"3 	c #5E5E5E",
"4 	c #4A4A4A",
"5 	c #474747",
"6 	c #4F4F4F",
"7 	c #434343",
"8 	c #4E4E4E",
"9 	c #565656",
"0 	c #4C4C4C",
"a 	c #4B4B4B",
"b 	c #626262",
"c 	c #858585",
"d 	c #6A6A6A",
"e 	c #5C5C5C",
"f 	c #929292",
"g 	c #8A8A8A",
"h 	c #878787",
"i 	c #8B8B8B",
"j 	c #888888",
"k 	c #898989",
"l 	c #3E3E3E",
"m 	c #3F3F3F",
"n 	c #818181",
"o 	c #9A9A9A",
"p 	c #404040",
"q 	c #3D3D3D",
"r 	c #6B6B6B",
"s 	c #A8A8A8",
"t 	c #BDBDBD",
"u 	c #C9C9C9",
"v 	c #D6D6D6",
"w 	c #E3E3E3",
"x 	c #BABABA",
"y 	c #414141",
"z 	c #3A3A3A",
"A 	c #5D5D5D",
"B 	c #7C7C7C",
"C 	c #9F9F9F",
"D 	c #B6B6B6",
"E 	c #C1C1C1",
"F 	c #CCCCCC",
"G 	c #DDDDDD",
"H 	c #EEEEEE",
"I 	c #FAFAFA",
"J 	c #FEFEFE",
"K 	c #FCFCFC",
"L 	c #F7F7F7",
"M 	c #C4C4C4",
"N 	c #727272",
"O 	c #8E8E8E",
"P 	c #9E9E9E",
"Q 	c #ADADAD",
"R 	c #B9B9B9",
"S 	c #C3C3C3",
"T 	c #D4D4D4",
"U 	c #EBEBEB",
"V 	c #F9F9F9",
"W 	c #FBFBFB",
"X 	c #F6F6F6",
"Y 	c #949494",
"Z 	c #A4A4A4",
"` 	c #AAAAAA",
" .	c #BCBCBC",
"..	c #DCDCDC",
"+.	c #ECECEC",
"@.	c #FDFDFD",
"#.	c #747474",
"$.	c #979797",
"%.	c #A2A2A2",
"&.	c #B1B1B1",
"*.	c #DADADA",
"=.	c #E1E1E1",
"-.	c #7F7F7F",
";.	c #B0B0B0",
">.	c #BBBBBB",
",.	c #CACACA",
"'.	c #D7D7D7",
").	c #DBDBDB",
"!.	c #D8D8D8",
"~.	c #F5F5F5",
"{.	c #5A5A5A",
"].	c #6E6E6E",
"^.	c #989898",
"/.	c #B2B2B2",
"(.	c #C6C6C6",
"_.	c #D9D9D9",
":.	c #E2E2E2",
"<.	c #767676",
"[.	c #828282",
"}.	c #8D8D8D",
"|.	c #ACACAC",
"1.	c #C5C5C5",
"2.	c #CBCBCB",
"3.	c #E0E0E0",
"4.	c #F8F8F8",
"5.	c #717171",
"6.	c #7B7B7B",
"7.	c #868686",
"8.	c #959595",
"9.	c #A6A6A6",
"0.	c #C0C0C0",
"a.	c #C2C2C2",
"b.	c #5F5F5F",
"c.	c #ABABAB",
"d.	c #B5B5B5",
"e.	c #9D9D9D",
"f.	c #909090",
"g.	c #838383",
"h.	c #7A7A7A",
"i.	c #B3B3B3",
"j.	c #BFBFBF",
"k.	c #646464",
"l.	c #6F6F6F",
"m.	c #CECECE",
"n.	c #676767",
"o.	c #777777",
"p.	c #B4B4B4",
"q.	c #C8C8C8",
"r.	c #D3D3D3",
"s.	c #606060",
"t.	c #AEAEAE",
"u.	c #C7C7C7",
"v.	c #4D4B40",
"w.	c #4A4941",
"x.	c #464641",
"y.	c #484A45",
"z.	c #484948",
"A.	c #6F624E",
"B.	c #625642",
"C.	c #4C412B",
"D.	c #43381E",
"E.	c #43381D",
"F.	c #433B20",
"G.	c #494332",
"H.	c #4B473E",
"I.	c #464844",
"J.	c #474846",
"K.	c #8B8471",
"L.	c #6E6458",
"M.	c #4B4136",
"N.	c #433927",
"O.	c #483C24",
"P.	c #4C3E27",
"Q.	c #473923",
"R.	c #46371F",
"S.	c #47391E",
"T.	c #473B1E",
"U.	c #473D23",
"V.	c #4B4233",
"W.	c #4B453F",
"X.	c #474442",
"Y.	c #484746",
"Z.	c #998F7A",
"`.	c #847A5F",
" +	c #6C6045",
".+	c #594A30",
"++	c #48391E",
"@+	c #4C402B",
"#+	c #4A3E2C",
"$+	c #453827",
"%+	c #44371F",
"&+	c #45381B",
"*+	c #493A1E",
"=+	c #4D3D23",
"-+	c #4D3C22",
";+	c #49391D",
">+	c #46371A",
",+	c #44371D",
"'+	c #483D2F",
")+	c #4B433E",
"!+	c #494344",
"~+	c #484646",
"{+	c #7E704F",
"]+	c #766744",
"^+	c #695B37",
"/+	c #60522F",
"(+	c #695B3C",
"_+	c #6E5F3C",
":+	c #675733",
"<+	c #554522",
"[+	c #4D3D1B",
"}+	c #4A3B1C",
"|+	c #48381F",
"1+	c #493A1C",
"2+	c #4A3B19",
"3+	c #4A3819",
"4+	c #483518",
"5+	c #4B381A",
"6+	c #4B381B",
"7+	c #493719",
"8+	c #48381D",
"9+	c #4D3F32",
"0+	c #504542",
"a+	c #4B4446",
"b+	c #474346",
"c+	c #454446",
"d+	c #D5D5D5",
"e+	c #5E4D35",
"f+	c #5B4B2D",
"g+	c #65532F",
"h+	c #69562E",
"i+	c #67542E",
"j+	c #68552D",
"k+	c #68552C",
"l+	c #635227",
"m+	c #614F25",
"n+	c #655228",
"o+	c #635024",
"p+	c #58451A",
"q+	c #4D3B13",
"r+	c #483813",
"s+	c #493718",
"t+	c #49381A",
"u+	c #4B3918",
"v+	c #4C3A15",
"w+	c #4C3917",
"x+	c #4D3818",
"y+	c #4C3719",
"z+	c #4C371A",
"A+	c #4C391B",
"B+	c #4A391E",
"C+	c #4C3D30",
"D+	c #4E4241",
"E+	c #4C4347",
"F+	c #4C474B",
"G+	c #49484B",
"H+	c #474748",
"I+	c #7F745F",
"J+	c #635237",
"K+	c #665230",
"L+	c #69532B",
"M+	c #654D21",
"N+	c #695224",
"O+	c #6A5223",
"P+	c #695323",
"Q+	c #675221",
"R+	c #665221",
"S+	c #695524",
"T+	c #675422",
"U+	c #5E491A",
"V+	c #513E12",
"W+	c #4D3A14",
"X+	c #4C3918",
"Y+	c #4B3819",
"Z+	c #4C3815",
"`+	c #4C3912",
" @	c #4D3915",
".@	c #4F3918",
"+@	c #4E3718",
"@@	c #4C3617",
"#@	c #4D3A1B",
"$@	c #4C3A20",
"%@	c #4C3E31",
"&@	c #4C413F",
"*@	c #484145",
"=@	c #484447",
"-@	c #474648",
";@	c #7F735D",
">@	c #635233",
",@	c #654F27",
"'@	c #695124",
")@	c #6B5020",
"!@	c #6C5120",
"~@	c #6B501E",
"{@	c #6A501F",
"]@	c #695220",
"^@	c #695121",
"/@	c #6A5423",
"(@	c #66501F",
"_@	c #5A4516",
":@	c #4F3A0F",
"<@	c #4C3711",
"[@	c #4C3717",
"}@	c #4D3819",
"|@	c #4D3916",
"1@	c #4D3914",
"2@	c #4D3816",
"3@	c #4E3717",
"4@	c #4F3819",
"5@	c #4E3819",
"6@	c #48371C",
"7@	c #4A3D30",
"8@	c #4C4340",
"9@	c #4A4446",
"0@	c #494649",
"a@	c #82745E",
"b@	c #655333",
"c@	c #675026",
"d@	c #6B5021",
"e@	c #6D501E",
"f@	c #6E501D",
"g@	c #6B4F1F",
"h@	c #6B5121",
"i@	c #695022",
"j@	c #695123",
"k@	c #685223",
"l@	c #5C4619",
"m@	c #513B12",
"n@	c #4C381B",
"o@	c #4C381D",
"p@	c #4C3919",
"q@	c #4C3916",
"r@	c #4C3817",
"s@	c #4C3718",
"t@	c #4C3818",
"u@	c #4A391A",
"v@	c #493E2F",
"w@	c #4B443F",
"x@	c #484546",
"y@	c #474649",
"z@	c #464647",
"A@	c #83755D",
"B@	c #675432",
"C@	c #675025",
"D@	c #6C5020",
"E@	c #6F4F1C",
"F@	c #6E501E",
"G@	c #6B4F20",
"H@	c #6C5123",
"I@	c #695024",
"J@	c #685126",
"K@	c #695227",
"L@	c #5C461D",
"M@	c #503B16",
"N@	c #4C381F",
"O@	c #4B3917",
"P@	c #4A3A1A",
"Q@	c #473A1E",
"R@	c #483F2F",
"S@	c #4A453E",
"T@	c #484544",
"U@	c #464748",
"V@	c #454647",
"W@	c #83775F",
"X@	c #655532",
"Y@	c #665124",
"Z@	c #6B5120",
"`@	c #6C511D",
" #	c #6E4F20",
".#	c #6B4E23",
"+#	c #6C5027",
"@#	c #694F27",
"##	c #685128",
"$#	c #695228",
"%#	c #5C461E",
"&#	c #503B18",
"*#	c #4B3820",
"=#	c #4A391B",
"-#	c #4A3918",
";#	c #49391A",
">#	c #493B1A",
",#	c #463B1C",
"'#	c #48402E",
")#	c #4A463E",
"!#	c #464644",
"~#	c #464747",
"{#	c #454646",
"]#	c #F2F2F2",
"^#	c #84785E",
"/#	c #665123",
"(#	c #6C501E",
"_#	c #6E4F1F",
":#	c #6C5021",
"<#	c #6B4E25",
"[#	c #6A5028",
"}#	c #684F29",
"|#	c #685029",
"1#	c #685129",
"2#	c #5C461F",
"3#	c #503B19",
"4#	c #4C381C",
"5#	c #4B381F",
"6#	c #4A3820",
"7#	c #4A391C",
"8#	c #4A3A19",
"9#	c #4B391A",
"0#	c #4A381B",
"a#	c #49463E",
"b#	c #464847",
"c#	c #454746",
"d#	c #3B3B3B",
"e#	c #83785C",
"f#	c #665632",
"g#	c #675223",
"h#	c #6C4F22",
"i#	c #6A4E26",
"j#	c #6A5029",
"k#	c #684F28",
"l#	c #685028",
"m#	c #685228",
"n#	c #503B17",
"o#	c #4C391A",
"p#	c #4A3920",
"q#	c #4A3A18",
"r#	c #4A381A",
"s#	c #493A1B",
"t#	c #463B1D",
"u#	c #48402F",
"v#	c #474644",
"w#	c #3C3C3C",
"x#	c #393939",
"y#	c #383838",
"z#	c #373737",
"A#	c #363636",
"B#	c #353535",
"C#	c #666666",
"D#	c #84785C",
"E#	c #675633",
"F#	c #675224",
"G#	c #6B511F",
"H#	c #6C4F23",
"I#	c #6B5028",
"J#	c #695225",
"K#	c #5C471B",
"L#	c #4F3B13",
"M#	c #4B3817",
"N#	c #4A381D",
"O#	c #4A391F",
"P#	c #4A3A1B",
"Q#	c #4A3A17",
"R#	c #463B1E",
"S#	c #483F30",
"T#	c #484545",
"U#	c #F4F4F4",
"V#	c #343434",
"W#	c #333333",
"X#	c #6D6D6D",
"Y#	c #83785D",
"Z#	c #685633",
"`#	c #685224",
" $	c #6A521E",
".$	c #6B521C",
"+$	c #6C5022",
"@$	c #6A4F24",
"#$	c #6C5026",
"$$	c #695122",
"%$	c #695222",
"&$	c #5D4717",
"*$	c #4F3B10",
"=$	c #4B3914",
"-$	c #4B391C",
";$	c #4B3A19",
">$	c #4B3A15",
",$	c #4D3919",
"'$	c #4C3819",
")$	c #4A3818",
"!$	c #493A1A",
"~$	c #493F30",
"{$	c #4B4440",
"]$	c #E6E6E6",
"^$	c #B8B8B8",
"/$	c #A7A7A7",
"($	c #323232",
"_$	c #313131",
":$	c #2F2F2F",
"<$	c #303030",
"[$	c #797979",
"}$	c #85785C",
"|$	c #695732",
"1$	c #6A511E",
"2$	c #6A511C",
"3$	c #6A4F22",
"4$	c #6A5124",
"5$	c #685021",
"6$	c #695120",
"7$	c #6A5321",
"8$	c #5D4716",
"9$	c #4B3913",
"0$	c #4C3A18",
"a$	c #4D3917",
"b$	c #493F31",
"c$	c #4B4441",
"d$	c #494447",
"e$	c #464649",
"f$	c #AFAFAF",
"g$	c #A1A1A1",
"h$	c #999999",
"i$	c #88795D",
"j$	c #69562F",
"k$	c #695223",
"l$	c #6A511F",
"m$	c #6C511F",
"n$	c #6C5121",
"o$	c #695021",
"p$	c #685120",
"q$	c #695221",
"r$	c #5D4619",
"s$	c #4C381E",
"t$	c #4B3A16",
"u$	c #463A1F",
"v$	c #484548",
"w$	c #46464A",
"x$	c #D2D2D2",
"y$	c #887B5C",
"z$	c #68562D",
"A$	c #6A5020",
"B$	c #6D5122",
"C$	c #6C5122",
"D$	c #6A5121",
"E$	c #685020",
"F$	c #67511F",
"G$	c #695322",
"H$	c #6A5225",
"I$	c #5C451C",
"J$	c #4C3820",
"K$	c #4B391B",
"L$	c #483A1B",
"M$	c #463A1E",
"N$	c #474547",
"O$	c #454649",
"P$	c #D1D1D1",
"Q$	c #A3A3A3",
"R$	c #887C5B",
"S$	c #6A5222",
"T$	c #6A4F20",
"U$	c #675120",
"V$	c #6A5126",
"W$	c #5D441E",
"X$	c #513A17",
"Y$	c #4B3A17",
"Z$	c #4A3919",
"`$	c #493A19",
" %	c #463A1C",
".%	c #464648",
"+%	c #7E7E7E",
"@%	c #897C5C",
"#%	c #6D5023",
"$%	c #6D5025",
"%%	c #6A5024",
"&%	c #685022",
"*%	c #6B5127",
"=%	c #5D431E",
"-%	c #513A16",
";%	c #4C3A17",
">%	c #493A18",
",%	c #47391B",
"'%	c #493F2E",
")%	c #4C443E",
"!%	c #484543",
"~%	c #474646",
"{%	c #9C9C9C",
"]%	c #7D7D7D",
"^%	c #897C5E",
"/%	c #685530",
"(%	c #6B4F22",
"_%	c #6D5024",
":%	c #6D5026",
"<%	c #6B5025",
"[%	c #685023",
"}%	c #685122",
"|%	c #6B5027",
"1%	c #5E441D",
"2%	c #513A14",
"3%	c #4C391C",
"4%	c #4C3A16",
"5%	c #4B3818",
"6%	c #473A1B",
"7%	c #4A3F2D",
"8%	c #4C443C",
"9%	c #4A4541",
"0%	c #484743",
"a%	c #464645",
"b%	c #897A60",
"c%	c #695531",
"d%	c #6A5226",
"e%	c #6E5024",
"f%	c #6C4F25",
"g%	c #6A5023",
"h%	c #6A5224",
"i%	c #6B5124",
"j%	c #5E441C",
"k%	c #513B13",
"l%	c #4D3918",
"m%	c #4D381A",
"n%	c #4D443B",
"o%	c #4B4540",
"p%	c #494742",
"q%	c #474643",
"r%	c #9B9B9B",
"s%	c #887A60",
"t%	c #685531",
"u%	c #6B4F23",
"v%	c #6F5024",
"w%	c #6B5123",
"x%	c #6A5021",
"y%	c #6C5124",
"z%	c #6D5027",
"A%	c #503B13",
"B%	c #4D381B",
"C%	c #4D381C",
"D%	c #4C381A",
"E%	c #48391C",
"F%	c #4B3F2D",
"G%	c #4C443B",
"H%	c #494540",
"I%	c #484742",
"J%	c #464643",
"K%	c #A0A0A0",
"L%	c #877C5F",
"M%	c #6B4E22",
"N%	c #6C4F24",
"O%	c #6A4F21",
"P%	c #503B14",
"Q%	c #4D381D",
"R%	c #4D371E",
"S%	c #4C371C",
"T%	c #48391D",
"U%	c #4A3F2E",
"V%	c #4C453C",
"W%	c #484541",
"X%	c #474743",
"Y%	c #A5A5A5",
"Z%	c #897C5F",
"`%	c #6F5023",
" &	c #6D4F23",
".&	c #694F1F",
"+&	c #5F451D",
"@&	c #503B15",
"#&	c #49391C",
"$&	c #4B381C",
"%&	c #4C371E",
"&&	c #4C371F",
"*&	c #4B381E",
"=&	c #49381D",
"-&	c #483A21",
";&	c #493F2F",
">&	c #4A433D",
",&	c #D0D0D0",
"'&	c #8A7C5E",
")&	c #67542D",
"!&	c #6D4F21",
"~&	c #6C5223",
"{&	c #67501E",
"]&	c #6A4E23",
"^&	c #4F3B14",
"/&	c #483917",
"(&	c #493820",
"_&	c #49381C",
":&	c #4B381D",
"<&	c #4B371D",
"[&	c #493B22",
"}&	c #4A3F31",
"|&	c #4A4340",
"1&	c #494747",
"2&	c #454749",
"3&	c #CDCDCD",
"4&	c #897D5D",
"5&	c #66542B",
"6&	c #6A4F1F",
"7&	c #5F461D",
"8&	c #4F3C15",
"9&	c #493917",
"0&	c #4A381E",
"a&	c #4D371B",
"b&	c #473A20",
"c&	c #483F31",
"d&	c #44474A",
"e&	c #444749",
"f&	c #444446",
"g&	c #8A7E5E",
"h&	c #6D5121",
"i&	c #6D5124",
"j&	c #674F20",
"k&	c #685222",
"l&	c #675022",
"m&	c #6B532A",
"n&	c #5E471F",
"o&	c #503C16",
"p&	c #4C3B18",
"q&	c #4C3A1B",
"r&	c #4D3817",
"s&	c #4D3814",
"t&	c #4D3715",
"u&	c #4E3716",
"v&	c #4C3A1A",
"w&	c #44371B",
"x&	c #443A2C",
"y&	c #47403C",
"z&	c #434143",
"A&	c #434649",
"B&	c #4B4E51",
"C&	c #58585A",
"D&	c #848484",
"E&	c #A9A9A9",
"F&	c #8B7E60",
"G&	c #68562E",
"H&	c #6B4F21",
"I&	c #6B5327",
"J&	c #675123",
"K&	c #675325",
"L&	c #685226",
"M&	c #6A542B",
"N&	c #5B451E",
"O&	c #4F3A13",
"P&	c #4D3913",
"Q&	c #4D3716",
"R&	c #4E3811",
"S&	c #4F380D",
"T&	c #4F370D",
"U&	c #50370F",
"V&	c #4E350E",
"W&	c #4F3812",
"X&	c #503D17",
"Y&	c #4E3F1D",
"Z&	c #615747",
"`&	c #777169",
" *	c #817F7E",
".*	c #8A8B8C",
"+*	c #939496",
"@*	c #9C9C9D",
"#*	c #8A7C60",
"$*	c #68542F",
"%*	c #685124",
"&*	c #6A4F23",
"**	c #674C24",
"=*	c #695128",
"-*	c #675127",
";*	c #665327",
">*	c #675327",
",*	c #68542A",
"'*	c #66512A",
")*	c #5C4620",
"!*	c #503A11",
"~*	c #4F390D",
"{*	c #533A13",
"]*	c #563C15",
"^*	c #5A4013",
"/*	c #5D4413",
"(*	c #614616",
"_*	c #634819",
":*	c #654C1F",
"<*	c #685024",
"[*	c #695428",
"}*	c #6A5831",
"|*	c #8E826E",
"1*	c #B0A89E",
"2*	c #BBB7B5",
"3*	c #C1C1C2",
"4*	c #C5C5C6",
"5*	c #897B61",
"6*	c #6B5026",
"7*	c #6B512A",
"8*	c #6A532B",
"9*	c #67522A",
"0*	c #604E24",
"a*	c #5F4C25",
"b*	c #584522",
"c*	c #5D4723",
"d*	c #664E25",
"e*	c #6D5228",
"f*	c #70552A",
"g*	c #745927",
"h*	c #785D24",
"i*	c #7C5F27",
"j*	c #7E622A",
"k*	c #846731",
"l*	c #856A36",
"m*	c #806936",
"n*	c #7C683B",
"o*	c #A3977E",
"p*	c #C7BDB0",
"q*	c #C9C4BF",
"r*	c #C6C5C3",
"s*	c #897B63",
"t*	c #675635",
"u*	c #67512A",
"v*	c #654B26",
"w*	c #634824",
"x*	c #624A27",
"y*	c #5B4622",
"z*	c #56441F",
"A*	c #51401B",
"B*	c #4A3914",
"C*	c #463511",
"D*	c #402E0D",
"E*	c #5C4825",
"F*	c #7E6437",
"G*	c #866A37",
"H*	c #866939",
"I*	c #866938",
"J*	c #876931",
"K*	c #876A2C",
"L*	c #886A2C",
"M*	c #89692E",
"N*	c #886B30",
"O*	c #846A32",
"P*	c #7D6834",
"Q*	c #A5977C",
"R*	c #C8BEAE",
"S*	c #C9C3BC",
"T*	c #C6C4C0",
"U*	c #C3C3C2",
"V*	c #7D7361",
"W*	c #584A30",
"X*	c #534225",
"Y*	c #503C1E",
"Z*	c #4B3619",
"`*	c #402D11",
" =	c #37250A",
".=	c #332407",
"+=	c #312305",
"@=	c #2F2003",
"#=	c #2F2002",
"$=	c #301F03",
"%=	c #5C4928",
"&=	c #7E6436",
"*=	c #886932",
"==	c #896931",
"-=	c #8A692E",
";=	c #8A692B",
">=	c #896A2A",
",=	c #896B2A",
"'=	c #89692A",
")=	c #8A6A2D",
"!=	c #896C30",
"~=	c #816832",
"{=	c #A4967A",
"]=	c #C4BCAC",
"^=	c #C5C1BA",
"/=	c #C5C3C0",
"(=	c #C4C3C3",
"_=	c #645E53",
":=	c #332C1D",
"<=	c #2C220E",
"[=	c #2D210D",
"}=	c #2E2211",
"|=	c #2D2110",
"1=	c #2C210D",
"2=	c #2F210C",
"3=	c #2F220A",
"4=	c #302107",
"5=	c #5B4928",
"6=	c #7F6433",
"7=	c #8B692B",
"8=	c #8C682C",
"9=	c #896A2B",
"0=	c #886B29",
"a=	c #8A6A2A",
"b=	c #8B6A2C",
"c=	c #84682E",
"d=	c #A4977C",
"e=	c #C3C0B2",
"f=	c #C4C4BF",
"g=	c #C3C2C1",
"h=	c #C4C2C3",
"i=	c #615D54",
"j=	c #302B1F",
"k=	c #292212",
"l=	c #2B2211",
"m=	c #2B2212",
"n=	c #2C2215",
"o=	c #2A2014",
"p=	c #2B2213",
"q=	c #2A2110",
"r=	c #2E2110",
"s=	c #2E220D",
"t=	c #2F2208",
"u=	c #5B4A28",
"v=	c #806432",
"w=	c #8A692D",
"x=	c #8B6929",
"y=	c #8B692A",
"z=	c #8D682B",
"A=	c #8D682C",
"B=	c #89692B",
"C=	c #8A692A",
"D=	c #8C682A",
"E=	c #8C692A",
"F=	c #85682C",
"G=	c #A3977D",
"H=	c #C2C0B4",
"I=	c #C3C4C0",
"J=	c #605B52",
"K=	c #2F291D",
"L=	c #282111",
"M=	c #2C2312",
"N=	c #2B2111",
"O=	c #2F2A1E",
"P=	c #2B2115",
"Q=	c #5B4927",
"R=	c #615E54",
"S=	c #2A2213",
"T=	c #2C2314",
"U=	c #2F2108",
"V=	c #5A4927",
"W=	c #7F6432",
"X=	c #625F54",
"Y=	c #312C1F",
"Z=	c #2A2313",
"`=	c #2E2108",
" -	c #625D54",
".-	c #302B1E",
"+-	c #2F2312",
"@-	c #2F220D",
"#-	c #615E55",
"$-	c #2F2311",
"%-	c #2F230E",
"&-	c #5A4826",
"*-	c #7F6431",
"=-	c #C4C2C1",
"--	c #655F57",
";-	c #2E291D",
">-	c #2A2111",
",-	c #2F230D",
"'-	c #584725",
")-	c #7F6331",
"!-	c #84672B",
"~-	c #A2967C",
"{-	c #C2BFB3",
"]-	c #C4C2C2",
"^-	c #C4C3C4",
"/-	c #646157",
"(-	c #636058",
"_-	c #645F57",
":-	c #2E281D",
"<-	c #84672C",
"[-	c #2A2311",
"}-	c #2C2216",
"|-	c #2A2112",
"1-	c #2D2210",
"2-	c #2D2108",
"3-	c #584723",
"4-	c #7E6530",
"5-	c #896A28",
"6-	c #886A29",
"7-	c #83672D",
"8-	c #A2977B",
"9-	c #C2C0B2",
"0-	c #C2C4C2",
"a-	c #C3C4C3",
"b-	c #C3C3C1",
"c-	c #C3C3C5",
"d-	c #C2C3C5",
"e-	c #C2C4C3",
"f-	c #C1C3C2",
"g-	c #C2C3C3",
"h-	c #C2C3C2",
"i-	c #666159",
"j-	c #2B2315",
"k-	c #2A2217",
"l-	c #2B2317",
"m-	c #2A2114",
"n-	c #2E230E",
"o-	c #2D2107",
"p-	c #564820",
"q-	c #7D672A",
"r-	c #886D26",
"s-	c #886C26",
"t-	c #876C29",
"u-	c #876A28",
"v-	c #886929",
"w-	c #8A6829",
"x-	c #8B682A",
"y-	c #89692D",
"z-	c #806830",
"A-	c #A2977A",
"B-	c #C3BFAF",
"C-	c #C0C5BD",
"D-	c #BCC5C1",
"E-	c #C0C5C2",
"F-	c #C4C4C0",
"G-	c #C2C4C4",
"H-	c #C2C3C4",
"I-	c #C1C2C4",
"J-	c #C2C2C4",
"K-	c #C3C2C4",
"L-	c #C1C0C2",
"M-	c #C0C0C2",
"N-	c #C3C4C7",
"O-	c #C1C4C9",
"P-	c #BEC1C4",
"Q-	c #BFC3C3",
"R-	c #BDC0BF",
"S-	c #BFC1C0",
"T-	c #C3C5C4",
"U-	c #767777",
"V-	c #474948",
"W-	c #444645",
"X-	c #454544",
"Y-	c #454543",
"Z-	c #444443",
"`-	c #454648",
" ;	c #444547",
".;	c #454547",
"+;	c #434345",
"@;	c #454546",
"#;	c #444442",
"$;	c #474745",
"%;	c #686458",
"&;	c #2A220F",
"*;	c #2B2316",
"=;	c #2B2318",
"-;	c #2D230E",
";;	c #2D2207",
">;	c #564821",
",;	c #7D662B",
"';	c #886B28",
");	c #876B2B",
"!;	c #876C2A",
"~;	c #876B27",
"{;	c #886927",
"];	c #896929",
"^;	c #8B6829",
"/;	c #886A2D",
"(;	c #7F6932",
"_;	c #A39779",
":;	c #C4BFAC",
"<;	c #C0C4BC",
"[;	c #BBC5C1",
"};	c #BEC5C1",
"|;	c #C1C1BC",
"1;	c #C2C1BC",
"2;	c #C2C2BE",
"3;	c #C1C2C1",
"4;	c #C1C3C4",
"5;	c #C1C4C5",
"6;	c #C2C1C3",
"7;	c #C3C1C4",
"8;	c #C6C4C7",
"9;	c #C6C6C8",
"0;	c #C3C4C8",
"a;	c #C0C3C7",
"b;	c #C0C3C8",
"c;	c #C0C4C5",
"d;	c #C3C5C5",
"e;	c #BEC0BF",
"f;	c #BCBEBD",
"g;	c #747574",
"h;	c #454645",
"i;	c #444646",
"j;	c #454747",
"k;	c #474749",
"l;	c #484849",
"m;	c #49494B",
"n;	c #48484A",
"o;	c #444445",
"p;	c #434342",
"q;	c #41413F",
"r;	c #4D4D4B",
"s;	c #545452",
"t;	c #585856",
"u;	c #5F5F5D",
"v;	c #8F8F8F",
"w;	c #686457",
"x;	c #2A2113",
"y;	c #2C2210",
"z;	c #2E230D",
"A;	c #8A692F",
"B;	c #8B6830",
"C;	c #896832",
"D;	c #8A6929",
"E;	c #8D682A",
"F;	c #8E6829",
"G;	c #826831",
"H;	c #A69677",
"I;	c #C7BEAC",
"J;	c #C4C4BC",
"K;	c #BEC5C2",
"L;	c #C0C6C2",
"M;	c #C4C3C0",
"N;	c #C3C4C2",
"O;	c #C3C4C4",
"P;	c #C3C4C6",
"Q;	c #C4C3C7",
"R;	c #C2C0C3",
"S;	c #C5C3C4",
"T;	c #C6C2C4",
"U;	c #C3C1C2",
"V;	c #C3C1C3",
"W;	c #C1C1C3",
"X;	c #C0C2C6",
"Y;	c #C4C5C9",
"Z;	c #C0C1C3",
"`;	c #C0C1C2",
" >	c #C4C5C6",
".>	c #C4C4C6",
"+>	c #C5C5C7",
"@>	c #C9C7CA",
"#>	c #777678",
"$>	c #464549",
"%>	c #464447",
"&>	c #474548",
"*>	c #474746",
"=>	c #444544",
"->	c #444343",
";>	c #434242",
">>	c #424041",
",>	c #403E3F",
"'>	c #3E3C3E",
")>	c #3C3B3C",
"!>	c #3B393A",
"~>	c #3A393A",
"{>	c #3A3839",
"]>	c #414040",
"^>	c #565654",
"/>	c #626261",
"(>	c #676765",
"_>	c #6B6B69",
":>	c #6D6D6B",
"<>	c #6C6C6A",
"[>	c #6D6D6C",
"}>	c #68645A",
"|>	c #2E2107",
"1>	c #594625",
"2>	c #806135",
"3>	c #8C6633",
"4>	c #8C6636",
"5>	c #8C6637",
"6>	c #8C6831",
"7>	c #8D6829",
"8>	c #8F6828",
"9>	c #8D6828",
"0>	c #836730",
"a>	c #A79577",
"b>	c #C9BDAC",
"c>	c #C6C3BC",
"d>	c #C0C4C3",
"e>	c #C2C5C4",
"f>	c #C4C4C1",
"g>	c #C4C3C2",
"h>	c #C3C3C4",
"i>	c #C1C2C6",
"j>	c #C2C2C6",
"k>	c #C3C0C2",
"l>	c #C7C4C4",
"m>	c #C7C3C3",
"n>	c #C6C3C2",
"o>	c #C7C4C3",
"p>	c #C8C5C6",
"q>	c #C3C0C0",
"r>	c #C6C2C3",
"s>	c #C6C3C4",
"t>	c #C5C2C3",
"u>	c #C3C0C1",
"v>	c #787476",
"w>	c #4B474B",
"x>	c #49474A",
"y>	c #4A4649",
"z>	c #484649",
"A>	c #454346",
"B>	c #444344",
"C>	c #434241",
"D>	c #41413E",
"E>	c #40403C",
"F>	c #3E3F3A",
"G>	c #3C3C38",
"H>	c #3B3A37",
"I>	c #3A3935",
"J>	c #393835",
"K>	c #383734",
"L>	c #363534",
"M>	c #353433",
"N>	c #343231",
"O>	c #333130",
"P>	c #343130",
"Q>	c #353233",
"R>	c #3E3E3C",
"S>	c #5A5A58",
"T>	c #6A6A68",
"U>	c #6F6F6D",
"V>	c #70706E",
"W>	c #686359",
"X>	c #302A1E",
"Y>	c #2C2111",
"Z>	c #2B2214",
"`>	c #5A4526",
" ,	c #826036",
".,	c #8D6535",
"+,	c #8E6437",
"@,	c #8E6637",
"#,	c #8E6730",
"$,	c #8E6827",
"%,	c #8E6826",
"&,	c #8F6826",
"*,	c #8E6927",
"=,	c #83672E",
"-,	c #C9BCAB",
";,	c #C7C2BC",
">,	c #C3C4C5",
",,	c #C2C3C7",
"',	c #C3C3C8",
"),	c #C6C4C6",
"!,	c #CAC6C7",
"~,	c #C7C1C1",
"{,	c #C6BFBD",
"],	c #C8C1BE",
"^,	c #C9C2BF",
"/,	c #C6C2BE",
"(,	c #C5C2BE",
"_,	c #C8C5C1",
":,	c #C5BFBC",
"<,	c #C6BFBB",
"[,	c #CAC3C0",
"},	c #C5C0BD",
"|,	c #C6C1BE",
"1,	c #7A7573",
"2,	c #4A4544",
"3,	c #45413F",
"4,	c #443F3F",
"5,	c #413D3D",
"6,	c #3F3B3C",
"7,	c #3D393A",
"8,	c #3A3738",
"9,	c #373535",
"0,	c #353331",
"a,	c #33322E",
"b,	c #32322D",
"c,	c #31312C",
"d,	c #312F2B",
"e,	c #312E2A",
"f,	c #312E29",
"g,	c #302E29",
"h,	c #302D29",
"i,	c #302D2A",
"j,	c #312D2A",
"k,	c #322E2B",
"l,	c #332E2C",
"m,	c #332F2D",
"n,	c #342F2F",
"o,	c #3F3D3B",
"p,	c #5D5D5B",
"q,	c #6E6E6C",
"r,	c #727271",
"s,	c #676258",
"t,	c #2C2112",
"u,	c #2D2111",
"v,	c #2F2008",
"w,	c #5B4527",
"x,	c #816136",
"y,	c #8E6634",
"z,	c #8F6535",
"A,	c #8E672E",
"B,	c #8D6827",
"C,	c #8D6928",
"D,	c #89692C",
"E,	c #816731",
"F,	c #A69478",
"G,	c #C9BCAC",
"H,	c #C4C2C4",
"I,	c #C1C2C7",
"J,	c #C2C1C5",
"K,	c #C6C0C0",
"L,	c #C8C0BE",
"M,	c #CAC1BC",
"N,	c #C7BEB8",
"O,	c #C4BBB4",
"P,	c #C7BFB7",
"Q,	c #CAC4BB",
"R,	c #CAC3BA",
"S,	c #CCC2BA",
"T,	c #C8BFB5",
"U,	c #C5BBB1",
"V,	c #B9AFA6",
"W,	c #AFA79E",
"X,	c #A59E95",
"Y,	c #9A938A",
"Z,	c #5F5851",
"`,	c #3C362E",
" '	c #38322B",
".'	c #36302B",
"+'	c #332E29",
"@'	c #302C29",
"#'	c #2E2B27",
"$'	c #2C2925",
"%'	c #2C2924",
"&'	c #2C2922",
"*'	c #2C2921",
"='	c #2D2A23",
"-'	c #2D2923",
";'	c #2E2924",
">'	c #2F2A26",
",'	c #302B27",
"''	c #312C28",
")'	c #322D29",
"!'	c #312C29",
"~'	c #3C3A37",
"{'	c #5E5D5A",
"]'	c #72726F",
"^'	c #757573",
"/'	c #302A1F",
"('	c #2C2012",
"_'	c #2D2113",
":'	c #2F2009",
"<'	c #594627",
"['	c #806333",
"}'	c #8C682F",
"|'	c #8D6730",
"1'	c #8C6730",
"2'	c #8C682B",
"3'	c #8B6926",
"4'	c #8A6927",
"5'	c #896928",
"6'	c #866A31",
"7'	c #7E6734",
"8'	c #A4947B",
"9'	c #C8BBAF",
"0'	c #C7C0BF",
"a'	c #C4C1C5",
"b'	c #C4C2C7",
"c'	c #C3C2C3",
"d'	c #C2C2C7",
"e'	c #C2C3C6",
"f'	c #C5C3C2",
"g'	c #C7C2BE",
"h'	c #B7B0A9",
"i'	c #ADA39B",
"j'	c #A4998E",
"k'	c #978C80",
"l'	c #93897D",
"m'	c #8E867A",
"n'	c #847D70",
"o'	c #83796C",
"p'	c #7C7264",
"q'	c #756C5F",
"r'	c #6E6457",
"s'	c #675F52",
"t'	c #61584A",
"u'	c #595243",
"v'	c #433B2B",
"w'	c #372F1F",
"x'	c #342C1D",
"y'	c #322B1D",
"z'	c #302A1D",
"A'	c #302B20",
"B'	c #302C21",
"C'	c #2F2B20",
"D'	c #2F2B21",
"E'	c #2E2B20",
"F'	c #2E2A20",
"G'	c #2F2B23",
"H'	c #2F2C23",
"I'	c #312C24",
"J'	c #332C25",
"K'	c #342D27",
"L'	c #342D28",
"M'	c #352E29",
"N'	c #362F2A",
"O'	c #383331",
"P'	c #302A20",
"Q'	c #2A2215",
"R'	c #2B2014",
"S'	c #2F220F",
"T'	c #2F200B",
"U'	c #584628",
"V'	c #7F6532",
"W'	c #896B2D",
"X'	c #896930",
"Y'	c #886931",
"Z'	c #866B2A",
"`'	c #856A2C",
" )	c #856A2F",
".)	c #856A33",
"+)	c #846936",
"@)	c #806A39",
"#)	c #79683C",
"$)	c #A1947F",
"%)	c #C5BBB2",
"&)	c #C5C1C0",
"*)	c #C3C1C5",
"=)	c #C5C4C8",
"-)	c #C8C7C8",
";)	c #C9C9CA",
">)	c #CBCBCE",
",)	c #CCCDD0",
"')	c #CFD0D3",
"))	c #D1D2D3",
"!)	c #D5D4D2",
"~)	c #D9D6D1",
"{)	c #D0CBC3",
"])	c #898278",
"^)	c #655C51",
"/)	c #615548",
"()	c #5B4F40",
"_)	c #554938",
":)	c #524734",
"<)	c #4D412B",
"[)	c #483B1F",
"})	c #46381A",
"|)	c #423417",
"1)	c #43351A",
"2)	c #44391E",
"3)	c #41361D",
"4)	c #443A22",
"5)	c #3D331E",
"6)	c #382F1B",
"7)	c #352D19",
"8)	c #322B19",
"9)	c #322C1B",
"0)	c #332D1C",
"a)	c #322D1C",
"b)	c #302C1C",
"c)	c #302D1E",
"d)	c #302C20",
"e)	c #312D21",
"f)	c #322E22",
"g)	c #332F24",
"h)	c #342F25",
"i)	c #342E24",
"j)	c #352E25",
"k)	c #362F27",
"l)	c #383128",
"m)	c #39322A",
"n)	c #3B342C",
"o)	c #3B352E",
"p)	c #3A3730",
"q)	c #69645F",
"r)	c #2F2922",
"s)	c #292016",
"t)	c #2A2116",
"u)	c #2C2316",
"v)	c #2C2213",
"w)	c #302414",
"x)	c #2D200E",
"y)	c #534428",
"z)	c #7A6535",
"A)	c #846C32",
"B)	c #846B35",
"C)	c #826936",
"D)	c #816933",
"E)	c #806A32",
"F)	c #806A38",
"G)	c #806B3E",
"H)	c #877149",
"I)	c #8B7853",
"J)	c #8F7F5B",
"K)	c #968A6B",
"L)	c #B3AA99",
"M)	c #CEC8C2",
"N)	c #D3D2D2",
"O)	c #D3D4D6",
"P)	c #D4D4D6",
"Q)	c #D7D6D6",
"R)	c #D7D8D9",
"S)	c #D7D9DB",
"T)	c #D9DAD9",
"U)	c #DBDAD6",
"V)	c #DFDCD4",
"W)	c #D4CEC3",
"X)	c #7B7265",
"Y)	c #433624",
"Z)	c #453621",
"`)	c #463820",
" !	c #46381E",
".!	c #47391F",
"+!	c #483818",
"@!	c #493918",
"#!	c #483919",
"$!	c #47391A",
"%!	c #463A1B",
"&!	c #46381C",
"*!	c #473C21",
"=!	c #43371E",
"-!	c #3D331B",
";!	c #372F18",
">!	c #352E18",
",!	c #352F1A",
"'!	c #352F1B",
")!	c #342F1C",
"!!	c #332E1E",
"~!	c #332E20",
"{!	c #342E21",
"]!	c #342F21",
"^!	c #353023",
"/!	c #373125",
"(!	c #383026",
"_!	c #393127",
":!	c #3A3228",
"<!	c #3C3429",
"[!	c #3D352C",
"}!	c #3E362D",
"|!	c #40382F",
"1!	c #403B32",
"2!	c #6B6762",
"3!	c #302924",
"4!	c #2A2119",
"5!	c #2C231A",
"6!	c #2C2318",
"7!	c #2B2217",
"8!	c #282115",
"9!	c #2A2317",
"0!	c #272113",
"a!	c #292113",
"b!	c #2A1E10",
"c!	c #534731",
"d!	c #7C6C44",
"e!	c #8A7849",
"f!	c #917F56",
"g!	c #9A8964",
"h!	c #A3936D",
"i!	c #AC9D78",
"j!	c #B4A586",
"k!	c #B9AA91",
"l!	c #BDAE98",
"m!	c #BFB29D",
"n!	c #BFB59E",
"o!	c #BFB9A3",
"p!	c #CCC9BD",
"q!	c #DAD8D5",
"r!	c #DADBDB",
"s!	c #D7DADA",
"t!	c #D8D9D9",
"u!	c #DBDBDA",
"v!	c #DADAD9",
"w!	c #D9DBDA",
"x!	c #DADBD8",
"y!	c #DBDAD5",
"z!	c #DFDBD2",
"A!	c #D4CEC0",
"B!	c #7D7564",
"C!	c #463A25",
"D!	c #483921",
"E!	c #493919",
"F!	c #4A3817",
"G!	c #4B3919",
"H!	c #473819",
"I!	c #493C20",
"J!	c #45391F",
"K!	c #40351C",
"L!	c #3B301B",
"M!	c #38301A",
"N!	c #38311C",
"O!	c #37301D",
"P!	c #37301E",
"Q!	c #363021",
"R!	c #363022",
"S!	c #373123",
"T!	c #383124",
"U!	c #3A3225",
"V!	c #3A3227",
"W!	c #3B3328",
"X!	c #3C3329",
"Y!	c #3D352A",
"Z!	c #3F362C",
"`!	c #40382D",
" ~	c #413930",
".~	c #413B33",
"+~	c #686760",
"@~	c #2E2824",
"#~	c #271F19",
"$~	c #29211A",
"%~	c #292219",
"&~	c #2B231A",
"*~	c #2A251A",
"=~	c #322E21",
"-~	c #383226",
";~	c #3D362B",
">~	c #433B31",
",~	c #786F60",
"'~	c #AEA38B",
")~	c #BCB095",
"!~	c #BFB29C",
"~~	c #C3B6A4",
"{~	c #C4B9A5",
"]~	c #C6BCA6",
"^~	c #C7BDAD",
"/~	c #C8BDB3",
"(~	c #C9BEB6",
"_~	c #C9C1B8",
":~	c #C8C3B6",
"<~	c #C6C4B6",
"[~	c #CECEC7",
"}~	c #D8D9D7",
"|~	c #D7DBD9",
"1~	c #D7DBD7",
"2~	c #D8DBD6",
"3~	c #DADBD7",
"4~	c #DADAD7",
"5~	c #D9DBD8",
"6~	c #D8DBD8",
"7~	c #DADBD6",
"8~	c #DBDAD4",
"9~	c #DFDBD1",
"0~	c #D5CDC0",
"a~	c #7F7563",
"b~	c #49391F",
"c~	c #49391B",
"d~	c #47371C",
"e~	c #493920",
"f~	c #4A3B23",
"g~	c #463924",
"h~	c #433622",
"i~	c #3F3321",
"j~	c #3C3220",
"k~	c #3A3120",
"l~	c #393021",
"m~	c #383022",
"n~	c #393124",
"o~	c #393224",
"p~	c #3A3325",
"q~	c #3B3326",
"r~	c #3C3427",
"s~	c #3D3528",
"t~	c #3D3529",
"u~	c #3E3529",
"v~	c #3F352A",
"w~	c #40372B",
"x~	c #42382D",
"y~	c #42392E",
"z~	c #423A31",
"A~	c #74716D",
"B~	c #3C3835",
"C~	c #393430",
"D~	c #3E3733",
"E~	c #3E3832",
"F~	c #423C36",
"G~	c #403D34",
"H~	c #444037",
"I~	c #434137",
"J~	c #454238",
"K~	c #464238",
"L~	c #4C463E",
"M~	c #868076",
"N~	c #C1B9AB",
"O~	c #CEC5B8",
"P~	c #CDC3BC",
"Q~	c #CDC2BF",
"R~	c #CAC3BD",
"S~	c #C9C3BB",
"T~	c #C8C1BF",
"U~	c #C7C0C3",
"V~	c #C7C1C5",
"W~	c #C7C3C4",
"X~	c #C6C5C0",
"Y~	c #C4C4BD",
"Z~	c #CBCDCA",
"`~	c #D4D7D7",
" {	c #D5DAD8",
".{	c #D7DBD6",
"+{	c #D9DBD5",
"@{	c #D9DAD8",
"#{	c #D8DAD7",
"${	c #7F7463",
"%{	c #483923",
"&{	c #4C371B",
"*{	c #4B371C",
"={	c #49371F",
"-{	c #48371F",
";{	c #493823",
">{	c #4B3B27",
",{	c #493A28",
"'{	c #423626",
"){	c #403527",
"!{	c #3D3226",
"~{	c #3A3025",
"{{	c #393026",
"]{	c #3B3228",
"^{	c #3E3629",
"/{	c #3F372A",
"({	c #3F362A",
"_{	c #40362A",
":{	c #41372B",
"<{	c #43392D",
"[{	c #433A2F",
"}{	c #433B33",
"|{	c #7B7A78",
"1{	c #484442",
"2{	c #474240",
"3{	c #4A4443",
"4{	c #494641",
"5{	c #46463E",
"6{	c #48473F",
"7{	c #484740",
"8{	c #46443D",
"9{	c #494541",
"0{	c #86827E",
"a{	c #BDB9B5",
"b{	c #C8C4C2",
"c{	c #C6C1C5",
"d{	c #C5BFC6",
"e{	c #C5C0C3",
"f{	c #C5C1C2",
"g{	c #C6C2C7",
"h{	c #C6C3CC",
"i{	c #C3C2CA",
"j{	c #C2C1C6",
"k{	c #C1C3BF",
"l{	c #CBCCCC",
"m{	c #D6D8DA",
"n{	c #D8DADA",
"o{	c #DADCD8",
"p{	c #DBDAD7",
"q{	c #DADAD8",
"r{	c #D8DAD8",
"s{	c #7E7563",
"t{	c #49391E",
"u{	c #483620",
"v{	c #493824",
"w{	c #4B3B28",
"x{	c #493A29",
"y{	c #463929",
"z{	c #443829",
"A{	c #43372A",
"B{	c #3F342A",
"C{	c #3B3128",
"D{	c #3D332A",
"E{	c #3C332A",
"F{	c #3C3328",
"G{	c #3C3428",
"H{	c #3E362A",
"I{	c #3F3629",
"J{	c #42392B",
"K{	c #453C2F",
"L{	c #443D32",
"M{	c #807F7F",
"N{	c #4C4A4A",
"O{	c #494546",
"P{	c #494445",
"Q{	c #474543",
"R{	c #484843",
"S{	c #464841",
"T{	c #464842",
"U{	c #454640",
"V{	c #484944",
"W{	c #444541",
"X{	c #464543",
"Y{	c #838182",
"Z{	c #BBBABB",
"`{	c #C4C1CA",
" ]	c #C2C0CB",
".]	c #C3C0C6",
"+]	c #C2C1C9",
"@]	c #C1C2C9",
"#]	c #C1C4C8",
"$]	c #C1C4C3",
"%]	c #C0C3C0",
"&]	c #CBCDCD",
"*]	c #D8D8DC",
"=]	c #DAD9DB",
"-]	c #DAD8D7",
";]	c #DAD9D6",
">]	c #DBDAD8",
",]	c #DAD9D9",
"']	c #D9D9DA",
")]	c #D4CEC1",
"!]	c #483924",
"~]	c #493822",
"{]	c #4B3C27",
"]]	c #473A29",
"^]	c #46392A",
"/]	c #45382B",
"(]	c #3D3328",
"_]	c #3C3228",
":]	c #3E342A",
"<]	c #3E342B",
"[]	c #3D342B",
"}]	c #3D352B",
"|]	c #3E352B",
"1]	c #3E362B",
"2]	c #3F372C",
"3]	c #3F362B",
"4]	c #3F3529",
"5]	c #42382B",
"6]	c #433A2B",
"7]	c #443B2C",
"8]	c #453D2F",
"9]	c #443E32",
"0]	c #4D4B4D",
"a]	c #494647",
"b]	c #464843",
"c]	c #454844",
"d]	c #424641",
"e]	c #474A47",
"f]	c #444746",
"g]	c #444648",
"h]	c #828285",
"i]	c #B9BABB",
"j]	c #C2C2C8",
"k]	c #C2C2C9",
"l]	c #C0C4C4",
"m]	c #C0C5C3",
"n]	c #C1C5C0",
"o]	c #C0C3BE",
"p]	c #CCCDCD",
"q]	c #DAD8DD",
"r]	c #DCD8DD",
"s]	c #DCD7D9",
"t]	c #DCD8D8",
"u]	c #DBD9D9",
"v]	c #DAD8D9",
"w]	c #D9D9DB",
"x]	c #D9D9DC",
"y]	c #D8D9DC",
"z]	c #DFDBD4",
"A]	c #D4CDC2",
"B]	c #7D7465",
"C]	c #483925",
"D]	c #47381D",
"E]	c #4B3D25",
"F]	c #493C25",
"G]	c #473B26",
"H]	c #473B28",
"I]	c #463B2A",
"J]	c #443A2A",
"K]	c #403728",
"L]	c #3E3527",
"M]	c #3E352C",
"N]	c #3F362D",
"O]	c #40382C",
"P]	c #40372A",
"Q]	c #453C2D",
"R]	c #453D2E",
"S]	c #453E32",
"T]	c #4C4B4D",
"U]	c #484648",
"V]	c #474647",
"W]	c #464545",
"X]	c #464845",
"Y]	c #444945",
"Z]	c #404542",
"`]	c #454948",
" ^	c #434748",
".^	c #808385",
"+^	c #B8BBBA",
"@^	c #C1C2C5",
"#^	c #C2C3C0",
"$^	c #C3C4BD",
"%^	c #C3C5BE",
"&^	c #C2C5BF",
"*^	c #C1C4BF",
"=^	c #C1C5BE",
"-^	c #C1C3BD",
";^	c #CDCCCC",
">^	c #DAD7DC",
",^	c #DDD8DD",
"'^	c #DED8DB",
")^	c #DDD8DA",
"!^	c #DBD8D9",
"~^	c #DAD8DA",
"{^	c #DFDBD6",
"]^	c #D4CDC4",
"^^	c #7D7466",
"/^	c #483926",
"(^	c #493817",
"_^	c #483819",
":^	c #47381A",
"<^	c #4A3A1E",
"[^	c #4C3D23",
"}^	c #493C24",
"|^	c #483C25",
"1^	c #473C27",
"2^	c #483D29",
"3^	c #463D2A",
"4^	c #423A28",
"5^	c #403727",
"6^	c #3F3627",
"7^	c #3E362C",
"8^	c #40382B",
"9^	c #41392B",
"0^	c #443C2E",
"a^	c #4B4A4C",
"b^	c #464546",
"c^	c #474847",
"d^	c #454846",
"e^	c #434645",
"f^	c #444747",
"g^	c #7F8282",
"h^	c #B9BABA",
"i^	c #C4C5C5",
"j^	c #C3C3BF",
"k^	c #C2C3BF",
"l^	c #CCCCCB",
"m^	c #D9D7D9",
"n^	c #DBD7DB",
"o^	c #DCD8DA",
"p^	c #DBD8DA",
"q^	c #DAD9DA",
"r^	c #DEDAD6",
"s^	c #7E7567",
"t^	c #473A25",
"u^	c #493818",
"v^	c #493D25",
"w^	c #493C27",
"x^	c #473C29",
"y^	c #483C2A",
"z^	c #473C2B",
"A^	c #453B2A",
"B^	c #423928",
"C^	c #3F372D",
"D^	c #40372C",
"E^	c #41382B",
"F^	c #43392C",
"G^	c #453A2D",
"H^	c #463B2D",
"I^	c #473C2D",
"J^	c #463C2F",
"K^	c #443D33",
"L^	c #464746",
"M^	c #C4C4C3",
"N^	c #C2C2C1",
"O^	c #C2C1C1",
"P^	c #D7DAD9",
"Q^	c #DED9D7",
"R^	c #D3CCC4",
"S^	c #7F7667",
"T^	c #473B22",
"U^	c #4A371A",
"V^	c #4B371B",
"W^	c #4B3A1C",
"X^	c #48381B",
"Y^	c #47371D",
"Z^	c #4C3D25",
"`^	c #4B3D27",
" /	c #493C2A",
"./	c #483C2B",
"+/	c #473C2C",
"@/	c #473B2C",
"#/	c #463A2B",
"$/	c #433929",
"%/	c #413828",
"&/	c #3F392D",
"*/	c #3F382D",
"=/	c #40362B",
"-/	c #45392D",
";/	c #473B2D",
">/	c #483C2E",
",/	c #483C30",
"'/	c #453D33",
")/	c #C2C2C3",
"!/	c #D9D9D8",
"~/	c #D7DAD8",
"{/	c #7F7665",
"]/	c #473B21",
"^/	c #483A18",
"//	c #4A361B",
"(/	c #48371B",
"_/	c #4C3D26",
":/	c #4C3D28",
"</	c #4A3D2B",
"[/	c #483C2C",
"}/	c #423929",
"|/	c #41382A",
"1/	c #3F382C",
"2/	c #3F372B",
"3/	c #44392D",
"4/	c #463A2E",
"5/	c #463A2D",
"6/	c #483B2F",
"7/	c #453C33",
"8/	c #D3CCC3",
"9/	c #7E7565",
"0/	c #463A21",
"a/	c #473A18",
"b/	c #48381E",
"c/	c #4D3E26",
"d/	c #4D3E28",
"e/	c #4B3D2C",
"f/	c #493D2D",
"g/	c #483C2F",
"h/	c #453B2B",
"i/	c #433A2A",
"j/	c #42382C",
"k/	c #453B33",
"l/	c #DED9D6",
"m/	c #D2CBC3",
"n/	c #49361A",
"o/	c #4D3E27",
"p/	c #4E3F29",
"q/	c #4C3E2C",
"r/	c #4A3D2D",
"s/	c #493D2E",
"t/	c #493D2F",
"u/	c #463C2C",
"v/	c #443B2B",
"w/	c #423A2C",
"x/	c #41392C",
"y/	c #453A2E",
"z/	c #483B30",
"A/	c #483719",
"B/	c #4E3F27",
"C/	c #4E3F2A",
"D/	c #453C2B",
"E/	c #433A2C",
"F/	c #43382C",
"G/	c #473B2E",
"H/	c #453B32",
"I/	c #49381E",
"J/	c #473D2D",
"K/	c #443B2D",
"L/	c #42392D",
"M/	c #41382C",
"N/	c #453B31",
"O/	c #7F7666",
"P/	c #483B19",
"Q/	c #4A371B",
"R/	c #4E3F28",
"S/	c #453B2D",
"T/	c #443A2E",
"U/	c #44392C",
"V/	c #463A2C",
"W/	c #473C2F",
"X/	c #483A19",
"Y/	c #49371A",
"Z/	c #4C3F2D",
"`/	c #4A3E2D",
" (	c #453C2C",
".(	c #42372B",
"+(	c #43382B",
"@(	c #453A2C",
"#(	c #453D31",
"$(	c #4B371E",
"%(	c #4C3E2D",
"&(	c #4A3E2E",
"*(	c #43392A",
"=(	c #45392B",
"-(	c #453D32",
";(	c #493D2C",
">(	c #453B2C",
",(	c #453A2B",
"'(	c #473C30",
")(	c #443E33",
"!(	c #4A3C2A",
"~(	c #483C2D",
"{(	c #463A2A",
"](	c #473B2B",
"^(	c #463C30",
"/(	c #473C22",
"((	c #4A3C2B",
"_(	c #45392C",
":(	c #473B30",
"<(	c #463C31",
"[(	c #493C2C",
"}(	c #463B2F",
"|(	c #453C30",
"1(	c #807767",
"2(	c #443B2A",
"3(	c #CBCBCC",
"4(	c #D6DAD9",
"5(	c #4A3B26",
"6(	c #483B28",
"7(	c #443A29",
"8(	c #483B2B",
"9(	c #493B2B",
"0(	c #493C2B",
"a(	c #473A2A",
"b(	c #453B30",
"c(	c #C3C2C5",
"d(	c #CCCCCD",
"e(	c #D7D7D8",
"f(	c #D8D9DB",
"g(	c #D6DAD8",
"h(	c #DEDAD7",
"i(	c #D3CDC4",
"j(	c #807769",
"k(	c #473C23",
"l(	c #473A19",
"m(	c #483A17",
"n(	c #4A3719",
"o(	c #493819",
"p(	c #493A24",
"q(	c #473926",
"r(	c #453928",
"s(	c #453929",
"t(	c #463927",
"u(	c #483A28",
"v(	c #493B29",
"w(	c #4A3B2A",
"x(	c #483B2A",
"y(	c #463A29",
"z(	c #463A2F",
"A(	c #B8B8BA",
"B(	c #C3C2C0",
"C(	c #C2C0C4",
"D(	c #C3C1C6",
"E(	c #CDCCD0",
"F(	c #D8D8D9",
"G(	c #D8D8D7",
"H(	c #D8D7DC",
"I(	c #D8DADB",
"J(	c #D6D9D9",
"K(	c #DDDBD8",
"L(	c #D2CCC6",
"M(	c #7E7669",
"N(	c #473C24",
"O(	c #483B1A",
"P(	c #463815",
"Q(	c #483718",
"R(	c #473716",
"S(	c #4B3B1A",
"T(	c #463617",
"U(	c #4B3C22",
"V(	c #4A3B24",
"W(	c #473925",
"X(	c #453927",
"Y(	c #443927",
"Z(	c #473826",
"`(	c #473824",
" _	c #483823",
"._	c #4A3A23",
"+_	c #4B3B24",
"@_	c #4C3C25",
"#_	c #4A3B25",
"$_	c #4B3D29",
"%_	c #4B3E2C",
"&_	c #463928",
"*_	c #483A2B",
"=_	c #B9B9BA",
"-_	c #C5C3C7",
";_	c #CCCBCE",
">_	c #D9D8DA",
",_	c #DAD9DE",
"'_	c #DADBDD",
")_	c #DADCDA",
"!_	c #D8DCD8",
"~_	c #D7DAD7",
"{_	c #DBD8D5",
"]_	c #D0C9C2",
"^_	c #463916",
"/_	c #483914",
"(_	c #4D3D19",
"__	c #4D3B19",
":_	c #483816",
"<_	c #4C3B19",
"[_	c #4A3715",
"}_	c #4F3C1A",
"|_	c #4C3B1A",
"1_	c #4E3D1F",
"2_	c #4E3E23",
"3_	c #473A23",
"4_	c #463925",
"5_	c #463825",
"6_	c #473825",
"7_	c #4A3822",
"8_	c #4A3821",
"9_	c #4B3B20",
"0_	c #4B3B21",
"a_	c #4B3B22",
"b_	c #493A22",
"c_	c #4D3E29",
"d_	c #4F412E",
"e_	c #4A3D2C",
"f_	c #4B3E2D",
"g_	c #4B3D2E",
"h_	c #4B3D2D",
"i_	c #4A3F2F",
"j_	c #B8B8B9",
"k_	c #C2C0C2",
"l_	c #C1BFC2",
"m_	c #CECCCD",
"n_	c #D9D8D7",
"o_	c #DAD8D6",
"p_	c #DCD9DA",
"q_	c #DBD9D8",
"r_	c #DADAD5",
"s_	c #D9DAD4",
"t_	c #D8D9D3",
"u_	c #D8D7D2",
"v_	c #DBD6D0",
"w_	c #D0C7BD",
"x_	c #817664",
"y_	c #4C3E23",
"z_	c #4D3B14",
"A_	c #4B3811",
"B_	c #523E1B",
"C_	c #503C18",
"D_	c #523F1A",
"E_	c #503C17",
"F_	c #523E18",
"G_	c #54401C",
"H_	c #54401D",
"I_	c #544121",
"J_	c #4E3D1E",
"K_	c #4A3A1F",
"L_	c #493A21",
"M_	c #483922",
"N_	c #493922",
"O_	c #4B391E",
"P_	c #493A1F",
"Q_	c #483820",
"R_	c #50422F",
"S_	c #4E4130",
"T_	c #4E4131",
"U_	c #4D4030",
"V_	c #4F4131",
"W_	c #504030",
"X_	c #514131",
"Y_	c #4D402F",
"Z_	c #4D4437",
"`_	c #494034",
" :	c #4A4137",
".:	c #4A4138",
"+:	c #484035",
"@:	c #463F34",
"#:	c #4C4339",
"$:	c #4E4539",
"%:	c #4E463C",
"&:	c #4C443A",
"*:	c #50483D",
"=:	c #544D44",
"-:	c #544E47",
";:	c #C3C2C2",
">:	c #C2C1C2",
",:	c #C5C3C5",
"':	c #C6C3C6",
"):	c #C2BFC1",
"!:	c #CBC9C8",
"~:	c #D3D2CF",
"{:	c #D2D1CC",
"]:	c #D5D3CE",
"^:	c #D6D2CE",
"/:	c #D6D1CE",
"(:	c #D7D3CF",
"_:	c #D7D5CD",
"::	c #D6D6CC",
"<:	c #D2D2C8",
"[:	c #CBCAC2",
"}:	c #C1BAB1",
"|:	c #B3A89C",
"1:	c #766854",
"2:	c #514021",
"3:	c #54411B",
"4:	c #5B481D",
"5:	c #5D481D",
"6:	c #5F4721",
"7:	c #614A25",
"8:	c #614B24",
"9:	c #644D26",
"0:	c #664F26",
"a:	c #674F29",
"b:	c #67502B",
"c:	c #644F2B",
"d:	c #564322",
"e:	c #4C3A1C",
"f:	c #49381F",
"g:	c #4A371E",
"h:	c #4B371A",
"i:	c #4A381C",
"j:	c #493A1D",
"k:	c #47371F",
"l:	c #50422E",
"m:	c #4E412F",
"n:	c #4F4231",
"o:	c #504231",
"p:	c #524232",
"q:	c #534333",
"r:	c #524332",
"s:	c #4C4030",
"t:	c #4C4032",
"u:	c #4C4234",
"v:	c #4E4438",
"w:	c #4B4135",
"x:	c #4E4437",
"y:	c #4E4234",
"z:	c #514436",
"A:	c #4F4335",
"B:	c #4E4337",
"C:	c #4B4338",
"D:	c #4D463D",
"E:	c #635C57",
"F:	c #B7B8BA",
"G:	c #C1C3C3",
"H:	c #C2C3C1",
"I:	c #C2C2C0",
"J:	c #C9C5C6",
"K:	c #C4C0C0",
"L:	c #B4B0AD",
"M:	c #A8A59F",
"N:	c #96938B",
"O:	c #87827B",
"P:	c #7F7873",
"Q:	c #746D67",
"R:	c #666158",
"S:	c #59564C",
"T:	c #504D44",
"U:	c #46403A",
"V:	c #453D36",
"W:	c #514127",
"X:	c #614F2A",
"Y:	c #675227",
"Z:	c #695027",
"`:	c #664D25",
" <	c #674E25",
".<	c #684F26",
"+<	c #684F27",
"@<	c #695028",
"#<	c #654D27",
"$<	c #553E1B",
"%<	c #4B3718",
"&<	c #4B3617",
"*<	c #48391B",
"=<	c #4F412D",
"-<	c #4D402D",
";<	c #514231",
"><	c #524330",
",<	c #534431",
"'<	c #544532",
")<	c #50412F",
"!<	c #4F4232",
"~<	c #504235",
"{<	c #4B3F2F",
"]<	c #4C3F2F",
"^<	c #52483D",
"/<	c #655D54",
"(<	c #BABBBD",
"_<	c #C1C0C0",
":<	c #C2C0C1",
"<<	c #C6C2C2",
"[<	c #9B9796",
"}<	c #423F3A",
"|<	c #3D3A34",
"1<	c #38342C",
"2<	c #332B25",
"3<	c #312920",
"4<	c #2E271B",
"5<	c #2C2717",
"6<	c #2C2617",
"7<	c #2B2517",
"8<	c #2D2316",
"9<	c #2D2112",
"0<	c #362712",
"a<	c #534125",
"b<	c #67512B",
"c<	c #664F22",
"d<	c #6B5022",
"e<	c #674B21",
"f<	c #6A4F26",
"g<	c #694E23",
"h<	c #684D23",
"i<	c #563F1A",
"j<	c #4C3816",
"k<	c #4A3717",
"l<	c #4A3718",
"m<	c #4B3716",
"n<	c #493716",
"o<	c #473818",
"p<	c #47381E",
"q<	c #4C3E26",
"r<	c #50422B",
"s<	c #4D402C",
"t<	c #4E412E",
"u<	c #4E402F",
"v<	c #50412E",
"w<	c #51422F",
"x<	c #51422E",
"y<	c #51422D",
"z<	c #51402C",
"A<	c #52412F",
"B<	c #4E3E2E",
"C<	c #514333",
"D<	c #514332",
"E<	c #524230",
"F<	c #52422F",
"G<	c #4E3D2B",
"H<	c #564636",
"I<	c #4E4031",
"J<	c #4D4234",
"K<	c #61584D",
"L<	c #CFCFCF",
"M<	c #C5C6C7",
"N<	c #C2C4C1",
"O<	c #C4C1C1",
"P<	c #CAC6C4",
"Q<	c #9E9A97",
"R<	c #2C261D",
"S<	c #292319",
"T<	c #292317",
"U<	c #2C2118",
"V<	c #2B2216",
"W<	c #292210",
"X<	c #282110",
"Y<	c #2A2011",
"Z<	c #2D1F0E",
"`<	c #372510",
" [	c #533F21",
".[	c #664E28",
"+[	c #654D1F",
"@[	c #684C1C",
"#[	c #6F5327",
"$[	c #6A4D22",
"%[	c #694D21",
"&[	c #6A4D21",
"*[	c #6B4F25",
"=[	c #57411A",
"-[	c #4B3717",
";[	c #48381A",
">[	c #51422C",
",[	c #50412C",
"'[	c #52422D",
")[	c #53422E",
"![	c #54432F",
"~[	c #52422E",
"{[	c #4E3F2C",
"][	c #4F402D",
"^[	c #554430",
"/[	c #52412D",
"([	c #503F2C",
"_[	c #4D3E2B",
":[	c #665B50",
"<[	c #DEDEDE",
"[[	c #C4C5C7",
"}[	c #C5C4C3",
"|[	c #C6C3C1",
"1[	c #C7C2BF",
"2[	c #9B9691",
"3[	c #362E25",
"4[	c #251D12",
"5[	c #2E2419",
"6[	c #2A2016",
"7[	c #2B2215",
"8[	c #2C2513",
"9[	c #2B2411",
"0[	c #2A2211",
"a[	c #2E2010",
"b[	c #382610",
"c[	c #564122",
"d[	c #674F28",
"e[	c #6D5323",
"f[	c #6A4E20",
"g[	c #6F5226",
"h[	c #57401A",
"i[	c #4A3917",
"j[	c #4A3716",
"k[	c #46381D",
"l[	c #4C3E25",
"m[	c #51422B",
"n[	c #51432F",
"o[	c #504330",
"p[	c #514330",
"q[	c #52432F",
"r[	c #52432E",
"s[	c #52412B",
"t[	c #54442E",
"u[	c #51412D",
"v[	c #50412D",
"w[	c #554633",
"x[	c #50402B",
"y[	c #53422C",
"z[	c #514434",
"A[	c #504436",
"B[	c #645950",
"C[	c #C1C3C1",
"D[	c #C1C3C0",
"E[	c #C2C1BF",
"F[	c #C4C2BF",
"G[	c #C8C3BF",
"H[	c #9B9690",
"I[	c #322A1E",
"J[	c #292114",
"K[	c #2A2312",
"L[	c #292411",
"M[	c #2D2010",
"N[	c #382710",
"O[	c #544020",
"P[	c #665028",
"Q[	c #6B4E24",
"R[	c #6B5024",
"S[	c #675027",
"T[	c #56411B",
"U[	c #48391A",
"V[	c #4D3E25",
"W[	c #52422B",
"X[	c #514230",
"Y[	c #4F422F",
"Z[	c #4F402E",
"`[	c #685F53",
" }	c #C4C1BF",
".}	c #32281C",
"+}	c #2B2114",
"@}	c #534020",
"#}	c #685123",
"$}	c #6B5023",
"%}	c #695026",
"&}	c #55401B",
"*}	c #47391C",
"=}	c #4E3E25",
"-}	c #52432C",
";}	c #4E4232",
">}	c #696056",
",}	c #2B2117",
"'}	c #372711",
")}	c #524022",
"!}	c #66502A",
"~}	c #694F20",
"{}	c #6A4E25",
"]}	c #684E25",
"^}	c #55401C",
"/}	c #47391D",
"(}	c #49381B",
"_}	c #4A391D",
":}	c #4E4331",
"<}	c #4E4233",
"[}	c #4D4337",
"}}	c #685F56",
"|}	c #C8C4BF",
"1}	c #31291C",
"2}	c #685125",
"3}	c #694E21",
"4}	c #48371D",
"5}	c #4D3D25",
"6}	c #53432C",
"7}	c #4E432F",
"8}	c #4F432D",
"9}	c #4F4334",
"0}	c #4D4339",
"a}	c #C5C4C5",
"b}	c #C8C4C0",
"c}	c #9B9692",
"d}	c #31291E",
"e}	c #372612",
"f}	c #533F22",
"g}	c #694E22",
"h}	c #694E24",
"i}	c #664E27",
"j}	c #534230",
"k}	c #53422F",
"l}	c #52432D",
"m}	c #4F4230",
"n}	c #4F4333",
"o}	c #685E55",
"p}	c #C6C4C5",
"q}	c #C8C4C1",
"r}	c #382611",
"s}	c #695125",
"t}	c #6A5025",
"u}	c #56401B",
"v}	c #4D3D26",
"w}	c #53442D",
"x}	c #52412E",
"y}	c #4F442E",
"z}	c #50442E",
"A}	c #50442C",
"B}	c #504333",
"C}	c #695E55",
"D}	c #C1C2C3",
"E}	c #C3C1C1",
"F}	c #9B9693",
"G}	c #2C2214",
"H}	c #2C2114",
"I}	c #2A2310",
"J}	c #2B2312",
"K}	c #302010",
"L}	c #543F22",
"M}	c #674F2A",
"N}	c #694E20",
"O}	c #6C4D24",
"P}	c #6A4E22",
"Q}	c #4D371A",
"R}	c #4E3719",
"S}	c #4D391B",
"T}	c #48371E",
"U}	c #53442E",
"V}	c #524331",
"W}	c #524231",
"X}	c #54422E",
"Y}	c #52442B",
"Z}	c #53432A",
"`}	c #53432B",
" |	c #514433",
".|	c #504437",
"+|	c #C7C4C2",
"@|	c #9A9693",
"#|	c #2D2114",
"$|	c #2B2310",
"%|	c #2E2113",
"&|	c #301F10",
"*|	c #392611",
"=|	c #6C5023",
"-|	c #58401A",
";|	c #4F3815",
">|	c #4D3719",
",|	c #49371B",
"'|	c #534331",
")|	c #53412E",
"!|	c #51432E",
"~|	c #C7C5C2",
"{|	c #9B9893",
"]|	c #2D2115",
"^|	c #2C2113",
"/|	c #2C2212",
"(|	c #2F2010",
"_|	c #664F2A",
":|	c #694F23",
"<|	c #684F23",
"[|	c #695126",
"}|	c #57401B",
"||	c #4E3916",
"1|	c #4E3E26",
"2|	c #53412D",
"3|	c #696052",
"4|	c #382612",
"5|	c #674F25",
"6|	c #685127",
"7|	c #654F28",
"8|	c #563F1C",
"9|	c #54442D",
"0|	c #53412C",
"a|	c #53432F",
"b|	c #504435",
"c|	c #685F51",
"d|	c #312B1F",
"e|	c #664F24",
"f|	c #47381C",
"g|	c #53452C",
"h|	c #52412C",
"i|	c #52402C",
"j|	c #51402D",
"k|	c #51412E",
"l|	c #514130",
"m|	c #544330",
"n|	c #504434",
"o|	c #685E52",
"p|	c #674F23",
"q|	c #654F26",
"r|	c #483817",
"s|	c #4D3F25",
"t|	c #51412F",
"u|	c #544331",
"v|	c #4F4536",
"w|	c #675E53",
"x|	c #54401A",
"y|	c #50432B",
"z|	c #50432C",
"A|	c #51442E",
"B|	c #504232",
"C|	c #4E4536",
"D|	c #686053",
"E|	c #6A4F25",
"F|	c #6A4E21",
"G|	c #52452C",
"H|	c #4F442C",
"I|	c #4F432F",
"J|	c #504332",
"K|	c #504130",
"L|	c #696155",
"M|	c #2D2214",
"N|	c #6B4E21",
"O|	c #684F22",
"P|	c #52452D",
"Q|	c #4F432E",
"R|	c #504230",
"S|	c #4F4637",
"T|	c #686054",
"U|	c #C8C6C2",
"V|	c #312B20",
"W|	c #2D2314",
"X|	c #2E2214",
"Y|	c #6A4E1F",
"Z|	c #684F21",
"`|	c #53452E",
" 1	c #50432F",
".1	c #4D4131",
"+1	c #514232",
"@1	c #524333",
"#1	c #696054",
"$1	c #9C9994",
"%1	c #694E1F",
"&1	c #694D1E",
"*1	c #674F21",
"=1	c #675024",
"-1	c #664F25",
";1	c #55411B",
">1	c #46361E",
",1	c #4F4132",
"'1	c #4F4233",
")1	c #4F3F2F",
"!1	c #4E4334",
"~1	c #4E4637",
"{1	c #686155",
"]1	c #C8C5C2",
"^1	c #322C20",
"/1	c #2B2112",
"(1	c #6B4F24",
"_1	c #654F25",
":1	c #55401A",
"<1	c #4C3716",
"[1	c #473617",
"}1	c #47361A",
"|1	c #4F3F2A",
"11	c #50402F",
"21	c #504131",
"31	c #4D4032",
"41	c #4E4032",
"51	c #4F4133",
"61	c #4F4130",
"71	c #4C4131",
"81	c #4D4536",
"91	c #676054",
"01	c #C1C1BF",
"a1	c #322D21",
"b1	c #372511",
"c1	c #553F19",
"d1	c #4C3714",
"e1	c #4A371C",
"f1	c #4A3921",
"g1	c #503F2A",
"h1	c #504132",
"i1	c #4E3F33",
"j1	c #4E4132",
"k1	c #4F4031",
"l1	c #4F4030",
"m1	c #4D4130",
"n1	c #564735",
"o1	c #665E52",
"p1	c #332D21",
"q1	c #362511",
"r1	c #533E21",
"s1	c #6B4F26",
"t1	c #6B5224",
"u1	c #665027",
"v1	c #564019",
"w1	c #4A3518",
"x1	c #49351A",
"y1	c #49361E",
"z1	c #503D28",
"A1	c #53422D",
"B1	c #504031",
"C1	c #4D4031",
"D1	c #4E4030",
"E1	c #4F3E2D",
"F1	c #50402E",
"G1	c #4D3E2C",
"H1	c #4F4537",
"I1	c #322C21",
"J1	c #6B4F27",
"K1	c #664F21",
"L1	c #644D21",
"M1	c #655026",
"N1	c #543F19",
"O1	c #4B3816",
"P1	c #4D3718",
"Q1	c #4B3719",
"R1	c #513F26",
"S1	c #54432C",
"T1	c #4F3F2D",
"U1	c #4D3E2E",
"V1	c #4C3E2E",
"W1	c #4D3F2E",
"X1	c #4D3F2D",
"Y1	c #4E3E2D",
"Z1	c #4E3E2C",
"`1	c #4E3D2A",
" 2	c #4C3F2E",
".2	c #4B3F2E",
"+2	c #4E3F2F",
"@2	c #50402D",
"#2	c #4B3E2E",
"$2	c #514839",
"%2	c #696154",
"&2	c #2A2115",
"*2	c #664F23",
"=2	c #665023",
"-2	c #685328",
";2	c #655027",
">2	c #533F19",
",2	c #4E3817",
"'2	c #4E3918",
")2	c #503E23",
"!2	c #534228",
"~2	c #4E3D27",
"{2	c #4E3E28",
"]2	c #4D3D2B",
"^2	c #4D3E2A",
"/2	c #4D3D29",
"(2	c #4E3D29",
"_2	c #4F3E2A",
":2	c #4E3F2D",
"<2	c #513F2C",
"[2	c #4F3F2E",
"}2	c #544A3A",
"|2	c #665E50",
"12	c #C1C1C0",
"22	c #C1C0BE",
"32	c #C7C5C1",
"42	c #372611",
"52	c #675023",
"62	c #684D1E",
"72	c #694E25",
"82	c #684F24",
"92	c #674F24",
"02	c #665126",
"a2	c #635026",
"b2	c #4C3616",
"c2	c #4C3615",
"d2	c #4C3611",
"e2	c #4C3612",
"f2	c #4B3714",
"g2	c #4A3616",
"h2	c #4E3B1D",
"i2	c #513E23",
"j2	c #4F3E25",
"k2	c #504028",
"l2	c #4F3F28",
"m2	c #4D3D28",
"n2	c #4D3C27",
"o2	c #4D3C28",
"p2	c #4D3C2A",
"q2	c #503F2B",
"r2	c #524534",
"s2	c #514535",
"t2	c #C0C0BE",
"u2	c #C6C5C1",
"v2	c #9B9994",
"w2	c #312B21",
"x2	c #2A2216",
"y2	c #2C2115",
"z2	c #2C2116",
"A2	c #2A2314",
"B2	c #2E2011",
"C2	c #362713",
"D2	c #534025",
"E2	c #65502C",
"F2	c #674E22",
"G2	c #684E28",
"H2	c #654E27",
"I2	c #634D26",
"J2	c #624C23",
"K2	c #634E24",
"L2	c #604C21",
"M2	c #5E4B21",
"N2	c #604C24",
"O2	c #56421C",
"P2	c #533E19",
"Q2	c #543F1A",
"R2	c #553F1C",
"S2	c #57411E",
"T2	c #5A4220",
"U2	c #5B4421",
"V2	c #5D4522",
"W2	c #5E4721",
"X2	c #604A21",
"Y2	c #5F4920",
"Z2	c #5F4921",
"`2	c #644E28",
" 3	c #614D29",
".3	c #5A4724",
"+3	c #524020",
"@3	c #4F3E22",
"#3	c #504026",
"$3	c #4E3D25",
"%3	c #4C3C24",
"&3	c #4C3B23",
"*3	c #4B3923",
"=3	c #4A3924",
"-3	c #4A3927",
";3	c #4D3D2A",
">3	c #51402F",
",3	c #534332",
"'3	c #544430",
")3	c #544432",
"!3	c #524433",
"~3	c #62584B",
"{3	c #554C3E",
"]3	c #C7C7C8",
"^3	c #BBBABA",
"/3	c #BCBBB9",
"(3	c #91908D",
"_3	c #312E28",
":3	c #27211A",
"<3	c #272018",
"[3	c #272118",
"}3	c #272117",
"|3	c #272116",
"13	c #262115",
"23	c #262116",
"33	c #262118",
"43	c #272017",
"53	c #291E13",
"63	c #2F2414",
"73	c #453721",
"83	c #544326",
"93	c #554322",
"03	c #55421E",
"a3	c #57421F",
"b3	c #564121",
"c3	c #554123",
"d3	c #513F20",
"e3	c #4F3D1E",
"f3	c #4E3C1C",
"g3	c #4D3D1C",
"h3	c #604C25",
"i3	c #6D562A",
"j3	c #725929",
"k3	c #75592A",
"l3	c #765A2C",
"m3	c #785B30",
"n3	c #795D32",
"o3	c #7A5F31",
"p3	c #7B602F",
"q3	c #7C6230",
"r3	c #7C612F",
"s3	c #7C6130",
"t3	c #7E6535",
"u3	c #7C6437",
"v3	c #6A552C",
"w3	c #543F1C",
"x3	c #4C3B1F",
"y3	c #4B3A20",
"z3	c #4A3A20",
"A3	c #4A3A1D",
"B3	c #49371E",
"C3	c #483721",
"D3	c #4C3B26",
"E3	c #554532",
"F3	c #564633",
"G3	c #564532",
"H3	c #554431",
"I3	c #574634",
"J3	c #554534",
"K3	c #524535",
"L3	c #4F4434",
"M3	c #4D4236",
"N3	c #4E4336",
"O3	c #4E4435",
"P3	c #504536",
"Q3	c #504537",
"R3	c #514538",
"S3	c #514539",
"T3	c #514438",
"U3	c #514437",
"V3	c #544739",
"W3	c #52483A",
"X3	c #50483C",
"Y3	c #50473C",
"Z3	c #8E8E8D",
"`3	c #6E6E6D",
" 4	c #333331",
".4	c #272624",
"+4	c #252321",
"@4	c #24221E",
"#4	c #25231D",
"$4	c #26241D",
"%4	c #23211D",
"&4	c #25231F",
"*4	c #27221E",
"=4	c #26211A",
"-4	c #282217",
";4	c #2C2517",
">4	c #302615",
",4	c #302611",
"'4	c #30220C",
")4	c #30210C",
"!4	c #2E210D",
"~4	c #2A1F0B",
"{4	c #2C220F",
"]4	c #2A200D",
"^4	c #2C210F",
"/4	c #2E1F0A",
"(4	c #342105",
"_4	c #6C562F",
":4	c #816835",
"<4	c #876A2F",
"[4	c #89682E",
"}4	c #8A672F",
"|4	c #8A6733",
"14	c #896734",
"24	c #886930",
"34	c #87692D",
"44	c #87682D",
"54	c #88672E",
"64	c #87682E",
"74	c #85682E",
"84	c #846A33",
"94	c #6F5828",
"04	c #523B14",
"a4	c #483918",
"b4	c #48361D",
"c4	c #56442F",
"d4	c #55442F",
"e4	c #564531",
"f4	c #574532",
"g4	c #564533",
"h4	c #554432",
"i4	c #544531",
"j4	c #534533",
"k4	c #524335",
"l4	c #524434",
"m4	c #534531",
"n4	c #544730",
"o4	c #544631",
"p4	c #554435",
"q4	c #564435",
"r4	c #564433",
"s4	c #554631",
"t4	c #514632",
"u4	c #4E4535",
"v4	c #2C2C2C",
"w4	c #2A2A29",
"x4	c #272623",
"y4	c #292823",
"z4	c #282723",
"A4	c #292726",
"B4	c #2C2A28",
"C4	c #2E2A27",
"D4	c #2E2A25",
"E4	c #2D2920",
"F4	c #2D291D",
"G4	c #2D2618",
"H4	c #2A2010",
"I4	c #2C200F",
"J4	c #2C2110",
"K4	c #2D2212",
"L4	c #2B2313",
"M4	c #292213",
"N4	c #342208",
"O4	c #6C562E",
"P4	c #87692A",
"Q4	c #8A6828",
"R4	c #8D6729",
"S4	c #8C662F",
"T4	c #8A6730",
"U4	c #89682B",
"V4	c #886928",
"W4	c #8B682B",
"X4	c #896829",
"Y4	c #86692B",
"Z4	c #856930",
"`4	c #705624",
" 5	c #523B11",
".5	c #4B3921",
"+5	c #57452F",
"@5	c #544530",
"#5	c #544333",
"$5	c #54452F",
"%5	c #55462D",
"&5	c #55472D",
"*5	c #55462E",
"=5	c #564334",
"-5	c #584333",
";5	c #564330",
">5	c #55452E",
",5	c #524530",
"'5	c #4E4533",
")5	c #2B2B2A",
"!5	c #292826",
"~5	c #282722",
"{5	c #272622",
"]5	c #262522",
"^5	c #262524",
"/5	c #282627",
"(5	c #2B2928",
"_5	c #2E2B28",
":5	c #2F2B26",
"<5	c #2E2923",
"[5	c #2C271C",
"}5	c #292010",
"|5	c #2E2111",
"15	c #2D2211",
"25	c #29200F",
"35	c #2B2414",
"45	c #2D2215",
"55	c #6B552E",
"65	c #8C6729",
"75	c #89682A",
"85	c #705625",
"95	c #4B3A21",
"05	c #56452F",
"a5	c #544433",
"b5	c #554434",
"c5	c #54462C",
"d5	c #54472C",
"e5	c #564432",
"f5	c #584433",
"g5	c #574431",
"h5	c #574530",
"i5	c #56462F",
"j5	c #534631",
"k5	c #4F4634",
"l5	c #2C2C2B",
"m5	c #2A2A27",
"n5	c #2A2A25",
"o5	c #292925",
"p5	c #292828",
"q5	c #2A282A",
"r5	c #2D2A2B",
"s5	c #302C2A",
"t5	c #302C28",
"u5	c #2F2A24",
"v5	c #2C271D",
"w5	c #292112",
"x5	c #2A2212",
"y5	c #2C2313",
"z5	c #896828",
"A5	c #8A682A",
"B5	c #886829",
"C5	c #86682A",
"D5	c #705725",
"E5	c #473618",
"F5	c #56442E",
"G5	c #54452D",
"H5	c #564333",
"I5	c #524630",
"J5	c #313130",
"K5	c #2C2C29",
"L5	c #2B2C28",
"M5	c #2B2B28",
"N5	c #2C2B2C",
"O5	c #2D2B2D",
"P5	c #2E2B2C",
"Q5	c #312D2C",
"R5	c #2E2920",
"S5	c #89672A",
"T5	c #533C12",
"U5	c #4E3917",
"V5	c #574333",
"W5	c #4D4433",
"X5	c #373736",
"Y5	c #30302E",
"Z5	c #2B2C29",
"`5	c #2B2B2B",
" 6	c #2C2B2E",
".6	c #302C2D",
"+6	c #332F2C",
"@6	c #35302C",
"#6	c #2E2A21",
"$6	c #2A2318",
"%6	c #282013",
"&6	c #292110",
"*6	c #554433",
"=6	c #53452B",
"-6	c #4E4534",
";6	c #31312F",
">6	c #2F2F2C",
",6	c #2D2D2B",
"'6	c #2D2D2E",
")6	c #2D2D2F",
"!6	c #312F2F",
"~6	c #35312F",
"{6	c #34302B",
"]6	c #2F2315",
"^6	c #523B12",
"/6	c #55432D",
"(6	c #53442F",
"_6	c #53442C",
":6	c #554331",
"<6	c #584434",
"[6	c #584532",
"}6	c #4E4734",
"|6	c #363635",
"16	c #2E2E2D",
"26	c #2C2C2D",
"36	c #2C2C2F",
"46	c #2C2C30",
"56	c #302E30",
"66	c #32312E",
"76	c #34312C",
"86	c #2F2A22",
"96	c #2A2419",
"06	c #87692B",
"a6	c #4E4633",
"b6	c #30302F",
"c6	c #2E2E2E",
"d6	c #2D2D30",
"e6	c #2E2D31",
"f6	c #2F2E30",
"g6	c #32302E",
"h6	c #35312D",
"i6	c #292216",
"j6	c #2E2215",
"k6	c #292211",
"l6	c #473619",
"m6	c #574434",
"n6	c #353533",
"o6	c #323231",
"p6	c #302F31",
"q6	c #312F31",
"r6	c #2F2B24",
"s6	c #282216",
"t6	c #292111",
"u6	c #2C2414",
"v6	c #4F4635",
"w6	c #383837",
"x6	c #373735",
"y6	c #343432",
"z6	c #2F2F31",
"A6	c #2F2E32",
"B6	c #302F32",
"C6	c #323032",
"D6	c #33322F",
"E6	c #35322C",
"F6	c #2F2B22",
"G6	c #554330",
"H6	c #393938",
"I6	c #383937",
"J6	c #383936",
"K6	c #363734",
"L6	c #323233",
"M6	c #313133",
"N6	c #323131",
"O6	c #343230",
"P6	c #282214",
"Q6	c #3A3A39",
"R6	c #393937",
"S6	c #383A36",
"T6	c #373935",
"U6	c #353736",
"V6	c #343535",
"W6	c #333335",
"X6	c #323234",
"Y6	c #333132",
"Z6	c #866A30",
"`6	c #554232",
" 7	c #574332",
".7	c #4E4634",
"+7	c #373936",
"@7	c #383A35",
"#7	c #363737",
"$7	c #353537",
"%7	c #343335",
"&7	c #343233",
"*7	c #353330",
"=7	c #544332",
"-7	c #4F4734",
";7	c #3B3B3A",
">7	c #393A38",
",7	c #383A37",
"'7	c #373838",
")7	c #343435",
"!7	c #343433",
"~7	c #353430",
"{7	c #2C2415",
"]7	c #55432E",
"^7	c #564232",
"/7	c #55422F",
"(7	c #4F4735",
"_7	c #393A39",
":7	c #353631",
"<7	c #34322C",
"[7	c #2F2C22",
"}7	c #272216",
"|7	c #282215",
"17	c #2A2315",
"27	c #2B2314",
"37	c #2C2218",
"47	c #2C2016",
"57	c #2F1F10",
"67	c #352208",
"77	c #6B552D",
"87	c #8C662D",
"97	c #886828",
"07	c #86682B",
"a7	c #866931",
"b7	c #705727",
"c7	c #533B11",
"d7	c #4E3816",
"e7	c #4A371D",
"f7	c #48361B",
"g7	c #55432F",
"h7	c #534430",
"i7	c #554231",
"j7	c #564231",
"k7	c #55452F",
"l7	c #524532",
"m7	c #4F4636",
"n7	c #3A3B3A",
"o7	c #353530",
"p7	c #35332E",
"q7	c #302D26",
"r7	c #252116",
"s7	c #272316",
"t7	c #2A2414",
"u7	c #2B2019",
"v7	c #2B1F1B",
"w7	c #2E2019",
"x7	c #2F1E10",
"y7	c #352207",
"z7	c #6A542C",
"A7	c #816732",
"B7	c #8B6729",
"C7	c #8B672C",
"D7	c #8B672D",
"E7	c #8A682C",
"F7	c #86672C",
"G7	c #866831",
"H7	c #715626",
"I7	c #543A10",
"J7	c #4E3714",
"K7	c #473A1A",
"L7	c #4C3821",
"M7	c #544230",
"N7	c #534232",
"O7	c #544434",
"P7	c #56422F",
"Q7	c #55422E",
"R7	c #4E4538",
"S7	c #373734",
"T7	c #363732",
"U7	c #363430",
"V7	c #312E27",
"W7	c #252118",
"X7	c #2B201A",
"Y7	c #2A1F1A",
"Z7	c #2F1E0F",
"`7	c #362205",
" 8	c #6A542A",
".8	c #86692C",
"+8	c #8B672A",
"@8	c #8B672B",
"#8	c #8A682B",
"$8	c #896926",
"%8	c #876828",
"&8	c #86672D",
"*8	c #866833",
"=8	c #715527",
"-8	c #4F3613",
";8	c #463A1A",
">8	c #4B3922",
",8	c #54422F",
"'8	c #534133",
")8	c #56422E",
"!8	c #4E453A",
"~8	c #3A3936",
"{8	c #3A3834",
"]8	c #393531",
"^8	c #322E27",
"/8	c #282113",
"(8	c #29220F",
"_8	c #292412",
":8	c #2E2114",
"<8	c #2E1F0B",
"[8	c #352304",
"}8	c #6A5527",
"|8	c #81672E",
"18	c #866A2A",
"28	c #8B6828",
"38	c #896927",
"48	c #876829",
"58	c #856833",
"68	c #705627",
"78	c #533A10",
"88	c #4C3618",
"98	c #54432E",
"08	c #514331",
"a8	c #4C4439",
"b8	c #3C3B38",
"c8	c #3C3B36",
"d8	c #3B3833",
"e8	c #332F28",
"f8	c #282119",
"g8	c #2A220D",
"h8	c #2A240D",
"i8	c #29240F",
"j8	c #2E2212",
"k8	c #2E2008",
"l8	c #352403",
"m8	c #6A5525",
"n8	c #81672D",
"o8	c #876A29",
"p8	c #85682D",
"q8	c #705628",
"r8	c #4D3815",
"s8	c #54432D",
"t8	c #554533",
"u8	c #534231",
"v8	c #4F4436",
"w8	c #3C3B3B",
"x8	c #3D3C39",
"y8	c #3E3C38",
"z8	c #3E3B35",
"A8	c #353028",
"B8	c #282117",
"C8	c #2A2416",
"D8	c #2A240C",
"E8	c #29240E",
"F8	c #836934",
"G8	c #6F5629",
"H8	c #51452F",
"I8	c #50442D",
"J8	c #3E3D3B",
"K8	c #403E3A",
"L8	c #413C37",
"M8	c #353128",
"N8	c #2A240E",
"O8	c #292410",
"P8	c #2A2214",
"Q8	c #2F1F0A",
"R8	c #362303",
"S8	c #6B5426",
"T8	c #826730",
"U8	c #88692B",
"V8	c #8C662A",
"W8	c #8D662B",
"X8	c #8B6827",
"Y8	c #8A6926",
"Z8	c #846934",
"`8	c #6F562A",
" 9	c #4B3815",
".9	c #4F3715",
"+9	c #3D3D3C",
"@9	c #3F3E3C",
"#9	c #413F3B",
"$9	c #423E39",
"%9	c #363229",
"&9	c #292117",
"*9	c #2C2416",
"=9	c #2D200F",
"-9	c #2A1F18",
";9	c #2E2117",
">9	c #2F1F0D",
",9	c #362204",
"'9	c #6B5429",
")9	c #836631",
"!9	c #88682E",
"~9	c #8A672B",
"{9	c #8C662B",
"]9	c #8E662B",
"^9	c #8D672A",
"/9	c #8D6826",
"(9	c #8C6824",
"_9	c #896827",
":9	c #86682C",
"<9	c #846933",
"[9	c #6F5628",
"}9	c #4E422C",
"|9	c #3E3D3D",
"19	c #403F3D",
"29	c #42403C",
"39	c #433F3A",
"49	c #2C2418",
"59	c #2C2010",
"69	c #2B201B",
"79	c #2C1F1B",
"89	c #302019",
"99	c #301E0F",
"09	c #372106",
"a9	c #6B532B",
"b9	c #836533",
"c9	c #89672F",
"d9	c #8A6826",
"e9	c #87672B",
"f9	c #856832",
"g9	c #4D3717",
"h9	c #49371C",
"i9	c #4C4539",
"j9	c #43413D",
"k9	c #44403B",
"l9	c #37322C",
"m9	c #29221A",
"n9	c #292116",
"o9	c #2D2418",
"p9	c #2B1E1A",
"q9	c #2C1E1A",
"r9	c #32211B",
"s9	c #2F1C0F",
"t9	c #6C542D",
"u9	c #846633",
"v9	c #89672E",
"w9	c #8D6728",
"x9	c #8F6A27",
"y9	c #8E6926",
"z9	c #8B6626",
"A9	c #88672C",
"B9	c #876934",
"C9	c #513A10",
"D9	c #51402E",
"E9	c #4E402D",
"F9	c #4F402C",
"G9	c #4D402E",
"H9	c #3F3F3E",
"I9	c #42413F",
"J9	c #44423F",
"K9	c #44403C",
"L9	c #37332E",
"M9	c #29241B",
"N9	c #292217",
"O9	c #2B2110",
"P9	c #2A1E18",
"Q9	c #2C1F19",
"R9	c #32221A",
"S9	c #311E10",
"T9	c #372206",
"U9	c #6B542B",
"V9	c #826531",
"W9	c #87672C",
"X9	c #886628",
"Y9	c #8A6627",
"Z9	c #8A6727",
"`9	c #8B6727",
" 0	c #8A6825",
".0	c #8B6725",
"+0	c #8C6727",
"@0	c #866835",
"#0	c #70562A",
"$0	c #483616",
"%0	c #48381C",
"&0	c #503F2D",
"*0	c #4D3F2C",
"=0	c #4C3F2C",
"-0	c #4C3E2B",
";0	c #4F3E2B",
">0	c #534534",
",0	c #534637",
"'0	c #3E3E3D",
")0	c #444340",
"!0	c #44403D",
"~0	c #29241D",
"{0	c #2B2413",
"]0	c #291E16",
"^0	c #2F2016",
"/0	c #332211",
"(0	c #362306",
"_0	c #6A552B",
":0	c #866A2D",
"<0	c #88692A",
"[0	c #896A27",
"}0	c #896B28",
"|0	c #886727",
"10	c #89662B",
"20	c #8A6830",
"30	c #856531",
"40	c #836736",
"50	c #6F562B",
"60	c #513A11",
"70	c #493816",
"80	c #49361B",
"90	c #4D3F2B",
"00	c #4D3F2A",
"a0	c #4F3E2C",
"b0	c #4F3D29",
"c0	c #4F3F29",
"d0	c #4B3E2B",
"e0	c #4A4133",
"f0	c #40403F",
"g0	c #3F3F3D",
"h0	c #454443",
"i0	c #383431",
"j0	c #28241F",
"k0	c #252019",
"l0	c #2B2418",
"m0	c #292314",
"n0	c #2C2613",
"o0	c #27210F",
"p0	c #2D261A",
"q0	c #2E251C",
"r0	c #271C12",
"s0	c #2B1D0C",
"t0	c #342407",
"u0	c #7D6733",
"v0	c #826A2E",
"w0	c #83682B",
"x0	c #83682A",
"y0	c #84672A",
"z0	c #84682A",
"A0	c #84692A",
"B0	c #84692B",
"C0	c #866830",
"D0	c #866633",
"E0	c #856736",
"F0	c #846738",
"G0	c #856A3D",
"H0	c #70592F",
"I0	c #4E380F",
"J0	c #4C3712",
"K0	c #4E3B20",
"L0	c #534029",
"M0	c #503F29",
"N0	c #4E3E2A",
"O0	c #4C3C27",
"P0	c #4B3C26",
"Q0	c #4A3C24",
"R0	c #4A3C25",
"S0	c #4C3B27",
"T0	c #4C3B28",
"U0	c #4F3D27",
"V0	c #503F27",
"W0	c #504029",
"X0	c #4C3D29",
"Y0	c #4B3E2A",
"Z0	c #50402C",
"`0	c #4F4332",
" a	c #4B4232",
".a	c #414140",
"+a	c #40403E",
"@a	c #373533",
"#a	c #282622",
"$a	c #25221C",
"%a	c #25211A",
"&a	c #272319",
"*a	c #252114",
"=a	c #24210E",
"-a	c #252311",
";a	c #272317",
">a	c #2A241C",
",a	c #282218",
"'a	c #2A2012",
")a	c #2C2008",
"!a	c #645532",
"~a	c #7B693B",
"{a	c #816C38",
"]a	c #826B36",
"^a	c #836A37",
"/a	c #836B37",
"(a	c #826C38",
"_a	c #826C39",
":a	c #846C3D",
"<a	c #83693E",
"[a	c #81683F",
"}a	c #806840",
"|a	c #816A41",
"1a	c #6E5831",
"2a	c #4F3912",
"3a	c #4C360F",
"4a	c #4C3812",
"5a	c #4A3712",
"6a	c #4A3713",
"7a	c #493713",
"8a	c #493714",
"9a	c #4A3714",
"0a	c #493513",
"aa	c #4E3A1C",
"ba	c #4F3B21",
"ca	c #4E3C24",
"da	c #4D3B24",
"ea	c #4C3C23",
"fa	c #4B3C23",
"ga	c #4B3B23",
"ha	c #4C3A22",
"ia	c #4D3B23",
"ja	c #4D3C24",
"ka	c #4B3C28",
"la	c #4C3E29",
"ma	c #4E4434",
"na	c #424241",
"oa	c #3C3933",
"pa	c #3B3630",
"qa	c #3C3731",
"ra	c #39362B",
"sa	c #3A3A2B",
"ta	c #393A2C",
"ua	c #393A32",
"va	c #383633",
"wa	c #4B4846",
"xa	c #5B4C27",
"ya	c #5A4A22",
"za	c #5B4921",
"Aa	c #5C4821",
"Ba	c #5C4822",
"Ca	c #5C4823",
"Da	c #5B4A23",
"Ea	c #5B4A24",
"Fa	c #5C4827",
"Ga	c #5B4827",
"Ha	c #5D4A28",
"Ia	c #5A4723",
"Ja	c #58421E",
"Ka	c #5A441F",
"La	c #5B451F",
"Ma	c #5A451E",
"Na	c #5A4520",
"Oa	c #5A451F",
"Pa	c #58451D",
"Qa	c #57441E",
"Ra	c #584423",
"Sa	c #594526",
"Ta	c #523F22",
"Ua	c #513E22",
"Va	c #4F3E23",
"Wa	c #4F3F23",
"Xa	c #4E3F23",
"Ya	c #4E3E22",
"Za	c #4D3E21",
"`a	c #4D3E22",
" b	c #503D24",
".b	c #503C24",
"+b	c #503E26",
"@b	c #524229",
"#b	c #574732",
"$b	c #574733",
"%b	c #554835",
"&b	c #686050",
"*b	c #897F70",
"=b	c #8F8177",
"-b	c #8F8179",
";b	c #8E8179",
">b	c #8D8176",
",b	c #8D8276",
"'b	c #8E8279",
")b	c #8E8278",
"!b	c #8E8277",
"~b	c #92857A",
"{b	c #978B81",
"]b	c #928B82",
"^b	c #908781",
"/b	c #908782",
"(b	c #908C86",
"_b	c #434340",
":b	c #434341",
"<b	c #464749",
"[b	c #444441",
"}b	c #474642",
"|b	c #484642",
"1b	c #48453F",
"2b	c #494640",
"3b	c #45443B",
"4b	c #454639",
"5b	c #3E4036",
"6b	c #414340",
"7b	c #5B5A5F",
"8b	c #322508",
"9b	c #332506",
"0b	c #352307",
"ab	c #362309",
"bb	c #35230B",
"cb	c #35230D",
"db	c #34230D",
"eb	c #33240D",
"fb	c #32240A",
"gb	c #34260B",
"hb	c #35260A",
"ib	c #342405",
"jb	c #352504",
"kb	c #493717",
"lb	c #5D4926",
"mb	c #644F29",
"nb	c #644E26",
"ob	c #644D24",
"pb	c #654D23",
"qb	c #654D22",
"rb	c #644D22",
"sb	c #644D23",
"tb	c #644E23",
"ub	c #634F24",
"vb	c #624D24",
"wb	c #604D27",
"xb	c #5E4A27",
"yb	c #503D1D",
"zb	c #4B3B1D",
"Ab	c #4B3B1C",
"Bb	c #4A3B1B",
"Cb	c #4A3A1C",
"Db	c #4B3A1F",
"Eb	c #4D391F",
"Fb	c #503F26",
"Gb	c #54442C",
"Hb	c #564630",
"Ib	c #554630",
"Jb	c #574730",
"Kb	c #574630",
"Lb	c #54442F",
"Mb	c #564836",
"Nb	c #544837",
"Ob	c #5D5444",
"Pb	c #695F51",
"Qb	c #6B5E54",
"Rb	c #6C5F55",
"Sb	c #6D5F55",
"Tb	c #6C5F53",
"Ub	c #6C5F54",
"Vb	c #6D5F54",
"Wb	c #6D6053",
"Xb	c #6E6155",
"Yb	c #6F6358",
"Zb	c #6E645A",
"`b	c #6D645C",
" c	c #6A625B",
".c	c #6B655E",
"+c	c #6D6860",
"@c	c #47484A",
"#c	c #4A4947",
"$c	c #4A4946",
"%c	c #494743",
"&c	c #4A4843",
"*c	c #46453F",
"=c	c #44463E",
"-c	c #40443D",
";c	c #404242",
">c	c #47484D",
",c	c #616166",
"'c	c #2E210E",
")c	c #2F200E",
"!c	c #301F12",
"~c	c #2F2013",
"{c	c #2E2014",
"]c	c #2C230F",
"^c	c #2C210C",
"/c	c #302006",
"(c	c #48371A",
"_c	c #5F4B29",
":c	c #654E26",
"<c	c #674E24",
"[c	c #674E23",
"}c	c #684E21",
"|c	c #655025",
"1c	c #645028",
"2c	c #604C28",
"3c	c #4E3B19",
"4c	c #4E3D24",
"5c	c #55442E",
"6c	c #584630",
"7c	c #53432E",
"8c	c #554836",
"9c	c #524636",
"0c	c #524435",
"ac	c #534334",
"bc	c #544334",
"cc	c #524334",
"dc	c #4F4337",
"ec	c #564C42",
"fc	c #6C655C",
"gc	c #474849",
"hc	c #494948",
"ic	c #494847",
"jc	c #484745",
"kc	c #484744",
"lc	c #464743",
"mc	c #434542",
"nc	c #434344",
"oc	c #47474A",
"pc	c #626265",
"qc	c #2E2013",
"rc	c #2C2013",
"sc	c #2B2015",
"tc	c #2F2210",
"uc	c #604C2A",
"vc	c #634F26",
"wc	c #654F22",
"xc	c #684E22",
"yc	c #674F22",
"zc	c #675021",
"Ac	c #624D27",
"Bc	c #4F3B19",
"Cc	c #49371D",
"Dc	c #4D3C23",
"Ec	c #574631",
"Fc	c #564631",
"Gc	c #564530",
"Hc	c #534433",
"Ic	c #554536",
"Jc	c #564535",
"Kc	c #564534",
"Lc	c #564332",
"Mc	c #574533",
"Nc	c #554733",
"Oc	c #534735",
"Pc	c #574D40",
"Qc	c #696256",
"Rc	c #484847",
"Sc	c #434443",
"Tc	c #2D2012",
"Uc	c #2D1E0C",
"Vc	c #604D2A",
"Wc	c #635025",
"Xc	c #665020",
"Yc	c #684F1F",
"Zc	c #684E23",
"`c	c #674F1F",
" d	c #624C25",
".d	c #4D3B22",
"+d	c #584631",
"@d	c #544533",
"#d	c #564431",
"$d	c #574432",
"%d	c #574D3D",
"&d	c #676154",
"*d	c #969696",
"=d	c #2B2419",
"-d	c #2D2013",
";d	c #4A381F",
">d	c #684E24",
",d	c #624C26",
"'d	c #513A18",
")d	c #554531",
"!d	c #554634",
"~d	c #57452E",
"{d	c #55462C",
"]d	c #55482F",
"^d	c #616160",
"/d	c #2C2211",
"(d	c #56462E",
"_d	c #56452E",
":d	c #686154",
"<d	c #61615E",
"[d	c #2A2319",
"}d	c #564632",
"|d	c #292115",
"1d	c #554530",
"2d	c #564430",
"3d	c #686055",
"4d	c #62625E",
"5d	c #2A2418",
"6d	c #544431",
"7d	c #665026",
"8d	c #513B19",
"9d	c #56462D",
"0d	c #55472F",
"ad	c #6A6257",
"bd	c #939393",
"cd	c #664E21",
"dd	c #634D27",
"ed	c #523B19",
"fd	c #54462E",
"gd	c #574D3E",
"hd	c #6C6559",
"id	c #62625F",
"jd	c #55432C",
"kd	c #53462D",
"ld	c #584D3E",
"md	c #6D645A",
"nd	c #636361",
"od	c #54422C",
"pd	c #574531",
"qd	c #564331",
"rd	c #56442D",
"sd	c #6B6359",
"td	c #55442D",
"ud	c #6C6358",
"vd	c #53452D",
"wd	c #574C3C",
"xd	c #6C6457",
"yd	c #636360",
"zd	c #4C3B22",
"Ad	c #55452C",
"Bd	c #564C3D",
"Cd	c #6A6258",
"Dd	c #494A4A",
"Ed	c #5F4D2A",
"Fd	c #645024",
"Gd	c #634C27",
"Hd	c #4C3A21",
"Id	c #554230",
"Jd	c #2D1E0A",
"Kd	c #604C29",
"Ld	c #644F25",
"Md	c #665021",
"Nd	c #634C26",
"Od	c #523B1A",
"Pd	c #4A361C",
"Qd	c #54422D",
"Rd	c #544232",
"Sd	c #524431",
"Td	c #55452D",
"Ud	c #52442F",
"Vd	c #574C3D",
"Wd	c #4A4849",
"Xd	c #4C4A4B",
"Yd	c #4B494A",
"Zd	c #504E4F",
"`d	c #63625F",
" e	c #2B2519",
".e	c #2C1F08",
"+e	c #604B28",
"@e	c #655023",
"#e	c #655021",
"$e	c #634B26",
"%e	c #513A1A",
"&e	c #4C361E",
"*e	c #4E3A22",
"=e	c #54412D",
"-e	c #554233",
";e	c #554234",
">e	c #544234",
",e	c #544233",
"'e	c #534530",
")e	c #53452F",
"!e	c #524432",
"~e	c #584C40",
"{e	c #4A494A",
"]e	c #4B4A4B",
"^e	c #636160",
"/e	c #292315",
"(e	c #2C210E",
"_e	c #2C1F07",
":e	c #604B29",
"<e	c #665022",
"[e	c #655024",
"}e	c #513A1B",
"|e	c #4C361D",
"1e	c #4E3B22",
"2e	c #54412E",
"3e	c #554334",
"4e	c #574C41",
"5e	c #6B6259",
"6e	c #656060",
"7e	c #2A2117",
"8e	c #2D1F08",
"9e	c #684E20",
"0e	c #684E1F",
"ae	c #514430",
"be	c #554C40",
"ce	c #2A2118",
"de	c #2A2218",
"ee	c #2D1F09",
"fe	c #654E28",
"ge	c #674E26",
"he	c #624B26",
"ie	c #4F3B1B",
"je	c #554C41",
"ke	c #6B645A",
"le	c #645F60",
"me	c #2B2116",
"ne	c #2D1F0A",
"oe	c #604B2B",
"pe	c #664E29",
"qe	c #694F1E",
"re	c #4F3B1A",
"se	c #47381B",
"te	c #473A17",
"ue	c #4C3C22",
"ve	c #53432D",
"we	c #544D42",
"xe	c #69655C",
"ye	c #2A2316",
"ze	c #2B2118",
"Ae	c #2C2217",
"Be	c #2E2112",
"Ce	c #2D1F0B",
"De	c #604B2C",
"Ee	c #684F25",
"Fe	c #6A4E1E",
"Ge	c #453A1C",
"He	c #453A1A",
"Ie	c #52422C",
"Je	c #534C42",
"Ke	c #68635A",
"Le	c #4A4A4B",
"Me	c #646060",
"Ne	c #2B241A",
"Oe	c #624C24",
"Pe	c #4F3B18",
"Qe	c #51412A",
"Re	c #50412B",
"Se	c #50412A",
"Te	c #51402B",
"Ue	c #514030",
"Ve	c #524130",
"We	c #534330",
"Xe	c #514233",
"Ye	c #534D42",
"Ze	c #68645B",
"`e	c #4A4A4C",
" f	c #4F4F51",
".f	c #646061",
"+f	c #292318",
"@f	c #604C2D",
"#f	c #654F29",
"$f	c #674F26",
"%f	c #614C23",
"&f	c #4F3C17",
"*f	c #47371E",
"=f	c #4A3A21",
"-f	c #503F2E",
";f	c #503E2F",
">f	c #4F4336",
",f	c #534C41",
"'f	c #676359",
")f	c #4B4B4D",
"!f	c #282318",
"~f	c #292215",
"{f	c #292017",
"]f	c #2E251A",
"^f	c #2D2315",
"/f	c #2A1D09",
"(f	c #483920",
"_f	c #5E4D2E",
":f	c #654E22",
"<f	c #654E25",
"[f	c #5F4A22",
"}f	c #523E19",
"|f	c #493814",
"1f	c #463615",
"2f	c #513F2A",
"3f	c #4F402B",
"4f	c #4F3D2E",
"5f	c #503D2E",
"6f	c #4F3D2B",
"7f	c #4E3D2C",
"8f	c #534A3E",
"9f	c #686357",
"0f	c #4E4E50",
"af	c #636161",
"bf	c #252017",
"cf	c #231F14",
"df	c #221E13",
"ef	c #241E14",
"ff	c #2B221A",
"gf	c #2F2821",
"hf	c #332D26",
"if	c #302A22",
"jf	c #332A1B",
"kf	c #322816",
"lf	c #58492C",
"mf	c #614F2D",
"nf	c #644E27",
"of	c #644E25",
"pf	c #624F27",
"qf	c #513E17",
"rf	c #4D3B15",
"sf	c #4A3814",
"tf	c #4A351C",
"uf	c #4A3519",
"vf	c #4B351A",
"wf	c #4A3619",
"xf	c #4A3516",
"yf	c #4D3B20",
"zf	c #513F28",
"Af	c #4D3C29",
"Bf	c #4D3C2B",
"Cf	c #4E3C2C",
"Df	c #4E3B2B",
"Ef	c #4D3A28",
"Ff	c #4D3B26",
"Gf	c #4F3D28",
"Hf	c #4C3C29",
"If	c #52493D",
"Jf	c #675F53",
"Kf	c #626062",
"Lf	c #595750",
"Mf	c #534F4A",
"Nf	c #504B46",
"Of	c #484139",
"Pf	c #3C3528",
"Qf	c #352D1C",
"Rf	c #453B25",
"Sf	c #5B4E33",
"Tf	c #625334",
"Uf	c #635131",
"Vf	c #634F2D",
"Wf	c #634F2A",
"Xf	c #634F2B",
"Yf	c #64502B",
"Zf	c #634F2C",
"`f	c #624E2B",
" g	c #604C27",
".g	c #624F28",
"+g	c #4E3B12",
"@g	c #4E3910",
"#g	c #4D3711",
"$g	c #4D3712",
"%g	c #4F3916",
"&g	c #4E361A",
"*g	c #4E371A",
"=g	c #503D23",
"-g	c #4F3D26",
";g	c #4B3A26",
">g	c #4E3D28",
",g	c #4F3C2A",
"'g	c #4F3C2B",
")g	c #4E3C25",
"!g	c #4F3E26",
"~g	c #4D3D27",
"{g	c #503E2A",
"]g	c #554A3D",
"^g	c #675D52",
"/g	c #4C4C4D",
"(g	c #525254",
"_g	c #616163",
":g	c #3A2F19",
"<g	c #372A12",
"[g	c #3A2B11",
"}g	c #3D2C10",
"|g	c #3F2E10",
"1g	c #423111",
"2g	c #453415",
"3g	c #4F3E21",
"4g	c #534223",
"5g	c #544322",
"6g	c #574422",
"7g	c #58441E",
"8g	c #574118",
"9g	c #584117",
"0g	c #584015",
"ag	c #563D15",
"bg	c #543B14",
"cg	c #533A14",
"dg	c #523914",
"eg	c #513815",
"fg	c #503714",
"gg	c #4F3714",
"hg	c #4F3713",
"ig	c #4F3712",
"jg	c #4F3810",
"kg	c #4E370F",
"lg	c #4D3812",
"mg	c #4F3B1D",
"ng	c #513D23",
"og	c #503E27",
"pg	c #4C3A24",
"qg	c #4C3A25",
"rg	c #4E3D23",
"sg	c #4F3E24",
"tg	c #4B3B25",
"ug	c #4B3A25",
"vg	c #513F2B",
"wg	c #594C3D",
"xg	c #716557",
"yg	c #4D4D4F",
"zg	c #5F5F62",
"Ag	c #2F2612",
"Bg	c #31240F",
"Cg	c #32230C",
"Dg	c #32230B",
"Eg	c #33240C",
"Fg	c #33240E",
"Gg	c #32230E",
"Hg	c #32230F",
"Ig	c #34250D",
"Jg	c #35250B",
"Kg	c #372607",
"Lg	c #483614",
"Mg	c #6F5930",
"Ng	c #7A6235",
"Og	c #7D6233",
"Pg	c #7C5F30",
"Qg	c #7D5E31",
"Rg	c #7C5E30",
"Sg	c #7A5C30",
"Tg	c #775A2F",
"Ug	c #75582D",
"Vg	c #72572B",
"Wg	c #70572A",
"Xg	c #6E5627",
"Yg	c #6A5322",
"Zg	c #594522",
"`g	c #564325",
" h	c #57452B",
".h	c #55432B",
"+h	c #524129",
"@h	c #524228",
"#h	c #534128",
"$h	c #524025",
"%h	c #513F23",
"&h	c #514025",
"*h	c #504128",
"=h	c #51432A",
"-h	c #504129",
";h	c #4F3C27",
">h	c #543F2A",
",h	c #55412C",
"'h	c #584838",
")h	c #736558",
"!h	c #A19489",
"~h	c #606062",
"{h	c #2A1F0F",
"]h	c #2B1F0E",
"^h	c #2B200E",
"/h	c #2D1C02",
"(h	c #433114",
"_h	c #776137",
":h	c #816838",
"<h	c #856734",
"[h	c #846530",
"}h	c #886733",
"|h	c #876633",
"1h	c #856532",
"2h	c #836531",
"3h	c #80652F",
"4h	c #7E652E",
"5h	c #7E652D",
"6h	c #7C6532",
"7h	c #6E582B",
"8h	c #58421C",
"9h	c #4D3A1C",
"0h	c #4B3C20",
"ah	c #4B3C1F",
"bh	c #4C3C1E",
"ch	c #4C3B1E",
"dh	c #4F3D1F",
"eh	c #513F21",
"fh	c #503F22",
"gh	c #54452B",
"hh	c #57492F",
"ih	c #584930",
"jh	c #58482F",
"kh	c #594830",
"lh	c #5A472F",
"mh	c #5E4932",
"nh	c #5F4A35",
"oh	c #5E4A36",
"ph	c #5F4D3C",
"qh	c #625243",
"rh	c #695C4F",
"sh	c #5F5244",
"th	c #5B4F41",
"uh	c #5C4F41",
"vh	c #5B4D40",
"wh	c #5A4C40",
"xh	c #594B3F",
"yh	c #594C3E",
"zh	c #564A3B",
"Ah	c #574D3F",
"Bh	c #574D43",
"Ch	c #584F44",
"Dh	c #534C40",
"Eh	c #514B3F",
"Fh	c #646467",
"Gh	c #2D2216",
"Hh	c #2C2117",
"Ih	c #2A2017",
"Jh	c #291E17",
"Kh	c #2F2211",
"Lh	c #302008",
"Mh	c #433112",
"Nh	c #735C32",
"Oh	c #866731",
"Ph	c #88652D",
"Qh	c #89662C",
"Rh	c #89652C",
"Sh	c #88662D",
"Th	c #85692B",
"Uh	c #846A2B",
"Vh	c #836A2B",
"Wh	c #82682A",
"Xh	c #82692E",
"Yh	c #826933",
"Zh	c #735B2A",
"`h	c #574117",
" i	c #493410",
".i	c #4C3A1D",
"+i	c #504125",
"@i	c #56482D",
"#i	c #56462C",
"$i	c #59482E",
"%i	c #5C482F",
"&i	c #5A452D",
"*i	c #58422C",
"=i	c #56422D",
"-i	c #594734",
";i	c #574735",
">i	c #574838",
",i	c #574839",
"'i	c #564737",
")i	c #574836",
"!i	c #574736",
"~i	c #584737",
"{i	c #584836",
"]i	c #584938",
"^i	c #574738",
"/i	c #4F4134",
"(i	c #55493D",
"_i	c #52493E",
":i	c #4C4C4E",
"<i	c #616164",
"[i	c #282118",
"}i	c #2B2119",
"|i	c #2B221B",
"1i	c #2B211C",
"2i	c #2B2012",
"3i	c #30200B",
"4i	c #443013",
"5i	c #71592F",
"6i	c #836734",
"7i	c #896A31",
"8i	c #88662A",
"9i	c #856827",
"0i	c #846826",
"ai	c #836826",
"bi	c #856928",
"ci	c #84682B",
"di	c #81662E",
"ei	c #715926",
"fi	c #584115",
"gi	c #4B3611",
"hi	c #4D3A19",
"ii	c #4A3916",
"ji	c #4B3915",
"ki	c #463616",
"li	c #4F4024",
"mi	c #57472D",
"ni	c #57472E",
"oi	c #57462E",
"pi	c #59462E",
"qi	c #59452D",
"ri	c #5B462F",
"si	c #5A4631",
"ti	c #584733",
"ui	c #574737",
"vi	c #574632",
"wi	c #5A4937",
"xi	c #544435",
"yi	c #55473A",
"zi	c #53463B",
"Ai	c #636364",
"Bi	c #443015",
"Ci	c #745C30",
"Di	c #896729",
"Ei	c #8A672C",
"Fi	c #896728",
"Gi	c #886827",
"Hi	c #866727",
"Ii	c #856727",
"Ji	c #84662F",
"Ki	c #745827",
"Li	c #574016",
"Mi	c #57462F",
"Ni	c #58462F",
"Oi	c #584530",
"Pi	c #564634",
"Qi	c #554737",
"Ri	c #534739",
"Si	c #301E12",
"Ti	c #433015",
"Ui	c #745D2F",
"Vi	c #82672D",
"Wi	c #856729",
"Xi	c #876827",
"Yi	c #876729",
"Zi	c #876628",
"`i	c #88682C",
" j	c #85662F",
".j	c #745928",
"+j	c #574017",
"@j	c #4B3715",
"#j	c #473719",
"$j	c #574633",
"%j	c #544736",
"&j	c #514837",
"*j	c #301E13",
"=j	c #87672A",
"-j	c #504837",
";j	c #88652B",
">j	c #88682B",
",j	c #514838",
"'j	c #524737",
")j	c #514738",
"!j	c #514739",
"~j	c #89672C",
"{j	c #866729",
"]j	c #866629",
"^j	c #432F15",
"/j	c #745D2E",
"(j	c #82682D",
"_j	c #88662B",
":j	c #876727",
"<j	c #866726",
"[j	c #886728",
"}j	c #755928",
"|j	c #573F17",
"1j	c #534635",
"2j	c #504737",
"3j	c #432F14",
"4j	c #745C2E",
"5j	c #83682D",
"6j	c #87662A",
"7j	c #755929",
"8j	c #504637",
"9j	c #87662B",
"0j	c #504638",
"aj	c #534535",
"bj	c #524838",
"cj	c #876629",
"dj	c #2B2218",
"ej	c #2B2013",
"fj	c #2F1E12",
"gj	c #423014",
"hj	c #856728",
"ij	c #866628",
"jj	c #745A29",
"kj	c #564017",
"lj	c #47371A",
"mj	c #514636",
"nj	c #2B2219",
"oj	c #423113",
"pj	c #83692D",
"qj	c #88672D",
"rj	c #866827",
"sj	c #866728",
"tj	c #886826",
"uj	c #84672E",
"vj	c #735A28",
"wj	c #554017",
"xj	c #4A3815",
"yj	c #534532",
"zj	c #2D2016",
"Aj	c #2E210F",
"Bj	c #745E2D",
"Cj	c #846828",
"Dj	c #866829",
"Ej	c #87672E",
"Fj	c #866828",
"Gj	c #866927",
"Hj	c #876925",
"Ij	c #876A27",
"Jj	c #715B28",
"Kj	c #554117",
"Lj	c #473718",
"Mj	c #514431",
"Nj	c #524637",
"Oj	c #B7B7B7",
"Pj	c #2C2017",
"Qj	c #423114",
"Rj	c #735E2F",
"Sj	c #82692F",
"Tj	c #85672B",
"Uj	c #86672B",
"Vj	c #88672F",
"Wj	c #87682A",
"Xj	c #886825",
"Yj	c #876928",
"Zj	c #83682E",
"`j	c #554018",
" k	c #514432",
".k	c #524537",
"+k	c #E5E5E5",
"@k	c #2F1F14",
"#k	c #423016",
"$k	c #735D31",
"%k	c #85662D",
"&k	c #87662C",
"*k	c #896630",
"=k	c #886729",
"-k	c #89672B",
";k	c #725A28",
">k	c #4F3E27",
",k	c #514334",
"'k	c #514637",
")k	c #F3F3F3",
"!k	c #EFEFEF",
"~k	c #E9E9E9",
"{k	c #E8E8E8",
"]k	c #292014",
"^k	c #301E15",
"/k	c #432F17",
"(k	c #745C31",
"_k	c #826830",
":k	c #85662C",
"<k	c #86662B",
"[k	c #896530",
"}k	c #89662F",
"|k	c #89662D",
"1k	c #856630",
"2k	c #73592A",
"3k	c #574019",
"4k	c #47381F",
"5k	c #4E3E27",
"6k	c #514235",
"7k	c #282116",
"8k	c #2B2017",
"9k	c #301E14",
"0k	c #432F16",
"ak	c #83682F",
"bk	c #85672A",
"ck	c #89662E",
"dk	c #8A652D",
"ek	c #8A6628",
"fk	c #8A6629",
"gk	c #8A662B",
"hk	c #8B6629",
"ik	c #866531",
"jk	c #75582A",
"kk	c #573F19",
"lk	c #504431",
"mk	c #534434",
"nk	c #514335",
"ok	c #504538",
"pk	c #272217",
"qk	c #292313",
"rk	c #301E11",
"sk	c #433013",
"tk	c #745D2D",
"uk	c #82692C",
"vk	c #856828",
"wk	c #89662A",
"xk	c #8A662A",
"yk	c #8A6726",
"zk	c #8A6725",
"Ak	c #8B652A",
"Bk	c #583F18",
"Ck	c #473920",
"Dk	c #46391F",
"Ek	c #4C3D27",
"Fk	c #504331",
"Gk	c #504335",
"Hk	c #4F4439",
"Ik	c #282319",
"Jk	c #282317",
"Kk	c #292316",
"Lk	c #2F1F0F",
"Mk	c #433111",
"Nk	c #735E2A",
"Ok	c #816A2A",
"Pk	c #846926",
"Qk	c #866725",
"Rk	c #886824",
"Sk	c #886823",
"Tk	c #75572A",
"Uk	c #4C3715",
"Vk	c #46391E",
"Wk	c #47371B",
"Xk	c #4C3C26",
"Yk	c #4F402F",
"Zk	c #4E412C",
"`k	c #504539",
" l	c #2F2B25",
".l	c #312C25",
"+l	c #2C251D",
"@l	c #272215",
"#l	c #272212",
"$l	c #403112",
"%l	c #73602E",
"&l	c #7F6A2C",
"*l	c #816827",
"=l	c #866925",
"-l	c #88672A",
";l	c #88672B",
">l	c #856632",
",l	c #583F17",
"'l	c #483618",
")l	c #4B361C",
"!l	c #4C3B25",
"~l	c #4F3F2C",
"{l	c #504234",
"]l	c #524437",
"^l	c #403B37",
"/l	c #332C26",
"(l	c #29231D",
"_l	c #221C14",
":l	c #1F1B12",
"<l	c #231E15",
"[l	c #262117",
"}l	c #242015",
"|l	c #252112",
"1l	c #42341B",
"2l	c #716034",
"3l	c #7D6A31",
"4l	c #80692E",
"5l	c #836A30",
"6l	c #846833",
"7l	c #85692E",
"8l	c #84692C",
"9l	c #85672E",
"0l	c #86662F",
"al	c #876730",
"bl	c #86672F",
"cl	c #74592B",
"dl	c #4B361D",
"el	c #4B351D",
"fl	c #47361C",
"gl	c #4C3E28",
"hl	c #4E3E29",
"il	c #4F3E29",
"jl	c #503E29",
"kl	c #4F3E28",
"ll	c #4E412D",
"ml	c #4A3C27",
"nl	c #685933",
"ol	c #726031",
"pl	c #796433",
"ql	c #7A6333",
"rl	c #7C6237",
"sl	c #7D6337",
"tl	c #7F6636",
"ul	c #806735",
"vl	c #816637",
"wl	c #826637",
"xl	c #836737",
"yl	c #846836",
"zl	c #846935",
"Al	c #806636",
"Bl	c #503A14",
"Cl	c #4C351C",
"Dl	c #52402A",
"El	c #4B3C25",
"Fl	c #4B3C24",
"Gl	c #4D3C25",
"Hl	c #4C3F29",
"Il	c #534537",
"Jl	c #45330F",
"Kl	c #493611",
"Ll	c #55401E",
"Ml	c #5B4528",
"Nl	c #5E482A",
"Ol	c #634D2B",
"Pl	c #67522C",
"Ql	c #6C5632",
"Rl	c #715A36",
"Sl	c #755D39",
"Tl	c #78603A",
"Ul	c #775F35",
"Vl	c #7A6335",
"Wl	c #7A6337",
"Xl	c #6C552C",
"Yl	c #574018",
"Zl	c #4F3911",
"`l	c #483714",
" m	c #473715",
".m	c #473717",
"+m	c #493619",
"@m	c #4A351A",
"#m	c #4C351A",
"$m	c #4D3419",
"%m	c #4C3517",
"&m	c #4A3615",
"*m	c #493616",
"=m	c #4F3D25",
"-m	c #4B3A23",
";m	c #4A3B21",
">m	c #4C3921",
",m	c #4E3B21",
"'m	c #493A23",
")m	c #4D3D24",
"!m	c #513F27",
"~m	c #4F4033",
"{m	c #32230A",
"]m	c #312006",
"^m	c #311E07",
"/m	c #321F0E",
"(m	c #331F0F",
"_m	c #34210A",
":m	c #352209",
"<m	c #37240B",
"[m	c #3C280E",
"}m	c #402C11",
"|m	c #432F12",
"1m	c #493614",
"2m	c #4F3D17",
"3m	c #574119",
"4m	c #584119",
"5m	c #523F19",
"6m	c #503F19",
"7m	c #4E3E1A",
"8m	c #4E3D1B",
"9m	c #4F3C1B",
"0m	c #503A1A",
"am	c #513919",
"bm	c #513819",
"cm	c #503918",
"dm	c #4D3A1A",
"em	c #4F3B1F",
"fm	c #4F3C23",
"gm	c #4B391F",
"hm	c #4C391D",
"im	c #4C3B20",
"jm	c #4B3C21",
"km	c #4B3D22",
"lm	c #503F25",
"mm	c #524027",
"nm	c #53402A",
"om	c #302210",
"pm	c #302112",
"qm	c #312119",
"rm	c #312019",
"sm	c #302113",
"tm	c #2E200E",
"um	c #2D1F0D",
"vm	c #2E1E0B",
"wm	c #31220A",
"xm	c #302209",
"ym	c #2E1F04",
"zm	c #322203",
"Am	c #453210",
"Bm	c #5C4623",
"Cm	c #664F27",
"Dm	c #614B22",
"Em	c #604C22",
"Fm	c #5F4D23",
"Gm	c #5E4C23",
"Hm	c #5C4A23",
"Im	c #5B4822",
"Jm	c #5C451F",
"Km	c #5B431E",
"Lm	c #5B441E",
"Mm	c #59441E",
"Nm	c #57431E",
"Om	c #564220",
"Pm	c #544022",
"Qm	c #503D22",
"Rm	c #4F3D23",
"Sm	c #503E21",
"Tm	c #523E22",
"Um	c #533F23",
"Vm	c #533F24",
"Wm	c #544024",
"Xm	c #543F21",
"Ym	c #534022",
"Zm	c #524123",
"`m	c #514225",
" n	c #514024",
".n	c #534024",
"+n	c #564227",
"@n	c #554128",
"#n	c #594938",
"$n	c #716455",
"%n	c #9E9386",
"&n	c #B0A69A",
"*n	c #B4ACA1",
"=n	c #2B2010",
"-n	c #2C2015",
";n	c #2D230F",
">n	c #2F2511",
",n	c #2E2109",
"'n	c #433115",
")n	c #604A29",
"!n	c #674F27",
"~n	c #654E23",
"{n	c #655123",
"]n	c #645124",
"^n	c #654F24",
"/n	c #664E24",
"(n	c #664D24",
"_n	c #654D24",
":n	c #644D25",
"<n	c #614C25",
"[n	c #5F4A27",
"}n	c #584424",
"|n	c #4E3A1D",
"1n	c #4D3A1E",
"2n	c #4D3C20",
"3n	c #4F3E20",
"4n	c #503F20",
"5n	c #544124",
"6n	c #554126",
"7n	c #564224",
"8n	c #584324",
"9n	c #564324",
"0n	c #564527",
"an	c #574629",
"bn	c #57472A",
"cn	c #574527",
"dn	c #584527",
"en	c #5B482A",
"fn	c #5D492D",
"gn	c #604C34",
"hn	c #65533E",
"in	c #685845",
"jn	c #6F6251",
"kn	c #7F7364",
"ln	c #877B6E",
"mn	c #887D6F",
"nn	c #867A6D",
"on	c #83786B",
"pn	c #807668",
"qn	c #7E7267",
"rn	c #7C7066",
"sn	c #7B7063",
"tn	c #7C7062",
"un	c #7B6F63",
"vn	c #7A6F63",
"wn	c #766A5E",
"xn	c #2A2513",
"yn	c #2C2219",
"zn	c #2B211E",
"An	c #2B211F",
"Bn	c #2B2417",
"Cn	c #2E2210",
"Dn	c #403017",
"En	c #5D4729",
"Fn	c #654E1E",
"Gn	c #644F1D",
"Hn	c #64501E",
"In	c #65501F",
"Jn	c #66511F",
"Kn	c #685121",
"Ln	c #634E2A",
"Mn	c #594523",
"Nn	c #4E391B",
"On	c #4E3A1A",
"Pn	c #4E3A19",
"Qn	c #4E3B1B",
"Rn	c #514020",
"Sn	c #574628",
"Tn	c #5B4A2D",
"Un	c #5F4C2F",
"Vn	c #5F4C2D",
"Wn	c #5F4A2C",
"Xn	c #604B2E",
"Yn	c #604C31",
"Zn	c #5F4A31",
"`n	c #5C4933",
" o	c #5A4A35",
".o	c #594B39",
"+o	c #5A4D3D",
"@o	c #584B3C",
"#o	c #57493A",
"$o	c #564939",
"%o	c #554838",
"&o	c #554738",
"*o	c #544738",
"=o	c #544737",
"-o	c #695E4F",
";o	c #827B6D",
">o	c #292516",
",o	c #2B221E",
"'o	c #2A221E",
")o	c #3E2E17",
"!o	c #5D492B",
"~o	c #654E2A",
"{o	c #685026",
"]o	c #674D20",
"^o	c #674D1E",
"/o	c #664F1E",
"(o	c #654F1E",
"_o	c #664E1E",
":o	c #654E20",
"<o	c #5B4623",
"[o	c #493617",
"}o	c #503F23",
"|o	c #554428",
"1o	c #57462B",
"2o	c #594629",
"3o	c #59452A",
"4o	c #59452B",
"5o	c #59452C",
"6o	c #554635",
"7o	c #564635",
"8o	c #554535",
"9o	c #564736",
"0o	c #695C4E",
"ao	c #857C6E",
"bo	c #292418",
"co	c #2D210F",
"do	c #3F3017",
"eo	c #5D4A2A",
"fo	c #674E1F",
"go	c #664E20",
"ho	c #664E1F",
"io	c #664E23",
"jo	c #5A4522",
"ko	c #55442B",
"lo	c #58462E",
"mo	c #564734",
"no	c #695D4C",
"oo	c #867C6B",
"po	c #282418",
"qo	c #2D220E",
"ro	c #3F3115",
"so	c #5D4A29",
"to	c #684D1F",
"uo	c #684D20",
"vo	c #674E21",
"wo	c #664E22",
"xo	c #674D21",
"yo	c #654D25",
"zo	c #554632",
"Ao	c #6A5D4E",
"Bo	c #867B6E",
"Co	c #887A6E",
"Do	c #6B5C4F",
"Eo	c #897A6F",
"Fo	c #6B5D4F",
"Go	c #897B6F",
"Ho	c #6B5D4E",
"Io	c #897B6D",
"Jo	c #6A5C4D",
"Ko	c #887A6C",
"Lo	c #695C4C",
"Mo	c #877B6A",
"No	c #695D4D",
"Oo	c #877B6D",
"Po	c #6B5F50",
"Qo	c #887F71",
"Ro	c #6B5E50",
"So	c #897D71",
"To	c #897B70",
"Uo	c #6A5C4E",
"Vo	c #6B5F4E",
"Wo	c #897E6F",
"Xo	c #292218",
"Yo	c #594620",
"Zo	c #6C604F",
"`o	c #8A806F",
" p	c #2E2017",
".p	c #2D2017",
"+p	c #403014",
"@p	c #664F20",
"#p	c #684E1E",
"$p	c #654F21",
"%p	c #654F1F",
"&p	c #64501F",
"*p	c #634F22",
"=p	c #624E25",
"-p	c #584620",
";p	c #4E3D26",
">p	c #6C5F52",
",p	c #8B8174",
"'p	c #2E2016",
")p	c #2D2018",
"!p	c #2F210B",
"~p	c #403013",
"{p	c #694E1E",
"]p	c #644F22",
"^p	c #644F21",
"/p	c #63501E",
"(p	c #62501E",
"_p	c #625021",
":p	c #584622",
"<p	c #534432",
"[p	c #554332",
"}p	c #524131",
"|p	c #6B5F52",
"1p	c #8C8175",
"2p	c #2D2116",
"3p	c #664E26",
"4p	c #644F1E",
"5p	c #624E26",
"6p	c #4A361D",
"7p	c #6C5F51",
"8p	c #8D8174",
"9p	c #2C2011",
"0p	c #2F210D",
"ap	c #5F4928",
"bp	c #694D1F",
"cp	c #654E1F",
"dp	c #4A361A",
"ep	c #47361B",
"fp	c #6C5F50",
"gp	c #8D8173",
"hp	c #292013",
"ip	c #2F210E",
"jp	c #403015",
"kp	c #5F4929",
"lp	c #694D20",
"mp	c #674D1F",
"np	c #674D23",
"op	c #664C26",
"pp	c #5C4422",
"qp	c #4D3618",
"rp	c #4B361A",
"sp	c #473817",
"tp	c #52432A",
"up	c #51442F",
"vp	c #6A5F50",
"wp	c #8B8173",
"xp	c #2F210F",
"yp	c #403016",
"zp	c #684D22",
"Ap	c #684D21",
"Bp	c #6A4C21",
"Cp	c #694C23",
"Dp	c #674B26",
"Ep	c #5D4322",
"Fp	c #4C3E24",
"Gp	c #52442E",
"Hp	c #6A5F51",
"Ip	c #8B8175",
"Jp	c #272318",
"Kp	c #2B2113",
"Lp	c #5E4A29",
"Mp	c #6A4D1F",
"Np	c #694C24",
"Op	c #5C4322",
"Pp	c #514329",
"Qp	c #4F422E",
"Rp	c #695F52",
"Sp	c #8A8175",
"Tp	c #252119",
"Up	c #5C4A2A",
"Vp	c #694D22",
"Wp	c #6A4C22",
"Xp	c #4C3D24",
"Yp	c #51422A",
"Zp	c #50422D",
"`p	c #50402A",
" q	c #695E52",
".q	c #898174",
"+q	c #322F2A",
"@q	c #3E3A33",
"#q	c #2F2920",
"$q	c #2A241B",
"%q	c #292419",
"&q	c #2D220F",
"*q	c #3F3118",
"=q	c #5D4C2D",
"-q	c #634F29",
";q	c #664D23",
">q	c #674D22",
",q	c #694C21",
"'q	c #684C24",
")q	c #674D25",
"!q	c #654C27",
"~q	c #5B4522",
"{q	c #4B3615",
"]q	c #46381F",
"^q	c #48361A",
"/q	c #4E3F2E",
"(q	c #4F3F2B",
"_q	c #504334",
":q	c #695E54",
"<q	c #898177",
"[q	c #4D4942",
"}q	c #342E28",
"|q	c #2A251E",
"1q	c #242018",
"2q	c #29251A",
"3q	c #2A261C",
"4q	c #2E2B21",
"5q	c #29241A",
"6q	c #2A210F",
"7q	c #3E311A",
"8q	c #57482A",
"9q	c #614F2B",
"0q	c #594520",
"aq	c #4A3816",
"bq	c #463620",
"cq	c #46361F",
"dq	c #47361E",
"eq	c #48361F",
"fq	c #503E2B",
"gq	c #4F3E2E",
"hq	c #4F4234",
"iq	c #4E4033",
"jq	c #675C54",
"kq	c #887F77",
"lq	c #28231C",
"mq	c #221D11",
"nq	c #27200E",
"oq	c #524528",
"pq	c #5F4F2D",
"qq	c #63522D",
"rq	c #63502A",
"sq	c #645029",
"tq	c #65502B",
"uq	c #64502C",
"vq	c #644F2A",
"wq	c #654E24",
"xq	c #65502A",
"yq	c #64502A",
"zq	c #604D26",
"Aq	c #57451D",
"Bq	c #4B3912",
"Cq	c #493712",
"Dq	c #483814",
"Eq	c #47361D",
"Fq	c #4E3E2B",
"Gq	c #4F3D2C",
"Hq	c #4F4032",
"Iq	c #675C52",
"Jq	c #887F76",
"Kq	c #493E23",
"Lq	c #4C3F22",
"Mq	c #4E3F21",
"Nq	c #514121",
"Oq	c #534322",
"Pq	c #544324",
"Qq	c #554425",
"Rq	c #574627",
"Sq	c #5A4828",
"Tq	c #5C4A28",
"Uq	c #5F4C28",
"Vq	c #624D29",
"Wq	c #624E2A",
"Xq	c #61502D",
"Yq	c #62512D",
"Zq	c #5E4D27",
"`q	c #56451D",
" r	c #4D3B12",
".r	c #48360D",
"+r	c #4A3811",
"@r	c #4C3B15",
"#r	c #483519",
"$r	c #4E3B23",
"%r	c #4D3B25",
"&r	c #4E3C27",
"*r	c #4E3B28",
"=r	c #503F30",
"-r	c #695E53",
";r	c #8A8177",
">r	c #2F250E",
",r	c #2D2008",
"'r	c #2C1F04",
")r	c #322407",
"!r	c #36280D",
"~r	c #382A0F",
"{r	c #3A2C13",
"]r	c #3D2F16",
"^r	c #423319",
"/r	c #46371B",
"(r	c #4E3C1F",
"_r	c #4E3E20",
":r	c #4F4022",
"<r	c #534425",
"[r	c #524321",
"}r	c #53431B",
"|r	c #554218",
"1r	c #4E3A0D",
"2r	c #4C380B",
"3r	c #4D390D",
"4r	c #4C370F",
"5r	c #4D3714",
"6r	c #4C3A23",
"7r	c #4D3A22",
"8r	c #4C3920",
"9r	c #4B3821",
"0r	c #4B3920",
"ar	c #8A7F73",
"br	c #261E0F",
"cr	c #2A210E",
"dr	c #2C220D",
"er	c #2C220B",
"fr	c #2D220C",
"gr	c #2D220D",
"hr	c #2D200D",
"ir	c #2E1F08",
"jr	c #2E2009",
"kr	c #31240B",
"lr	c #3E2F0E",
"mr	c #564520",
"nr	c #6C582E",
"or	c #6A5528",
"pr	c #654D1E",
"qr	c #61471B",
"rr	c #5F451A",
"sr	c #5C4219",
"tr	c #583F16",
"ur	c #533C14",
"vr	c #4C370D",
"wr	c #4A360E",
"xr	c #49340E",
"yr	c #4A3511",
"zr	c #4D3A18",
"Ar	c #4D391E",
"Br	c #4E391F",
"Cr	c #4E3A1E",
"Dr	c #4F3B1E",
"Er	c #4F3C1F",
"Fr	c #4E3C1E",
"Gr	c #503F24",
"Hr	c #4E3E24",
"Ir	c #51402A",
"Jr	c #68594B",
"Kr	c #847769",
"Lr	c #241D12",
"Mr	c #2C2413",
"Nr	c #352506",
"Or	c #5C4B27",
"Pr	c #7F6A3E",
"Qr	c #826B3A",
"Rr	c #816734",
"Sr	c #7F642F",
"Tr	c #7E612D",
"Ur	c #7C5E2D",
"Vr	c #785A2C",
"Wr	c #725728",
"Xr	c #6C5325",
"Yr	c #624D1E",
"Zr	c #604B1F",
"`r	c #5D481F",
" s	c #56411A",
".s	c #513C17",
"+s	c #503D18",
"@s	c #533F1C",
"#s	c #523F1E",
"$s	c #503D1E",
"%s	c #4D3B1D",
"&s	c #4D3B1E",
"*s	c #4D3C1F",
"=s	c #4F3C1E",
"-s	c #4F3C1D",
";s	c #4F3C1C",
">s	c #503B1D",
",s	c #513B1D",
"'s	c #513C1E",
")s	c #513D1D",
"!s	c #523E1D",
"~s	c #52401E",
"{s	c #513F1E",
"]s	c #514022",
"^s	c #504025",
"/s	c #534229",
"(s	c #655644",
"_s	c #7C7061",
":s	c #251E16",
"<s	c #272016",
"[s	c #2E200D",
"}s	c #332206",
"|s	c #5C4926",
"1s	c #806A3B",
"2s	c #826834",
"3s	c #83662F",
"4s	c #84662D",
"5s	c #886631",
"6s	c #866632",
"7s	c #856733",
"8s	c #826632",
"9s	c #806631",
"0s	c #7E6630",
"as	c #7C6531",
"bs	c #776032",
"cs	c #725B30",
"ds	c #6D572E",
"es	c #5E4924",
"fs	c #574420",
"gs	c #544120",
"hs	c #554223",
"is	c #554224",
"js	c #564323",
"ks	c #574322",
"ls	c #553F1F",
"ms	c #543E1E",
"ns	c #533F1D",
"os	c #523F1D",
"ps	c #523F1B",
"qs	c #513F1B",
"rs	c #523F1C",
"ss	c #4F3F1E",
"ts	c #504020",
"us	c #59482D",
"vs	c #5D4D33",
"ws	c #665640",
"xs	c #7B6E5E",
"ys	c #867E72",
"zs	c #888177",
"As	c #8C847B",
"Bs	c #8F8980",
"Cs	c #989289",
"Ds	c #9F9A91",
"Es	c #292119",
"Fs	c #36240D",
"Gs	c #5F4B25",
"Hs	c #816936",
"Is	c #82652C",
"Js	c #84642B",
"Ks	c #86652A",
"Ls	c #88642C",
"Ms	c #86662E",
"Ns	c #83672F",
"Os	c #846937",
"Ps	c #846A3B",
"Qs	c #7D6539",
"Rs	c #69522A",
"Ss	c #533F1A",
"Ts	c #503E1F",
"Us	c #513F1F",
"Vs	c #534021",
"Ws	c #524021",
"Xs	c #554221",
"Ys	c #574421",
"Zs	c #574321",
"`s	c #554320",
" t	c #564422",
".t	c #554323",
"+t	c #564425",
"@t	c #564427",
"#t	c #58472B",
"$t	c #5D4C30",
"%t	c #645238",
"&t	c #69583F",
"*t	c #6D5D45",
"=t	c #7B6D59",
"-t	c #887C6C",
";t	c #877D6F",
">t	c #877C6F",
",t	c #857A6E",
"'t	c #867C6F",
")t	c #847A6F",
"!t	c #7F7469",
"~t	c #82786C",
"{t	c #857C72",
"]t	c #887E74",
"^t	c #282018",
"/t	c #342210",
"(t	c #826932",
"_t	c #846728",
":t	c #88652A",
"<t	c #87652B",
"[t	c #86662D",
"}t	c #86672A",
"|t	c #836530",
"1t	c #806434",
"2t	c #4E3A14",
"3t	c #4D3E1E",
"4t	c #53411E",
"5t	c #554321",
"6t	c #584525",
"7t	c #5A482A",
"8t	c #5C4A2D",
"9t	c #5A492D",
"0t	c #5B4A2F",
"at	c #5D4C31",
"bt	c #5F4E34",
"ct	c #625137",
"dt	c #66543C",
"et	c #6A5A42",
"ft	c #70614B",
"gt	c #786A58",
"ht	c #776858",
"it	c #766656",
"jt	c #736453",
"kt	c #706150",
"lt	c #6C5E4D",
"mt	c #695B4A",
"nt	c #685A48",
"ot	c #645644",
"pt	c #615341",
"qt	c #5E503F",
"rt	c #5D4F3D",
"st	c #5D4F3E",
"tt	c #5B4E3D",
"ut	c #594B3A",
"vt	c #55483A",
"wt	c #4F463B",
"xt	c #282017",
"yt	c #2C2014",
"zt	c #292214",
"At	c #292312",
"Bt	c #332212",
"Ct	c #5F4B24",
"Dt	c #826930",
"Et	c #856726",
"Ft	c #896629",
"Gt	c #86662A",
"Ht	c #886629",
"It	c #886627",
"Jt	c #896527",
"Kt	c #84652E",
"Lt	c #4E3A13",
"Mt	c #5A492E",
"Nt	c #5A4930",
"Ot	c #5A4830",
"Pt	c #59472F",
"Qt	c #594730",
"Rt	c #57472F",
"St	c #4F4437",
"Tt	c #282016",
"Ut	c #463719",
"Vt	c #483617",
"Wt	c #57462D",
"Xt	c #54442B",
"Yt	c #281F15",
"Zt	c #2A2015",
"`t	c #56452B",
" u	c #56442C",
".u	c #57452D",
"+u	c #584731",
"@u	c #281F16",
"#u	c #514026",
"$u	c #281D14",
"%u	c #463519",
"&u	c #46351A",
"*u	c #514639",
"=u	c #261D14",
"-u	c #47351C",
";u	c #291F14",
">u	c #896627",
",u	c #504639",
"'u	c #896529",
")u	c #876527",
"!u	c #4E3B13",
"~u	c #503E28",
"{u	c #503F28",
"]u	c #281E14",
"^u	c #86662C",
"/u	c #896628",
"(u	c #896727",
"_u	c #7F6630",
":u	c #4F3F27",
"<u	c #271F16",
"[u	c #2D2015",
"}u	c #342211",
"|u	c #5F4B27",
"1u	c #826937",
"2u	c #866825",
"3u	c #856626",
"4u	c #7F662F",
"5u	c #4D3A10",
"6u	c #483912",
"7u	c #49361D",
"8u	c #4A361E",
"9u	c #4F3F26",
"0u	c #4D4336",
"au	c #252018",
"bu	c #34220E",
"cu	c #5F4B28",
"du	c #826839",
"eu	c #896528",
"fu	c #886626",
"gu	c #866724",
"hu	c #846827",
"iu	c #866824",
"ju	c #665120",
"ku	c #4C3B0F",
"lu	c #34230A",
"mu	c #83662C",
"nu	c #886625",
"ou	c #866823",
"pu	c #866826",
"qu	c #876529",
"ru	c #85672F",
"su	c #4C3A12",
"tu	c #483815",
"uu	c #242016",
"vu	c #322408",
"wu	c #5E4C24",
"xu	c #816A34",
"yu	c #83672A",
"zu	c #886724",
"Au	c #87652A",
"Bu	c #806435",
"Cu	c #4E4338",
"Du	c #232117",
"Eu	c #2A2412",
"Fu	c #2B220E",
"Gu	c #826729",
"Hu	c #876726",
"Iu	c #876724",
"Ju	c #86652F",
"Ku	c #88642B",
"Lu	c #806337",
"Mu	c #674E28",
"Nu	c #48361E",
"Ou	c #232118",
"Pu	c #262218",
"Qu	c #2B2210",
"Ru	c #5E4C25",
"Su	c #816A35",
"Tu	c #876430",
"Uu	c #88652E",
"Vu	c #826337",
"Wu	c #4D4238",
"Xu	c #33230E",
"Yu	c #5E4C27",
"Zu	c #816A37",
"`u	c #82672C",
" v	c #89652B",
".v	c #896332",
"+v	c #886433",
"@v	c #89642F",
"#v	c #88642A",
"$v	c #876632",
"%v	c #826336",
"&v	c #684E27",
"*v	c #4F3818",
"=v	c #4B361B",
"-v	c #4B371F",
";v	c #4A3620",
">v	c #4D4237",
",v	c #242119",
"'v	c #262219",
")v	c #816939",
"!v	c #83662E",
"~v	c #896626",
"{v	c #89652A",
"]v	c #896431",
"^v	c #89642D",
"/v	c #8B6627",
"(v	c #886527",
"_v	c #87672F",
":v	c #826433",
"<v	c #4F3816",
"[v	c #4A361F",
"}v	c #201E17",
"|v	c #25221A",
"1v	c #282419",
"2v	c #332110",
"3v	c #604C2B",
"4v	c #826A3B",
"5v	c #81642C",
"6v	c #87662D",
"7v	c #886524",
"8v	c #8A652E",
"9v	c #8A6528",
"0v	c #8A6525",
"av	c #8A6724",
"bv	c #876624",
"cv	c #836529",
"dv	c #7F632D",
"ev	c #503914",
"fv	c #312E22",
"gv	c #2A261A",
"hv	c #252016",
"iv	c #2C251A",
"jv	c #2B2319",
"kv	c #292118",
"lv	c #2E2216",
"mv	c #32220F",
"nv	c #604D2B",
"ov	c #7F642B",
"pv	c #896726",
"qv	c #886623",
"rv	c #886529",
"sv	c #8A6624",
"tv	c #896621",
"uv	c #896720",
"vv	c #886925",
"wv	c #80662E",
"xv	c #39332C",
"yv	c #2C271F",
"zv	c #252015",
"Av	c #282114",
"Bv	c #31230D",
"Cv	c #5E4D2A",
"Dv	c #806C3B",
"Ev	c #7F672E",
"Fv	c #85672C",
"Gv	c #836426",
"Hv	c #856524",
"Iv	c #866722",
"Jv	c #886620",
"Kv	c #87671D",
"Lv	c #886820",
"Mv	c #866923",
"Nv	c #836628",
"Ov	c #7A622A",
"Pv	c #503C12",
"Qv	c #47351D",
"Rv	c #4C4237",
"Sv	c #4B4533",
"Tv	c #4C442F",
"Uv	c #5E4F2B",
"Vv	c #7E6B3B",
"Wv	c #7C6631",
"Xv	c #806731",
"Yv	c #82672F",
"Zv	c #836725",
"`v	c #826725",
" w	c #836527",
".w	c #836625",
"+w	c #856721",
"@w	c #866820",
"#w	c #846621",
"$w	c #856927",
"%w	c #846B2E",
"&w	c #7E6730",
"*w	c #665121",
"=w	c #4D3B11",
"-w	c #4F4029",
";w	c #4F402A",
">w	c #4C4137",
",w	c #544724",
"'w	c #5E4F26",
")w	c #655225",
"!w	c #725C2E",
"~w	c #7B6335",
"{w	c #7F6737",
"]w	c #806834",
"^w	c #816932",
"/w	c #806931",
"(w	c #816733",
"_w	c #806831",
":w	c #81692B",
"<w	c #826828",
"[w	c #816931",
"}w	c #665225",
"|w	c #483513",
"1w	c #4C4136",
"2w	c #392C0C",
"3w	c #40300D",
"4w	c #4C3A19",
"5w	c #554121",
"6w	c #5A4524",
"7w	c #675329",
"8w	c #6E5A2F",
"9w	c #745F37",
"0w	c #796438",
"aw	c #7C6734",
"bw	c #7F6832",
"cw	c #7C6534",
"dw	c #7A6537",
"ew	c #65512A",
"fw	c #473615",
"gw	c #4B3D23",
"hw	c #2D1E09",
"iw	c #2F1D0B",
"jw	c #311E0E",
"kw	c #34210F",
"lw	c #38250E",
"mw	c #3F2D11",
"nw	c #4E3C23",
"ow	c #554426",
"pw	c #5D4A25",
"qw	c #634E25",
"rw	c #6E552A",
"sw	c #745B2F",
"tw	c #7A6338",
"uw	c #79643D",
"vw	c #64512E",
"ww	c #463516",
"xw	c #4A3A22",
"yw	c #493921",
"zw	c #4A3C21",
"Aw	c #2F261B",
"Bw	c #2F2317",
"Cw	c #2E1F15",
"Dw	c #2F1F16",
"Ew	c #2E1E16",
"Fw	c #2E1E14",
"Gw	c #2D1E10",
"Hw	c #2C1D0E",
"Iw	c #2E1C0F",
"Jw	c #31200F",
"Kw	c #36250D",
"Lw	c #3D2A0B",
"Mw	c #47310F",
"Nw	c #5C492A",
"Ow	c #574424",
"Pw	c #514120",
"Qw	c #4B3A1A",
"Rw	c #483A1E",
"Sw	c #4C4034",
"Tw	c #2D2319",
"Uw	c #2B1F16",
"Vw	c #2C1E17",
"Ww	c #2D1F16",
"Xw	c #2D2014",
"Yw	c #2C1F14",
"Zw	c #2D1E06",
"`w	c #372508",
" x	c #58431D",
".x	c #4E3915",
"+x	c #4C3814",
"@x	c #4E3C21",
"#x	c #49361C",
"$x	c #4F3D20",
"%x	c #523F25",
"&x	c #513F24",
"*x	c #8E847C",
"=x	c #2D271C",
"-x	c #2D200C",
";x	c #33240A",
">x	c #634E2C",
",x	c #634C21",
"'x	c #604A1F",
")x	c #5E471E",
"!x	c #5C451D",
"~x	c #5B441C",
"{x	c #5A441C",
"]x	c #58401B",
"^x	c #533D19",
"/x	c #523D1B",
"(x	c #4E3B1A",
"_x	c #4E3B1E",
":x	c #503D21",
"<x	c #4D3A1F",
"[x	c #4D3A20",
"}x	c #4D391D",
"|x	c #4D391C",
"1x	c #4E391A",
"2x	c #4E381A",
"3x	c #4F391A",
"4x	c #503A19",
"5x	c #513B1A",
"6x	c #513C1B",
"7x	c #513D1C",
"8x	c #533F20",
"9x	c #56452C",
"0x	c #5A4D3E",
"ax	c #847B71",
"bx	c #8A8278",
"cx	c #8D8579",
"dx	c #948C82",
"ex	c #A6A095",
"fx	c #B8B2AC",
"gx	c #33250B",
"hx	c #634C24",
"ix	c #5F4922",
"jx	c #5F4925",
"kx	c #5C4724",
"lx	c #5A4624",
"mx	c #574323",
"nx	c #544122",
"ox	c #513E20",
"px	c #503D20",
"qx	c #523E21",
"rx	c #523F21",
"sx	c #554020",
"tx	c #564020",
"ux	c #56401F",
"vx	c #553F1E",
"wx	c #54401E",
"xx	c #513E1D",
"yx	c #5C4B31",
"zx	c #625443",
"Ax	c #756A5E",
"Bx	c #867C71",
"Cx	c #8A8075",
"Dx	c #8F857B",
"Ex	c #999187",
"Fx	c #A49D94",
"Gx	c #989188",
"Hx	c #898176",
"Ix	c #888076",
"Jx	c #8A847A",
"Kx	c #634C2A",
"Lx	c #664D22",
"Mx	c #654D20",
"Nx	c #654E21",
"Ox	c #614D2A",
"Px	c #574423",
"Qx	c #4E3B1C",
"Rx	c #503D1F",
"Sx	c #523F20",
"Tx	c #564222",
"Ux	c #584323",
"Vx	c #55411F",
"Wx	c #533F1E",
"Xx	c #574425",
"Yx	c #5A4728",
"Zx	c #604D30",
"`x	c #67553D",
" y	c #685947",
".y	c #776A5C",
"+y	c #86796B",
"@y	c #8A7D70",
"#y	c #8B7E73",
"$y	c #8B7F73",
"%y	c #8C8174",
"&y	c #8E8478",
"*y	c #8D8378",
"=y	c #8C8379",
"-y	c #8C847A",
";y	c #8D857A",
">y	c #634D22",
",y	c #644E24",
"'y	c #564320",
")y	c #493615",
"!y	c #53401F",
"~y	c #5A4726",
"{y	c #5B4726",
"]y	c #594626",
"^y	c #5C4929",
"/y	c #5C492B",
"(y	c #604E31",
"_y	c #645235",
":y	c #68553B",
"<y	c #6D5C44",
"[y	c #70604D",
"}y	c #7B6C5C",
"|y	c #867666",
"1y	c #887A6A",
"2y	c #87786A",
"3y	c #837566",
"4y	c #7F7263",
"5y	c #807465",
"6y	c #817467",
"7y	c #7F7366",
"8y	c #7C7165",
"9y	c #7B7064",
"0y	c #796F64",
"ay	c #776E61",
"by	c #746B5E",
"cy	c #70675A",
"dy	c #6D6356",
"ey	c #6D6458",
"fy	c #756E63",
"gy	c #6E685F",
"hy	c #634E27",
"iy	c #56431E",
"jy	c #544221",
"ky	c #5E4B2B",
"ly	c #614F30",
"my	c #614F32",
"ny	c #604F34",
"oy	c #645339",
"py	c #64533A",
"qy	c #67553E",
"ry	c #6A5946",
"sy	c #6E5D4D",
"ty	c #705F4F",
"uy	c #6F5F4F",
"vy	c #6E5E4E",
"wy	c #6A5A4A",
"xy	c #655544",
"yy	c #635543",
"zy	c #605241",
"Ay	c #5C4D3C",
"By	c #574837",
"Cy	c #544534",
"Dy	c #4B4339",
"Ey	c #49413A",
"Fy	c #664D20",
"Gy	c #674E20",
"Hy	c #57421D",
"Iy	c #493612",
"Jy	c #483717",
"Ky	c #4D3B1C",
"Ly	c #574526",
"My	c #5C4B30",
"Ny	c #5B4A30",
"Oy	c #5D4C33",
"Py	c #5C4B33",
"Qy	c #5A4932",
"Ry	c #5B4934",
"Sy	c #594936",
"Ty	c #554734",
"Uy	c #4D4436",
"Vy	c #473F34",
"Wy	c #2A2415",
"Xy	c #664C1F",
"Yy	c #664D1E",
"Zy	c #664F28",
"`y	c #56411D",
" z	c #483512",
".z	c #473616",
"+z	c #554429",
"@z	c #504838",
"#z	c #57421E",
"$z	c #4E3D22",
"%z	c #55442A",
"&z	c #534736",
"*z	c #54493A",
"=z	c #644D2B",
"-z	c #504337",
";z	c #654D26",
">z	c #654E29",
",z	c #574830",
"'z	c #2E271C",
")z	c #654F20",
"!z	c #574220",
"~z	c #4F4535",
"{z	c #34250E",
"]z	c #4D3A1D",
"^z	c #644E2A",
"/z	c #574121",
"(z	c #59452E",
"_z	c #34240E",
":z	c #644E29",
"<z	c #564120",
"[z	c #58452F",
"}z	c #514435",
"|z	c #654D28",
"1z	c #634E29",
"2z	c #55421F",
"3z	c #4E443A",
"4z	c #2D281C",
"5z	c #34240F",
"6z	c #57432E",
"7z	c #514537",
"8z	c #50453A",
"9z	c #2C281C",
"0z	c #55442C",
"az	c #4E463A",
"bz	c #2C261A",
"cz	c #2A200F",
"dz	c #32240D",
"ez	c #4A4234",
"fz	c #2A281A",
"gz	c #292415",
"hz	c #31250D",
"iz	c #4B4335",
"jz	c #2B271C",
"kz	c #282316",
"lz	c #56421F",
"mz	c #4F4435",
"nz	c #2B261C",
"oz	c #31250C",
"pz	c #4B4234",
"qz	c #2B251D",
"rz	c #31250B",
"sz	c #2C251F",
"tz	c #2C261E",
"uz	c #2A271C",
"vz	c #2C291D",
"wz	c #282311",
"xz	c #32260E",
"yz	c #624B29",
"zz	c #4E4133",
"Az	c #4B3F33",
"Bz	c #282519",
"Cz	c #262216",
"Dz	c #2C2619",
"Ez	c #271F12",
"Fz	c #2B2416",
"Gz	c #2B2412",
"Hz	c #262215",
"Iz	c #32250D",
"Jz	c #4D4133",
"Kz	c #2C2B21",
"Lz	c #29261A",
"Mz	c #272417",
"Nz	c #272115",
"Oz	c #272112",
"Pz	c #262111",
"Qz	c #31240E",
"Rz	c #624B2A",
"Sz	c #644C26",
"Tz	c #2C2C1F",
"Uz	c #242215",
"Vz	c #252316",
"Wz	c #262217",
"Xz	c #2B251A",
"Yz	c #30230E",
"Zz	c #654E2E",
"`z	c #4D4233",
" A	c #4A4134",
".A	c #3A382F",
"+A	c #231E18",
"@A	c #231F17",
"#A	c #27241A",
"$A	c #2A231A",
"%A	c #322511",
"&A	c #4F3B22",
"*A	c #644D2E",
"=A	c #654C23",
"-A	c #3B342F",
";A	c #2B231C",
">A	c #251D17",
",A	c #25201B",
"'A	c #261F16",
")A	c #362815",
"!A	c #4E3A21",
"~A	c #624B2C",
"{A	c #664E2A",
"]A	c #31271B",
"^A	c #2F2212",
"/A	c #49351C",
"(A	c #634C2E",
"_A	c #68502D",
":A	c #644C24",
"<A	c #5D4A2F",
"[A	c #5E4929",
"}A	c #644F2C",
"|A	c #644F26",
"1A	c #624E29",
"2A	c #634E2B",
"3A	c #46361B",
"4A	c #4E4235",
"5A	c #4C4037",
"6A	c #392E1A",
"7A	c #3D2F18",
"8A	c #43341A",
"9A	c #4F3F1F",
"0A	c #554524",
"aA	c #5B4A29",
"bA	c #5F4E2B",
"cA	c #604E2C",
"dA	c #614C24",
"eA	c #644F24",
"fA	c #655129",
"gA	c #604F2A",
"hA	c #5E4E2C",
"iA	c #625130",
"jA	c #544223",
"kA	c #4A3513",
"lA	c #4F3817",
"mA	c #45371E",
"nA	c #45371F",
"oA	c #46371E",
"pA	c #45391C",
"qA	c #45381E",
"rA	c #473720",
"sA	c #483720",
"tA	c #483722",
"uA	c #473621",
"vA	c #4D3C26",
"wA	c #4C3C28",
"xA	c #4E4136",
"yA	c #493D36",
"zA	c #241F12",
"AA	c #2C2315",
"BA	c #2C2411",
"CA	c #312813",
"DA	c #352912",
"EA	c #382B12",
"FA	c #3B2E15",
"GA	c #3F3217",
"HA	c #45361B",
"IA	c #4C3E22",
"JA	c #534324",
"KA	c #5E4B27",
"LA	c #645129",
"MA	c #61502C",
"NA	c #5C4E2E",
"OA	c #5D4F31",
"PA	c #605233",
"QA	c #4C3613",
"RA	c #4E3613",
"SA	c #4C3513",
"TA	c #443820",
"UA	c #453920",
"VA	c #46391D",
"WA	c #43391B",
"XA	c #43391C",
"YA	c #44381E",
"ZA	c #473622",
"`A	c #4B3D24",
" B	c #4D3A24",
".B	c #473E34",
"+B	c #231F15",
"@B	c #2A2210",
"#B	c #2B220F",
"$B	c #2C210B",
"%B	c #2D210A",
"&B	c #2F230C",
"*B	c #342710",
"=B	c #413013",
"-B	c #483515",
";B	c #504327",
">B	c #56492E",
",B	c #584A2E",
"'B	c #4C340E",
")B	c #4F3711",
"!B	c #46381B",
"~B	c #463818",
"{B	c #443817",
"]B	c #493721",
"^B	c #4A3823",
"/B	c #4A3B22",
"(B	c #4A3C22",
"_B	c #493923",
":B	c #4A3A24",
"<B	c #4A3A26",
"[B	c #4B3A27",
"}B	c #483D32",
"|B	c #221D16",
"1B	c #2C2412",
"2B	c #2E2411",
"3B	c #2E2310",
"4B	c #30210B",
"5B	c #301F05",
"6B	c #332106",
"7B	c #34240A",
"8B	c #372B15",
"9B	c #3E3118",
"0B	c #544323",
"aB	c #634D28",
"bB	c #5D441C",
"cB	c #533A0F",
"dB	c #503910",
"eB	c #483712",
"fB	c #493A17",
"gB	c #49351B",
"hB	c #48351C",
"iB	c #4A3B1F",
"jB	c #4A3B20",
"kB	c #493821",
"lB	c #4E3C28",
"mB	c #4F4027",
"nB	c #51442D",
"oB	c #4C402E",
"pB	c #221C18",
"qB	c #312412",
"rB	c #31210E",
"sB	c #33220F",
"tB	c #2E2311",
"uB	c #5D4B2B",
"vB	c #766037",
"wB	c #785E31",
"xB	c #755A2C",
"yB	c #6E5527",
"zB	c #644E21",
"AB	c #5A461B",
"BB	c #533F16",
"CB	c #4E3A0F",
"DB	c #4C360C",
"EB	c #4B370D",
"FB	c #4B3A11",
"GB	c #4B3612",
"HB	c #4C3614",
"IB	c #4D3616",
"JB	c #483419",
"KB	c #48351A",
"LB	c #47341A",
"MB	c #473419",
"NB	c #48351B",
"OB	c #47351B",
"PB	c #47351A",
"QB	c #4D3D21",
"RB	c #4F4124",
"SB	c #4E4127",
"TB	c #221D18",
"UB	c #29221B",
"VB	c #2D2515",
"WB	c #2D2414",
"XB	c #2B2011",
"YB	c #2D1F10",
"ZB	c #2F230B",
"`B	c #645331",
" C	c #7E693D",
".C	c #836837",
"+C	c #866834",
"@C	c #7C6330",
"#C	c #76602E",
"$C	c #705A2B",
"%C	c #6C5525",
"&C	c #6B5122",
"*C	c #624B1D",
"=C	c #543F12",
"-C	c #513B10",
";C	c #4F360F",
">C	c #513712",
",C	c #503614",
"'C	c #4D3514",
")C	c #4B3514",
"!C	c #453515",
"~C	c #463618",
"{C	c #493518",
"]C	c #483517",
"^C	c #493618",
"/C	c #4E3E1E",
"(C	c #4E4229",
"_C	c #6E6151",
":C	c #9E9385",
"<C	c #221D19",
"[C	c #29221C",
"}C	c #2B2415",
"|C	c #2E2218",
"1C	c #2E2118",
"2C	c #2E230B",
"3C	c #63522F",
"4C	c #7D6739",
"5C	c #816530",
"6C	c #85682F",
"7C	c #846932",
"8C	c #826934",
"9C	c #816834",
"0C	c #816531",
"aC	c #80622E",
"bC	c #7D612E",
"cC	c #785E2F",
"dC	c #72592B",
"eC	c #6D5225",
"fC	c #65491E",
"gC	c #5F431A",
"hC	c #593F18",
"iC	c #543C17",
"jC	c #543F1B",
"kC	c #483716",
"lC	c #4E391C",
"mC	c #4E3A1B",
"nC	c #503C1B",
"oC	c #503D1B",
"pC	c #513D1B",
"qC	c #513E1C",
"rC	c #514222",
"sC	c #554629",
"tC	c #594C33",
"uC	c #756A57",
"vC	c #908576",
"wC	c #8E8579",
"xC	c #837A70",
"yC	c #888077",
"zC	c #8E8880",
"AC	c #221E18",
"BC	c #28231B",
"CC	c #2D221A",
"DC	c #2C211A",
"EC	c #2D241C",
"FC	c #2E230A",
"GC	c #63512D",
"HC	c #7F6837",
"IC	c #856529",
"JC	c #856629",
"KC	c #836630",
"LC	c #866630",
"MC	c #836634",
"NC	c #816432",
"OC	c #806231",
"PC	c #7E6030",
"QC	c #7A5D30",
"RC	c #765A2F",
"SC	c #70572E",
"TC	c #604A22",
"UC	c #56421E",
"VC	c #4F3E1C",
"WC	c #50401F",
"XC	c #544123",
"YC	c #544023",
"ZC	c #533E20",
"`C	c #543F1F",
" D	c #523E1C",
".D	c #533F1B",
"+D	c #523E1A",
"@D	c #53401E",
"#D	c #594829",
"$D	c #605035",
"%D	c #685A42",
"&D	c #766955",
"*D	c #837767",
"=D	c #877D70",
"-D	c #887F74",
";D	c #8B837A",
">D	c #8F877E",
",D	c #8E857C",
"'D	c #8D847A",
")D	c #8A7F78",
"!D	c #8A7E7A",
"~D	c #8E837F",
"{D	c #221E16",
"]D	c #2C221B",
"^D	c #2C221C",
"/D	c #2D2308",
"(D	c #64532D",
"_D	c #866527",
":D	c #846529",
"<D	c #84652C",
"[D	c #84642D",
"}D	c #85642E",
"|D	c #88632E",
"1D	c #87642D",
"2D	c #85652F",
"3D	c #846630",
"4D	c #856634",
"5D	c #836636",
"6D	c #7D6236",
"7D	c #533E1A",
"8D	c #554022",
"9D	c #584422",
"0D	c #584420",
"aD	c #56431C",
"bD	c #54401B",
"cD	c #55411C",
"dD	c #55411D",
"eD	c #5B4729",
"fD	c #614E33",
"gD	c #67563E",
"hD	c #6F5F49",
"iD	c #786A57",
"jD	c #837666",
"kD	c #8B7F71",
"lD	c #8A8073",
"mD	c #877F71",
"nD	c #887F72",
"oD	c #8A8174",
"pD	c #8B8276",
"qD	c #8A8076",
"rD	c #8B7F77",
"sD	c #8D817A",
"tD	c #8D837B",
"uD	c #8E867B",
"vD	c #8B8378",
"wD	c #8E8479",
"xD	c #958B7F",
"yD	c #A69A8F",
"zD	c #221F14",
"AD	c #2C231C",
"BD	c #2A251C",
"CD	c #2A2512",
"DD	c #2D2306",
"ED	c #65532B",
"FD	c #84652A",
"GD	c #876526",
"HD	c #85652C",
"ID	c #87642E",
"JD	c #88632D",
"KD	c #87632C",
"LD	c #86642D",
"MD	c #85652B",
"ND	c #84652B",
"OD	c #7E6334",
"PD	c #4E3813",
"QD	c #513C1D",
"RD	c #523D1E",
"SD	c #533E1E",
"TD	c #54401F",
"UD	c #584421",
"VD	c #5A4623",
"WD	c #5B4722",
"XD	c #5B4720",
"YD	c #5C4923",
"ZD	c #57431F",
"`D	c #594521",
" E	c #5F4B2B",
".E	c #635033",
"+E	c #66543B",
"@E	c #6A5944",
"#E	c #71614E",
"$E	c #7B6B5B",
"%E	c #857767",
"&E	c #8B7F6F",
"*E	c #8A7E6F",
"=E	c #897F6F",
"-E	c #8D8373",
";E	c #8D8271",
">E	c #8C8171",
",E	c #8A8070",
"'E	c #887C6D",
")E	c #877A6D",
"!E	c #85786D",
"~E	c #807669",
"{E	c #7B7165",
"]E	c #807468",
"^E	c #5E5445",
"/E	c #554A3E",
"(E	c #595049",
"_E	c #221F13",
":E	c #282315",
"<E	c #2A2219",
"[E	c #2A2410",
"}E	c #2E2306",
"|E	c #66532B",
"1E	c #826835",
"2E	c #85662B",
"3E	c #886526",
"4E	c #86642C",
"5E	c #86642E",
"6E	c #88632C",
"7E	c #87642B",
"8E	c #866529",
"9E	c #7E6332",
"0E	c #4F3913",
"aE	c #4F3A1A",
"bE	c #58451F",
"cE	c #5C4824",
"dE	c #5E4A26",
"eE	c #5D4925",
"fE	c #624E2D",
"gE	c #644F2F",
"hE	c #675335",
"iE	c #6C5940",
"jE	c #6F5D48",
"kE	c #715F4D",
"lE	c #736251",
"mE	c #786758",
"nE	c #7D6E5F",
"oE	c #7D7060",
"pE	c #7A6D5D",
"qE	c #786C5B",
"rE	c #776B59",
"sE	c #756957",
"tE	c #726754",
"uE	c #6F6451",
"vE	c #6D604F",
"wE	c #6B5E4E",
"xE	c #695B4D",
"yE	c #635647",
"zE	c #5F5243",
"AE	c #584A36",
"BE	c #584B3A",
"CE	c #554A3B",
"DE	c #5A5148",
"EE	c #2E2206",
"FE	c #67532C",
"GE	c #836836",
"HE	c #86652C",
"IE	c #886427",
"JE	c #88632B",
"KE	c #87642A",
"LE	c #876429",
"ME	c #876528",
"NE	c #503A15",
"OE	c #4A3618",
"PE	c #4B3618",
"QE	c #503C19",
"RE	c #5D4828",
"SE	c #644F30",
"TE	c #665233",
"UE	c #655032",
"VE	c #655136",
"WE	c #67543D",
"XE	c #675643",
"YE	c #665544",
"ZE	c #655546",
"`E	c #665748",
" F	c #655747",
".F	c #605443",
"+F	c #5C4F3C",
"@F	c #584B36",
"#F	c #574B34",
"$F	c #554932",
"%F	c #544831",
"&F	c #544630",
"*F	c #544633",
"=F	c #574832",
"-F	c #584935",
";F	c #574A3A",
">F	c #5E5447",
",F	c #221E15",
"'F	c #2B2311",
")F	c #2E2207",
"!F	c #67522D",
"~F	c #85652D",
"{F	c #84642E",
"]F	c #7E6331",
"^F	c #493517",
"/F	c #4F3B1C",
"(F	c #5C482C",
"_F	c #5F4A2F",
":F	c #5D492F",
"<F	c #5D4931",
"[F	c #5A4732",
"}F	c #554636",
"|F	c #524430",
"1F	c #554731",
"2F	c #554730",
"3F	c #54472F",
"4F	c #564730",
"5F	c #584735",
"6F	c #584830",
"7F	c #584933",
"8F	c #574A38",
"9F	c #5E5545",
"0F	c #66512E",
"aF	c #826638",
"bF	c #86632E",
"cF	c #886429",
"dF	c #886428",
"eF	c #84662C",
"fF	c #83662D",
"gF	c #86642B",
"hF	c #86652B",
"iF	c #876525",
"jF	c #85662E",
"kF	c #634C22",
"lF	c #4E3A1F",
"mF	c #544027",
"nF	c #58432C",
"oF	c #58432D",
"pF	c #594530",
"qF	c #594632",
"rF	c #57482F",
"sF	c #594634",
"tF	c #584635",
"uF	c #594931",
"vF	c #58482E",
"wF	c #564830",
"xF	c #544835",
"yF	c #5B5343",
"zF	c #221D17",
"AF	c #2D2118",
"BF	c #2E221A",
"CF	c #2A221A",
"DF	c #30210A",
"EF	c #665130",
"FF	c #82653A",
"GF	c #866330",
"HF	c #85652A",
"IF	c #84662A",
"JF	c #83662B",
"KF	c #856528",
"LF	c #866625",
"MF	c #7E6430",
"NF	c #4D3921",
"OF	c #54412B",
"PF	c #584432",
"QF	c #594533",
"RF	c #574731",
"SF	c #564733",
"TF	c #564731",
"UF	c #56482F",
"VF	c #57482E",
"WF	c #584632",
"XF	c #584533",
"YF	c #584535",
"ZF	c #55462B",
"`F	c #54472E",
" G	c #554A36",
".G	c #5E5547",
"+G	c #2D2119",
"@G	c #2F221B",
"#G	c #2D231D",
"$G	c #30210D",
"%G	c #675130",
"&G	c #83663B",
"*G	c #866331",
"=G	c #83662A",
"-G	c #846627",
";G	c #7D6430",
">G	c #4E3A17",
",G	c #594633",
"'G	c #584534",
")G	c #574534",
"!G	c #564732",
"~G	c #574435",
"{G	c #574635",
"]G	c #544830",
"^G	c #564B38",
"/G	c #5F5649",
"(G	c #2A231B",
"_G	c #2D211A",
":G	c #2E221B",
"<G	c #30220F",
"[G	c #67522F",
"}G	c #836738",
"|G	c #86642F",
"1G	c #846628",
"2G	c #856527",
"3G	c #866627",
"4G	c #856628",
"5G	c #84672D",
"6G	c #584732",
"7G	c #584633",
"8G	c #574535",
"9G	c #574734",
"0G	c #594834",
"aG	c #554831",
"bG	c #5D5448",
"cG	c #302211",
"dG	c #67522E",
"eG	c #826735",
"fG	c #84662B",
"gG	c #7D632F",
"hG	c #664D26",
"iG	c #584833",
"jG	c #605549",
"kG	c #211E15",
"lG	c #66522E",
"mG	c #826734",
"nG	c #7D6230",
"oG	c #664C27",
"pG	c #4F381A",
"qG	c #52422A",
"rG	c #574A39",
"sG	c #7D6330",
"tG	c #221F16",
"uG	c #2B241C",
"vG	c #5F5549",
"wG	c #2D2317",
"xG	c #5E5549",
"yG	c #2C2419",
"zG	c #564A39",
"AG	c #615549",
"BG	c #2C241B",
"CG	c #605749",
"DG	c #242017",
"EG	c #88652C",
"FG	c #85662A",
"GG	c #7D622F",
"HG	c #46361C",
"IG	c #584831",
"JG	c #61574A",
"KG	c #27231A",
"LG	c #61584C",
"MG	c #242118",
"NG	c #29231A",
"OG	c #2D261D",
"PG	c #2C2319",
"QG	c #2E231B",
"RG	c #564938",
"SG	c #61584B",
"TG	c #2E261D",
"UG	c #61574C",
"VG	c #2D221B",
"WG	c #2B2613",
"XG	c #574831",
"YG	c #63584C",
"ZG	c #28221A",
"`G	c #2B241B",
" H	c #312312",
".H	c #63594E",
"+H	c #2B2920",
"@H	c #312B23",
"#H	c #2B251B",
"$H	c #2D2318",
"%H	c #312311",
"&H	c #635A4E",
"*H	c #433F38",
"=H	c #2F2A21",
"-H	c #342C25",
";H	c #2E261E",
">H	c #2C241A",
",H	c #2E2412",
"'H	c #86642A",
")H	c #86652D",
"!H	c #7E6232",
"~H	c #654C25",
"{H	c #584730",
"]H	c #56452D",
"^H	c #574B39",
"/H	c #645B4B",
"(H	c #615D57",
"_H	c #3E3934",
":H	c #29251F",
"<H	c #2A251D",
"[H	c #2C2920",
"}H	c #29251D",
"|H	c #2C291B",
"1H	c #282314",
"2H	c #272110",
"3H	c #2D2612",
"4H	c #312510",
"5H	c #6A562D",
"6H	c #826A34",
"7H	c #826628",
"8H	c #846526",
"9H	c #856526",
"0H	c #866429",
"aH	c #88652F",
"bH	c #88642E",
"cH	c #87682C",
"dH	c #876428",
"eH	c #846229",
"fH	c #816537",
"gH	c #52442C",
"hH	c #574835",
"iH	c #574834",
"jH	c #574833",
"kH	c #645B4D",
"lH	c #525149",
"mH	c #3D3934",
"nH	c #26221B",
"oH	c #262317",
"pH	c #352309",
"qH	c #7F6935",
"rH	c #82692D",
"sH	c #856829",
"tH	c #87652E",
"uH	c #87652D",
"vH	c #87672D",
"wH	c #846327",
"xH	c #82622E",
"yH	c #7C5E31",
"zH	c #4E3A18",
"AH	c #574A37",
"BH	c #655B4C",
"CH	c #3F3B35",
"DH	c #332C29",
"EH	c #281F1B",
"FH	c #30200E",
"GH	c #655332",
"HH	c #7F6731",
"IH	c #806528",
"JH	c #8A662D",
"KH	c #886632",
"LH	c #816335",
"MH	c #654C24",
"NH	c #4F3917",
"OH	c #54422B",
"PH	c #55462F",
"QH	c #655C4C",
"RH	c #3B2C1E",
"SH	c #67563D",
"TH	c #7A6642",
"UH	c #7C6636",
"VH	c #80652D",
"WH	c #7F642C",
"XH	c #81662A",
"YH	c #85682A",
"ZH	c #85682B",
"`H	c #876128",
" I	c #856029",
".I	c #85622F",
"+I	c #7F6133",
"@I	c #4F3A16",
"#I	c #645B4F",
"$I	c #594932",
"%I	c #635134",
"&I	c #6F5C35",
"*I	c #776334",
"=I	c #7A6533",
"-I	c #7C6634",
";I	c #7D6634",
">I	c #7E6830",
",I	c #80692F",
"'I	c #846930",
")I	c #876630",
"!I	c #886530",
"~I	c #866533",
"{I	c #806133",
"]I	c #4F3A15",
"^I	c #473821",
"/I	c #564A3A",
"(I	c #645B50",
"_I	c #43331B",
":I	c #423215",
"<I	c #473714",
"[I	c #513E18",
"}I	c #5C4820",
"|I	c #665329",
"1I	c #6E5B30",
"2I	c #746233",
"3I	c #7A6635",
"4I	c #7F6635",
"5I	c #826233",
"6I	c #866434",
"7I	c #876534",
"8I	c #856431",
"9I	c #846333",
"0I	c #836434",
"aI	c #7D6133",
"bI	c #644C23",
"cI	c #564833",
"dI	c #534634",
"eI	c #675D50",
"fI	c #352819",
"gI	c #31230B",
"hI	c #342509",
"iI	c #38280C",
"jI	c #3B2C10",
"kI	c #413115",
"lI	c #745832",
"mI	c #7D5F37",
"nI	c #83653C",
"oI	c #83663A",
"pI	c #826538",
"qI	c #816539",
"rI	c #82673B",
"sI	c #7C6439",
"tI	c #4E3A15",
"uI	c #4A371F",
"vI	c #49361F",
"wI	c #4C3923",
"xI	c #564B3B",
"yI	c #655C4F",
"zI	c #373024",
"AI	c #322A1C",
"BI	c #2E2312",
"CI	c #302511",
"DI	c #312513",
"EI	c #322414",
"FI	c #302214",
"GI	c #34260F",
"HI	c #3B2910",
"II	c #453014",
"JI	c #50381A",
"KI	c #5C4423",
"LI	c #68502C",
"MI	c #735C36",
"NI	c #7C653D",
"OI	c #7D673F",
"PI	c #77633B",
"QI	c #4E3A16",
"RI	c #584634",
"SI	c #574B3B",
"TI	c #665E51",
"UI	c #3A342B",
"VI	c #342D23",
"WI	c #2D2518",
"XI	c #2D2417",
"YI	c #2F2318",
"ZI	c #30231A",
"`I	c #2F221C",
" J	c #2F211C",
".J	c #2F231A",
"+J	c #2F2417",
"@J	c #302212",
"#J	c #36250E",
"$J	c #3A2911",
"%J	c #3E2E13",
"&J	c #453519",
"*J	c #4E3E1F",
"=J	c #584625",
"-J	c #5D4C29",
";J	c #4A3617",
">J	c #483619",
",J	c #584B3B",
"'J	c #38312D",
")J	c #322B25",
"!J	c #2D241A",
"~J	c #2D231F",
"{J	c #2E2320",
"]J	c #2F2415",
"^J	c #2F2514",
"/J	c #2D2310",
"(J	c #3A2C10",
"_J	c #433416",
":J	c #584734",
"<J	c #594732",
"[J	c #594731",
"}J	c #58472F",
"|J	c #675B4F",
"1J	c #34312E",
"2J	c #2C251B",
"3J	c #2C251C",
"4J	c #2D251F",
"5J	c #2D2520",
"6J	c #2C251E",
"7J	c #2B261B",
"8J	c #2B2619",
"9J	c #2C2515",
"0J	c #2D2411",
"aJ	c #624C2A",
"bJ	c #5F4926",
"cJ	c #5F4824",
"dJ	c #5B4521",
"eJ	c #574120",
"fJ	c #4B3A1D",
"gJ	c #594833",
"hJ	c #58442C",
"iJ	c #58452C",
"jJ	c #58442A",
"kJ	c #59462D",
"lJ	c #594B37",
"mJ	c #695B4E",
"nJ	c #362F2C",
"oJ	c #2A251B",
"pJ	c #2C261C",
"qJ	c #2D261E",
"rJ	c #2D261F",
"sJ	c #2D251E",
"tJ	c #2C2618",
"uJ	c #2A261D",
"vJ	c #2A261F",
"wJ	c #2A271F",
"xJ	c #2B281E",
"yJ	c #2E2818",
"zJ	c #2F2513",
"AJ	c #352811",
"BJ	c #4C3A1F",
"CJ	c #624D2E",
"DJ	c #68502E",
"EJ	c #534121",
"FJ	c #4F3E1D",
"GJ	c #4D3B1B",
"HJ	c #53422A",
"IJ	c #58472E",
"JJ	c #58472C",
"KJ	c #57472C",
"LJ	c #5D492E",
"MJ	c #5E492D",
"NJ	c #5F4B2D",
"OJ	c #604C2E",
"PJ	c #634F33",
"QJ	c #615035",
"RJ	c #64553F",
"SJ	c #726655",
"TJ	c #37302D",
"UJ	c #302B24",
"VJ	c #2D261C",
"WJ	c #2D251C",
"XJ	c #2D251B",
"YJ	c #2C2519",
"ZJ	c #2C2516",
"`J	c #29261D",
" K	c #2D2619",
".K	c #2E2515",
"+K	c #362914",
"@K	c #4E3C22",
"#K	c #614C2C",
"$K	c #635027",
"%K	c #64512A",
"&K	c #624F2B",
"*K	c #5B4925",
"=K	c #594622",
"-K	c #55431F",
";K	c #54411E",
">K	c #52401D",
",K	c #4E3C1B",
"'K	c #534026",
")K	c #58462C",
"!K	c #5A472E",
"~K	c #5A462D",
"{K	c #58452B",
"]K	c #59462C",
"^K	c #5A472C",
"/K	c #5B472D",
"(K	c #5B482E",
"_K	c #5C492D",
":K	c #5F4D2F",
"<K	c #635132",
"[K	c #645233",
"}K	c #655234",
"|K	c #655334",
"1K	c #665435",
"2K	c #685536",
"3K	c #685636",
"4K	c #695636",
"5K	c #6C5537",
"6K	c #6C5636",
"7K	c #6D5635",
"8K	c #6D5736",
"9K	c #6F593A",
"0K	c #6C593B",
"aK	c #6E5E45",
"bK	c #7C6F5B",
"cK	c #373129",
"dK	c #312C22",
"eK	c #2B2717",
"fK	c #2C2715",
"gK	c #2C2616",
"hK	c #2A261B",
"iK	c #2E2314",
"jK	c #382814",
"kK	c #513E24",
"lK	c #624B2B",
"mK	c #685025",
"nK	c #635124",
"oK	c #675228",
"pK	c #675129",
"qK	c #665129",
"rK	c #644F27",
"sK	c #634E26",
"tK	c #624D25",
"uK	c #614B25",
"vK	c #5E4B24",
"wK	c #5D482A",
"xK	c #614C2E",
"yK	c #614D30",
"zK	c #634E33",
"AK	c #665235",
"BK	c #695336",
"CK	c #6A5436",
"DK	c #6B5537",
"EK	c #6C5638",
"FK	c #6D5739",
"GK	c #6E5838",
"HK	c #6E5836",
"IK	c #6E5937",
"JK	c #6F5A36",
"KK	c #705B37",
"LK	c #715B38",
"MK	c #725A38",
"NK	c #725A37",
"OK	c #735A37",
"PK	c #735C39",
"QK	c #6F5B3B",
"RK	c #705F44",
"SK	c #7E7159",
"TK	c #373126",
"UK	c #312D1F",
"VK	c #2C2816",
"WK	c #2D2814",
"XK	c #2D2717",
"YK	c #2D251A",
"ZK	c #2D241B",
"`K	c #2D2416",
" L	c #2D271B",
".L	c #2D271D",
"+L	c #2E261A",
"@L	c #312315",
"#L	c #392815",
"$L	c #634B2B",
"%L	c #664D27",
"&L	c #645122",
"*L	c #645223",
"=L	c #665025",
"-L	c #655127",
";L	c #6A5432",
">L	c #6E5737",
",L	c #6F5839",
"'L	c #715A3B",
")L	c #725A3B",
"!L	c #725A3A",
"~L	c #725A39",
"{L	c #735B38",
"]L	c #745C39",
"^L	c #735B37",
"/L	c #735B36",
"(L	c #725B35",
"_L	c #725B33",
":L	c #725A34",
"<L	c #735A35",
"[L	c #735A34",
"}L	c #765B35",
"|L	c #745B34",
"1L	c #745C37",
"2L	c #725C3B",
"3L	c #725F44",
"4L	c #80715A",
"5L	c #383428",
"6L	c #322E20",
"7L	c #2D2916",
"8L	c #2E2915",
"9L	c #2E2817",
"0L	c #2D241D",
"aL	c #2F2518",
"bL	c #302416",
"cL	c #2F2516",
"dL	c #2E2618",
"eL	c #2E261B",
"fL	c #2F261C",
"gL	c #2F251B",
"hL	c #302316",
"iL	c #382714",
"jL	c #503C22",
"kL	c #634C2C",
"lL	c #684E29",
"mL	c #665122",
"nL	c #655323",
"oL	c #665024",
"pL	c #68512A",
"qL	c #6E5733",
"rL	c #725B37",
"sL	c #725B38",
"tL	c #735B39",
"uL	c #735A38",
"vL	c #745A38",
"wL	c #735A36",
"xL	c #735B33",
"yL	c #745B33",
"zL	c #745932",
"AL	c #755B33",
"BL	c #735A32",
"CL	c #715A39",
"DL	c #715E40",
"EL	c #807058",
"FL	c #37332A",
"GL	c #302D22",
"HL	c #2C2718",
"IL	c #2D2818",
"JL	c #2E2719",
"KL	c #2E251B",
"LL	c #2F251A",
"ML	c #302519",
"NL	c #2E2519",
"OL	c #2D2517",
"PL	c #2E241B",
"QL	c #2F2418",
"RL	c #372815",
"SL	c #4F3D21",
"TL	c #6F5731",
"UL	c #735B35",
"VL	c #725A35",
"WL	c #735B34",
"XL	c #755932",
"YL	c #725B32",
"ZL	c #715A33",
"`L	c #715A37",
" M	c #725F3E",
".M	c #7F7057",
"+M	c #302C25",
"@M	c #2C271B",
"#M	c #2E261C",
"$M	c #2E251D",
"%M	c #362A16",
"&M	c #614F29",
"*M	c #6F5831",
"=M	c #725B34",
"-M	c #705A34",
";M	c #725A36",
">M	c #75603D",
",M	c #807056",
"'M	c #34302D",
")M	c #2E251E",
"!M	c #2D2719",
"~M	c #2E241A",
"{M	c #352A16",
"]M	c #4E3F20",
"^M	c #614F28",
"/M	c #645127",
"(M	c #735A33",
"_M	c #725C35",
":M	c #75603C",
"<M	c #33302B",
"[M	c #302C24",
"}M	c #2D261B",
"|M	c #2D271A",
"1M	c #352A15",
"2M	c #68502A",
"3M	c #745B35",
"4M	c #755A33",
"5M	c #807057",
"6M	c #33312B",
"7M	c #312D25",
"8M	c #2D281D",
"9M	c #705831",
"0M	c #745C36",
"aM	c #715A34",
"bM	c #755F3C",
"cM	c #807156",
"dM	c #33302C",
"eM	c #312D26",
"fM	c #2D281E",
"gM	c #2F241A",
"hM	c #715B34",
"iM	c #745C38",
"jM	c #745F3B",
"kM	c #807255",
"lM	c #2F2C26",
"mM	c #4F3F21",
"nM	c #625029",
"oM	c #765B33",
"pM	c #715B35",
"qM	c #817255",
"rM	c #34312D",
"sM	c #2F261E",
"tM	c #362B17",
"uM	c #4F4021",
"vM	c #695229",
"wM	c #765B34",
"xM	c #735D36",
"yM	c #302C26",
"zM	c #2D271E",
"AM	c #2F261D",
"BM	c #30261B",
"CM	c #372B17",
"DM	c #817155",
"EM	c #342D2A",
"FM	c #302B25",
"GM	c #2F271C",
"HM	c #2E281A",
"IM	c #2E281B",
"JM	c #2E271D",
"KM	c #30261C",
"LM	c #827156",
"MM	c #342D29",
"NM	c #2F2A23",
"OM	c #6F5730",
"PM	c #725B36",
"QM	c #76603D",
"RM	c #847257",
"SM	c #342F2A",
"TM	c #2F271D",
"UM	c #2F261F",
"VM	c #645128",
"WM	c #6E5730",
"XM	c #745931",
"YM	c #725A32",
"ZM	c #857257",
"`M	c #332E2A",
" N	c #2F281E",
".N	c #30281E",
"+N	c #30271E",
"@N	c #755A32",
"#N	c #837157",
"$N	c #312D29",
"%N	c #765A33",
"&N	c #735C35",
"*N	c #715A35",
"=N	c #817055",
"-N	c #37312C",
";N	c #2F271E",
">N	c #62502A",
",N	c #735D35",
"'N	c #3B332D",
")N	c #30271F",
"!N	c #302720",
"~N	c #2E271E",
"{N	c #655128",
"]N	c #675029",
"^N	c #745F3C",
"/N	c #817056",
"(N	c #39342E",
"_N	c #322E26",
":N	c #30261D",
"<N	c #30271D",
"[N	c #2E281E",
"}N	c #2E2720",
"|N	c #2E271F",
"1N	c #60502A",
"2N	c #6A522A",
"3N	c #715731",
"4N	c #755A35",
"5N	c #745934",
"6N	c #735834",
"7N	c #735933",
"8N	c #745A35",
"9N	c #765933",
"0N	c #755933",
"aN	c #725933",
"bN	c #745A34",
"cN	c #74603D",
"dN	c #847258",
"eN	c #38362F",
"fN	c #312F27",
"gN	c #2D281F",
"hN	c #30281D",
"iN	c #30271C",
"jN	c #31271D",
"kN	c #2F2820",
"lN	c #2E2822",
"mN	c #2D2823",
"nN	c #4E4022",
"oN	c #60502B",
"pN	c #675225",
"qN	c #6A502B",
"rN	c #725631",
"sN	c #765A35",
"tN	c #765834",
"uN	c #765733",
"vN	c #745A32",
"wN	c #735934",
"xN	c #735935",
"yN	c #745A36",
"zN	c #745936",
"AN	c #775935",
"BN	c #775934",
"CN	c #745B32",
"DN	c #725C32",
"EN	c #74613D",
"FN	c #847558",
"GN	c #32302B",
"HN	c #2F2C25",
"IN	c #302B21",
"JN	c #312A20",
"KN	c #31291F",
"LN	c #32281D",
"MN	c #32291E",
"NN	c #2E281F",
"ON	c #2D2822",
"PN	c #2C2722",
"QN	c #2F271A",
"RN	c #4E4023",
"SN	c #675125",
"TN	c #674E27",
"UN	c #69502A",
"VN	c #765934",
"WN	c #765833",
"XN	c #755832",
"YN	c #745A31",
"ZN	c #765936",
"`N	c #745833",
" O	c #735B32",
".O	c #715C32",
"+O	c #73613D",
"@O	c #827358",
"#O	c #34302A",
"$O	c #322F27",
"%O	c #2D2A21",
"&O	c #332A20",
"*O	c #30291D",
"=O	c #2C2721",
"-O	c #2C2720",
";O	c #302719",
">O	c #382C16",
",O	c #504123",
"'O	c #665229",
")O	c #695129",
"!O	c #70572F",
"~O	c #735932",
"{O	c #725B31",
"]O	c #735C33",
"^O	c #755938",
"/O	c #755939",
"(O	c #725935",
"_O	c #725C33",
":O	c #6F5C33",
"<O	c #71613E",
"[O	c #7F7358",
"}O	c #2B2922",
"|O	c #302920",
"1O	c #30281F",
"2O	c #31281D",
"3O	c #2F271B",
"4O	c #302A1C",
"5O	c #2E291C",
"6O	c #2D291E",
"7O	c #2C281F",
"8O	c #312717",
"9O	c #504023",
"0O	c #634F2E",
"aO	c #6A4E27",
"bO	c #684D28",
"cO	c #675028",
"dO	c #685229",
"eO	c #6F582F",
"fO	c #735C34",
"gO	c #73593A",
"hO	c #715937",
"iO	c #715C35",
"jO	c #6E5C35",
"kO	c #6F6240",
"lO	c #7F7258",
"mO	c #312D28",
"nO	c #312C27",
"oO	c #2F2923",
"pO	c #322B24",
"qO	c #322B23",
"rO	c #31291D",
"sO	c #2F281C",
"tO	c #312818",
"uO	c #392C15",
"vO	c #644F2E",
"wO	c #6A4D26",
"xO	c #6C4E28",
"yO	c #6A4E29",
"zO	c #665029",
"AO	c #6E582F",
"BO	c #715B32",
"CO	c #715B33",
"DO	c #715A38",
"EO	c #735A3A",
"FO	c #705A39",
"GO	c #6F5C37",
"HO	c #6C5C36",
"IO	c #6E6140",
"JO	c #7F735B",
"KO	c #47433F",
"LO	c #2E2721",
"MO	c #2D2621",
"NO	c #2F2822",
"OO	c #302821",
"PO	c #312921",
"QO	c #2F291B",
"RO	c #30281C",
"SO	c #312816",
"TO	c #684E26",
"UO	c #6C4F27",
"VO	c #6B4E26",
"WO	c #6B4F28",
"XO	c #694E28",
"YO	c #6E5830",
"ZO	c #715B36",
"`O	c #745B39",
" P	c #705C37",
".P	c #7E715A",
"+P	c #39312F",
"@P	c #2A231D",
"#P	c #2D291F",
"$P	c #2E291E",
"%P	c #2F291C",
"&P	c #392C16",
"*P	c #68512B",
"=P	c #725939",
"-P	c #72593A",
";P	c #745A37",
">P	c #735936",
",P	c #755B37",
"'P	c #6D5B34",
")P	c #6F603F",
"!P	c #7E7158",
"~P	c #3C3531",
"{P	c #2E2922",
"]P	c #392B17",
"^P	c #635030",
"/P	c #6A4F27",
"(P	c #735937",
"_P	c #745A33",
":P	c #755A2F",
"<P	c #765A30",
"[P	c #6E5B34",
"}P	c #6F5F3E",
"|P	c #7E7256",
"1P	c #2B2A23",
"2P	c #2D2B23",
"3P	c #31291B",
"4P	c #392D1B",
"5P	c #5F4D30",
"6P	c #644D29",
"7P	c #6A5128",
"8P	c #695025",
"9P	c #695127",
"0P	c #6E5630",
"aP	c #735938",
"bP	c #745A39",
"cP	c #725837",
"dP	c #755934",
"eP	c #755831",
"fP	c #76592D",
"gP	c #78592E",
"hP	c #795B34",
"iP	c #725931",
"jP	c #705B34",
"kP	c #736040",
"lP	c #7F7054",
"mP	c #352D20",
"nP	c #372D1C",
"oP	c #5C4C34",
"pP	c #645135",
"qP	c #675233",
"rP	c #67512E",
"sP	c #644F28",
"tP	c #634D25",
"uP	c #695226",
"vP	c #6E552F",
"wP	c #715732",
"xP	c #725833",
"yP	c #725932",
"zP	c #765A34",
"AP	c #765A31",
"BP	c #77582C",
"CP	c #77582D",
"DP	c #7A5B35",
"EP	c #785B37",
"FP	c #755B36",
"GP	c #705D3E",
"HP	c #7A6B51",
"IP	c #5E513E",
"JP	c #5E5039",
"KP	c #5F5036",
"LP	c #625134",
"MP	c #615130",
"NP	c #65532D",
"OP	c #675128",
"PP	c #665127",
"QP	c #6C522D",
"RP	c #6F5532",
"SP	c #6F5634",
"TP	c #705636",
"UP	c #735B30",
"VP	c #735B2F",
"WP	c #71592E",
"XP	c #70582D",
"YP	c #715A31",
"ZP	c #725A31",
"`P	c #755B32",
" Q	c #7A5D34",
".Q	c #765832",
"+Q	c #755736",
"@Q	c #735638",
"#Q	c #715737",
"$Q	c #6F5939",
"%Q	c #725F42",
"&Q	c #7E7059",
"*Q	c #74654F",
"=Q	c #675A3E",
"-Q	c #615335",
";Q	c #5D5030",
">Q	c #635433",
",Q	c #645231",
"'Q	c #63502F",
")Q	c #624F2C",
"!Q	c #624F2A",
"~Q	c #69522B",
"{Q	c #6B512D",
"]Q	c #715734",
"^Q	c #755B39",
"/Q	c #725836",
"(Q	c #715831",
"_Q	c #70582C",
":Q	c #6F582B",
"<Q	c #70592D",
"[Q	c #715A2E",
"}Q	c #715A30",
"|Q	c #725D32",
"1Q	c #715933",
"2Q	c #6F5534",
"3Q	c #72583D",
"4Q	c #735940",
"5Q	c #725B41",
"6Q	c #6E5A3F",
"7Q	c #6F5F47",
"8Q	c #796F5C",
"9Q	c #5D5138",
"0Q	c #5D4E37",
"aQ	c #5F4F35",
"bQ	c #615034",
"cQ	c #635232",
"dQ	c #645130",
"eQ	c #664F2D",
"fQ	c #66502C",
"gQ	c #6A522E",
"hQ	c #6E5632",
"iQ	c #735D33",
"jQ	c #735E34",
"kQ	c #735D34",
"lQ	c #705B32",
"mQ	c #6D5731",
"nQ	c #6C5832",
"oQ	c #6F5B36",
"pQ	c #6E5B38",
"qQ	c #6D5A39",
"rQ	c #6C5938",
"sQ	c #6A5938",
"tQ	c #6A5A39",
"uQ	c #6B5A39",
"vQ	c #6D5C3B",
"wQ	c #6F5E3E",
"xQ	c #6C5A3E",
"yQ	c #6B5540",
"zQ	c #695640",
"AQ	c #685642",
"BQ	c #695945",
"CQ	c #6E634F",
"DQ	c #6C604B",
"EQ	c #64543E",
"FQ	c #5E4E36",
"GQ	c #604F33",
"HQ	c #645132",
"IQ	c #68522E",
"JQ	c #6B5530",
"KQ	c #6E5832",
"LQ	c #6F5A35",
"MQ	c #6E5933",
"NQ	c #6E5834",
"OQ	c #6D5936",
"PQ	c #6E5A38",
"QQ	c #6F5B3A",
"RQ	c #6F5C3C",
"SQ	c #6D5A3C",
"TQ	c #6B593A",
"UQ	c #6B5A3E",
"VQ	c #6C5B40",
"WQ	c #6C5B41",
"XQ	c #6B5B43",
"YQ	c #6B5C44",
"ZQ	c #6D6047",
"`Q	c #71654C",
" R	c #7B7158",
".R	c #807661",
"+R	c #5E4D31",
"@R	c #615032",
"#R	c #604F2D",
"$R	c #604E2B",
"%R	c #685430",
"&R	c #715E35",
"*R	c #705C35",
"=R	c #715B3A",
"-R	c #705A3C",
";R	c #6F5B3C",
">R	c #6E593C",
",R	c #6C573D",
"'R	c #6B573E",
")R	c #6D5B42",
"!R	c #705F48",
"~R	c #725F49",
"{R	c #615237",
"]R	c #615336",
"^R	c #665736",
"/R	c #685835",
"(R	c #675836",
"_R	c #6B5B3E",
":R	c #6E5D41",
"                                                                                                                                                                                                                                                                                                                                                                                                                                                                                                                                                                                                                                                                                                                                                                                                                                                                                                                                                                                                                                                                ",
"                                                                                                                                                                                                                                                                                                                                                                                                                                                                                                                                                                                                                                                                                                                                                                                                                                                                                                                                                                                                                                                                ",
"                                                                                                                                                                                                                                                                                                                                                                                                                                                                                                                                                                                                                                                                                                                                                                                                                                                                                                                                                                                                                                                                ",
"                                                                                                                                                                                                                                                                                                                                                                                                                                                                                                                                                                                                                                                                                                                                                                                                                                                                                                                                                                                                                                                                ",
"                                                                                                                                                                                                                                                                                                                                                                                                                                                                                                                                                                                                                                                                                                                                                                                                                                                                                                                                                                                                                                                                ",
"                                                                                                                                                                                                                                                                                                                                                                                                                                                                                                                                                                                                                                                                                                                                                                                                                                                                                                                                                                                                                                                                ",
"                                                                                                                                                                                                                                                                                                                                                                                                                                                                                                                                                                                                                                                                                                                                                                                                                                                                                                                                                                                                                                                                ",
"                                                                                                                                                                                                                                                                                                                                                                                                                                                                                                                                                                                                                                                                                                                                                                                                                                                                                                                                                                                                                                                                ",
"                                                                                                                                                                                                                                                                                                                                                                                                                                                                                                                                                                                                                                                                                                                                                                                                                                                                                                                                                                                                                                                                ",
"                                                                                                                                                                                                                                                                                                                                                                                                                                                                                                                                                                                                                                                                                                                                                                                                                                                                                                                                                                                                                                                                ",
"                                                                                                                                                                                                                                                                                                                                                                                                                                                                                                                                                                                                                                                                                                                                                                                                                                                                                                                                                                                                                                                                ",
"                                                                                                                                                                                                                                                                                                                                                                                                                                                                                                                                                                                                                                                                                                                                                                                                                                                                                                                                                                                                                                                                ",
"                                                                                                                                                                                                                                                                                                                                                                                                                                                                                                                                                                                                                                                                                                                                                                                                                                                                                                                                                                                                                                                                ",
"                                                                                                                                                                                                                                                                                                                                                                                                                                                                                                                                                                                                                                                                                                                                                                                                                                                                                                                                                                                                                                                                ",
"                                                                                                                                                                                                                                                                                                                                                                                                                                                                                                                                                                                                                                                                                                                                                                                                                                                                                                                                                                                                                                                                ",
"                                                                                                                                                                                                                                                                                                                                                                                                                                                                                                                                                                                                                                                                                                                                                                                                                                                                                                                                                                                                                                                                ",
"                                                                                                                                                                                                                                                                                                                                                                                                                                                                                                                                                                                                                                                                                                                                                                                                                                                                                                                                                                                                                                                                ",
"                                                                                                                                                                                                                                                                                                                                                                                                                                                                                                                                                                                                                                                                                                                                                                                                                                                                                                                                                                                                                                                                ",
"                                                                                                                                                                                                                                                                                                                                                                                                                                                                                                                                                                                                                                                                                                                                                                                                                                                                                                                                                                                                                                                                ",
"                                                                                                                                                                                                                                                                                                                                                                                                                                                                                                                                                                                                                                                                                                                                                                                                                                                                                                                                                                                                                                                                ",
"                                                                                                                                                                                                                                                                                                                                                                                                                                                                                                                                                                                                                                                                                                                                                                                                                                                                                                                                                                                                                                                                ",
"                                                                                                                                                                                                                                                                                                                                                                                                                                                                                                                                                                                                                                                                                                                                                                                                                                                                                                                                                                                                                                                                ",
"                                                                                                                                                                                                                                                                                                                                                                                                                                                                                                                                                                                                                                                                                                                                                                                                                                                                                                                                                                                                                                                                ",
"                                                                                                                                                                                                                                                                                                                                                                                                                                                                                                                                                                                                                                                                                                                                                                                                                                                                                                                                                                                                                                                                ",
"                                                                                                                                                                                                                                                                                                                                                                                                                                                                                                                                                                                                                                                                                                                                                                                                                                                                                                                                                                                                                                                                ",
"                                                                                                                                                                                                                                                                                                                                                                                                                                                                                                                                                                                                                                                                                                                                                                                                                                                                                                                                                                                                                                                                ",
"                                                                                                                                                                                                                                                                                                                                                                                                                                                                                                                                                                                                                                                                                                                                                                                                                                                                                                                                                                                                                                                                ",
"                                                                                                                                                                                                                                                                                                                                                                                                                                                                                                                                                                                                                                                                                                                                                                                                                                                                                                                                                                                                                                                                ",
"                                                                                                                                                                                                                                                                                                                                                                                                                                                                                                                                                                                                                                                                                                                                                                                                                                                                                                                                                                                                                                                                ",
"                                                                                                                                                                                                                                                                                                                                                                                                                                                                                                                                                                                                                                                                                                                                                                                                                                                                                                                                                                                                                                                                ",
"                                                                                                                                                                                                                                                                                                                                                                                                                                                                                                                                                                                                                                                                                                                                                                                                                                                                                                                                                                                                                                                                ",
"                                                                                                                                                                                                                                                                                                                                                                                                                                                                                                                                                                                    . + @                                                                                                                                                                                                                                                                                                                                                                                                                                                                       ",
"                                                                                                                                                                                                                                                                                                                                                                                                                                                                                                                                                                          # $ % & * = - - ; > > > > , - ' ) ! ~ { ]                                                                                                                                                                                                                                                                                                                                                                                                                                             ",
"                                                                                                                                                                                                                                                                                                                                                                                                                                                                                                                                                                    - = ^ * % * * * = / ; > ; ; ; ; ; ; > > > ; ; > , , , > ; ( ) _                                                                                                                                                                                                                                                                                                                                                                                                                             ",
"                                                                                                                                                                                                                                                                                                                                                                                                                                                                                                                                                          : < [ } ^ & } % | | * * * = / ; > ; ; ; ; ; ; ; ; ; ; ; ; > > ; ; ; 1 ; > / 1 >                                                                                                                                                                                                                                                                                                                                                                                                                       ",
"                                                                                                                                                                                                                                                                                                                                                                                                                                                                                                                                                  2 3 4 & * 5 * & * 5 * & & * * * * = / ; > ; > > > ; ; ; ; ; ; ; ; ; ; ; ; ; 6 - , ; / ;                                                                                                                                                                                                                                                                                                                                                                                                                       ",
"                                                                                                                                                                                                                                                                                                                                                                                                                                                                                                                                            ^ 7 * 4 % * 5 * * & | & * & * % 5 * * * = / ; > ; > > > > ; ; ; ; > > > ; ; > > > > / ; 8 ; 9                                                                                                                                                                                                                                                                                                                                                                                                                       ",
"                                                                                                                                                                                                                                                                                                                                                                                                                                                                                                                                  3 0 & & * 5 | | * & * * ^ & 5 & & 5 5 * & & * * * = / ; > ; ; ; ; ; > > > > , > > > > > > > / - - 1 ; ,                                                                                                                                                                                                                                                                                                                                                                                                                       ",
"                                                                                                                                                                                                                                                                                                                                                                                                                                                                                                                            | | * 4 % % 5 5 & | * 5 * & 5 5 & & 5 5 * & * % % * * * = / ; > ; ; ; ; > > > > > ; ; ; ; ; ; ; ; > 0 > 9 - -                                                                                                                                                                                                                                                                                                                                                                                                                       ",
"                                                                                                                                                                                                                                                                                                                                                                                                                                                                                                                  ! 6 | 5 4 * 5 5 5 & | | | } * | | & * 5 | 5 5 | 7 | * * & & * * * = / ; > ; > > > > > > > > - ; ; ; ; ; ; - / - - > , /                                                                                                                                                                                                                                                                                                                                                                                                                       ",
"                                                                                                                                                                                                                                                                                                                                                                                                                                                                                                            6 | 7 a } & & * * & & & * 5 * & & | * 5 * & 5 * | & * * & & & & & * * * = / ; > ; > > > > > ; ; ; - ; > > > > ; - > > - > ; 1                                                                                                                                                                                                                                                                                                                                                                                                                       ",
"                                                                                                                                                                                                                                                                                                                                                                                                                                                                                                  b = | | * 5 * * * * * * * * * * * * * * * * * * * * * * * * * & & & & & * * * * & 0 1 > > ; ; ; > > > > > > > > > > ; ; ; ; > ; ; - ; ;                                                                                                                                                                                                                                                                                                                                                                                                                       ",
"                                                                                                                                                                                                                                                                                                                                                                                                                                                                                          * | & % } * & & & * * * * * * * * * * * * * * * * * * * * * * * * * * & & & & * * * * * & 0 1 > > ; ; > > > > > > > > > > > > ; ; ; > ; ; - ; ;                                                                                                                                                                                                                                                                                                                                                                                                                       ",
"                                                                                                                                                                                                                                                                                                                                                                                                                                                                                  * & * } 5 & * 5 % 5 * * * * * * * * * * * * * * * * * * * * * * * * * * * * * & & & & * * * * * & 0 1 > > ; ; > > > > > > > > > > > > > > > > ; ; - ; ;                                                                                                                                                                                                                                                                                                                                                                                                                       ",
"                                                                                                                                                                                                                                                                                                                                                                                                                                                                        ; } | & 5 } % * & & & & * * * * * 5 * * * * * * * * * * * * * * * * * * * * * * * * * * & & & & * * * * * & 0 1 > > ; > > > > , , > > > > > > > > > > , ; ; ; ; ;                                                                                                                                                                                                                                                                                                                                                                                                                       ",
"                                                                                                                                                                                                                                                                                                                                                                                                                                                              c d 0 7 & 5 5 * & & | | & } } * * * * * & & & * * * * * * * * * * * * * * * * * * * * * * * * * * & & & & * * * * * & 0 1 > > ; > > > , , , > > > > > > > > > > , > > ; > ;                                                                                                                                                                                                                                                                                                                                                                                                                       ",
"                                                                                                                                                                                                                                                                                                                                                                                                                                                          % * 6 0 5 * * & * & | * 5 % * | & 5 * & | & * % % * * * * * * * * * * * * * * * * * * * * * * * * * * & & & & * * * * * & 0 1 > > ; > > > , , , , > > > , , , , , , , > > ; > ;                                                                                                                                                                                                                                                                                                                                                                                                                       ",
"                                                                                                                                                                                                                                                                                                                                                                                                                                                e 6 4 % & & * * * 5 * 5 % & & % } 5 | 7 * 5 & 5 % % 5 & | | * * * * * * * * * * * * * * * * * * * * * * * * * * & & & & * * * * * & 0 1 > > ; > > > , , , , , > , , , , , , , , > > ; > ;                                                                                                                                                                                                                                                                                                                                                                                                                       ",
"                                                                                                                                                                                                                                                                                                                                                                                                                                        * | * 5 a % 5 5 5 5 5 * * * 5 * * % 5 & & * * * * 5 * * & & * * * 5 * * * * * * * * * * * * * * * * * * * * * * * * * * & & & & * * * * * & 0 1 > > ; > > , , , , , , > , , , , , , , 6 > > ; > ;                                                                                                                                                                                                                                                                                                                                                                                                                       ",
"                                                                                                                                                                                                                                                                                                                                                                                                                                } | & 5 5 * * * * * * * * 5 5 5 5 5 5 5 5 5 * * * * * * * * * * * * * * * * * * * * * * & & * * * * * * * * * * * * * * * * & & * * * * & & * * * * 0 1 > , > , , , , , , , , , , , , , , , , , , , ; ; ;                                                                                                                                                                                                                                                                                                                                                                                                                       ",
"                                                                                                                                                                                                                                                                                                                                                                                                                            f a * 5 & & } * * * * * * * * 5 5 5 5 5 5 5 5 * * * * * * * * * * * * * * * * * * * * * * * * & * * * * * * * * * * * * * * * * & & * * * * & & & * * * 0 1 > , > , , , , , , 6 6 , , , , , , , , , , , > > ;                                                                                                                                                                                                                                                                                                                                                                                                                       ",
"                                                                                                                                                                                                                                                                                                                                                                                                                            g & & } & & % * * * * * * * * * * * * * * * * * * * * * * * * * * * * * * * * * * * * * * * * * * * * * * * * * * * * * * * * * & & * * * * & & & * * * 0 1 , , > , , , , 6 6 6 6 6 6 6 , , , , , , , , > > ;                                                                                                                                                                                                                                                                                                                                                                                                                       ",
"                                                                                                                                                                                                                                                                                                                                                                                                                            g % 5 * * % & * * * * * * * * * * * * * * * * * * * * * * * * * * * * * * * * * * * * * * * * * * * * * * * * * * * * * * * * * & & * * * * & & & * * * 0 1 , 6 , 6 6 6 6 6 6 6 6 8 8 6 6 , , , , , , 6 , , ;                                                                                                                                                                                                                                                                                                                                                                                                                       ",
"                                                                                                                                                                                                                                                                                                                                                                                                                            g a 5 | * } 7 * * * * * * * * * * * * * * * * * * * * * * * * * * * * * * * * * * * * * * * * * * * * * * * * * * * * * * * * * & & * * * * & & & * * * 0 1 , 6 , 6 6 6 6 6 8 8 8 8 8 6 6 6 , , , , , 6 , , >                                                                                                                                                                                                                                                                                                                                                                                                                       ",
"                                                                                                                                                                                                                                                                                                                                                                                                                            h 5 5 * * % 7 * * * * * * * * * * * * * * * * * * * * * * * * * * * * * * * * * * * * * * * * * * * * * * * * * * * * * * * * * & & * * * * & & & * * & a - , 6 , 6 6 8 8 8 8 8 8 8 8 8 6 6 6 6 6 , , 6 6 6 >                                                                                                                                                                                                                                                                                                                                                                                                                       ",
"                                                                                                                                                                                                                                                                                                                                                                                                                            h * % % * * | * * * * * * * * * * * * * * * * * * * * * * * * * * * * * * * * * & * * * * * * * * * * * * * * * * * * * * * * * & & * * * * & & & * * & a - , 6 , 8 8 8 8 8 8 8 8 6 6 6 6 6 6 6 6 , , 6 6 6 >                                                                                                                                                                                                                                                                                                                                                                                                                       ",
"                                                                                                                                                                                                                                                                                                                                                                                                                            i % 5 5 * 5 * * * * * * * * * * * * * * * * * * * * * * * * * * * * * * * * * * & & * * * * * * * * * * * * * * * * * * * * * * & & * * * * & & & * * & a - 6 8 6 8 8 8 8 8 8 8 8 6 6 6 6 8 8 8 8 , , 8 6 6 >                                                                                                                                                                                                                                                                                                                                                                                                                       ",
"                                                                                                                                                                                                                                                                                                                                                                                                                            g } * & * 5 * * * * * * * * * * * * * * * * * * * * * * * * * * * * * * * * * * * * * * * * * * * * * * * * * * * * * * * * * * * * 5 * & & & * & * 5 * a ; 8 8 6 8 8 = = = 8 6 8 8 8 8 8 6 6 6 8 , > , = 8 >                                                                                                                                                                                                                                                                                                                                                                                                                       ",
"                                                                                                                                                                                                                                                                                                                                                                                                                            j } * & * * * * * * * * * * * * * * * * * * * * * * * * * * * * * * * * * * * * * * * * * * * * * * * * * * * * * * * * * * * * | | * 5 5 5 * * * * * * 4 > 8 8 6 6 8 = = 0 = = = 8 6 8 = 8 6 8 = = 6 , , ; 8                                                                                                                                                                                                                                                                                                                                                                                                                       ",
"                                                                                                                                                                                                                                                                                                                                                                                                                            j } * & * * * * * * * * * * * * * * * * * * * * * * * * * * * * * * * * * * * * * * * * * * * * * * * * * * * * * * * * * * * * 5 5 * * * * * & 5 * 7 | a > 6 8 8 = = = = = = = = 6 6 8 = 8 , , 8 = 8 = 8 , 0                                                                                                                                                                                                                                                                                                                                                                                                                       ",
"                                                                                                                                                                                                                                                                                                                                                                                                                            k } * & * * * * * * * * * * * * * * * * * * * * * * * * * * * * * * * * * * * * & & & & & & & & * * * * * * * * * * * * * * * * % 5 & | & & & & * & | & 0 > a a = a 0 = = = 8 8 = = = 0 0 8 ; - ; ; - ; 6 > > (                                                                                                                                                                                                                                                                                                                                                                                                                     ",
"                                                                                                                                                                                                                                                                                                                                                                                                                            k } * & * * * * * * * * * * * * * * * * * * * * * * * * * * * * * * * * * * * * & & & & & & & & * * * * * * * * * * * * * * * * * & | & * * * * & 7 | & 0 > 4 0 8 = 0 0 0 a 4 4 } % % 5 % 0 ; / - - / ' / - 9 / / ; ; - ; 6 8 8 6 1                                                                                                                                                                                                                                                                                                                                                                                                 ",
"                                                                                                                                                                                                                                                                                                                                                                                                                            j } * & * * * * * * * * * * * * * * * * * * * * * * * * * * * * * * * * * * * * * * * * * * * * * * * * * * * * * * * * * * * * 5 * & * 5 * & * % & l l 5 6 6 = 0 0 a 4 } % * & & & * | | 4 > 1 ; - > / 1 , 9 - ; ; ; - - ; > ; - / 1 > ; - - / (                                                                                                                                                                                                                                                                                                                                                                                   ",
"                                                                                                                                                                                                                                                                                                                                                                                                                            j } * & * * * * * * * * * * * * * * * * * * * * * * * * * * * * * * * * * * * * * * * * * * * * * * * * * * * * * * * * * * * * * & * 5 5 7 m l 4 ) n o j = 4 4 % 5 5 * & & & & & & * & | 4 ; / ; / > - 1 ; 1 / > ; - - - - - - 1 1 1 ; ; - - - 9 [                                                                                                                                                                                                                                                                                                                                                                                 ",
"                                                                                                                                                                                                                                                                                                                                                                                                                            j } * & * * * * * * * * * * * * * * * * * * * * * * * * * * * * * * * * * * * * * * * * * * * * * * * * * * * * * * * * * * * * | p q 7 ; r g s t u v w x 5 | 5 & & & | | | & * * * * & & 4 ; 9 ; 1 1 1 1 / - ; - 1 - ; ; ; ; ; ; 1 1 ; - 1 1 1 1 1                                                                                                                                                                                                                                                                                                                                                                                 ",
"                                                                                                                                                                                                                                                                                                                                                                                                                            g % & * * * * * * * * * * * * * * * * * * * * * & * * * * * * & & * 5 5 & | & 5 * * & * | 5 * & & * * * * & & * | * & y l z l 5 A B C D E F G H I J K L M p * 5 | * * & & & & * * & & & * 4 - 1 ; ; 1 - ; 1 - ; 1 1 1 - - - 1 - - - ; ; - 1 1 / / /                                                                                                                                                                                                                                                                                                                                                                                 ",
"                                                                                                                                                                                                                                                                                                                                                                                                                            ] 5 & * * 5 * 5 5 * * * * * * * * * * * * * * 5 5 * * & & * * * & | & * * * * 5 * & & % 7 5 & & & * * * & | ^ m 7 , 3 N O P Q R S T U V K K K I V W W X M 7 * * * * * * * * * * * & & & 5 } 1 - - - - - - - 1 1 1 1 1 - - - - - ; ; ; ; - - - 1 9 [                                                                                                                                                                                                                                                                                                                                                                                 ",
"                                                                                                                                                                                                                                                                                                                                                                                                                            ] % & * * 5 * 5 5 * * * * * * * * * * * * * * 5 5 5 * & & & * * * 5 * & 5 % * & 5 | 7 } * 5 & 5 7 ^ y & ; @ n Y C Z `  ...+.L J J @.K I V I W I I W W X M 7 * * * * * * * * * * * & & & 5 } 1 - - - - - - - - - - - - - - - - - - ; ; ; - - - 1 9 (                                                                                                                                                                                                                                                                                                                                                                                 ",
"                                                                                                                                                                                                                                                                                                                                                                                                                            ] % & * * 5 * 5 5 * * * * * * * * * * * * * * & & * * 5 * & & | * } % & & * * & 5 & & * ^ y & ; + #.h $.%.&.S T G G *.=.L K @.W K I V W @.W I W W W W X S 7 * * & * * * * * * * * & & & 5 } 1 - - ; ; ; ; - - - - - - - - - - - - ; ; ; - - - 1 9 (                                                                                                                                                                                                                                                                                                                                                                                 ",
"                                                                                                                                                                                                                                                                                                                                                                                                                            ] % & 5 * 5 * 5 5 * * * * * * * * * * * * * * * 5 * * * & & & * * & | | * 5 5 | m & 4 1 @ -.: C ;.>.,.'...).!.'.!.*.*.w L W W I I I V W W I V W W W W ~.S 7 * & & * * * * * * * * & & & 5 } 1 - - - - - - - - - - ; ; ; ; - - - - ; ; - - - - 1 9 (                                                                                                                                                                                                                                                                                                                                                                                 ",
"                                                                                                                                                                                                                                                                                                                                                                                                                            ] % * 5 * 5 * 5 5 * * * * * * * * * * * * * * 5 % * & & & & * * & & & | ^ | 0 {.].B k ^./.(.T )...)._.*.*.*._.'.'.!._.:.L W K W K K W V I @.@.K I W W ~.S 7 * & & * * * * * * * * & & & 5 } 1 - - - - - - - - - - ; ; ; ; ; - - - ; ; - - - - 1 9 [                                                                                                                                                                                                                                                                                                                                                                                 ",
"                                                                                                                                                                                                                                                                                                                                                                                                                            ] % * 5 * 5 * 5 5 * * * * * * * * * * * * * * & & & * * * * & ^ ^ a ( @ <.[.}.o |.>.1.2._.*._._._._.!.!.!._.*.)...)._.3.~.W K W V W K W W K W 4.4.W W ~.S ^ * & & * * * * * * * * & & & 5 } 1 - - 1 1 1 1 - - - - - ; ; ; ; ; - - ; - - - - - - / (                                                                                                                                                                                                                                                                                                                                                                                 ",
"                                                                                                                                                                                                                                                                                                                                                                                                                            }.} * 5 * 5 * 5 5 * * * * * * * * * * * * * & | 7 | * 0 9 ) ! 5.6.7.8.9.D 0.1.1.a.M S (.v '.!._._._.).*.!.'.!._._.*.*.:.L K W V 4.V I I I I W K W I W ~.S ^ * & & * * * * * * * * & & & 5 } 1 - - - - - - - - - - - - - ; ; ; ; ; - - - - - - - / 9                                                                                                                                                                                                                                                                                                                                                                                 ",
"                                                                                                                                                                                                                                                                                                                                                                                                                            }.} 5 & * 5 * * 5 * * * * * * * * * & 7 ^ % ; b.d <.n k f C c.d.t a.M S a.S S a.a.E 0.(.!._._.*.*.!.!._.*.*.!.'.!._.*.:.X I K K K K I I W W I V V I W ~.S ^ * & & * * * * * * * * & & & 5 } 1 - - - - - - ; ; ; ; - - - - ; ; ; ; - - - - - - - / 9                                                                                                                                                                                                                                                                                                                                                                                 ",
"                                                                                                                                                                                                                                                                                                                                                                                                                            }.} } 7 * * & | % * * 5 | | & | & 0 ( + 5.-.}.e.Q  .1.1.a.a.S M S S S S S S S S a.S a.(.v _.*._._._._._._._._._._._._.:.L I I W W W W W W W I I V I W ~.S 7 * * * * * * * * * * * & & & 5 } 1 - 1 - - - - - - - - - - - - - ; ; ; - - - - - ; - / [                                                                                                                                                                                                                                                                                                                                                                                 ",
"                                                                                                                                                                                                                                                                                                                                                                                                                            f.% 5 5 % | & 5 5 7 & * 5 - 3 ].< g.Y s x M 1.a.E S a.E a.S S S S S S S S S S S a.S a.(.v _.*._._._._._._._._._._._._.:.L I I W W W W W W W I I V I W ~.S 7 * * * * * * * * * * * & & & 5 } 1 - - - - - - - - - - - - - - - ; ; ; - - - - - ; - / [                                                                                                                                                                                                                                                                                                                                                                                 ",
"                                                                                                                                                                                                                                                                                                                                                                                                                            f.* & % | m & * > A # h.j ^.C i.j.1.M E S 1.S M 1.S a.a.S S a.a.S S S S S S S S a.S a.(.v _.*._._._._._._._._._._._._.:.L I I I W W W W W W I I V I W ~.S 7 * * * * * * * * * * * & & & 5 } 1 - - ; ; ; ; ; ; ; ; - - - - - - ; ; - - - - - ; - / [                                                                                                                                                                                                                                                                                                                                                                                 ",
"                                                                                                                                                                                                                                                                                                                                                                                                                            : a & = [ k.l.6.f ` j.m._.*.F E S 1.S 0.a.M a.0.E a.S S a.a.a.a.a.a.a.a.a.a.a.a.a.S a.(.v _.*._._._._._._._._._._._._.:.L I I I W W W W W W I I V I W ~.S 7 * * * * * * * * * * * & & & 5 } 1 - - ; ; ; ; ; ; ; ; - - - - - - - - - - - - ; ; - / [                                                                                                                                                                                                                                                                                                                                                                                 ",
"                                                                                                                                                                                                                                                                                                                                                                                                                            8.n.o.k o p.q.r.).G *.!.).*.u (.1.M M M M S a.S S S a.a.E E S S a.a.a.a.a.a.a.a.a.S a.(.v _.*._._._._._._._._._._._._.:.X I I I W W W W W W I I V I W ~.S 7 * * * * * * * * * * * & & & 5 } 1 ; - ; ; ; ; ; ; ; ; - - - - - - - - - - - - ; ; 1 / 9                                                                                                                                                                                                                                                                                                                                                                                 ",
"                                                                                                                                                                                                                                                                                                                                                                                                                            d. .T G _.)...*.!.!.*._.*._.2.S a.a.S a.0.E M 1.M a.S M M a.E E a.a.a.a.a.a.a.a.a.S a.(.v _.*._._._._._._._._._._._._.:.X I I I W W W W W W I I V I W ~.S 7 * * * * * * * * * * * & & & 5 } 1 ; - ; ; ; ; ; ; ; ; ; ; ; - - - - - - - - - ; ; 1 9 [                                                                                                                                                                                                                                                                                                                                                                                 ",
"                                                                                                                                                                                                                                                                                                                                                                                                                    r 9 % s.t.)...!.*.).'.*.!._.G ).*.!.u.S S S 1.q.u.S E a.a.E S 1.M a.E a.a.a.a.a.a.a.a.a.a.S a.(.v _.*._._._._._._._._._.!._._.:.X I I I W W W W W W I I V I W ~.S 7 * * * * * * * * * * * * & & 5 } 1 ; - ; ; ; ; ; ; ; ; ; ; ; - - - - - ; ; - - ; ; 1 / 9                                                                                                                                                                                                                                                                                                                                                                                 ",
"                                                                                                                                                                                                                                                                                                                                                                                                          0 * & 5 } } % * k.d.).!.).).*.)...).).*.!...G ,.S S a.a.E E a.M M S S M S 0.E M M a.a.a.a.a.a.a.a.a.S a.(.v _.*._._._._._._._._._.!._._.:.X I I I W W W W W W I I I I I ~.S 7 * * * * * * * * * * * * * & 5 } 1 ; - ; ; ; ; ; ; ; ; ; ; ; - - - - - - - - - ; ; 1 9 [                                                                                                                                                                                                                                                                                                                                                                                 ",
"                                                                                                                                                                                                                                                                                                                                                                                                v.w.x.y.z.5 * * * * * * & k.d.).*...*.*.).*._.)._.).*.*.,.S S S S S S a.a.S S S S a.a.S S S a.a.a.a.a.a.a.a.S S a.(.v _.*._.*.*._._._.!.!.!._.*._.:.X W W W W W W W W I I I I I I X S y * & & & & & & & & & & * * & 5 } 1 - - ; - - - - - - - ; ; ; ; ; ; - - - - - - - - - / [                                                                                                                                                                                                                                                                                                                                                                                 ",
"                                                                                                                                                                                                                                                                                                                                                                                    A.B.C.D.E.F.G.H.x.I.J.5 * * * * * * & k.d.*.*...*.*.).*._.)._.).*.*.,.S S S S S S a.a.S S S a.a.a.S S S a.a.a.a.a.a.a.a.a.S a.(.v _.*._.*._._._._.!.!.!._.*._.:.X W W W W W W W I I I I W I I X S y * & & & & & & & & & & * * & 5 } 1 - - - - - - - - - - ; ; ; ; ; ; - - 1 1 - - - - - / [                                                                                                                                                                                                                                                                                                                                                                                 ",
"                                                                                                                                                                                                                                                                                                                                                                          K.L.M.N.O.P.Q.R.S.T.U.V.W.X.Y.% 5 * * * * * * & k.d.*.*.).*.*.).*._.)._.).*.*.,.S S S S S S a.a.S S a.a.a.a.S S S a.a.a.a.a.a.a.a.a.S a.(.v _.*._._._._._._._.!.!._.*._.:.X W W W W W W W I I I I W I I X S y * & & & & & & & & & & * * & 5 } 1 - - - - - - - - - - ; ; ; ; ; ; - - 1 1 - - - - - / [                                                                                                                                                                                                                                                                                                                                                                                 ",
"                                                                                                                                                                                                                                                                                                                                                                Z.`. +.+++@+#+$+%+&+*+=+-+;+>+,+'+)+!+~+5 5 * * * * * * | $ p.*.*.).*.*.).*._.)._.).*.*.,.S S S S S S a.a.S S a.a.a.a.a.S S a.a.a.a.a.a.a.a.a.S a.(.v _.*._._._._._._._._.!._.*._.:.X W W W W W W I I I I I W I I X S y * & & & & & & & & & & * * & 5 } 1 - - - - - - - ; ; ; ; ; ; ; ; ; - - 1 1 - - - - - / (                                                                                                                                                                                                                                                                                                                                                                                 ",
"                                                                                                                                                                                                                                                                                                                                                        {+]+^+/+(+_+:+<+[+}+++|+1+2+3+4+5+6+7+8+9+0+a+b+c+5 * * * * * * | $ p.*._.).*.*.).*._.)._.).*.*.,.S S S S S S a.a.S a.a.a.a.a.a.S S a.a.a.a.a.a.a.a.a.S a.(.d+_.*._._._._._._._._._._.*._.:.X W W W W I I I I I I I W I I X S y * & & & & & & & & & & * * & 5 } 1 - - - - - - - ; ; ; ; ; ; ; ; ; - - 1 1 - - - - - / [                                                                                                                                                                                                                                                                                                                                                                                 ",
"                                                                                                                                                                                                                                                                                                                                                e+f+g+h+i+j+k+l+m+n+o+p+q+r+s+t+u+v+w+x+y+z+A+B+C+D+E+F+G+H+* * * * * * | $ p.*._.).*.*.).*._.)._.).*.*.,.S S S S S S a.a.S a.a.a.a.a.a.a.S a.a.a.a.a.a.a.a.a.S a.(.d+_._._._._._._._._._._._.*._.:.X W W W I I I I I I I I W I I X S y * & & & & & & & & & & * * & 5 } 1 - - - - - - - ; ; ; ; ; ; ; ; ; - - 1 1 - - - - - / (                                                                                                                                                                                                                                                                                                                                                                                 ",
"                                                                                                                                                                                                                                                                                                                                              I+J+K+L+M+N+O+P+Q+R+S+T+U+V+W+X+Y+Z+`+ @.@+@@@#@$@%@&@*@=@-@H+* * * * * * | $ p._._.).*.).).*._.)._.).*.*.,.S S S S S S a.a.a.a.a.a.a.a.a.a.a.a.a.a.a.a.a.a.a.a.S a.1.d+_._._._._._._._._._._._.*._.:.X W W W I I I I I I I I W I I X S y * & & & & & & & & & & * * & 5 } 1 - - - - - - ; ; ; ; ; ; ; ; ; ; - - 1 1 - - - - - / (                                                                                                                                                                                                                                                                                                                                                                                 ",
"                                                                                                                                                                                                                                                                                                                                              ;@>@,@'@)@!@~@{@]@^@/@(@_@:@<@[@}@|@1@2@3@4@5@Y+6@7@8@9@0@H+5 * * * * * * | $ p.*._.).*.).).*._.)._.).*.*.,.S S S S S S a.a.a.a.a.a.a.a.a.a.a.a.a.a.a.a.a.a.a.a.S a.1.d+_._._._._._._._._._._._.*._.:.X W W W I I I I I I I I W I I X S y * & & & & & & & & & & * * & 5 } 1 - - - - - - ; ; ; ; ; ; ; ; ; ; - - - - - - - - - / [                                                                                                                                                                                                                                                                                                                                                                                 ",
"                                                                                                                                                                                                                                                                                                                                              a@b@c@d@e@f@e@g@h@i@j@k@l@m@|@n@o@p@q@r@s@s@t@u@S.v@w@x@y@z@* * * * * * * | $ i.*.).).*...*.).*.).*...*._.u S S S S S S S S a.a.a.a.a.a.a.a.a.a.a.a.a.a.a.a.a.E a.a.(.v _._.!.*.*._._._.!.!.!._._._.:.X I W W I I W W K W W K W W W L 1.y * * * | | & * * * * & | | | & 4 ; - > 1 - / - > 1 ; > > > > ; - 1 1 - ; , , > - 1 1 9 '                                                                                                                                                                                                                                                                                                                                                                                 ",
"                                                                                                                                                                                                                                                                                                                                              A@B@C@D@f@E@F@G@H@I@J@K@L@M@X+o@N@A+O@y+z+5+3+P@Q@R@S@T@U@V@* * * * * * * | b /.*.*.*.*..._.*._.).*.)._._.u S S S S S S S S a.a.a.a.a.a.a.a.a.a.a.a.a.a.a.a.a.E a.a.(.v _._.!.*._._._._.!.!.!._._._.:.X I I W W K K W W I V V L V W X S y | & * 5 5 5 5 * & | | * * * * a ; / - ; , - 1 ; ; ; 1 1 - - ; ; ; ; - 1 / - - - ; - [ '                                                                                                                                                                                                                                                                                                                                                                                 ",
"                                                                                                                                                                                                                                                                                                                                              W@X@Y@Z@`@F@ #.#+#@###$#%#&#n@N@*#=#-#Y+5+5+;#>#,#'#)#!#~#{#* * * * * * * | b /._.*.*._.)._.*._.)._.)._._.q.S S S S S S S S a.a.a.a.a.a.a.a.a.a.a.a.a.a.a.a.a.E a.a.(.v _._.!._._._._._._.!.!._._._.:.X I I W I I I I W W I W K @.W ]#j.y 5 5 & 7 | | & & * & & * * | | % 8 > , , , > ; > ; 1 , , ; - - - ; ; - ; > ; - - ; - 9 {.                                                                                                                                                                                                                                                                                                                                                                                ",
"                                                                                                                                                                                                                                                                                                                                              ^#X@/#Z@(#_#:#<#[#}#|#1#2#3#4#5#6#7#8#9#4#0#t+>#,#'#a#!#b#c#* * * * * * * | b /._.*.*._.)._.*._.)._.)._._.u S S S S S S S S a.a.a.a.a.a.a.a.a.a.a.a.a.a.a.a.a.E a.a.(.v _._.!._._._._._._._.!._._._.:.X I I W W W I I I I I I I W K 4.1.p * & 7 5 5 * & | 7 y y l q d#d#q y 7 ^ & 5 * 5 5 % , > - 1 ; > , 6 , > ; ; 1 / / - ; 9 '                                                                                                                                                                                                                                                                                                                                                                                 ",
"                                                                                                                                                                                                                                                                                                                                              e#f#g#Z@(#D@h#i#j#k#l#m#L@n#o#5#p#=#q#9#A+6+r#s#t#u#S@v#~#V@* * * * * * * | $ /.*.).).*.).*.).*.)._.)._._.u S S S S S S S S a.a.a.a.a.a.a.a.a.a.a.a.a.a.a.a.a.E a.a.(.v _._.!._._._._._._._._._._._.:.X I I W K K W W K K W I I V L ~.M p % 5 ^ 7 ^ y m w#z x#y#z#z#A#B#A#y#x#y#d#d#z l l q 4 s.n.C#C#n.n.C#$ s.) ) e ( / - ( A                                                                                                                                                                                                                                                                                                                                                                                   ",
"                                                                                                                                                                                                                                                                                                                                              D#E#F#G#`@D@H#i#I#@#J@J#K#L#M#N#O#P#Q#u+o#5+r#s#R#S#w@T#U@V@* * * * * * * | $ i.*.).).*...*.).*...*.).*.*.u S S S S S S S S a.a.a.a.a.a.a.a.a.a.a.a.a.a.a.a.a.E a.a.(.v _._.!._._._._._._._._._._._.:.X I I W W I I I W W W V W @.W U#j.l w#d#y#A#B#B#V#W#W#W#W#W#V#V#V#V#V#B#A#V#z#y#A#x#d#* ) 5.N l.].X## # r X#X#                                                                                                                                                                                                                                                                                                                                                                                              ",
"                                                                                                                                                                                                                                                                                                                                              Y#Z#`# $.$D@+$@$#$I@$$%$&$*$=$5+-$;$>$w+,$'$)$!$Q@~${$x@y@z@* * * * * * * | $ i.*.*.).*...*.*.*.).*.).*.*.u S S S S S S S S a.a.a.a.a.a.a.a.a.a.a.a.a.a.a.a.a.E a.a.(.v _._.!._._._._._._._._._._._.:.X I I W K K K W W I 4.L ]$,.^$/$n y#z#A#B#B#B#V#W#($_$_$_$:$<$_$_$<$<$_$W#_$B#z#<$V#z p C#].].N h.[$                                                                                                                                                                                                                                                                                                                                                                                                        ",
"                                                                                                                                                                                                                                                                                                                                              }$|$k@1$2$D@d@3$4$5$6$7$8$*$9$5+n@0$v+a$,$t@-#P@Q@b$c$d$y@e$z@* * * * * * | b /.*.*.*.*.)._.*._.)._.)._._.u S S S S S S S S a.a.a.a.a.a.a.a.a.a.a.a.a.a.a.a.a.E a.a.(.v _._.!._._._._._._._._._._._.w L W W K I U#]$T E f$g$h$j l.s.1 0 l B#($W#W#W#($($($($W#W#V#V#V#V#W#($W#A#z#W#A#B#z#V#y                                                                                                                                                                                                                                                                                                                                                                                                                     ",
"                                                                                                                                                                                                                                                                                                                                              i$j$k$l$m$n$d@o$%$p$q$O+r$L#q@o@s$9#t$w+o#o#u@s#u$b$c$v$w$e$z@* * * * * * | b /.).*.*.*.*.*.*._.*._.*.!._.u 1.M S a.S S S a.a.a.a.E a.a.S a.a.S a.a.E E E a.M S 0.a.1.v v *._.!.!._._._._.*.).!.x$q.S M t p.Q Z h$i h.@ ( 4 y m ^ 7 | & | x#V#W#($($($($($($W#V#B#B#V#V#V#V#B#A#A#V#z#y#d#z                                                                                                                                                                                                                                                                                                                                                                                                                       ",
"                                                                                                                                                                                                                                                                                                                                              y$z$%$A$B$C$D$E$q$F$G$H$I$M@p@N@J$K$Q#u+o#A+u@L$M$b${$N$w$O$z@* * * * * * | b &.).*.*.).*.*.*._.*._.)._.*.,.a.E E a.S M S E S M S S a.a.a.a.E 0.a.S M S a.E E E E S S d+!...!.G ).!.P$1.p.Q$h$f.j -.<.].C#{.6 % 7 m m ^ | | & * * & & * & q y#B#B#B#A#B#B#B#B#B#A#A#A#A#z#z#y#y#z#y#z d#q m                                                                                                                                                                                                                                                                                                                                                                                                                       ",
"                                                                                                                                                                                                                                                                                                                                              R$z$S$T$B$H@$$E$q$U$P+V$W$X$}@s$J$A+Y$X+o#o#Z$`$ %~$w@T#-@.%* * * * * * * | b &.).*.*.).*.*.*._.*._...).*.,.1.1.M S S S S M a.E S S S E E a.S a.a.E E E a.a.a.S S (.q._.r.1.&.9.P Y g +%# ' a ^ p m m ^ | * * * & | * * & | | * * * * 5 % p w#z y#y#y#y#z#z#z#z#y#y#x#z z d#d#d#w#q q q p y                                                                                                                                                                                                                                                                                                                                                                                                                       ",
"                                                                                                                                                                                                                                                                                                                                              @%h+O+3$#%$%%%&%%$U$k$*%=%-%a$4#s$o#;%a$}@p@-#>%,%'%)%!%~%* * * * * * * * | b &.*._.*.).*.*.).*.)._.*.*.*.u S S S S S a.a.a.S M M M a.a.a.S S a.E a.M 1.1.S j.p./${%8.o O ]%# ' 6 & m m y | | * * * * & & & * & & * * * | 7 & * * * * } 4 7 p q z z z z x#x#y#y#x#z d#w#w#q q q l l m m ^ |                                                                                                                                                                                                                                                                                                                                                                                                                       ",
"                                                                                                                                                                                                                                                                                                                                              ^%/%H$(%_%:%<%[%k$}%H$|%1%2%|@o#3%p@4%a$}@}@5%-#6%7%8%9%0%!#a%* * * * * * | b &.*._._.).*.*.*.*..._._._.*.,.a.a.S S S S S a.S S a.a.S M M S 1.1.t i.` g$$.O c o.d A , 4 q l | | * 5 * & * 5 % * * * 5 5 5 * & * 5 5 * & | & * * * * * } a & 7 p q w#w#w#w#w#d#z z d#w#q l l l l m l m p | &                                                                                                                                                                                                                                                                                                                                                                                                                       ",
"                                                                                                                                                                                                                                                                                                                                              b%c%d%.#e%:%f%g%h%[%i%+#j%k%v+o#A+X+4%l%m%m%'$u+L$7%n%o%p%q%a%* * * * * * | b &.*._._.).*._._.*..._._.*...F 1.M S a.S S M M M 1.1.1.E R Q %.r%8.k h.r 3 ; } | 7 | 7 7 % * & * | | & & & & * * & & | & * * * * & * * & & * * & & * * * % a * | ^ m l q q l l q w#w#q q l m m m m m m y ^ | &                                                                                                                                                                                                                                                                                                                                                                                                                       ",
"                                                                                                                                                                                                                                                                                                                                              s%t%d%u%v%:%f%3$w%x%y%z%j%A%>$K$-$9#0$,$B%C%D%Z$E%F%G%H%I%J%a%* * * * * * | b &.*._._.)._._._.*..._.).).*.u.S S M (.u.1.0.x ;./$K%$.}.{ _ $ 9 % | y ^ | & * & & 5 & ^ & 5 * * & | | | * 5 * | * * & | & & * * | | & & * 5 5 & | & & & % 0 5 * | y m q l m m l l m m m p p p p p p p 7 | & &                                                                                                                                                                                                                                                                                                                                                                                                                       ",
"                                                                                                                                                                                                                                                                                                                                              L%/%H$M%e%$%N%O%C$T$C$:%j%P%t$7#B+=#;$A+Q%R%S%6+T%U%V%W%X%!#a%* * * * * * | ) &.*._._.)._._.*.*.).!...).v 0.;.` Y%%.P $.}.c ~ C#' 0 7 p y ^ 7 | | | * 5 * & | & & | * 5 | 7 5 * * & | & * * & & * * * * & & * & & * & & * 5 * & | & & } 0 % 5 5 & ^ p p p y p m y y p p p p y y p y | & * *                                                                                                                                                                                                                                                                                                                                                                                                                       ",
"                                                                                                                                                                                                                                                                                                                                              Z%j$H$+$`% &H#C$.&D$C$N%+&@&Q#B+p##&;#$&%&&&*&=&-&;&>&!%a%* * * * * * 5 5 | ) &.)._.*.G )._.!.'.v P$x$,&2.r%6.l.+ {.> 4 | p y 7 & & * * * & * 5 * * * * & & & 5 & | * 5 | | * * * & & | & * * & * * 5 * * & & & * * & | & * * & | & * } = } } } % & 7 y y y y y y p p p p p y y y ^ & * 5 *                                                                                                                                                                                                                                                                                                                                                                                                                       ",
"                                                                                                                                                                                                                                                                                                                                              '&)&$$D@!&H#u%~&{&7$D$]&+&^&/&8+(&_&r#:&N@s$<&8+[&}&|&1&2&2&z@5 5 * & & & y A f$..'.r.v x$,&m.3&2.(.1.M a.N | 7 | & & * * * * * * * * * * * * * * * * * & & * * * * * & & & & * * * * * * * * * * * * * * * * & & & & & & & & & & * * 4 = 4 } } } 5 & 7 y y ^ ^ y p p p p y y ^ 7 | 5 5 * *                                                                                                                                                                                                                                                                                                                                                                                                                       ",
"                                                                                                                                                                                                                                                                                                                                              4&5&E$6&D@H#3$E$p$7$E$V$7&8&9&;+0&0#u+'$4#a&n@=#b&c&|&N$d&e&f&7 y p | 6 3 ! g.p.x$3&q.u.M M S a.S E S S S ~ % * * * * * * * * * * * * * * * * * * * * * * * * * * * * & & & & * * * * * * * * * * * * * * * * & & & & & & & & * * * * 4 = 4 } 4 4 % * & 7 ^ ^ ^ ^ ^ y y y ^ ^ 7 | & 5 % 5 5                                                                                                                                                                                                                                                                                                                                                                                                                       ",
"                                                                                                                                                                                                                                                                                                                                              g&j+$$h@h&i&i%j&k&k&l&m&n&o&p&q&4#r&s&s&t&u&.@v&w&x&y&z&A&B&C&C#<.D&O $.K%E&D 0.S a.M a.E M S S M S M M S <.% * * * * * * * * * * * * * * * * * * * * * * * * * * * * & & & & * * * * * * * * * * * * * * * * & & & & & & & & & * * * } = 4 4 4 4 } % 5 & 7 ^ ^ 7 7 ^ ^ ^ ^ 7 7 & * % % % %                                                                                                                                                                                                                                                                                                                                                                                                                       ",
"                                                                                                                                                                                                                                                                                                                                              F&G&$$O%H&<%I&J&K&`#L&M&N&O&P&2@Q&R&S&T&U&V&W&X&Y&Z&`& *.*+*@*9.&.>.E M (.u.M S a.a.S S S 1.M M 1.S M M S ~ 5 * * * * * * * * * * * * * * * * & & & * * * * 5 * * * * & & & & * * * * * * * * * * * * * * * * & & & & & & & & & * & & } = 4 4 4 4 4 } % * | 7 ^ 7 7 7 ^ ^ 7 7 | 5 5 } } } }                                                                                                                                                                                                                                                                                                                                                                                                                       ",
"                                                                                                                                                                                                                                                                                                                                              #*$*%*&*]&**=*-*;*>*,*'*)*!*~*{*]*^*/*(*_*:*<*[*}*|*1*2*3*4*(.(.1.M S S M M E M M a.a.M M E a.a.S E S S S ~ 5 * * * * * * * * * * * * * * * * & & * * * * * * * * * * & & & & * * * * * * * * & & & & & & & & & & & & & & & & & * & & } = 4 a a 4 4 } } 5 & | ^ 7 7 7 7 7 | & & % 5 } } } 4                                                                                                                                                                                                                                                                                                                                                                                                                       ",
"                                                                                                                                                                                                                                                                                                                                              5*t%K@6*6*7*8*9*n+0*a*b*c*d*4$e*f*g*h*i*j*k*l*m*n*o*p*q*r*S S S M 1.M S a.a.1.S E a.S a.a.1.S a.S a.S S S <.% * * * * * * * * * * * * * * * * * * * * * * * * * * * * & & & & * * * * * * * * & & & & & & & & & & & & & & & & & * & & } = 4 a a 4 4 4 } % 5 & | 7 7 7 7 | & 5 5 } 5 } } } 4                                                                                                                                                                                                                                                                                                                                                                                                                       ",
"                                                                                                                                                                                                                                                                                                                                              s*t*u*v*w*x*y*z*A*B*C*D*E*F*G*H*I*J*K*L*L*M*N*O*P*Q*R*S*T*U*1.S E E E a.a.a.a.a.E S M E E u.M S M E S M S <.% * * * * * * * * * * * * * * * * * * * * * * * * * * * * & & & & * * * * * * * * & & & & & & & & & & & & & & & & * * & & } = 4 a 0 a a a 4 } % 5 * 7 7 7 | & 5 % } } 5 } } } 4                                                                                                                                                                                                                                                                                                                                                                                                                       ",
"                                                                                                                                                                                                                                                                                                                                              V*W*X*Y*Z*`* =.=+=@=#=$=%=&=*=*===-=;=>=,='=)=!=~={=]=^=/=(=S S S S S S S M M 1.a.E M 1.a.E a.E a.0.a.S a.<.% * * * * * * * * * * * * * * * * * * * * * & & & * * * * & & & & * * * * * * * * & & & & & & & & & & & & & & & & * * & & } 8 a 0 0 a a a a 4 } % 5 | | | & * % } } } % } } } 4                                                                                                                                                                                                                                                                                                                                                                                                                       ",
"                                                                                                                                                                                                                                                                                                                                              _=:=<=[=[=}=|=|=1=2=3=4=5=6=M*;=7=8=8=9=0=a=7=b=c=d=e=f=g=h=S S S S S S S S S S S S S S S S S a.M a.M a.a.~ % * * * * * * * * * * * * * * * * * * * * * * * * * * * * * * * * * * * * * * * * & & & & & & & & * * * * * * * * * | & & } 6 0 0 0 a a 0 a a } % 5 & | | & 5 % % % 4 } 4 } } 4                                                                                                                                                                                                                                                                                                                                                                                                                       ",
"                                                                                                                                                                                                                                                                                                                                              i=j=k=l=m=n=o=p=q=r=s=t=u=v=w=x=y=z=A=B=0=C=D=E=F=G=H=I=g=h=S S S S S S S S S S S S S S S S S a.M a.M a.a.~ % * * * * * * * * * * * * * * * * * * * * * * * * * * * * * * * * * * * * * * * * & & & & & & & & * * * * * * * * * & & & } 6 0 0 0 a a 0 0 a 4 } % 5 * * * % } } } 4 } 4 } } 4                                                                                                                                                                                                                                                                                                                                                                                                                       ",
"                                                                                                                                                                                                                                                                                                                                              J=K=L=l=M=n=o=p=N=}=s=t=u=v=w=x=y=z=A=B=0=C=D=E=F=G=H=I=g=h=S S S S S S S S S S S S S S S S S a.M a.M a.a.~ % * * * * * * * * * * * * * * * * * * * * * * * * * * * * * * * * * * * * * * * * & & & & & & & & * * * * * * * * * & & & } 6 0 0 0 a a 0 0 0 a 4 4 % 5 5 5 % } 4 } 4 } 4 4 4 4                                                                                                                                                                                                                                                                                                                                                                                                                       ",
"                                                                                                                                                                                                                                                                                                                                              J=O=k=M=M=P=o=p=l=}=s=t=Q=v=w=x=y=z=A=B=0=C=D=E=F=G=H=I=g=h=S S S S S S S S S S S S S S S S S a.M a.M a.a.~ % * * * * * * * * * * * * * * * * * * * * * * * * * * * * * * * * * * * * * * * * & & & & & & & & * * * * * * * * * & & * 4 6 0 0 0 0 0 0 0 0 0 a a } } % % } } 4 4 4 } a 4 4 a                                                                                                                                                                                                                                                                                                                                                                                                                       ",
"                                                                                                                                                                                                                                                                                                                                              R=j=S=M=M=P=o=T=l=}=s=U=V=W=w=x=y=z=A=B=0=C=D=E=F=G=H=I=g=h=S S S S S S S S S S S S S S S S S a.M a.M a.a.~ % * * * * * * * * * * * * * * * * * * * * * * * * * * * * * * * * * * * * * * * * & & & & & & & & * * * * * * * * * & & * 4 6 0 0 0 = = = = 0 0 a a 4 4 4 } } } 4 4 4 } a a a a                                                                                                                                                                                                                                                                                                                                                                                                                       ",
"                                                                                                                                                                                                                                                                                                                                              X=Y=Z=M=M=P=o=T=l=}=s=`=V=W=w=x=y=z=A=B=0=C=D=E=F=G=H=I=g=h=S S S S S S S S S S S S S S S S S a.M a.M a.a.~ % * * * * * * * * * * * * * * * * * * * * * * * * * * * * * * * * * * * * * * * * & & & & & & & & * * * * * * * * * & & * 4 6 0 0 0 = = = 0 0 0 0 a a a a 4 4 } 4 4 4 } a a a 0                                                                                                                                                                                                                                                                                                                                                                                                                       ",
"                                                                                                                                                                                                                                                                                                                                               -.-k=M=M=P=o=T=m=+-@-U=V=W=w=x=y=z=A=B=0=C=D=E=F=G=H=I=g=h=S S S S S S S S a.a.a.a.a.a.a.a.S a.M a.M a.a.~ % * * * * * * * * * * * * * * * * * * * * * * * * * * * * * * * * * * * * * * * * & & & & & & & & * * * * * * * * * & & * 4 6 0 = 0 0 0 0 0 0 0 0 0 0 = = 0 4 4 4 a 4 } a 0 0 0                                                                                                                                                                                                                                                                                                                                                                                                                       ",
"                                                                                                                                                                                                                                                                                                                                              #-O=k=l=M=P=o=T=l=$-%-U=&-*-w=x=y=z=A=B=0=C=D=E=F=G=H=I==-h=S S S S S S S S a.a.a.a.a.a.a.a.S a.M a.S a.a.~ % * * * * * * * * * * * * * * * * * * * * * * * * * * * * * * * * * * * * * * * * & & & & & & & & * * * * * * * * * & & * 4 , = = 0 0 a a 0 0 0 = = 8 8 8 = a 4 a 0 a 4 a 0 0 0                                                                                                                                                                                                                                                                                                                                                                                                                       ",
"                                                                                                                                                                                                                                                                                                                                              --;-Z=l=>-P=P=T=>-|=,-U='-)-w=x=y=z=A=B=0=C=D=E=!-~-{-I=]-^-S S S S S S a.a.S S S a.a.S S S S a.S E S E E #.% * * * * * * * * * * * * * * * * * * * * * * * * * * * * * * * * * * * * & & & & & & & & & & & & * * & | & * & | | & * * 4 8 8 = = 0 0 0 0 0 = = 8 , 6 = 0 a a a a a a } a 0 4                                                                                                                                                                                                                                                                                                                                                                                                                       ",
"                                                                                                                                                                                                                                                                                                                                              /-;-Z=l=>-P=P=T=>-|=,-U='-)-w=x=y=z=A=B=0=C=D=E=!-~-{-I=]-^-S S S S S S a.a.S S S a.a.S S S S a.S E S E E ~ % * * * * * * * * * * * * * * * * * * * * * * * * * * * * * * * * * * * * & & & & & & & & & & * * & | & * 5 5 5 & | & & & } 8 8 0 = 6 6 8 8 8 8 8 8 6 8 = = 0 0 = = 4 4 = 0 5 4                                                                                                                                                                                                                                                                                                                                                                                                                       ",
"                                                                                                                                                                                                                                                                                                                                              (-;-Z=l=>-P=P=T=>-|=,-U='-)-w=x=y=z=A=B=0=C=D=E=!-~-{-I=]-^-S S S S S S a.a.S S S a.a.S S S S a.S E S a.a.~ % * * * * * * * * * * * * * * * * * * * * * * * * * * * * * * * * * * * * & & & & * & & & & & * 5 * * & | | & & & & & | | } 8 8 = 0 4 4 4 0 = 8 6 , , , 6 8 = 0 0 0 6 % a = a 6                                                                                                                                                                                                                                                                                                                                                                                                                       ",
"                                                                                                                                                                                                                                                                                                                                              /-;-Z=l=>-P=P=T=>-|=,-U='-)-w=x=y=z=A=B=0=C=D=E=!-~-{-I=]-^-S S S S S S a.a.S S S a.a.S S S S a.S a.S a.a.~ % * * * * * * * * * * * * * * * * * * * * * * * * * * * * * * * * * * * * & & & & * * * & & * * * 5 5 * & & & & * * * & & } 6 6 0 = 8 8 8 8 8 6 6 6 , , , , 6 8 = = 8 } 0 4 % =                                                                                                                                                                                                                                                                                                                                                                                                                       ",
"                                                                                                                                                                                                                                                                                                                                              (-;-Z=l=>-P=P=T=>-|=,-U='-)-w=x=y=z=A=B=0=C=D=E=!-~-{-I=]-^-S S S S S S a.a.S S S a.a.S S S S a.S a.S a.a.~ % * * * * * * * * * * * * * * * * * * * * * * * * * * * * * * * * * * * * & & & & * * * * * & & & | | & * 5 * & | | * * & } 8 = a a a 0 0 = 8 6 , , 8 8 6 6 8 8 8 8 0 8 , 0 8 -                                                                                                                                                                                                                                                                                                                                                                                                                       ",
"                                                                                                                                                                                                                                                                                                                                              _-:-Z=l=>-P=P=T=>-|=,-U='-)-w=x=y=z=A=B=0=C=D=E=!-~-{-I=]-^-S S S S S S a.a.S S S a.a.S S S S a.S a.S a.a.~ % * * * * * * * * * * * * * * * * * * * * * * * * * * * * * * * * * * * * & & & & & & & & & & & & * 5 * & | | & * & | & 5 a , , 8 6 8 8 6 6 , > ; - 1 1 - ; > , , , = 0 4 4 a %                                                                                                                                                                                                                                                                                                                                                                                                                       ",
"                                                                                                                                                                                                                                                                                                                                              _-:-Z=l=>-P=P=T=>-|=,-U='-*-w=x=y=z=A=B=0=C=D=E=<-~-{-I=]-^-S S S S S S a.a.S S S a.a.S S S S a.S a.M a.a.<.% * * * * * * * * * * * * * * * * * * * * * * * * * * * * * * * * * * * * & & & & & | | 7 7 | * 5 & | | | & 5 a 8 9 b.b k.@ r r d d n.C#+ $ ) b.b.3 {.' [ 9 1 ; ; > 0 0 0 > } &                                                                                                                                                                                                                                                                                                                                                                                                                       ",
"                                                                                                                                                                                                                                                                                                                                              --;-[-l=>-P=P=}-|-1-,-2-3-4-,=5->=C=y=>=6-y=D=7=7-8-9-I=0-a-b-b-U*S S S a.a.S S S a.a.c-d-d-e-f-g-a.M h-a.<.% * * * * * * * * * * * * * * * * * * * * * * * * * * * * * * * * * * * * & * * * * * & | & 5 4 0 > [ A k.! X#_ 5.5.5.#.#.~ <.#.N 2 ~ #.#.#.~ <.o.o.~ #.2 5._ _ 5.N                                                                                                                                                                                                                                                                                                                                                                                                                                   ",
"                                                                                                                                                                                                                                                                                                                                              i-O=[-q=l=j-k-l-m-l=n-o-p-q-r-s-t-t-6-u-v-w-x-y-z-A-B-C-D-E-F-f=I=U*G-H-I-J-c-c-K-L-M-N-O-P-Q-R-S-T-T-e-S-U-V-W-X-X-Y-Z-Y-& {#V@`-V@ ; ;.;.;f&+;f&@;z@.%z@@;& X-Z-Y-#;$;!#Z-$;5 % } 4 0 , 1 ( {.e b.k.@ # l._ _ 5.5.2 #.#.#.2 #.<.~ #.~ <.o.o.<.<.#.#.< +%j : 8.                                                                                                                                                                                                                                                                                                                                                                                                                                                  ",
"                                                                                                                                                                                                                                                                                                                                              %;.-[-&;l=*;k-=;m-l=-;;;>;,;s-';);!;~;{;];^;x-/;(;_;:;<;[;};|;1;2;3;4;5;d-d-c-6;7;8;9;0;a;b;c;d;T-e;f;f-S g;U@* * * * a%* * {#h;i;V@V@j;U@k;l;m;n;k;.%.;f&o;p;q;Y-!#!#r;s;t;u;+ @ d # # X#X## X#].l._ 5.5._ _ 5.2 2 2 N N 2 ~ 2 _ #.~ < { v;h$                                                                                                                                                                                                                                                                                                                                                                                                                                                                    ",
"                                                                                                                                                                                                                                                                                                                                              w;.-[-&;l=T=P=}-x;y;z;;;3-*-A;B;C;M*D;x=E;F;E;)=G;H;I;J;K;L;f=M;N;O;P;N-Q;c-R;S;T;U;V;W;X;Y;Z;`; > >.>+>@>#>$>%>%>&>&>&>&>.%5 *>a%X-=>Z-->->;>>>,>'>)>!>~>{>]>^>/>(>(>_>:><>[># ]._ N 2 2 N 5.5.N N N N N #.~ N 5.2 ~ [$h.                                                                                                                                                                                                                                                                                                                                                                                                                                                                                        ",
"                                                                                                                                                                                                                                                                                                                                              }>.-[-q=l=T=P=}-x;1-z;|>1>2>3>4>5>6>E=7>F;8>9>b=0>a>b>c>d>e>f>g>h>c-i>j>j>J-k>l>m>n>o>g>E h>p>q>r>s>t>u>s>v>w>x>y>0@z>%>A>B>C>D>E>F>G>H>I>J>K>L>M>N>O>P>N>Q>R>S>T>:>U>V>U><>U>_ _ _ l.].X#].l._ l.l.2 [$h                                                                                                                                                                                                                                                                                                                                                                                                                                                                                                         ",
"                                                                                                                                                                                                                                                                                                                                              W>X>[-q=Y>T=Z>T=>-1-,-U=`> ,.,+,@,#,F;$,%,&,*,y==,a>-,;,g->,h=h=c-,,,,',Q;),!,~,{,],^,/,(,_,:,<,[,{,},|,},1,2,3,4,5,6,7,8,9,0,a,b,c,d,e,f,g,h,i,j,i,k,l,m,n,o,p,q,:>V>U>U>q,r,].l._ #.6.                                                                                                                                                                                                                                                                                                                                                                                                                                                                                                                          ",
"                                                                                                                                                                                                                                                                                                                                              s,X>Z=t,u,T=p=T=>-|=,-v,w,x,y,z,y,A,9>B,$,$,C,D,E,F,G,],H,Q;H,h>j>i>I,j>J,U;K,L,M,N,O,P,Q,R,S,T,U,V,W,X,Y,Z,`, '.'+'j,@'#'$'%'&'*'*'*'&'='='='-';'>',''')'!'~'{']'U>^'                                                                                                                                                                                                                                                                                                                                                                                                                                                                                                                                            ",
"                                                                                                                                                                                                                                                                                                                                              i-/'Z=('_'T=p=T=>-|=,-:'<'['}'|'1'2'3'4'5'C=D,6'7'8'9'0'a'b'c'J-d',,,,e'c'f'g'h'i'j'k'l'm'n'o'p'q'r's't'u'v'w'x'y'z'A'B'B'C'D'D'E'F'F'D'G'G'H'I'J'K'L'M'N'.'O'                                                                                                                                                                                                                                                                                                                                                                                                                                                                                                                                                    ",
"                                                                                                                                                                                                                                                                                                                                              i-P'Q'R'p=T=p=T=|-1-S'T'U'V'W'X'Y'/;Z'`' ).)+)@)#)$)%)&)*)=)-);)>),)')))!)~){)])^)/)()_):)<)[)L$})|)1)2)3)4)5)6)7)8)9)0)a)b)c)d)B'e)e)f)g)h)i)i)j)k)l)m)n)o)p)                                                                                                                                                                                                                                                                                                                                                                                                                                                                                                                                                    ",
"                                                                                                                                                                                                                                                                                                                                              q)r)s)t)m-u)m-*;|-v)w)x)y)z)A)B)C)D)E)F)G)H)I)J)K)L)M)N)O)P)Q)'.'.R)S)T)U)V)W)X)Y)Z)`) !.!T%+!@!P@#!$!%!&!*!=!-!;!>!,!'!'!)!!!~!{!{!]!]!^!/!(!(!_!:!<![!}!|!1!                                                                                                                                                                                                                                                                                                                                                                                                                                                                                                                                                    ",
"                                                                                                                                                                                                                                                                                                                                              2!3!4!5!6!7!8!9!0!a!n=b!c!d!e!f!g!h!i!j!k!l!m!n!o!p!q!r!s!t!u!v!*.w!w!x!y!z!A!B!C!D!T%1+#&E!F!F!G!8#;#H!T%I!J!K!L!M!N!O!O!P!Q!R!S!S!S!S!T!U!V!W!X!<!Y!Z!`! ~.~                                                                                                                                                                                                                                                                                                                                                                                                                                                                                                                                                    ",
"                                                                                                                                                                                                                                                                                                                                              +~@~#~$~%~&~*~A'=~-~;~>~,~'~)~!~~~{~]~^~/~(~_~:~<~[~}~|~1~2~3~4~v!5~6~7~8~9~0~a~Q.b~c~8#G!M#5%Y+5+7#=&d~e~f~g~h~i~j~k~l~m~n~n~o~U!p~p~p~q~r~s~t~u~u~v~w~x~y~z~                                                                                                                                                                                                                                                                                                                                                                                                                                                                                                                                                    ",
"                                                                                                                                                                                                                                                                                                                                              A~B~C~D~E~F~G~H~I~J~K~L~M~N~O~P~Q~R~S~T~U~V~W~X~Y~Z~`~ {.{+{7~4~@{#{#{3~8~9~0~${%{;+3+u+w+M#y+&{*{*&={-{;{>{,{$+'{){!{~{{{]{W!q~q~r~r~r~r~s~^{/{({_{_{:{<{[{}{                                                                                                                                                                                                                                                                                                                                                                                                                                                                                                                                                    ",
"                                                                                                                                                                                                                                                                                                                                              |{1{2{3{9%4{5{6{5{7{8{9{0{a{b{c{d{e{f{g{h{i{j{h-k{l{m{n{o{7~p{q{_.r{r{@{y!9~A!s{%{t{Y+X+4%M#5+*{<&N@={u{v{w{x{y{z{A{B{C{C{D{E{F{G{t~t~t~t~H{({I{({_{:{J{x&K{L{                                                                                                                                                                                                                                                                                                                                                                                                                                                                                                                                                    ",
"                                                                                                                                                                                                                                                                                                                                              M{N{O{P{Q{R{S{T{U{V{W{X{Y{Z{=)`{ ].]V;j{+]@]#]$]%]&]*]=]-];]>],]_.']n{@{y!z!)]B!!]t{6+p@w+M#Y+6+<&N#={-{~]{],{]]^]/]:{(]_]:]<][]}]|]1]1]1]2]3]4]4]:{5]6]7]8]9]                                                                                                                                                                                                                                                                                                                                                                                                                                                                                                                                                    ",
"                                                                                                                                                                                                                                                                                                                                              n 0]a]x@X{J%b]c]d]e]f]g]h]i]N-j]k]h>f>U*g-l]m]n]o]p]q]r]s]t]u]v]w]x]y]T)U)z]A]B]C]b~<&o#p@M#M#5%r#t+6@D]e~E]F]G]H]I]J]K]L]4]|]M]N]Z!Z!Z!2]`!O]I{P]5]6]7]Q]R]S]                                                                                                                                                                                                                                                                                                                                                                                                                                                                                                                                                    ",
"                                                                                                                                                                                                                                                                                                                                              -.T]U]V]W]#;X]Y]Z]`] ^A&.^+^d;@^I-#^$^%^&^*^*^=^-^;^>^,^'^)^!^~^w]y]y]w]>]{^]^^^/^e~N#A+o#5%w+M#(^@!_^:^<^[^}^|^1^2^3^4^5^6^H{Z!N]N]N]7^2]`!O]8^9^6]7]Q]Q]0^L{                                                                                                                                                                                                                                                                                                                                                                                                                                                                                                                                                    ",
"                                                                                                                                                                                                                                                                                                                                              -.a^b^~%* a%c^d^e^f]f^g]g^h^i^g-g-b-j^k^#^#^I=I=k^l^m^n^o^p^p^v]']n{n{n{q^r^]^s^t^;+u@9#5+n@Y+Y+u^;#;#:^T%[^v^w^x^y^z^A^B^5^/{C^C^C^Z!7^Z!D^w~E^F^x&G^H^I^J^K^                                                                                                                                                                                                                                                                                                                                                                                                                                                                                                                                                    ",
"                                                                                                                                                                                                                                                                                                                                              { a | 5 * V]5 L^L^h;~#z@{ R M a.S M^S N^U*N^U*a.O^F !.q^q^~^~^_._.r{P^n{q^Q^R^S^T^!$8#8#U^s$V^4#t+=#W^X^Y^Z^`^ /./+/@/#/$/%/8^&/*/2]2]2]2]=/_{:{<{-/-/;/>/,/'/                                                                                                                                                                                                                                                                                                                                                                                                                                                                                                                                                    ",
"                                                                                                                                                                                                                                                                                                                                              { a | 5 * * * * 5 * 5 * { R M a.S M S a.S a.S )/a.F !.v!*.']~^_.!/~/P^n{q^Q^R^{/]/^/>%-#//s$*{o@t+=#W^(/8+_/:/</[/>/>/;/J]}/|/O]1/2]2/2/2/_{_{:{3/4/5/;/>/6/7/                                                                                                                                                                                                                                                                                                                                                                                                                                                                                                                                                    ",
"                                                                                                                                                                                                                                                                                                                                              { a | 5 * * * * 5 * 5 * -.R M a.S M S a.S a.S a.a.F !.*.*.']~^_.!/~/P^n{q^Q^8/9/0/a/9&9&//s$*{o@t+=#W^X^b/c/d/e/f/>/g/>/h/i/9^O]2]2]2//{/{_{:{j/3/4/4/;/>/6/k/                                                                                                                                                                                                                                                                                                                                                                                                                                                                                                                                                    ",
"                                                                                                                                                                                                                                                                                                                                              { 0 | 5 * & * * % * 5 * -.R M a.S M S a.S a.S a.a.F !.*.*.']~^_.!/~/P^n{q^l/m/9/0/a/9&9&n/s$*{*{t+t+=#(/b/o/p/q/r/s/t/>/u/v/w/x/O]2/2//{_{:{j/<{y/5/5/;/>/z/k/                                                                                                                                                                                                                                                                                                                                                                                                                                                                                                                                                    ",
"                                                                                                                                                                                                                                                                                                                                              { 0 & 5 * * * * 5 * 5 * -.R M a.S M S a.S a.S a.a.F !.*.*.']~^_.!/~/P^n{q^Q^8/9/0/a/9&9&//s$*{*{A/t+=#(/b/B/C/q/f/s/t/>/u/D/E/x/8^/{({_{:{j/F/-/G/;/;/;/>/6/H/                                                                                                                                                                                                                                                                                                                                                                                                                                                                                                                                                    ",
"                                                                                                                                                                                                                                                                                                                                              n = & 5 * * * * 5 * 5 * { R M a.S M S a.S a.S a.a.F !.*.*.']~^_.!/~/P^n{q^Q^R^{/]/^/9&@!//s$*{*{A/t+=#(/I/B/C/q/f/s/t/>/J/D/K/L/M/w~P]:{j/<{3/5/G/;/;/;/>/6/N/                                                                                                                                                                                                                                                                                                                                                                                                                                                                                                                                                    ",
"                                                                                                                                                                                                                                                                                                                                              [.= & 5 * * 5 * * & 5 * { R M a.S M S a.S a.S a.a.F !.*.*.']~^_.!/~/P^n{q^Q^R^O/T^P/q#q#Q/N@*{*{A/t+=#(/b~R/C/q/f/s/t/>/J/D/S/T/<{:{:{:{j/<{U/V/;/>/;/;/>/W/L{                                                                                                                                                                                                                                                                                                                                                                                                                                                                                                                                                    ",
"                                                                                                                                                                                                                                                                                                                                              g.0 * 5 * 5 5 * * & * * -.R M S S S S S S S S a.a.F !._._.']~^_.!/~/P^n{q^Q^8/O/T^X/q#q#*{N@*{*{Y/t+=#(/t{B/C/Z/`/t/t/>/u/D/ (K/F^5].(+(F^3/@(V/;/;/;/>/>/W/#(                                                                                                                                                                                                                                                                                                                                                                                                                                                                                                                                                    ",
"                                                                                                                                                                                                                                                                                                                                              D&4 * % 5 * * * 5 & * & +%^$M S S S S S S S S a.a.2.'._._.']~^_.!/~/P^n{q^l/m/O/]/a/9&q#*{$(//o@t+A/=#(/b/Z^p/%(&(s/>/;/u/D/7]7]7]6]*(=(=(=(=(V/V/V/;/>/>/W/-(                                                                                                                                                                                                                                                                                                                                                                                                                                                                                                                                                    ",
"                                                                                                                                                                                                                                                                                                                                              D&4 * % 5 * * * 5 & * & +%^$M S S S S S S S S a.a.2.'._._.']~^_.!/~/P^n{q^l/m/O/]/a/9&q#*{$(//o@t+A/=#(/b/Z^d/</;(>/>/;/u/D/h/h/>(h/,(=(=(=(=(V/V/V/;/>/>/'()(                                                                                                                                                                                                                                                                                                                                                                                                                                                                                                                                                    ",
"                                                                                                                                                                                                                                                                                                                                              D&4 * % * * * * 5 & * & +%^$M S S S S S S S S a.a.2.'._._.']~^_.!/~/P^n{q^l/m/O/T^a/9&-#//$(//o@t+A/=#(/b/Z^:/!([/~(;/;/u/D/I]{(](](@/;/V/V/=(V/V/V/;/;/>/^(-(                                                                                                                                                                                                                                                                                                                                                                                                                                                                                                                                                    ",
"                                                                                                                                                                                                                                                                                                                                              D&4 * 5 * * * * 5 & * & +%^$M S S S S S S S S a.a.2.'._._.']~^_.!/~/P^n{q^Q^8/O//(a/9&-#//$(//o@t+A/=#(/b/Z^:/(([/~(;/;/u/D/I]](]([/~(~(@/_(=(V/V/V/V/;/>/:(<(                                                                                                                                                                                                                                                                                                                                                                                                                                                                                                                                                    ",
"                                                                                                                                                                                                                                                                                                                                              D&4 * 5 * * * * 5 & * & +%^$M S S S S S S S S a.a.2.'._._.']~^_.!/~/P^n{q^Q^R^O//(a/9&-#//$(//o@t+A/=#(/b/Z^:/</[(~(;/;/h/D/I]]([/f/f/f/@/V/V/V/V/V/V/;/G/}(|(                                                                                                                                                                                                                                                                                                                                                                                                                                                                                                                                                    ",
"                                                                                                                                                                                                                                                                                                                                              D&a * 5 * * * * 5 & * & +%^$M S S S S S S S S a.a.2.'._._.']~^_.!/~/P^n{q^Q^R^1(/(a/9&-#//$(//o@t+A/=#(/b/Z^:/</[/@/;/V/J]2(A^]([/[(f/[(@/V/V/V/V/V/V/;/G/}(|(                                                                                                                                                                                                                                                                                                                                                                                                                                                                                                                                                    ",
"                                                                                                                                                                                                                                                                                                                                              D&a * 5 & * * * 5 & * & +%^$M S S S S S S S S )/a.3('._._.']q^_.r{~/4(n{q^Q^R^1(/(a/9&q#Q/<&//$&t+A/=#(/b/Z^5(6({(#/=(=(7(7(I]8(9([([(0(a({(#/V/V/V/V/;/;/4/b(                                                                                                                                                                                                                                                                                                                                                                                                                                                                                                                                                    ",
"                                                                                                                                                                                                                                                                                                                                              D&a * 5 & * 5 * 5 & & * ]%^$M S S S U*S S c'J-c(J-d(e(_._.']w]f(P^g(4(P^q^h(i(j(k(l(m(>%n(Q///=#o(_^u@A/8+[^p(q(r(s(s(r(r(t(u(v(w(!( / /x(y({(V/V/V/V/@/@/5/z(                                                                                                                                                                                                                                                                                                                                                                                                                                                                                                                                                    ",
"                                                                                                                                                                                                                                                                                                                                              D&= & 5 * & } | % * & 5 h.A(+>S a.g=B(]-h=V;C(b'D(E(F(G(_.w]H(y]I(4( {J(']K(L(M(N(O(P(>%o(Q(Q(8#R(q#S(T(d~U(V(W(X(Y($+Z(`( _._+_@__/#_$_%_&_]]8(](](](8(*_8(~(                                                                                                                                                                                                                                                                                                                                                                                                                                                                                                                                                    ",
"                                                                                                                                                                                                                                                                                                                                              g.a 5 } | * % & 5 * * % ]%=_+>S a.g=B(]-U;),-_D(D(;_e(u!q{>_,_'_)_!_1~~_}~{_]_S^T^^_/_(___:_@!<_[_4%}_|_1_2_f~3_4_5_6_v{7_8_p#9_0_a_b_c_d_e_f_r/r/r/g_h_h_%(i_                                                                                                                                                                                                                                                                                                                                                                                                                                                                                                                                                    ",
"                                                                                                                                                                                                                                                                                                                                              i } 7 & | | | & 5 5 & | B j_.>)/a.N^b-]-U;k_l_7;7;m_n_;]U)o_p_q_r_s_s_t_u_v_w_x_y_p&z_A_ @B_C_D_E_F_G_H_I_J_K_L_M_M_N_6#5#N@O_<^P_e~Q_c_R_S_T_U_U_U_V_W_W_X_Y_I^Z_`_ :.:+:@:#:$:%:&:*:=:-:                                                                                                                                                                                                                                                                                                                                                                                                                                                                                                                        ",
"                                                                                                                                                                                                                                                                                                                                              j 4 % % * 5 & % 5 5 & * B j_.>)/a.b-b-]-;:>:,:':):!:~:{:]:^:/:(:_:::<:[:^=}:|:1:2:3:4:5:6:7:8:,@9:0:a:b:c:d:e:t{b~e~f:g:S%h:i:j:++|+k::/l:m:T_T_T_n:o:p:p:q:r:S_s:t:u:v:v:w:x:y:z:A:B:C:D:E:                                                                                                                                                                                                                                                                                                                                                                                                                                                                                                                      ",
"                                                                                                                                                                                                                                                                                                                                              7.0 5 & | * * } 5 % 0 ; -.F:P;G:f-H:b-b-I:;:h=):J:K:L:M:N:O:P:Q:R:S:T:a#U:V:W/W:X:Y:k@j@Z:`:`:c@ <.<+<@<#<$<t@t+_&_&_&0#%<&<n(*<8+b/k::/=<-<m:Y_S_S_o:;<><><,<'<)<p:!<~<A:{<]<W_X_V_]<t/^</<                                                                                                                                                                                                                                                                                                                                                                                                                                                                                                                      ",
"                                                                                                                                                                                                                                                                                                                                              g . ( 3 ) b C#X#5.<.6.[.o (<d-G:e-U*b-b-I:_<:<u><<[<}<|<1<K'2<3<4<5<6<7<8<9<0<a<b<c<d@d<@$e<f<<%g<@$h<f<+<i<j<k<o(t+r#l<m<m<n<o<:^8+p<q<r<s<t<Y_u<m:d_v<w<x<y<z<z<A<B<p:C<D<E<F<G<E<H<I<J<K<                                                                                                                                                                                                                                                                                                                                                                                                                                                                                                                      ",
"                                                                                                                                                                                                                                                                                                                                              ` ` d.0.u.m.x$d+v T r.x$L<M<d-G:e-0-N<b-I:g>S;O<P<Q<R<S<T<t)U<V<Z=W<X<L=Y<Z<`< [.[+[A$@[M%#[:%$[%[H#&[*[Z:=[s&M#t+t+t+3+-[m<(^+!;[8+p<c/>[,[l:t<d_)<w<x<y<y<'[)[![~[{[><][w<y<^[/[([_[f_A::[                                                                                                                                                                                                                                                                                                                                                                                                                                                                                                                      ",
"                                                                                                                                                                                                                                                                                                                                1 , 4 * 7 ^ e i.v d+d+!.!._.'.!._...<[P$[[I-G:e-0-N<b-I:_<}[|[1[2[3[4[V<5[6[7[8[9[[-0[v)a[b[c[d[+[e[)@f[&[N%&[M%g[u%<%Z:h[ @i[t+=#=#E!F!j[-#8#c~E%k[l[m[,[n[o[p[><q[r[r[r['[s[t[u[v[w[{[q[r[x[y[~[][z[A[B[                                                                                                                                                                                                                                                                                                                                                                                                                                                                                                                      ",
"                                                                                                                                                                                                                                                                                                                        7 & 5 % } % * & * & e d._._.*.*._.*.!._._.*.*.,& >I-G:f-C[D[I:I:E[B(F[G[H[I[J[p=Z>P=Z>K[[-L[K[v)M[N[O[P[&%{@)@M%Q[<%R[3$y%@$V$S[T[w+@!U[U[U[E!@!@!8#@!U[j:++V[W[,[x<w<w<X[q[r[r[)[)[/[/[A<w<;<Y[R_y</[z<A<Z[!<A[`[                                                                                                                                                                                                                                                                                                                                                                                                                                                                                                                      ",
"                                                                                                                                                                                                                                                                                                                        7 & 5 5 * 5 * & * & e d._._.).*._.).!._._.*.*.,& >I-G:f-C[D[I:I:E[B( }q*H[.}x;p=Z>P=Z>K[[-L[K[+}M[N[@}P[#}.&)@M%@$@$<%3$$}g<%}d[&}w+E!,%*}E%*<t+E!8#@!;[j:++=}-},[v[w<w<><q[r[r[)[)[/[x<w<Y[n:n:Y[Y[y</[w<S_;}B:>}                                                                                                                                                                                                                                                                                                                                                                                                                                                                                                                      ",
"                                                                                                                                                                                                                                                                                                                        | * 5 5 * 5 * & * & e d._._.).*._.).!._._.*.*.,&4*J-)/a.C[D[C[a.O^g= }q*H[.}|-l=Z>,}V<K[L[L[K[+}M['})}!}%*~}d@@${}@$I@g<<%]}Z:.[^}u+U[*}/}b/E%(}t+Z$@!;[_}8+V[-},[x<w<><><q[)[)[)[)[w<w<X_n:n::}Y[Y[r[y<w<S_<}[}}}                                                                                                                                                                                                                                                                                                                                                                                                                                                                                                                      ",
"                                                                                                                                                                                                                                                                                                                        7 * 5 5 * * * & * & e p._._.).*._.).!._._.*.*.,&4*J-)/a.C[D[C[f-3;g= }|}H[1}|-l=Z>,}V<K[L[L[K[+}M[0<)}!}2}3}$}@$i#<*<*g<<%]}Z:.[^}-#U[E%/}b/=&(}t+Z$o((}_}4}5}6}y<x<><><><q[)[)[)[)[w<w<n:n::}7}Y[8}r[r[><n:9}0}}}                                                                                                                                                                                                                                                                                                                                                                                                                                                                                                                      ",
"                                                                                                                                                                                                                                                                                                                        7 * 5 * * * * * * & e p._._.).*._.)._.*._.*.*.P$a}U;a.a.N^I:C[f-3;g= }b}c}d}m-p=Z>P=7[K[[-L[K[+}M[e}f}!}2}3}$}Q[i#<*&%g}$}h}%}i}&}w+E!E%8+=&_&0#5+u@t+(}_}4}5}6}y<q[><><><><j}k})[)[A<w<n:n:7}7}Y[8}r[l}r[m}n}[}o}                                                                                                                                                                                                                                                                                                                                                                                                                                                                                                                      ",
"                                                                                                                                                                                                                                                                                                                        7 * 5 * & * * * * | e p._._.*.*._.)._.*._.*.*.P$p}U;U;a.N^I:C[f-3;a.O<q}c}d}m-p=Z>P=+}m=[-[-K[v)a[r}f}!}s}3}$}Q[Q[&*&%3}$}g<t}0:u}w+@!(}_&_&0#h:z+n@r#(}B+4}v}w}r[q[><><><><j}k})[x}j}E<p[o[o[y}z}A}-}-}r[w<B}v:C}                                                                                                                                                                                                                                                                                                                                                                                                                                                                                                                      ",
"                                                                                                                                                                                                                                                                                                                        & * 5 * & * * * * | e p.!._.*._._.)._.*._.*.*.P$p}U;g=B(N^a.D}I-W;)/E}b{F}d}m-p=G}H}p=l=I}I}J}_'K}r}L}M}I@N}+$O}Q[3$x%G@:#P}<%.<h[ @M#V^*{*{V^Q}R}S}5+(}B+T}v}U}q[V}p:p:p:W}j}j}A<A<X})[r[z}z}z}-}Y}Z}`}6}r[ |.|C}                                                                                                                                                                                                                                                                                                                                                                                                                                                                                                                      ",
"                                                                                                                                                                                                                                                                                                                        & * 5 * & * * * * | e p.!._.*._._.)._.*._.*.).P$p}U;U;B(N^a.)/I-W;)/g=+|@|X>m-p=G}#|t,l=$|I}m=%|&|*|L}M}I@N}:#Q[Q[$}d@3$=|3$<%.<-|;|[@5+*{&{z+>|+@S}5+,|B+T}v}U}q['|p:p:p:W}j}A<A<)|X}X})[r[!|z}-}-}W[W[6}r[r:A[`[                                                                                                                                                                                                                                                                                                                                                                                                                                                                                                                      ",
"                                                                                                                                                                                                                                                                                                                        7 * 5 * * * 5 * * & e /.*.*.*.*._.)._.*._.*.*.P$4*a.a.a.U;a.a.)/3*a.N^~|{|/'m-v)#|]|^|l=$|[-/|_'(|r}L}_|'@N}d@*[{}@$3$:|4$<|[|i}}|||s@5+V^*{5+y+s@D%r#(}B+T}1|t[r[q[V}><V}><j}k}/[/[2|2|)[q[><q[q[r[/[/[)[w<p:A[3|                                                                                                                                                                                                                                                                                                                                                                                                                                                                                                                      ",
"                                                                                                                                                                                                                                                                                                                        | * 5 * * * 5 * * & e &.*.*.*.*.!.)._.*._.*.*.P$ >I-a.a.U;U;a.a.E N^I:~|{|/'m-v)#|]|H}l=$|[-m=#|a[4|f}!}%*N}d@<%i#@$@$g<s}5|6|7|8|a$s@V^*{*{*{5+5%3+7+(};+d~=}9|y<x<><><><><k}x}/[/[0|/[A<X[;<;<w<q[)[)[a|w<D<b|c|                                                                                                                                                                                                                                                                                                                                                                                                                                                                                                                      ",
"                                                                                                                                                                                                                                                                                                                        7 * 5 * * * 5 * * & e &.*.*._.*.!.)._.*._.*.*.P$ >I-)/a.U;U;a.a.E N^I:~|{|d|Q'v)#|]|H}l=$|[-m=#|a[4|f}!}%*N}d@<%i#Q[@$g}j@e|6|7|u}a$5%V^*{*{*{6+5+3++!_^1+f|=}g|>[x<><><><q[x<u[/[h|i|j|k|w<X_o:l|F<![![m|>< |n|o|                                                                                                                                                                                                                                                                                                                                                                                                                                                                                                                      ",
"                                                                                                                                                                                                                                                                                                                        7 * 5 * & * * * 5 & e &._.*._.*.!.)._.*._.*.*.P$ >I-)/a.U;U;a.a.E N^I:~|{|d|Q'v)#|]|H}l=$|[-m=#|a[4|f}!}%*N}d@<%i#Q[Q[3}g%p|J@q|&}a$5%V^*{*{*{6+5+Z$r|#!1+f|s|g|>[y<q[><><q[y<y<W[s[z<j|t|R_o:n:X_l|j}k}u|r: |v|w|                                                                                                                                                                                                                                                                                                                                                                                                                                                                                                                      ",
"                                                                                                                                                                                                                                                                                                                        7 * 5 * & * * * 5 & . ;._._._.*.!.)._.*._.*.*.P$ >I-)/a.U;U;a.a.E N^I:~|{|d|Q'v)#|]|H}l=$|[-m=#|a[4|f}!}%*N}d@<%i#Q[.#3}$}<|J@q|x|a$5%0#i:i:i:0#r#E!r|#!1+f|s|g|y|z|A|n[o[R_y<y<>[y<x}A<l|n:!<!<B|o:F<F<><;<B}C|D|                                                                                                                                                                                                                                                                                                                                                                                                                                                                                                                      ",
"                                                                                                                                                                                                                                                                                                                        7 * 5 * & * * * 5 | . ;._._._.*.!.)._.*._.*.*.P$ >I-)/a.U;U;a.a.E H:B(~|{|d|Q'v)#|]|H}l=$|[-m=#|a[4|f}!}%*N}d@<%E|.#M%F|$}<|J@0:&}a$5%(}_&_&_&(}t+E!r|#!1+f|s|G|H|8}z}I|Y[R_x<y<y<x<A<w<o:n:;}n}J|J|K|)<w<o:n}C|L|                                                                                                                                                                                                                                                                                                                                                                                                                                                                                                                      ",
"                                                                                                                                                                                                                                                                                                                        7 * 5 * & * * * 5 | . ;.!._._.*.!.)._.*._.*.*.P$ >I-)/a.U;U;a.a.E U*B(~|{|d|7[M|#|]|H}l=$|[-m=#|a[4|f}!}%*N}d@<%@$M%N|f[d<O|2}0:&}a$5%(}_&_&_&(}t+t+_^;[1+f|s|P|Q|Q|Y[m}m}m}R|l:l:l:t|w<n:n:;}!<!<o:X_l|;<n:n}S|T|                                                                                                                                                                                                                                                                                                                                                                                                                                                                                                                      ",
"                                                                                                                                                                                                                                                                                                                        7 * 5 * & * * & 5 | . f$!._._.*.!.)._.*._.*.*.P$ >I-)/a.U;U;a.a.E U*b-U|{|V|7[W|X|]|H}l=$|[-m=#|a[4|f}!}%*N}d@<%@$M%G@Y|d@Z|%*0:&}a$5%(}_&_&_&(}t+t+A/X^;+D]c/`| 1m}n:n:n:n:n:m}m}Y[v<)<S_T_.1T_!<!<+1p:@1J|b|S|#1                                                                                                                                                                                                                                                                                                                                                                                                                                                                                                                      ",
"                                                                                                                                                                                                                                                                                                                        7 * 5 * & * * * * & . f$!._.*._._.*._.*._._.*.P$[[I-)/a.U;U;a.a.a.U*B(U|$1V|m-^|#|]|H}l=$|[-m=#|a[e}L}!}%*%1O%@$@$u%G@&1T$*1=1-1;1a$5%0#_&_&_&(}t+A/t+;+b/>1o/q[)<o:!<n:T_,1'1!<n:m}v<v<S_S_.1;}!<!<q:)1p:C<!1~1{1                                                                                                                                                                                                                                                                                                                                                                                                                                                                                                                      ",
"                                                                                                                                                                                                                                                                                                                        7 * 5 * & * * * * & . f$!._.*._._.*.!.*._._.*.P$[[I-)/a.U;U;a.a.a.N^E[]1$1^1m-/1#|]|H}l=$|[-m=#|a[e}f}!}%*%1O%R[(1P}T$%1x%*1=1_1:1<1k<7+,|6@(}t+E![1}1=&b~(&|1q[1121!<T_31415151T_61)<R_S_S_.1T_T_S_)1q:@1V_718191                                                                                                                                                                                                                                                                                                                                                                                                                                                                                                                      ",
"                                                                                                                                                                                                                                                                                                                        7 * 5 * & * * * * & . f$!._.*._._.*.!.*._._.*.P$[[I-)/a.U;U;a.a.E I:01~|$1a17[v)#|]|H}l=$|[-m=#|a[b1f}!}%*%1O%<%<%3}d<H@O+&%2}0:c1d1j[n(Y/Y/7+)$F!3+0#e10&f1g1~[Z[21h141i141j141k1l111R_n:S_U_m1S_S_B<n1Z[u<n}C|o1                                                                                                                                                                                                                                                                                                                                                                                                                                                                                                                      ",
"                                                                                                                                                                                                                                                                                                                        7 * 5 * & * * * * & . f$!._.*._._.*.!.*._._.*.P$[[I-)/a.U;U;a.a.E I:E[U|$1p1*;W|X|]|H}l=$|[-m=#|a[q1r1!}<*%1O%<%s1&*t1t1#}c<L&u1v1||l%o#Y+Y+5%-[k<p@D%w1x1y1z1A1v<;<B1k1C1C1m1D1W_)1E1F161U_s:s:S_n:X[><G1D<T_H1T|                                                                                                                                                                                                                                                                                                                                                                                                                                                                                                                      ",
"                                                                                                                                                                                                                                                                                                                        7 * 5 * & * * * * & . f$!._.*._._.*.!.*._._.*.P$[[I-)/a.U;U;a.a.a.N^I:U|$1I17[v)#|]|H}l=$|[-m=#|a[q1r1_|=1%1O%<%J1I@H$[%K1L1Y:M1N1Z+r@t@%<%<M#m<O1<1P1s@Q1//R1S1x[][T1B<U1V1W1X1Y1Z1`1([Z[ 2.2.2+2l1F1@2E<p:#2$2%2                                                                                                                                                                                                                                                                                                                                                                                                                                                                                                                      ",
"                                                                                                                                                                                                                                                                                                                        7 * 5 * & * * * * & . f$!._.*._._.*.!.*._._.*.P$[[I-)/a.U;U;a.a.a.N^E[U|$1I1&2^|#|]|H}l=$|[-m=#|a[b1f}_|=1%1O%*[f<<*<**2=1=2-2;2>2Z+r@s@s@s@r@j<Z+t&,2'2t@l<)2!2~2{2C/_[]2]2_[^2^2/2(2_2{[q/%(%(B<:2`1<2j}[2J|}2|2                                                                                                                                                                                                                                                                                                                                                                                                                                                                                                                      ",
"                                                                                                                                                                                                                                                                                                                        7 * 5 * & * * * * & . f$!._.*._._.*.!.*._._.*.P$[[I-)/a.U;U;a.a.3*122232$1I1m-t,#|]|H}l=$|[-m=#|a[42f}!}5262f[]&728292*22}Y@02a2;1Z+m<-[%<[@b2c2d1d2d2e2f2g2h2i2j2k2l2{2d/d/d/d/d/m2n2o2p2_[B<u<Z[][q2/[x}{[r2s2D|                                                                                                                                                                                                                                                                                                                                                                                                                                                                                                                      ",
"                                                                                                                                                                                                                                                                                                                        7 * 5 * & * * * * & . f$!._.*._._.*.!.*._._.*.P$[[I-)/a.U;U;;:a.E 0.t2u2v2w2x27[y2z27[m=K[Z=A2y2B2C2D2E2u1F2<|.<G2H2I2J2K2L2M2N2O2P2Q2R2S2T2U2V2W2X2Y2Z2`2 3.3+3@3#3$3%3%3%3%3%3%3&3*3=3-3;3>3,3,<,<'3A1![)3!3;}~3{3                                                                                                                                                                                                                                                                                                                                                                                                                                                                                                                    ",
"                                                                                                                                                                                                                                                                                                                        7 * * * * * * * 5 & e f$*.*.*.*.*.).!._.).*...x$]3 >M S ;:O^_<0.t  .^3/3(3_3:3<3[3}3}3|313233343536373839303a3b3c3d3e3f3g38#i[}_h3i3j3k3l3m3n3o3p3q3r3s3t3u3v3w3o#x3y3z3*+j:A3_}B+I/B3B3C3D3![E3F3F3G3a|H3I3J3!3K3L3M3M3N3O3P3Q3R3S3T3U3V3W3X3Y3                                                                                                                                                                                                                                                                                                                                                                                                                                                                                        ",
"                                                                                                                                                                                                                                                                                                                        7 & * * * 5 * * 5 | e |.'.v d+d+v !.x$r.'.x$T E |.9.Y%Q$g$C {%r%$.8.f Z3`3 4.4+4@4#4$4#4%4@4&4*4=4-4;4>4,4,-'4)42=!4~4{4]4^4/4(4_4:4<4[4}4|414243444546474849404l%i:I/=&U[a49&E!0#_&(}_&b4f1c4d4e4f4g4g4g4h4H3i4i4j4k4l4m4n4n4o4J3p4q4r4G3s4t4u4                                                                                                                                                                                                                                                                                                                                                                                                                                                                                        ",
"                                                                                                                                                                                                                                                                                                                        7 & * * * 5 * & * | ( Q$2.,.u u u 2.q.u.u.M E K%b } } } 5 & | ^ ^ p m ^ ^ z#v4w4x4y4y4z4.4A4B4C4D4E4F4G4Z=H4I4M[J4K4q=L4M4]|M[N4O4~=P4Q4R4S4T4U4V4D;W4X4Y4Z4`4 5r&*{g:=&#!m(9&-#6+Q/A/(}4}.5+5c4^[e4g4g4h4h4^[^[@5'<#5#5$5%5&5*5G3=5-5;5c4>5,5'5                                                                                                                                                                                                                                                                                                                                                                                                                                                                                        ",
"                                                                                                                                                                                                                                                                                                                        | & * * * 5 * & * & 9 {%E a.S E E a.a.a.S M a.$.{.| & * 5 * * * & & 5 & & q v4)5!5~5{5]5^5/5(5_5:5<5[5*;L=}5Y>|5u,152535Z=45r=N455~=P4Q465S4T4U4V4D;7=75Y4Z485 52@Q/g:=&#!m(9&-#6+Q/A/(}I/95+505^[e4G3h4h4h4^[^[@5'<a5b5$5c5d5*5e5=5f5g5h5i5j5k5                                                                                                                                                                                                                                                                                                                                                                                                                                                                                        ",
"                                                                                                                                                                                                                                                                                                                        | & * * * 5 * & * * 9 r%j.E S E S a.E E 0.a.a.8.( ^ & * * * * 5 * * | | 5 p W#l5m5n5o5!5p5q5r5s5t5u5v5Q'w5x5y59<Y>l=2535Z=45|5N455~=P4Q465S4T4U4V4z5A5B5C5Z4D5 5r&*{g:=&#!m(9&-#6+Q/E5(}I/95+5F5![^[h4h4h4h4^[^[@5'<b5b5$5c5c5G5H3H5-5g5+5i5I5k5                                                                                                                                                                                                                                                                                                                                                                                                                                                                                        ",
"                                                                                                                                                                                                                                                                                                                        | & * * * 5 * & & * [ r%0.a.M a.M E E M 0.E a.^.{.& 5 5 * & & & 5 * | 5 5 m z#J5K5L5M5)5N5O5P5Q5k,+'R5l-M4p=G}('('l=2535Z=45|5N455~=P4Q465S4T4U4V4z5S5B5C5Z4D5T5U5$&g:=&#!m(9&-#6+Q/A/(}4}95+5F5![^[h4h4h4h4^[^[@5'<b5b5$5c5c5G5H3H5V5;5F5>5,5W5                                                                                                                                                                                                                                                                                                                                                                                                                                                                                        ",
"                                                                                                                                                                                                                                                                                                                        | & * * * 5 * & & | 9 r%0.a.S a.a.0.a.(.S a.S o {.7 * * * & & * & 7 * } 5 q z#X5Y5Z5M5`5N5 6O5.6+6@6#6$6%6|-p=_'X|M=&6L4x545M[N4O4~=P4Q465S4T4U4V4z5S5B5C5Z4D5T5U5$&g:=&#!m(9&-#6+Q/A/(}4}p#F5F5![^[h4h4h4h4^[^[@5,<*6b5$5g|=6G5H3H5-5g5+505,5-6                                                                                                                                                                                                                                                                                                                                                                                                                                                                                        ",
"                                                                                                                                                                                                                                                                                                                        | & * * * 5 * * 5 | / {%E E a.E a.a.S S E E E $.( y & * & & * 5 5 * & & * p z#B#;6>6,6v4'6)6)6!6~6{6#6$6J[x;p=X|]6M=&6L4k=H}M[N4O4~=P4Q465S4T4U4V4X4A5B5Y4Z485^6a$*{g:=&#!m(9&-#6+Q/A/(}4}p#F5/6![^[h4h4h4h4^[^[(6,<*6b5$5g|=6_6:6H5<6[6h5i5j5}6                                                                                                                                                                                                                                                                                                                                                                                                                                                                                        ",
"                                                                                                                                                                                                                                                                                                                        | & * * * 5 * * % & / r%E E a.a.E S a.E E M S r%. 7 * 5 * & & * & * * & * p y#z#|6;616263646)656667686969!P=x;^|_'/|q=Z=k=H}M[N4O4~=P4Q465S4T4U4V4z5A5B506Z485 52@Q/g:=&#!m(9&-#6+Q/t+t+4}6#/6/6![^[h4h4h4h4^[![(6,<b5b5(6=6=6_6:6=5-5;5c4>5,5a6                                                                                                                                                                                                                                                                                                                                                                                                                                                                                        ",
"                                                                                                                                                                                                                                                                                                                        | & * * * 5 * & & * / o E a.a.a.a.S E a.a.a.0.^.{.7 * * * & & * 5 & * * & p x#y#|6 4b6c6d6e6f656g6h6u5-4i6V<R'j6('l=M=k635H}M[N455~=P4Q465S4T4U4V4z5A5'=06Z485 52@Q/g:=&#!m(9&-#6+*{t+l6I/95/6/6^[m|G3h4h4u|![![@5'<J3b5(6=6=6_6:6m6<6g5+5i5j5k5                                                                                                                                                                                                                                                                                                                                                                                                                                                                                        ",
"                                                                                                                                                                                                                                                                                                                        | & * * * 5 * & & * / o E a.a.a.a.S E a.a.S E ^.{.7 * * * & & * 5 & * * & p x#y#X5n6o6:$d6e6p6q666h6r6-4s6*;+}j6('l=M=t6u6H}M[N455~=P4Q465S4T4U4V4z5A5'=06Z485 52@Q/g:=&#!m(9&-#6+*{o(l6I/95/6/6^[![h4h4h4u|![![(6,<b5b5(6=6=6_6:6H5f5g5+5i5j5v6                                                                                                                                                                                                                                                                                                                                                                                                                                                                                        ",
"                                                                                                                                                                                                                                                                                                                        | & * * * 5 * & & * / o E a.a.a.a.S E a.a.S E h$. 7 * * * & & * 5 & * * & p z x#w6x6y6_$z6A6B6C6D6E6F6-4s6j-x;M|('l=M=t6u6H}M[N455~=P4Q465S4T4U4V4z5A5'=06Z485 5r&$&g:=&#!m(9&-#6+*{o(l6I/95/6/6^[![h4h4h4h4^[![(6,<*6b5(6=6=6_6G6H5V5;5c4i5j5-6                                                                                                                                                                                                                                                                                                                                                                                                                                                                                        ",
"                                                                                                                                                                                                                                                                                                                        | & * * * 5 * & & * / o E a.a.a.a.S E a.a.S E h$. 7 * * * * * * * | & * & y z H6I6J6K6V#L6M6M6N6O6E6F6-4P635x5T=t,l=M=t6u6H}M[N455~=P4Q465S4T4U4V4z5A5'=06Z485 5r&$&g:=&#!m(9&-#6+*{o(l6I/95/6/6^[![u|u|h4h4^[![(6><a5#5U}=6=6_6m|H5V5;5c4i5j5-6                                                                                                                                                                                                                                                                                                                                                                                                                                                                                        ",
"                                                                                                                                                                                                                                                                                                                        | & * * * 5 * & & * / o E a.a.a.a.S E a.a.S a.o . 7 * * * * * * * | & * * y z Q6R6S6T6U6V6W6X6Y6O6E6F6s6P635k=T=|-l=M=t6u6H}M[N455~=P4Q465S4T4U4V4z5A5'=06Z6D5 5r&$&g:=&#!m(9&-#6+*{o(l6I/95/6/6^[![u|u|h4h4^[![(6><#5#5U}=6=6_6m|`6 7;5c4>5I5.7                                                                                                                                                                                                                                                                                                                                                                                                                                                                                        ",
"                                                                                                                                                                                                                                                                                                                        7 & * * * 5 * & & * / o E a.a.a.a.S E a.a.S a.o . 7 * * * * * * * | & * * y z Q6I6+7@7+7#7$7%7&7*7E6F6s6P635k=T=|-l=M=t6u6H}M[N455~=P4Q465S4T4U4V4z5A5B5Y4Z6D5 5a$$&g:=&#!m(9&-#6+*{o(l6I/95/6/6^[![u|u|u|u|![![(6><=7#5U}=6=6_6m|`6 7;5F5>5I5-7                                                                                                                                                                                                                                                                                                                                                                                                                                                                                        ",
"                                                                                                                                                                                                                                                                                                                        7 & * * * 5 * & & * / o E a.a.a.S S E E a.S a.r%. ^ & * * * * * * | & * * ^ d#;7>7S6S6,7'7$7)7!7~7E6F6s6P635k=T=|-l=M=w5{7H}M[N455~=P4Q465S4T4U4V4z5A5B5Y4Z6D5^6U5*{g:=&#!m(9&@!6+e1t+}1I/95/6]7^[m|h4u|u|u|![![(6,<#5#5(6g|=6_6m|`6^7/7]7>5I5(7                                                                                                                                                                                                                                                                                                                                                                                                                                                                                        ",
"                                                                                                                                                                                                                                                                                                                        7 & * * * 5 * & & * / o E a.a.a.S S E E a.S a.r%. ^ * * * * * * * | & * * ^ d#d#_7,7,7I6#7B#V#n6:7<7[7}7|717S=27|-p=27J[3747576777~=06Q46587}4U4V4z5w-9707a7b7c7d7z+e7=&#!a4^/#!(}(}t+f7B3.5]7g7^[u|h4u|u|j}j}j},<,<#5#5h7w}w}w}m|i7j7/7]7k7l7m7                                                                                                                                                                                                                                                                                                                                                                                                                                                                                        ",
"                                                                                                                                                                                                                                                                                                                        7 & * * * 5 * & * * / o E a.a.S a.S E a.E a.E r%. 7 * * * 5 5 * * * * & * ^ d#w#n7z z z _7y#A#n6o7p7q7r7s7P6t7Z=k=Q'k-u7v7w7x7y7z7A734X4B7C7D7E7A5Q4Q4B5F7G7H7I7J7s@0#_&E%*<K7K7 %*<t+//$(L7X}M7u|N7O7a5,<,<><p:N7N7p:V}><q[r[r[)[X}P7Q7g7'3z[R7                                                                                                                                                                                                                                                                                                                                                                                                                                                                                        ",
"                                                                                                                                                                                                                                                                                                                        7 & * * * 5 * & * * / o E a.a.a.a.S E a.E a.E r%. 7 * * * 5 5 * * 5 * | * ^ d#w#d#z z z z x#w6S7T7U7V7W7s70!t7[-W<Z=k-X7Y7w7Z7`7 8E,.8X4B7+8@8#8A54'$8%8&8*8=8I7-8b2h:e1_&E%,%;8;8U[t+U^g:>8,8j}*6#5q:,<,<><W}p:'8N7V}><><><><><k}X})8Q7m|,3z:!8                                                                                                                                                                                                                                                                                                                                                                                                                                                                                        ",
"                                                                                                                                                                                                                                                                                                                        7 & * * * 5 * & * * / o E E a.a.a.S E a.E a.E r%. 7 * * * 5 5 * * 5 * | * ^ d#w#d#z z d#d#z Q6~8{8]8^833T</8Z=l=(8I}_8k-6[:8<8[8}8|818z528B7B7w-w-38{;48&8586878J788&{e1_&(}#!a4a4@!5%U^B3>898m|h4'<,<,<><q[><><p:p:><><08J|p:'|m|![g7X}m|!3A[a8                                                                                                                                                                                                                                                                                                                                                                                                                                                                                        ",
"                                                                                                                                                                                                                                                                                                                        7 & * * * 5 * & & * 1 o 0.E a.a.E S E a.E a.E r%. 7 * * * 5 5 * * 5 * & 5 ^ d#w#d#z z z z d#;7b8c8d8e8f89!/8[-$|g8h8i8Z=m-j8k8l8m8n8o8z528B7B7B7Q44'3848p858q8^6r8%<6+e1(}t+-#M#M#M#M#l<_&f1s8m|t8'<,<(6r[r[><><p:p:><><J|J|+1q:u|m|g7)[u8l4v8a8                                                                                                                                                                                                                                                                                                                                                                                                                                                                                        ",
"                                                                                                                                                                                                                                                                                                                        7 & * * * 5 * & & & 1 o 0.E E a.E S E a.E a.a.r%. 7 * * & * 5 * & * 5 & 5 ^ d#w#d#z z z z z w8x8y8z8A8B8C8k=l=y;g8D8E8Z=|-K4k8l8m8|8P4Q4286565B7Q44'$8%8p8F8G8m@Z+l<0#i:V^Y+5%j<t&j<M#l<_&z3s8!['<'<H8H8z}I8r[r[><><><><J|J|J|J|V}><k}/[u8l4v8a8                                                                                                                                                                                                                                                                                                                                                                                                                                                                                        ",
"                                                                                                                                                                                                                                                                                                                        | & * * * 5 * & & & 1 o 0.E E a.E S E a.E S a.r%. 7 * & & * * * & * 5 & 5 ^ w#w#d#d#d#z z d#w#J8K8L8M8B8*;|-l=^4&;N8O8P8o=%|Q8R8S8T8U8w-B7V8W8W865X8Y897p8Z8`8k% 9l<(}i:V^Y+s@2@.9Q&r@l<_&p#6}k},<,<z}z}z}A}r[r[><><w<w<o:n:J|J|08><k}x}W}@1v8a8                                                                                                                                                                                                                                                                                                                                                                                                                                                                                        ",
"                                                                                                                                                                                                                                                                                                                        | & * * * 5 * & & & 1 h$0.E E a.E a.E a.E S a.r%. 7 * & & * * * & * 5 & 5 ^ w#q w#w#w#d#d#d#+9@9#9$9%9&9*9p=u,=9^4l=Z=,}-9;9>9,9'9)9!9~9{9]9W8W8^9/9(9_9:9<9[9m@ 9n(=&I/N#V^y+2@.9Q&M#u^_&p#y[~[><w<Y[8}8}}9d_Y[X_X_w<w<n:n:n:n:X[w<E<A<W}C<v8a8                                                                                                                                                                                                                                                                                                                                                                                                                                                                                        ",
"                                                                                                                                                                                                                                                                                                                        | & * * * 5 * & & & 1 h$0.E E a.E a.E a.a.S a.r%. 7 * & & * * & & * 5 & 5 7 w#q q q w#w#d#w#|9192939%9&949p=u,M[59p=Q'6979899909a9b9c9@8{9]9W8^9R4/9(9d9e9f9[9m@Z+n(=&b/=&0#Y+g93@r@)$A/h9(&W[u[><w<t<t<}9<)-<t<W_W_)<v<61S_n:n:R|w<E<t|X[B}v8i9                                                                                                                                                                                                                                                                                                                                                                                                                                                                                        ",
"                                                                                                                                                                                                                                                                                                                        & * 5 * & * * & * & - ^.0.a.a.E a.S E a.a.a.a.{%e 7 * * * * * * & & * & * 7 q q q w#w#w#w#w#+919j9k9l9m9n9+}N=j8K4p=o9p9q9r9s909t9u9v9+865R4R4w9$,x9y9z9A9B9q8C9r8s+X^f|4}6@Y/Q1%<-[5%r#h98_![D911W_t<t<-<-<E9][W_W_T1F9t<G9m}J|R|E9v<><l|B|<}w:                                                                                                                                                                                                                                                                                                                                                                                                                                                                                        ",
"                                                                                                                                                                                                                                                                                                                        & * 5 * & * * & * * - ^.0.a.a.E a.S E S a.a.E {%e 7 * 5 * * * * & & * & & 7 l l l q q q q q H9I9J9K9L9M9N97!m-y5O9m=P=P9Q9R9S9T9U9V9W9X9Y9Z9`9d9 0.0+08=54@0#0T5s&$0X^E%E%%0_&0#5+Y+k<s+(/8_,8&0E1Z[E9*0=0-0_[Z1B<:2;0q2F9*0Y_n:o[Y[E9v<11>0,0[}                                                                                                                                                                                                                                                                                                                                                                                                                                                                                        ",
"                                                                                                                                                                                                                                                                                                                        & * 5 * & * * & * * - ^.0.a.a.E a.S E S a.a.E {%e 7 * * * * * * & & * & & | l l H9'0q q l p y p;)0!0L9~0%~$6x2u)k=[-{0k-]0^0/0(0_0~=:0<05'5'];[0}0|0102030405060P&70E!*<U[*<*<;#t+r#5%l<80p#s[;0]2_[{[900000C/C/a0a0b0c0C/c_d0Z/d_v<q[~[Z1u<;}e0                                                                                                                                                                                                                                                                                                                                                                                                                                                                                        ",
"                                                                                                                                                                                                                                                                                                                        | * 5 * & * * & * * - ^.0.a.a.E a.a.E S a.a.E {%e 7 * * * * * * & & * & * | m m f0g0'0l p ^ 7 | h0J9i0j0k0[3B8l0m0n0o0p0q0r0s0t0z$u0v0w0x0y0z0A0B0C0D0E0F0G0H0I0J0v+i[)$E!E!E!E!E!Y+p@5%6+K0L0M0_2N0O0P0P0Q0R0P0S0T0U0V0W0c_X0Y0{[F9Z0/[x<08`0 a                                                                                                                                                                                                                                                                                                                                                                                                                                                                                        ",
"                                                                                                                                                                                                                                                                                                                        | * 5 * & * * & * * - ^.0.a.a.E a.a.E a.a.a.E {%e 7 * * * * * * & & * & * & p p .a+aH9m y 7 & @;| .a@a#a$a%a33&a*a=a-a;a>a,a'a)a!a~a{a]a]a^a/a(a_a:a<a[a}a|a1a2a3a4a5a6a6a7a7a7a8a9a6a0a-[aabacada%3%3eafaU(gafa@_@_haiaja_/{]ka:/lao2g1/[v<W1ma                                                                                                                                                                                                                                                                                                                                                                                                                                                                                        ",
"                                                                                                                                                                                                                                                                                                                        | * 5 * & * * & * * - ^.0.a.a.E a.a.E a.a.a.E {%A 7 * * * * * * & & * & * & p ^ ^ q;q;y 7 | @;.%z@5 naH>I>oapaqarasatauavawa      xayazaAaBaCaDaEa&-&-FaGaHaIaJaKaLaLaN&N&MaMaMaNaOaPaQaRaSaTaUaVaWaWaXaYaZa`a2_=}j2 b.b+b@b9|@5@5i4$5i5#b$b%bK3&b*b=b-b;b>b,b'b)b!b~b{b]b^b/b(b                                                                                                                                                                                                                                                                                                                                                                                                                                                        ",
"                                                                                                                                                                                                                                                                                                                        | * 5 * & * * & * * - ^.0.a.a.E E a.E a.a.a.a.e.A 7 * * * & & * & & * & * & y 7 7 _b:b7 | & z@<bk;H+*>[b}b|b1b2b3b4b5b6b.%7b      8b9b0babbbcbdbebfbgbhbibjbkblbmbnbobpbqbqbrbrbsbtbubvbwbxbyb#@7#7#zbAbBbP#CbCbDbDbEbN@haFbGbHbHbIbJbKbs8LbMbNbObPbQbRbSbTbTbUbVbWbXbYbZb`b c.c+c                                                                                                                                                                                                                                                                                                                                                                                                                                                      ",
"                                                                                                                                                                                                                                                                                                                        | * 5 * & * * & * * - ^.0.a.a.E E a.E a.a.a.a.e.e ^ & * * & & * & & * & * * ^ 7 Z-#;Y-a%* * .%@c@cH+% *>#c$c%c&c*c=c-c;c>c,c      K4'c)c&|!c~c{c#|O9]c^c3=/c(c_cmb:c<c[c}c}c*1K1K1c</#|c1c2c3cM#+!+!@!@!9&r|r|+!t+0#n@//B34c`}i5i5>55c6ci57c,<8c9cb|0cacbc#5=7u|u|u|u|,3ccV3dcecfc                                                                                                                                                                                                                                                                                                                                                                                                                                                      ",
"                                                                                                                                                                                                                                                                                                                        | & * * * * * * * * - $.E a.a.a.a.a.E a.E E a.e.A 7 * * * * * & & & & & * * 7 7 & & a%5 % % H+l;gcl;} % hcicjckcJ%lcmcncocpc      }-_'B2B2qcrcsc&2S=0[O9tcT'B+ucvcwc*1Z|3}xcycyc*1j&zc=2u1AcBcO@@!E!#!#!o(o(o(o(0#5+5+Y/CcDcS1EcHbFcd4GcKbk7Lbt8j4HcIcJcKcG3G3e4e5Lcr4McE3NcOcPcQc                                                                                                                                                                                                                                                                                                                                                                                                                                                      ",
"                                                                                                                                                                                                                                                                                                                        | & * * * * * * * * - 8.a.E a.a.a.S E a.E E a.P A 7 * * & * * & & * & | * * | | * * 5 % } } % % % % % % % % RcRcRcRcSc& % b       $6Z>9<u,N=>-x;J[S=Z=G}TcUcO#VcWcXc{&Ycg}Zc92ycj&`c`cc<0: d&#M#s+t+U[U[t+t+t+t+*{5+7+7+(/.d/6+de4G3e4^[k7>5d4^[i4@dJ3Jcg4GcHbGc#dLcLc$d05%5n4%d&d                                                                                                                                                                                                                                                                                                                                                                                                                                                      ",
"                                                                                                                                                                                                                                                                                                                        | & * * * * * * * * - *da.E a.a.a.a.E a.E E a.P A 7 * * & * * & & * & | * * | | 5 5 5 % } } } % % } % % % % % % % % | * hc/>      =dj-_'9<N=q=a!J[S=Z=G}-dUc;duco+Xc{&Ycg}>d<cycj&`c`cyc0:,d'dM#n(t+U[U[t+t+t+t+*{5+t+t+(}.d/6+de5*6G3e4k7>5d4^[)dw[!dKcG3Gci5k7H3LcLc$d~d{d]d%d%2                                                                                                                                                                                                                                                                                                                                                                                                                                                      ",
"                                                                                                                                                                                                                                                                                                                        | & * * * * * * * * - *da.E a.a.a.a.E a.E E a.P A 7 * * & * * & & * & | * * & & % % % } } } } } } } } } } } } } % % & 5 } ^d      967[_'9</dq=a!J[S=Z=G}-dUc;duco+Xc{&Ycg}>d<cycj&`c`cyc0:,d'dM#n(t+U[U[t+t+t+t+*{5+t+t+_&.d/6+dH3h4G3e4Gc(dGce4E3w[!dKcG3Gci5k7H3LcLc$d_d{d]d%d:d                                                                                                                                                                                                                                                                                                                                                                                                                                                      ",
"                                                                                                                                                                                                                                                                                                                        | & * * * * * * * * - *da.E a.a.E a.E a.E E a.P A 7 * * & * * & & * & & * 5 & * } } } 4 4 4 4 4 } } } } } } } } } % * % } <d      [d7[_'9</dq=a!J[S=Z=G}-dUc;duco+Xc{&Ycg}>d<cycj&`c`cyc0:,d'dM#n(t+U[U[t+t+t+t+*{5+t+t+_&.d/6+dH3h4e4e4Hbi5Gce4}dw[!dKcG3Gc>5k7H3LcLc$d_d{d]d%d&d                                                                                                                                                                                                                                                                                                                                                                                                                                                      ",
"                                                                                                                                                                                                                                                                                                                        | & * * * * * * * * - *da.E a.a.E a.E a.E E a.P A 7 * * & * * & * * & & 5 5 * 5 4 } 4 4 4 4 4 4 4 } } } } } 4 4 4 } * % } <d      [d7[_'9</dl=S=|dP8Z=G}-dUc;duco+Xc{&Ycg}>d<cycj&`c`cyc0:,d'dM#n(t+U[U[t+t+t+t+*{5+t+t+_&.d/6+dH3h4G3e405*51d2dE3w[!dKch4k7>5k7H3LcLc$d_d{d]d%d3d                                                                                                                                                                                                                                                                                                                                                                                                                                                      ",
"                                                                                                                                                                                                                                                                                                                        | & * * * * * * * * - *da.E a.E E a.E a.E a.a.P A 7 * * & * * & * * * & 5 % * % a a a 4 4 4 4 4 4 } } } 4 4 4 4 4 4 5 } 4 4d      967[_'9</dl=P8Q'A2Z=G}-dUc;duco+Xc{&Ycg}>d<cycj&`c`cyc0:,d'dM#n(t+U[U[t+t+t+t+*{5+t+t+(}.d/6+de5*6G3e4k7>5d4^[)dw[J3*6H3d4>5k7H3LcLc$d_d{d]d%d}}                                                                                                                                                                                                                                                                                                                                                                                                                                                      ",
"                                                                                                                                                                                                                                                                                                                        | & * * * * * * * * - *da.E a.E E a.E a.E a.a.P A 7 * * & * * & * 5 * & 5 % 5 % a a a a 4 a a a a } 4 4 4 4 4 4 4 4 % 4 a 4d      5dZ>_'9</dl=P8Q'A2Z=G}-dUc;duco+Xc{&Ycg}>d<cycj&`c`cyc0:,d'dM#n(t+U[U[t+t+t+t+*{5+7+A/(/.d/6+dG3g4G3^[k7>5d4^[6d'<t8*6H3d4>5k7H3LcLc$d~d{d]d%d}}                                                                                                                                                                                                                                                                                                                                                                                                                                                      ",
"                                                                                                                                                                                                                                                                                                                        | & * * * * * * * * - Y E E E E a.E E a.E a.a.P A 7 * * & * * * & * * & * % 5 } a a a a a a a a 4 } 4 4 4 4 4 4 4 4 % a 0 ^d      $6Z>_'9</dl=P8Q'A2Z=G}-dUc;duco+Xc{&Ycg}>d<cycj&`c`cyc7d,d8dM#n(t+U[;[;[t+t+t+*{5+t+A/(/.d/6+de5g4e4^[k7>5d4^[i4'<@d*6H3d4>5k7H3LcLc$d_d9d0d%dad                                                                                                                                                                                                                                                                                                                                                                                                                                                      ",
"                                                                                                                                                                                                                                                                                                                        | & * * * * * * * & ; bd0.a.E E S 0.a.a.0.a.E P 3 7 * * & * * * & * 5 & * % % 4 a 4 4 4 4 4 4 4 4 } } } 4 4 4 4 4 4 % a 0 />      =d7[_'9</dl=P8Q'A2Z=G}-dUc;duco+Xc{&Ycg}>d<cycj&`c`ccdS[ddedM#n(A/H!H!A/A/t+t+*{5+t+t+_&.d/6+dH3h4H3^[k7>5d4^[i4'<@d*6H3d4>5k7H3LcLc$dF59dfdgdhd                                                                                                                                                                                                                                                                                                                                                                                                                                                      ",
"                                                                                                                                                                                                                                                                                                                        | & * * * * * * * & ; bd0.a.E E a.0.a.a.0.a.E P 3 7 * * & * * * & * * & 5 } } 4 a 4 4 4 4 4 4 4 4 } 4 4 4 4 4 4 4 4 % a 0 id      967[_'9</dl=P8Q'A2Z=G}-dUc;duco+Xc{&Ycg}>d<cycj&`c`ccdS[ddedM#n(A/H!H!A/A/t+t+*{5+t+t+_&.djd+dH3h4H3^[k7>5d4^[i4'<@d*6H3d4>5k7H3LcLc#d_d9dkdldmd                                                                                                                                                                                                                                                                                                                                                                                                                                                      ",
"                                                                                                                                                                                                                                                                                                                        | & * * * * * * * & ; bd0.a.E E a.0.a.a.0.a.E P 3 7 * * & * * * & * * & 5 } } 4 0 a a a a a a a a 4 4 4 4 4 4 4 4 4 % a 0 nd      967[_'9</dl=P8Q'A2Z=G}-dUc;duco+Xc{&Ycg}>d<cycj&`c`ccdS[ddedM#n(A/H!H!A/A/t+t+*{5+t+t+_&.dodpdH3h4H3^[k7>5d4^[i4'<@d*6H3d4>5k7H3LcLcqdrd9dkdgdsd                                                                                                                                                                                                                                                                                                                                                                                                                                                      ",
"                                                                                                                                                                                                                                                                                                                        | & * * * * * * * & ; bd0.a.E E a.0.a.a.0.a.E C 3 7 * * & * * * & * * & 5 4 4 4 0 a a a a a a a a 4 4 4 4 4 4 4 4 a } a 0 )       967[_'9</dl=P8Q'A2Z=G}-dUc;duco+Xc{&Ycg}>d<cycj&`c`ccdS[ddedM#n(A/H!H!A/A/t+t+Q/5+t+t+_&.dodh5H3h4H3^[k7>5d4^[i4'<@d*6H3d4>5k7H3LcLcqdtd9dkd%dud                                                                                                                                                                                                                                                                                                                                                                                                                                                      ",
"                                                                                                                                                                                                                                                                                                                        & & * * * * * * * & ; bd0.a.E E a.0.a.a.E a.E C 3 7 * * & * * * & * * & 5 4 4 a 0 a a a a a a a a a a a a 4 4 4 4 a } 0 = id      967[_'9</dl=P8Q'A2Z=G}-dUc;duco+Xc{&Ycg}>d<cycj&`c`ccdS[ddedM#n(A/U[U[t+t+A/A///n(t+t+(}.dodh5:6u|^[^[5c>5d4^[6d'<a5*6H3d4>5k7H3LcLcqdtd{dvdwdxd                                                                                                                                                                                                                                                                                                                                                                                                                                                      ",
"                                                                                                                                                                                                                                                                                                                        * & * * * * * * * & ; bd0.a.E E a.0.a.a.E a.E C 3 7 * * & * * * * * & | 5 a a a 0 a a a a a a a a a a a a a a a a a } 0 = yd      967[_'9</dl=P8Q'A2Z=G}-dUc;duco+Xc{&Ycg}>d<cycj&`c`ccdS[ddedM#n(A/U[U[t+t+A/A///n(t+t+(/zdodh5m|u|m|![t[9|98![h7,<)3*6H3d4>5k7H3LcLcqdtdAdG|BdCd                                                                                                                                                                                                                                                                                                                                                                                                                                                      ",
"                                                                                                                                                                                                                                                                                                                        & & * * * * * * * & ; bd0.a.E E a.0.a.a.E a.E C 3 7 * * & * * * * * & | 5 a a a 0 a a a a a a a a a a a a a a a a 0 Dd0 = b       =d7[^|t,l=l=P8Q'P8Z=Z>9<UcO#EdFdXc{&Ycg}>d92ycj&`c`ccdS[Gded5%n(A/U[U[t+t+A/(c//U^r#t+(/Hdodpdm|u|m|m|989|98![h7,<)3*6H3d4>5k7H3LcLcIdtdAdP|BdCd                                                                                                                                                                                                                                                                                                                                                                                                                                                      ",
"                                                                                                                                                                                                                                                                                                                        & & * * * * * * * & - bd0.a.E E E 0.a.a.E a.0.C 3 7 * * & * * * * * & | 5 a a a 0 a a a a a a a a 0 a a a a a a a a 4 a = />      =dj-p=m=l=p=Z>Q'Q'P8S=J4Jd0&KdLd*1`cYcZ|p|*2*2Md(@`cK1c@NdOds@n(Y/t+r#r#t+7+,|PdPdh:r#,|HdQd$dRd#5=7=7u|![![a|h7Sd,<h4H3k7>5Lb^[qdqd]7/6TdUdVdsd                                                                                                                                                                                                                                                                                                                                                                                                                                                      ",
"                                                                                                                                                                                                                                                                                                                        & & * * * & & * * & - bdj.E 0.a.0.E a.E E a.j.C b.7 * & & * * & & * & | 5 a a 4 0 0 0 0 0 0 0 0 0 a a 4 4 a a a a WdXdYdZd`d       e17Z=m=m=p=+}P=Q'|dx5{4.e_&+eq|c<j&`cj&*1*2@e@e#e(@j&0:$e%ey+U^*{5+Y+5%Y+5+*{&e$(U^5%V^*e=eH5-e;e;e>e,eu8><><><p[p[h7@5'e)e(6a|![d4c4]7H3!e~emd                                                                                                                                                                                                                                                                                                                                                                                                                                                      ",
"                                                                                                                                                                                                                                                                                                                        | & * * * & & * 5 * 1 bd0.a.0.E 0.E a.E E a.0.C b.7 * & & * * & & * & | 5 a a a 0 0 0 0 0 0 0 0 0 a a a a 4 a a a {e]eYdZd^e       e/eZ=K[m=p=+}P=x2i6S=(e_e_&:e,@*2j&`c`cj&<e[e[e<e`cj&0:$e}ez+//*{r#@!)$5%5+V^|e<&l<)$V^1e2eH5,e3e3e>e#5u8><><p[o[q[(6UdH8Ud(67c985cc4G6)3cc4e5e                                                                                                                                                                                                                                                                                                                                                                                                                                                      ",
"                                                                                                                                                                                                                                                                                                                        | & * * * & & * * & - bdj.E 0.E E E a.0.E a.0.K%b.7 * & & * * & & * & & 5 a a a 0 0 0 0 0 0 0 0 0 0 0 a a 4 4 a a 4 a {eZd6e       e17Z=m=l=m=H}y27ek-7[J48e_&:eH2p|9e%10ej&yc*2[e<e`cj&0:$e}ez+Q/_&t+a4@!@!@!t+V^5+5%-#(}.dQdH5Rd#5#5u|m|k}r[r[q[><q[r[q[aep[q[r[k}g72dG6a5n|besd                                                                                                                                                                                                                                                                                                                                                                                                                                                      ",
"                                                                                                                                                                                                                                                                                                                        | & * * * & & * & & - bd0.a.E a.E E a.0.E a.0.K%b.7 * & & * * & & * * & 5 a a a 0 0 0 0 0 0 0 0 0 0 0 0 a a 4 4 4 4 a {eZd6e       e17p=m=l=l=H}z2cede7[J4ee=&Kdfe>dN}%1%1%1}cyc*2yc%13}geheie5+(/E%U[a4m(m(@!@!)$@!@!8##&.dQd#dM7m|u|k})[)[r[r[q[><F<~[q[p[p[><><j}G6^[u|q:b|jeke                                                                                                                                                                                                                                                                                                                                                                                                                                                      ",
"                                                                                                                                                                                                                                                                                                                        | & * * * & & * 5 & - bdE S a.a.E E a.0.E a.0.K%b.7 * & & * * & & * * & % a a a 0 0 0 0 0 0 0 0 0 = 0 0 a a 4 4 4 4 0 YdZdle       e17p=m=Y>u,#|z2cecemet,neO#oepe]}3}Y|Y|qe9e*1*1Z|%1g}geherer#se*}K7a/tetem(m(9&@!@!s#E%ueW[d4)[)[)[ve-}-}l}x<k|A<A<F<V}p:p:W}><j}u|u|u8ccv8wexe                                                                                                                                                                                                                                                                                                                                                                                                                                                      ",
"                                                                                                                                                                                                                                                                                                                        | & * * * & & * 5 & ; f 0.a.0.0.a.a.a.0.E a.0.K%b.7 * & & * * & & * * & % a a a 0 0 0 0 0 0 0 0 0 0 0 0 a a a a a 4 0 {eZd6e       eyep=m=Y>9<#|z2zeceAeBeCeO#DepeEe3}Y|Y|Fe%1%13}N}%1g} <here@!H!*}GeHel(a/a4m(9&@!U[E%b/a_W[98/[/[IeW[m[m[>[x<t|D9>3A<W}p:p:p:W}u8u|'|V}ccN3JeKe                                                                                                                                                                                                                                                                                                                                                                                                                                                      ",
"                                                                                                                                                                                                                                                                                                                        | & * * * & & * * | ; f E S a.a.a.a.a.0.0.a.E g$s.7 * & & * * & & * * & % 0 a a 0 0 0 0 0 0 0 0 0 0 0 a a a a a 0 4 0 Le6 Me      NeyeZ>p=^|_']|z2zece}-j8<8O#DepeEeg}%1Y|FeFeqe%1%1N}}c92OePe@!H!*}GeGeGeK7U[a4@!@!*<b/b/a_Qe)[u[y<ReSeQeQeTej|>3Ue>3D9VeX_X_X_X_p:,3WeX[XeN3YeZe                                                                                                                                                                                                                                                                                                                                                                                                                                                      ",
"                                                                                                                                                                                                                                                                                                                        | & * * * & & * 5 & - *du.,.u u 1.1.1.S S M S Q$s.7 * & & * * & & * * & % 0 a a 0 0 0 0 0 0 0 0 0 a a a a a 0 0 0 a 0 `e f.f      Ne+fQ'Z>P=P=47U<ceceu)K4Cee~@f#f$fZcN}%1%1Y|%19e*1}cyc-1%f&f9&H!*}*}S.S.*}E%t+t+t+,|8+*f=fTe)[Z0,[ReSeSeTe([-f;f;f-f&0D9t|l|X_X_X_W}j}VeXe>f,f'f                                                                                                                                                                                                                                                                                                                                                                                                                                                      ",
"                                                                                                                                                                                                                                                                                                                        & & * * * * * * * | / P '.!._.!.'.'.v v v d+T f$k.^ * & & * * & & * * | 5 0 = 0 0 = = = = = 0 0 0 a a a a 0 0 0 0 a 4 )f fb       M9!fs6~fx2k-zece{f&9]f^f/f(f_fc:,@-1yc*1Z|}c*1cd:fqbc@<f[f}f|f1fs#j:b/b/4}4}e1$&4#o@i:6@.52fz<C/3fC/C/_2_2;0E14f5f6fg1j|a07fW_l|v<F1&0u8p:b|8f9f                                                                                                                                                                                                                                                                                                                                                                                                                                                      ",
"                                                                                                                                                                                                                                                                                                                        & & * * * * * * * & / P !.!.*._.!.!.'.!.'.'.v &.+ ^ * & & * * & & * * | 5 0 = 0 0 = = = = = 0 0 0 a a a a 0 0 0 0 4 4 `e0faf      bfcfdfefB8[dffgfhfifNejfkf%+lfmfE2nf<f<f-10::cofq|u1q|,@pfqfrfsfj[8#r#//tfx1ufvfwfxfk<V^yfzf2f_2x[C/:/m2o2AfBfCfDfEfFfGfT0Hf{[][][k|j}A<W_'1IfJf                                                                                                                                                                                                                                                                                                                                                                                                                                                      ",
"                                                                                                                                                                                                                                                                                                                        & & * * * * * * 5 & 9 P !.!.*.!.!.!.'._.!.!.'.&.+ ^ * & & * * & & * * & 5 0 = 0 0 = = = = = 0 0 0 0 0 0 0 a a a a = } k;0fKf                    LfMfNfOfPfQfRfSfTfUfVfWfXfYfYfZf`f`f2c gWf.g+g@g#g$g%g.@4@R}&g*g4@'2d7r8,$h2=g-gD3;go2(2~2>g(2,g'g,gFf)g!g~go2C/N0_2q2{g;0D9@1]g^g                                                                                                                                                                                                                                                                                                                                                                                                                                                      ",
"                                                                                                                                                                                                                                                                                                                        & & * * * * * * 5 & / P '.'._.'.!.!.'.!.!.!.'./.+ ^ * & & * * & & * * & 5 0 = 0 = = = = = = 0 0 0 0 0 0 0 a a a a 4 % /g(g_g                                  :g<g[g}g|g1g2gA/W^x33g4g5g6g7g8g9g0gagbgcgdgegfggghgigjgkglg'2mgngog@_+_+_+_ga&3pgqgqg&3rgsgja@__/tgugn2{gvg<2t|wgxg                                                                                                                                                                                                                                                                                                                                                                                                                                                      ",
"                                                                                                                                                                                                                                                                                                                        & & * * * * * * 5 & / P '.'._.'.!._.'.!.'.'.v &.+ ^ * & & * * & & * * & % 0 8 = = = = = = = 0 0 0 0 0 0 0 a a a a } 0 0fygzg                                    AgBgCgDgDgEgFgGgHgGgIgJgKgLgMgNgOgPgQgRgSgTgUgVgWgXgYg^@=1OeZg`g h.h+h@b@h@h@h#h#h!2$h%h&h#3*h=h-hk2V0;h>h,h)|'h)h!h                                                                                                                                                                                                                                                                                                                                                                                                                                                    ",
"                                                                                                                                                                                                                                                                                                                        & & * * * * * * * & / P '.'._.!.!._.'.!.'.'.v &.+ ^ * & & * * & & * * & % = 8 = = = = = = = 0 0 0 0 0 0 0 a a a a = a )fm;~h                                    S={h]h^hI4|=u,_'%|9<I4Ce/h(h_h:h<h[h}h}h|h1h2h3h4h5h5h4-6h7h8hm<9h$@0_0_0hahbhchchchdhehfh&hghhhihjhkhlhmhnhohphqhrhshthuhuh()vhwhxhyhzhAhBhChDhEh                                                                                                                                                                                                                                                                                                                                                                                                                      ",
"                                                                                                                                                                                                                                                                                                                        * & * * * * * * * | / P '.!._.!.!.!.'.!.!.!.'.&.+ ^ * & & * * & & * * & % = 8 = 8 = = = = = 0 0 0 0 0 0 0 a a a a a % yg0fFh                                    $6x2u)Gh}-HhmeIhJh]0R'KhLhMhNh6=OhPhQhQhRhSh07ThUhVhWhXhYhZh`h it@.i;+T%*<#!@!@!i[O@M#)$+!#&+i&5@i#i$i%i&i*i=i-i;i>i,i'iMb)i)i!i!i~i{i]i^i/iU3(i_i                                                                                                                                                                                                                                                                                                                                                                                                                      ",
"                                                                                                                                                                                                                                                                                                                        * & * * * * * * & | / e.'.!.*.!.!.!.'._._._.!.i.C#^ * & & * * & & * * & % = 8 = 8 = = = = = 0 0 0 0 0 0 0 a a a a a 4  f:i<i                                    [i$6t)t),},}}i|i1i4!s)2i3i4i5i6i7i8i~9B7B7w-%89i0iaibicidieifigihir#se*<U[#!9&9&iijiO1n<ki;[liminiAdoipiqirisitiVeuiO7g4G3viG3H3#dpdf4![wiJcxiyizi                                                                                                                                                                                                                                                                                                                                                                                                                      ",
"                                                                                                                                                                                                                                                                                                                        * * * * * * * * * * 1 {%'.'.!.'.!._.!._.!.!.'./.C#^ * * & * * & & & & & % 0 8 8 = 8 8 = = = = 0 0 0 0 a 4 4 a a a a a 0 8 Ai                                    &9t)P=P=y2me,}ze}izet)R'&|BiCiT807DiEiS5FiGi%8HiIiIiHi:9JiKiLid13+X^E%*<t+E!-#5%3+@!-#(^Q(_&FbMi05GcGc_d+5NiOipdH3n1Pivie4w[w['<h4^[e4^[vie4JcQiRi                                                                                                                                                                                                                                                                                                                                                                                                                      ",
"                                                                                                                                                                                                                                                                                                                        5 * * * * * * * * 5 1 {%'.!.!.'.!._.!._.!.'.'./.+ ^ * * & * * & & & & & % 0 6 8 = 8 8 = = = = = 0 0 0 0 a a a a a a a a 8 k.                                    n9&2+}v)_'H}P=me,},}Q'R'SiTiUiViWi48Qh10GiXi%8YiYiYiZi`i j.j+j@js+X^E%*<t+E!3+5+0#(}t+A/#jCcog6cpdI3$je4Gci5i5e4e4w[w[e4e4w[w['<'<e4e4c4+5^[Pi%j&j                                                                                                                                                                                                                                                                                                                                                                                                                      ",
"                                                                                                                                                                                                                                                                                                                        5 * * * * * * * 5 5 / {%!.!._.!.!._.!._.!.'.'./.+ ^ * * & * * & & & & & % 0 6 8 = 8 8 8 = = = = 0 0 0 0 0 0 0 0 a 0 a 0 8 b                                     t)m-+}v)_'H}P=me,},}Q'R'*jTiUiViWi48QhQhXiXi%8=j=j=jX9`i j.j+j@js+X^E%*<t+E!3+5+0#(}t+A/l6Ccog+df4I3$jviEci5i5e4e4'<'<e4e4w['<'<'<e4e4F5+5^[F3%j-j                                                                                                                                                                                                                                                                                                                                                                                                                      ",
"                                                                                                                                                                                                                                                                                                                        * * * * * * * * 5 5 1 {%'.!._.!.!._.!.!.'.'.!.i.C#^ * * & * * & & & & & % 0 6 8 = 8 8 8 = = = = = 0 = = = = = 0 0 0 a 0 8 $                                     7em-+}v)_'H}P=me,},}Q'R'*jTiUiViWi%8;j;jHiXi%8=j=j>jX9`i j.j+j@js+X^E%*<t+E!3+5+0#(}t+A/l6Ccog6cf4I3$je4e4i5i5e4e4'<'<e4e4w['<'<w[e4e4c4+5^[F3%j,j                                                                                                                                                                                                                                                                                                                                                                                                                      ",
"                                                                                                                                                                                                                                                                                                                        * * * * * * * * * * 1 r%'.!.!.'.!._.'.!.'.'.!.i.C#^ * * & * * & & & & & % 0 6 8 = 8 8 8 8 = = = = = = = 8 = = 0 0 0 0 0 8 b                                     k-&2+}v)_'H}P=me,},}Q'R'*jTiUiViWi%8;j;jHiXi%8=j=j>jX9`i j.j+j@js+X^E%*<t+E!3+5+0#(}t+t+(c=&og6ce4g4G3^[^[>5i5e4e4w[w[e4e4w['<'<w[e4e4c4+5^[F3%j'j                                                                                                                                                                                                                                                                                                                                                                                                                      ",
"                                                                                                                                                                                                                                                                                                                        * * * * * * * * & * - r%'.!.!.'.!._.'.!.'.'.!.i.C#^ * * & * * & & & & & % 0 6 8 = 8 8 8 8 = = = = = = = = = = 0 0 0 0 0 8 )                                     7!Q'+}v)_'H}P=me,},}Q'R'*jTiUiViWi481010XiXi%8=j=j=jX9`i j.j+j@js+X^E%*<t+E!3+5+0#(}=#=#(c=&ogh5#dh4h4^[d4>5k7e4e4w[w[e4e4'<'<'<w[e4e4c4+5^[F3%j)j                                                                                                                                                                                                                                                                                                                                                                                                                      ",
"                                                                                                                                                                                                                                                                                                                        & & * * * * * * & * 1 r%'.!._.!.!._.'.!.'.'.!.p.C#^ * * & * * & & & & & % 0 6 8 = 8 8 8 8 8 = = = = = = 0 0 0 0 = 0 0 0 8 b                                     7!Q'+}v)_'H}P=me,},}Q'R'*jTiUiViWi48QhQhXiXi%8=j=j=jX9`i j.j+j@js+X^E%*<t+E!3+5+0#(}=#t+(c=&ogh5#d*6H3^[^[>5>5^[e4w[w[e4e4'<'<w[w[e4e4c4+5^[F3%j!j                                                                                                                                                                                                                                                                                                                                                                                                                      ",
"                                                                                                                                                                                                                                                                                                                        * & & * * * 5 5 * * 1 {%!._._._.!._.'.'.'.'.!.p.C#^ * * & * * & & & & & % 0 6 8 = 8 8 8 8 8 = = = = = 0 0 0 0 0 = 0 0 0 8 b                                     7!Q'+}v)_'H}P=me,},}Q'R'*jTiUiViWi48~jQhXiXi%8{j]j]jX9`i j.j+j@js+X^E%*<t+E!3+5+0#(}t+A/(c=&ogh5#dg4G3e4Gci505^[H3'<E3e4H3'<'<w[w[e4Ecc4+5^[F3%j,j                                                                                                                                                                                                                                                                                                                                                                                                                      ",
"                                                                                                                                                                                                                                                                                                                        * * * * * * * * 5 * 1 r%v _.!._.!.!.!.'.!.!.'.p.n.^ * * & * * & & * * & % = 6 8 8 8 8 8 8 8 = = = = = 0 0 0 0 0 0 0 0 0 6 b                                     7e&2+}v)_'H}P=me,},}Q'R'*j^j/j(jWi4810_j:j<j%8Yi=j=j[je9Ji}j|j@jo(X^se:^_^+!u^n(Y/(ct+A/(cCc-gh5#dg4G3e41d>5k7^[^['<E3^[^['<w[w['<H3e4F5+52dE31j2j                                                                                                                                                                                                                                                                                                                                                                                                                      ",
"                                                                                                                                                                                                                                                                                                                        5 * * * * * * * 5 & 1 o v _.'._.!.!.!.'.!.!.v d.n.^ * * & * * & & * * & % = 6 8 6 8 8 8 8 8 8 = = = = = 0 0 0 0 0 0 0 0 6 $                                     n9m-+}v)_'H}P=me,},}Q'R'*j3j4j5jWi%8;j;j<j<j%8=j=j=jFi6jJi7j|j@j3+X^se:^A/+!s+n(Y/(cA/t+(cCc-g+5#dg4h4e4d4>5>5^[^['<w[^[^['<w[w['<^[^[F56c2d'<r28j                                                                                                                                                                                                                                                                                                                                                                                                                      ",
"                                                                                                                                                                                                                                                                                                                        5 * * * * * * * 5 & 1 o v _.'.!.!.!.!.'.!.!.v d.n.^ * * & * * & & * * & % = 6 8 6 8 8 8 8 8 8 8 = = = = = 0 0 0 0 0 0 0 6 $                                     n9m-+}v)_'H}P=me,},}Q'R'*j3j4j5jWi%8;j;j<j<j%8=j=j=jFi9jJi7j|j@j3+X^se:^A/+!s+n(Y/(cA/t+(cCc-g+5#dg4h4e4^[>5>5^[^['<w[^[^['<w[w['<^[^[F56c2d'<r20j                                                                                                                                                                                                                                                                                                                                                                                                                      ",
"                                                                                                                                                                                                                                                                                                                        5 * * * * * * * * & 1 h$v _.'.!.!.!.!.'.!.!.v d.n.^ * * & * * & & * * & % = 6 8 6 8 8 8 8 8 8 8 8 = = = = 0 0 0 0 0 0 0 6 b                                     k-&2+}v)_'H}P=me,},}Q'R'*j3j4j5jWi%8;j;j<j<j%8=j=j=jFi9jJi7j|j@j3+X^se:^A/+!s+n(Y/(cA/t+(cCc-g+5#dg4h4^[^[>5>5^[^['<'<^[^['<'<'<'<^[^[F56c2d'<ajbj                                                                                                                                                                                                                                                                                                                                                                                                                      ",
"                                                                                                                                                                                                                                                                                                                        * * * * * * * * * | 1 h$d+!.'.!.'.'.!.'.!.!.v d.n.^ * * & * * & & * * & % = 6 8 6 8 8 8 8 8 8 8 8 = = = = = 0 0 0 0 0 0 6 $                                     7!Q'+}v)_'H}P=me,},}Q'R'*j3j4j5jWi%8_j_j:jXiHi{j]jcj[j9jJi7j|j@j3+X^se:^A/+!s+n(Y/(cA/t+(cCc-g+5#dg4H3^[^[>5>5^[^['<'<^[^['<'<'<'<^[^[5cKb2d'<1jbj                                                                                                                                                                                                                                                                                                                                                                                                                      ",
"                                                                                                                                                                                                                                                                                                                        * * * * * * * * * | 1 h$d+!.v !.'.'.!.'.!.!.v d.n.^ * * & * * & & * * & % = 6 8 6 6 6 8 8 8 8 8 8 = = = = = = 0 0 = 0 0 6 $                                     7!Q'+}v)_'H}P=me,},}Q'R'*j3j4j5jWi48QhQhXiXiHi]j]j]j[j9jJi7j|j@j3+X^se:^A/+!s+n(Y/(cA/t+(cCc-g+5#dg4H3^[^[>5t[^[^['<'<^[^['<'<'<'<^[d45c6c2d'<aj)j                                                                                                                                                                                                                                                                                                                                                                                                                      ",
"                                                                                                                                                                                                                                                                                                                        5 * * * * * * * * | - h$d+!.v !.'.'.'.'.!.!.v p.n.^ * * & * * & & * * & % = 6 8 6 6 6 6 8 8 8 8 8 = = = = = = = = = 0 0 6 $                                     7!Q'+}v)_'H}P=me,},}Q'R'*j^j4j5jWi48QhQhXiXiHi]j]j]j[j9jJi7j|j@j3+X^se:^A/+!s+n(Y/(c7+t+(cCc-g+5#dg4H3^[^[>59|![^['<'<![^['<'<'<'<^[![F56c^[6dl48j                                                                                                                                                                                                                                                                                                                                                                                                                      ",
"                                                                                                                                                                                                                                                                                                                        5 * * * * * * * * | - h$d+!.v !.'.'.'.v !.!.v d.@ ^ * * & * * & & * * & % = 6 8 6 6 6 6 8 8 8 8 8 = = = = = = = = = = = 6 k.                                    djV<+}v)_'H}P=me,}meQ'ejfjgj4j5jhj%8QhQhXiXiHi]j]jij[j6jJijjkj@j3+X^seljQ(kbl<7+(c(/;[t+(cCc-gh5#dg4H3^[^[>59|![^['<'<![^['<'<'<'<^[![F56cd4,< |mj                                                                                                                                                                                                                                                                                                                                                                                                                      ",
"                                                                                                                                                                                                                                                                                                                        5 * * * * * * * * * - ^.v v v '.'.'.'.'.'.'.v d.@ ^ * * & * * * & * * | % = 8 8 6 6 8 8 6 8 8 8 8 = = = = = = = = = = = 6 $                                     njAey2H}#|]|47z2meP=S=l=(|oj/jpj9i48qjA9XiXirjsjsjrjtj%8ujvjwjxjt+X^h9Y/l<-[%<7+X^f|X^A/(c=&-g05H3E3H3^[$59|9|!['36d6d!['36dyjyj,<'3Lbs85c![,<!39c                                                                                                                                                                                                                                                                                                                                                                                                                      ",
"                                                                                                                                                                                                                                                                                                                        % * & & * * * & * 5 - ^._.'.!.!.!.'.'._.'.v '.D n.^ * * & * * * & * & | 5 = 8 8 6 6 8 = 8 6 6 8 = 8 8 8 = = = = = 0 8 8 8 )                                     ffU<zj]|]|]|zjz2,}P8I}$|AjojBjv0CjDjEjW9%8XiFjDjFjGjHjIj5jJjKj70;[_&e1V^y+r@t@3+*<*},%Ljl6=&!gk7m|'<i4@5(6w}ve98![u|u|g7![,<,<MjMjh7(6ve6}7c6d!3Nj                                                                                                                                                                                                                                                                                                                                                                                                                      ",
"                                                                                                                                                                                                                                                                                                                        % * & & * * * & & & ; h$).!.!.v !.!.v !.'.'._.Oj@ ^ * * & * * * & * & | 5 = 8 8 6 6 8 8 8 6 8 8 = 8 8 8 = = = = = 0 8 8 8 s.                                    cePj]|#|#|#|H}y2meP8k=p=B2QjRjSjTjUjVj54B5%8Wj07C597XjYjZjJj`j(^(/=&N#V^y+r@M#@!$!,%$!Lj(c=&!gk7'3'<i4(6r[l}l})[a|u|u|![![h7Sd kMj,<(6LbLbm|'< |.k                                                                                                                                                                                                                                                                                                                                                                                                                      ",
"                                                                                                                                                                                                                                                                                                                        5 * & & * * * & 5 5 9 g$]$]$+k:.=.3.<[G )._.*.D n.^ * * & * * * & * & | 5 = 8 8 6 6 8 8 8 8 8 8 8 8 8 8 = = = = = 0 8 8 8 )                                     s)sc#|_'_'^|p=p=Z>P8|dme@k#k$kG;%k&k*k*kS5=kA9qjqj-kFiB5uj;k`jl<6@b/=&i:3+F!i[9&a4K7#!+!(cI/>k1dm|'<,<q[r[r[r[r[r[u|u|)[)[><>< k k,<h7![^[u|)3,k'k                                                                                                                                                                                                                                                                                                                                                                                                                      ",
"                                                                                                                                                                                                                                                                                                                        5 * & & * * * & * * {.c.X V V L )k]#!kH U ~k{ka.# ^ * * & * * * & * & | 5 = 8 8 6 8 8 8 8 8 8 8 8 8 8 8 = = = = = 0 8 8 6 )                                     8!]kH}^|t,/|m=m=K[A2n9Pj^k/k(k_k:k<k[k}kS5Fi10|k|kQhDi-k1k2k3k%<6@4k|+8+;#@!9&9&/&#!E!o((/f:5k^[F<'|Sd><n[r[r[r[q[u8WeA<F<E<;<J|J|Sd,<)[![Wea56kS3                                                                                                                                                                                                                                                                                                                                                                                                                      ",
"                                                                                                                                                                                                                                                                                                                        % * & & * * * & | 7 ( c.L W W V V V V I V V V x$#.y * * & * * * & * & | 5 = 8 8 6 8 8 8 8 8 8 8 8 8 8 8 = = = = = = 8 8 6 )                                     7kJ[Z>m=l=l=l=[-[-A2n98k9k0kCiakbk]jckdkekZ9fkgkgkgkhkEiikjkkk%<4}4k.!S.E%#!@!9&@!a4;#t+(/|+~gWeX[W}p[lk 1r[r[w<X[W}E<A<A<X_X_J|J|o[p[k}!['|mknkok                                                                                                                                                                                                                                                                                                                                                                                                                      ",
"                                                                                                                                                                                                                                                                                                                        % * & & * * * * 5 & ' c.L I I 4.4.V V V 4.4.X m.N y * * & * * * & * & | 5 = 8 8 6 8 6 6 6 8 = 8 8 8 8 8 = = = = = = 8 6 6 )                                     pki617A2S=K[K[K[K[qkJ[scrksktkukvkHiwkxkykzkZ9fkfkfkAkD7ikjkBk[@6@4kCkDk/}*<E!E!E!o(t+(cd~|+Ekq[t|X_K|Y[R_y<y<v<t|X_l|D9D911K|n:Fko[o[a|![,3K3GkHk                                                                                                                                                                                                                                                                                                                                                                                                                      ",
"                                                                                                                                                                                                                                                                                                                        5 * & & * * * & * | [ ` L I W V 4.I V I V W I x$#.y * * & * * * & * & | 5 = 8 8 6 8 6 6 6 8 = 8 8 8 8 8 = = = = = = 8 6 6 )                                     IkJkT<Kk17m0A2m0m0qkk=N=LkMkNkOkPkQk[j[jRkSkXj|0ekekxkv9ikTkBkUk,|p<DkJ!Vk/}%0(}(}0#t+(cWk*fXkr[F1W_Yk-<Zk3fF9][v<>3>3([z<v<v<n:m}Y[n[a|)[W}l4nk`k                                                                                                                                                                                                                                                                                                                                                                                                                      ",
"                                                                                                                                                                                                                                                                                                                        5 * & & * * * & 5 & ( ` X V V 4.I W V V 4.V L ,&2 y * * & * * * & * * | % = 8 6 6 8 6 6 6 8 = 8 6 8 8 8 = = = = = = 8 6 , s.                                     l.l+lS<|313@ls6|7@l#l/1M[$l%l&l*lCjUjC5rj=lFjYi-l-k;lEj>ljk,lf2'lD]S.VkVkS.8+_&e1)lQ/A/}1Y^!lx}{[[2][9000C/p/|1~l([&0q2q2][=<61Y[Y[y<z<)[F<W}{l]l                                                                                                                                                                                                                                                                                                                                                                                                                      ",
"                                                                                                                                                                                                                                                                                                                        5 * * & * * * & & & [ E&L V V V V I 4.I V 4.L P$#.y * * & * * & & * * & % = 6 6 6 6 8 8 8 8 8 8 8 8 8 8 = = 8 8 8 8 = 6 > )                                       ^l/l(l_l:l<l[l23}l|l&2j61l2l3l4l5l6lf97l8l9lJi0lalblJib9cl+jJ0Lg;#T%/}/}/}8+Ccdlel*{3+(cfl!l/[o2_[][^2:/glc/5khlhliljlklhl00s<llv<Re|1d4j|11k4z:                                                                                                                                                                                                                                                                                                                                                                                                                      ",
"                                                                                                                                                                                                                                                                                                                        % * * & * * * & * & [ E&X V V V V I 4.I V 4.L P$#.y * * & * * & & * * & % = 6 6 6 6 6 8 8 8 8 8 8 8 8 8 = = 8 8 8 8 0 8 > s.                                                              mlnlolplqlrlsltlulvlvlwlxlylzlAlWg+jBlZ+(^;#*<*}E%=&e7|eCl&{G!o(h9jaDlS0O0d/EkElFlfa%3GlGlGl)g)g5}Ekd/Hl3fW0k2W[ilk}H<Il                                                                                                                                                                                                                                                                                                                                                                                                                      ",
"                                                                                                                                                                                                                                                                                                                        % * * & * * * & * & [ s X V V I V I 4.I V 4.L P$2 p & * & & * & & * * & % = 6 6 6 6 6 6 8 8 8 8 8 8 8 8 = = 8 8 8 8 0 8 , s.                                                                  JlKlLlMlNlOlPlQlRlSlTlUlVlWlXlYlZl<@5a`l m.mo<+m@m#m$m%m&m*m7+$@=mga-mFl+_a_;mz3.5.5.5>m,m-+a_f~b_'m+_)mca!mzfA1l|~m                                                                                                                                                                                                                                                                                                                                                                                                                      ",
"                                                                                                                                                                                                                                                                                                                        % * * & * * * & 5 & 9 s ~.4.V I V I 4.I V 4.L P$2 p & * & & * & & * * & % = 6 8 6 6 6 6 6 8 8 8 8 8 8 8 = = 8 8 8 8 = 8 , b                                                                   {m]m^m/m(m_m:m<m[m}m|m1m2mO28h3m4m=[:15m6m7m8m9m0mambmcm|@q@dmemfmiaDc)m0_z3K_A3gmB+B+O_4#hmim0_jmkm)msgimlmmmnma0V_                                                                                                                                                                                                                                                                                                                                                                                                                      ",
"                                                                                                                                                                                                                                                                                                                        % * * & * * * & 5 & 9 s X 4.V I V I 4.I V 4.L P$2 p & & & & * & & * * & % = 6 8 6 6 6 6 6 8 8 8 8 8 8 8 = = 8 8 8 6 = 6 > b                                                                   Ajompmqmrmsmtmumvm3iwmxmymzmAmBmCm0:DmEmFmGmHmIm)*JmKmLmMmNmOmPmQmRmVasgVa@33gSmTmUmVmWmXmYmZm`m`m+i&h n.n+n@n.hf4#n$n%n&n*n                                                                                                                                                                                                                                                                                                                                                                                                              ",
"                                                                                                                                                                                                                                                                                                                        % * * & * * * & * & [ s X V V I V I 4.I V 4.L P$2 p & & & & & & & * * & % = 6 8 6 6 6 6 6 6 8 8 8 8 8 8 = = 8 8 8 6 = 6 > b                                                                   l==n-np979zeZ>v)u,|=;n>n1=,n'n)nM}!n~n=2{n]no+Fd^n/n(n_n:n<n[n}n|n1n1n2n3gdh3n4nYm5n6n7n8n8n9n0nanbnancndnenfngnhninjnknlnmnnnonpnqnrnsntnunvnwn                                                                                                                                                                                                                                                                                                                                                                                          ",
"                                                                                                                                                                                                                                                                                                                        % * * & * * * & * & [ E&X V V V V I 4.I V 4.L P$2 p & & | & & & & * * & % = 6 8 6 6 6 6 6 6 6 8 8 8 8 8 = = 8 8 8 6 = 6 > b                                                                   xnw5ynznAn5!Bn27[-&;(8M4M4CnDnEnx*(nycFnGnHnHnInJnKn$$52-17|LnMn%<n(n(n(l<k<k<l<5%Y+B%NnOnPnQnRnSnTnUnVnWnXnYnZn`n o.o+o@o#o$o$o$o%o&o&o*o=o,0z[!<B}l4-o;o                                                                                                                                                                                                                                                                                                                                                                                ",
"                                                                                                                                                                                                                                                                                                                        5 * * & * * * & & & [ s L V V V V I 4.I V 4.L P$2 p * & | & & & & * * & % = 6 6 6 6 6 6 6 6 6 6 8 8 8 8 = = 8 8 8 6 = 8 , s.                                                                  >o%6dj,o'onjT<J[k=W<[-~fk-j8)o!o~o{o]o^o/o(o(o(o_o/o/o:o~n0:7|<og2[o+mU^5+5%k<k<[o+m+mn(}@k<kbe:}o|o1o2o3o4o5oqi6cviJ3!36on17oPi7o!dJ38oO78o!i9o9o6oN70oao                                                                                                                                                                                                                                                                                                                                                                                ",
"                                                                                                                                                                                                                                                                                                                        } & * * & * 5 & * * 9 9.V V V V V V 4.V 4.4.4.x$#.y * & * * & * * * * * % 0 6 6 6 , 6 6 6 8 8 8 = = 8 8 8 8 8 8 = 8 0 6 > b                                                                   boye|dcece,}k-P=M4k=k=x2&2codoeo7|p|9e62fogogogogoho_ohocdionbjoF!+!(c_&(}r#5+5+5+*{e1_&U^t+(/N#sgkolordF5F5F52d^[G3w[w[g4G3G3G3G3G3G3g4g4KcPimow[w[,<nooo                                                                                                                                                                                                                                                                                                                                                                                ",
"                                                                                                                                                                                                                                                                                                                        } & * * & & 5 & * * 9 9.V V V V V V 4.V 4.4.4.x$#.y * & * * & * * * & & % 0 6 6 8 6 6 6 6 8 8 8 8 = 8 8 8 8 8 8 = 8 0 6 > )                                                                   pol-J[P=P=,},}P=o=k=k=x2x;qoroso7|c<0etouovowowocdgohofoxoioyoNaF!+!seE%_&0#5+5+*{*{I/=&(/_&4}I/=mjdEc^[^[^[h4h4g4g4zos4e4e4e4e4e4e4e4e4G3g4F3mow[w[i4AoBo                                                                                                                                                                                                                                                                                                                                                                                ",
"                                                                                                                                                                                                                                                                                                                        } & * * & & 5 & * * 9 Y%4.4.V V V V 4.V 4.4.4.x$#.y * & * * & * & & & & 5 0 6 6 8 6 6 6 6 8 8 8 8 = 8 8 8 8 8 8 = 8 0 8 > s.                                                                  po=;J[P=P=,},}P=o=k=k=x2x;qoroso7|c<0etouovowowocdgohofoxoioyoNaF!+!seE%_&i:5+5+*{*{I/I/(/_&4}f:=mjdEc^[e4e4g4g4g4g4zos4e4e4e4e4e4e4e4e4G3h4t8w['<w[i4AoCo                                                                                                                                                                                                                                                                                                                                                                                ",
"                                                                                                                                                                                                                                                                                                                        4 & * * & & 5 & * * 9 Y%4.4.V V V V 4.V 4.4.4.x$#.y * & * * & * & & & & % 0 6 6 8 8 8 8 8 6 6 6 8 = 8 8 8 8 8 8 = 8 0 8 , s.                                                                  po=;J[P=P=,},}P=o=k=k=x2x;qoroso7|c<0etouovowowocdgohofoxoioyoNaF!+!seE%_&i:5+5+*{*{I/I/(/_&4}f:=mjdEc^[e4e4g4g4g4g4zos4e4e4e4e4e4e4e4e4G3h4t8w['<w[i4DoEo                                                                                                                                                                                                                                                                                                                                                                                ",
"                                                                                                                                                                                                                                                                                                                        } & * * & & 5 & * * / Z L 4.V V V V 4.V 4.4.4.x$#.y * & * * & * * * & & % 0 , , 6 8 8 8 8 6 6 6 8 = 8 8 8 8 8 8 = 6 0 8 , )                                                                   po=;J[P=P=,},}P=o=k=k=x2x;qoroso7|c<0etouovowowocdgohofoxoioyoNaF!+!seE%_&i:5+5+*{*{I/I/(/_&4}f:=mjdEc^[e4e4g4g4g4g4zos4e4e4e4e4e4e4e4e4h4h4E3w['<w[i4FoGo                                                                                                                                                                                                                                                                                                                                                                                ",
"                                                                                                                                                                                                                                                                                                                        } & * * & & 5 & * * / Z L 4.V V V V 4.V 4.4.4.x$#.y * & * * & * * * & & % = , , 6 6 6 6 6 8 8 8 8 = 8 8 8 8 8 8 = 6 0 8 6 s.                                                                  po=;J[P=P=,},}P=o=k=k=x2x;qoroso7|c<0etouovowowocdgohofoxoioyoNaF!+!seE%_&i:5+5+*{*{I/I/(/_&4}f:=mjdEc^[e4e4g4g4g4g4s4s4e4e4e4e4e4e4e4e4h4h4t8w['<w[i4HoIo                                                                                                                                                                                                                                                                                                                                                                                ",
"                                                                                                                                                                                                                                                                                                                        4 & * * & & 5 & * * / Z L 4.V V V V 4.V 4.4.4.x$#.y * & * * & * & & & & % 0 , , 6 6 6 6 6 8 8 8 8 = 8 8 8 8 8 8 = 6 0 8 6 b.                                                                  po=;J[P=P=,},}P=o=k=k=x2x;qoroso7|c<0etouovowowocdgohofoxoioyoNaF!+!seE%_&i:5+5+*{*{I/I/(/_&4}f:=mjdEc^[e4e4g4g4h4h4i4@5^[^[^[^[^[^[^[^[G3h4t8w['<w[h7JoKo                                                                                                                                                                                                                                                                                                                                                                                ",
"                                                                                                                                                                                                                                                                                                                        4 & * * & & 5 & * * / Z L 4.V I V V 4.V 4.4.4.x$#.y * & * * & * & & & & 5 0 , , 6 6 6 6 6 8 8 8 = = 8 8 8 8 8 8 = 6 0 = 6 3                                                                   pol-J[P=P=,},}P=o=k=k=x2x;qoroso7|c<0etouovowowocdgohofoxoioyoNaF!+!seE%_&(}5+5+*{*{I/I/(/_&4}f:=mjdEc^[e4e4g4h4h4h4i4@5^[^[^[^[^[^[^[^[G3g4F3w['<'<h7LoMo                                                                                                                                                                                                                                                                                                                                                                                ",
"                                                                                                                                                                                                                                                                                                                        a * 5 * | | * * & | - Q$4.W X W V X V V L V 4.x$2 p * * * * & & & & & & % 0 6 6 8 8 8 8 6 6 6 6 6 6 6 8 8 8 8 8 6 8 0 = 6 3                                                                   Jkk-Q'P=P=,},}P=P=Z=Z=x2x;qoroso7|c<0etouovowowocdgohofoxoioyoNaF!+!se%0(/,|n(U^//Pd4}4}(/(/4}I/cajdEc^[^[^[h4h4h4h4i4@5)d^[^[^[^[^[^[^[G3g4g4momow[><NoBo                                                                                                                                                                                                                                                                                                                                                                                ",
"                                                                                                                                                                                                                                                                                                                        } 7 | 5 % } 5 | * 7 [ Z !kV W 4.K 4.I I L V 4.T #.m & & & & & | & & & & % 0 6 6 8 6 6 6 6 6 6 6 6 8 8 8 = = = = 8 8 0 8 , s.                                                                  ;ak-Q'P=P=,},}P=P=Z=Z=x2x;qoroso7|c<0etouovowowocdgohofoxoioyoNaF!+!se%0(/,|n(n(////4}4}(/(/4}B3cajdEc^[^[^[h4h4h4h4i4@5)d^[^[^[^[^[^[GcG3*6E3w[w[w[h7NoOo                                                                                                                                                                                                                                                                                                                                                                                ",
"                                                                                                                                                                                                                                                                                                                        0 & | | 7 | & | * * ; Q$X V ~.I 4.~.L I V V X P$2 m & * & & * & & & & & % 0 6 6 8 6 6 6 6 6 6 6 6 6 6 6 6 6 8 8 8 = 0 8 , s.                                                                  ;ak-Q'P=P=,},}P=P=Z=Z=x2x;qoroso7|c<0etouovowowocdgohofoxoioyoNaF!+!se%0(/,|n(n(////4}4}(/(/4}B3cajdEc^[^[^[h4h4h4h4i4@5)d^[^[^[^[^[^[GcG3h4)3'<'<'<h7PoQo                                                                                                                                                                                                                                                                                                                                                                                ",
"                                                                                                                                                                                                                                                                                                                        5 | 5 % % % % * & & ; P )kW W ~.V V V 4.4.I 4.d+<.p & * & & * & & & & & % 0 , , 6 6 6 6 6 6 6 6 6 8 8 6 6 6 8 8 = 8 0 8 , s.                                                                  ;ak-Q'P=P=,},}P=P=Z=Z=x2x;qoroso7|c<0etouovowowocdgohofoxoioyoNaF!+!se%0(/,|n(n(////4}4}(/(/4}B3cajdEc^[^[^[h4h4h4h4i4@5^[^[^[^[^[^[^[^[G3h4)3'<'<'<h7RoSo                                                                                                                                                                                                                                                                                                                                                                                ",
"                                                                                                                                                                                                                                                                                                                                  } 7 p | ^ {./$X L V W 4.K @.V 4.I X P$#.p & * & | & & & & & & % 0 , , 6 6 6 6 6 6 6 6 6 = = 8 8 8 = = = 6 8 6 , b.                                                                  ;ak-Q'P=P=,},}P=P=Z=Z=x2x;qoroso7|c<0etouovowowocdgohofoxoioyoNaF!+!se%0(/,|n(n(////4}4}(/(/4}B3cajdEc^[^[^[h4h4h4h4i4@5^[^[^[^[^[^[^[^[H3h4)3w[w[w[h7FoTo                                                                                                                                                                                                                                                                                                                                                                                ",
"                                                                                                                                                                                                                                                                                                                                              Q X W ~.I ~.W K 4.L V X T <.p * * & & & & & & & & % 0 , , 6 , 6 6 6 6 6 6 8 6 6 6 6 6 8 8 8 6 8 8 6 3                                                                   ;ak-Q'P=P=,},}P=P=Z=Z=x2x;qoroso7|c<0etouovowowocdgohofoxoioyoNaF!+!se%0(/,|n(n(////4}4}(/(/4}B3cajdEc^[^[^[h4h4h4u|'3(6'3^[^[^[![^[^[^[H3u|E3momow[h7UoGo                                                                                                                                                                                                                                                                                                                                                                                ",
"                                                                                                                                                                                                                                                                                                                                                r%Z i.E x$=.H X K W ~.v o.m & & | & * * & & & & % = , > , , , 6 6 6 6 6 8 6 6 6 8 8 8 8 8 8 = 8 , s.                                                                  ;ak-Q'P=P=,},}P=P=Z=Z=x2x;qoroso7|c<0etouovowowocdgohofoxoioyoNaF!+!se%0(/,|n(n(////4}4}(/(/4}B3cajdEc^[^[^[h4h4h4u|h7(6'3^[^[![![^[^[^[H3=7E3w[w[w[h7VoWo                                                                                                                                                                                                                                                                                                                                                                                ",
"                                                                                                                                                                                                                                                                                                                                                7 8 3 ! < g.O h$Q$s t.P 3 q y y y ^ | | & & & & % = , > , , , , 6 6 6 6 8 = = 0 0 a 0 0 0 , 6 ; /                                                                     Xok-P=P=P=Pj,}47P=7[P8Q'x;qoroso,@c<0etouovowowowocdho_oho:fofYok<A/X^%0(/(/7+7+//Cc4}4}(/(/4}B3catdEc^[^[H3h4h4u|u|h7(6'3^[^[![![^[^[H3h4:6)3'<'<'<,<Zo`o                                                                                                                                                                                                                                                                                                                                                                                ",
"                                                                                                                                                                                                                                                                                                                                                y & 7 ^ y p p ^ } , {.{.5 l w#d#d#w#q w#q l m ^ & } a = = a 4 } % } % a -                                                                                             [i7eHh47zj p.p.pzj47meV<|-2=+pxbq|@p#p0eN}F2wo:f:f$p%p(o&p*p=p-pk<(c6@8+(/(/A/A/(/Y^k:*f6@(/b46#;pLbvi)d6da5a5a5h4h46d6d6di4i4i46di4i4)3a5a5q:Hca5O7W}>p,p                                                                                                                                                                                                                                                                                                                                                                                ",
"                                                                                                                                                                                                                                                                                                                                                y & * * * * & & & & & & | y q z z d#d#d#z z w#q m p y ^ ^ y y y p ^ 7 4 '                                                                                             <3{f37.p'p p p p p)pPj}-0[!p~p[n-19e#p{pN}O|wo:f]p^p&p/p(p_pm+:pl<Y/Cc=&(/(cH!H!seY^k:*f4}(/fl6#5k![s4'<<pq:q:a5h4[pu|u|6d,<,<,<,<,<<pq:O7O7q:q:O7O7}p|p1p                                                                                                                                                                                                                                                                                                                                                                                ",
"                                                                                                                                                                                                                                                                                                                                                y & * * * * & & & * * * * | p q w#q q w#w#w#w#w#w#w#w#w#w#w#q q w#m ^ 0 e                                                                                             f8ce,}2p#|2p2p2p2p.p2p}-Y>2=~p[n3p}c{p%13}O|wo:f:f$p%p4p4p*p5pZg%<U^6pe7(cA/A/A/(c6@4}4}6@(/flf:1|ves4i4'|<p<p,<6dh7m|![a|q[(6h7h7,<,<<p<p<p<p<p@d@dE<7p8p                                                                                                                                                                                                                                                                                                                                                                                ",
"                                                                                                                                                                                                                                                                                                                                                7 & * * * & & & & * * * % * ^ m l l l l l l q q l l m p m l l l l p ^ 0 e                                                                                             Xo7eP=#|_'#|#|#|]|2p]|}-9p0p+papi}xcbpN}3}g}F2wocdgo_o_ocp:fnbjo88dp6pe7(cA/+!Q(A/(c(/(c(c(cepf:=}`}@5h7><,<,<h7h7(6t[ver[r[r[r[><,<,<,<,<,<,<,<i4'<x<fpgp                                                                                                                                                                                                                                                                                                                                                                                ",
"                                                                                                                                                                                                                                                                                                                                                7 & * * & & & & & & * * % 5 | y m l l l l l l q l l l m m l l m p 7 | 0 .                                                                                             $6k-hpv)v)/|/|/|G}G}y2}-('ipjpkpi}Zclplp3}g}xcxo]omp^ompuonpopppqprp6pe7(co<spr|+!+!s+7+A/A/ljb/)mtp$5(6upuph7(6(6U}w}6}l}r[r[r[(6h7h7,<,<,<><><<pa5)<vpwp                                                                                                                                                                                                                                                                                                                                                                                ",
"                                                                                                                                                                                                                                                                                                                                                7 & * * & & & & & & * * % % & 7 p m m m m m l l q q q q l l q l y & & 0 {.                                                                                            !fN9J[P8p=m=l=m=L4p=P=Aercxpypkp.[>d%[&[&[g}zpApuoto62bpBpCpDpEpqprp6pB3d~:^o<o<+!r|l<n(A/A/>+T%Fptp(6r[z}z}Gpr[r[l}-}-}l}r[r[r[(6(6h7,<,<h7><><<pbcK|HpIp                                                                                                                                                                                                                                                                                                                                                                                ",
"                                                                                                                                                                                                                                                                                                                                                7 & * * & & & & & & * * % } 5 & ^ y p p p p p p p p m m p p m y 7 * | a {.                                                                                            JpJkKk17P8P8x5P8A2P8Q'7!KpAjDnLp7|Zc%[%[F|g}zpApuoto&1MpBpNpDpOpqpdph9b/Y^&!seWk(cQ(U^n(A/A/>+T%FpPpU}r[QpQpx<x<y<y<m[m[y<x<w<q[q[><><><V}V}0808!3l461RpSp                                                                                                                                                                                                                                                                                                                                                                                ",
"                                                                                                                                                                                                                                                                                                                                                7 & * * & & & & & & * * } 4 } 5 & 7 y y p m p p y y y p p y y 7 & * | 0 .                                                                                             Tpr7boKkKkye17KkKkKkye=;x;codoUp7|<cvo}cO|g<VpApuobp&1bpWpNpDppp[@n(6@b/ ! ! !Y^6@(/PdU^(cA/>+T%XpYpU}y<ll-<v<k|Zp,[x[`pv[v<w<w<p[w<><><W}p:+1J| |z[V_ q.q                                                                                                                                                                                                                                                                                                                                                                                ",
"                                                                                                                                                                                                                                                                                                                                                7 & * * * * * * * * * * } 4 } % 5 | ^ p p p p p y p p m m p y 7 | * * 8 A                                                                                             +qH%@q#q$qpk23pkbo%q!fl027&q*q=q-qob:f:f~n;qnpnp>qto&1,q'q)q!q~q{q)$_&++Vk]q]qR.*fT}B3Cc^q}1Wkb/)mW[r[v[:2/q][][F9(q_2_2@2t|t|l|t|k|w<><X[W_p:@1B|_q51:q<q                                                                                                                                                                                                                                                                                                                                                                                ",
"                                                                                                                                                                                                                                                                                                                                                7 | * * * * * * * * * * } 4 } % 5 * 7 y y p p y y y p m p p 7 | | 5 5 6 3                                                                                                 [q}q|q1qcfr72q3q4q5q0!6q7q8q9q1cLd_10:3p3p3pd*F2]onpgeH2I20q9aaqLj:^/}p<R.bqcqdqeqB3_&;+I/b~DcQe~[w<[2[2T1][T1fq_2(2;0E1gq-f&0([@2v<)<Ykp:O7h1hqiqjqkq                                                                                                                                                                                                                                                                                                                                                                                ",
"                                                                                                                                                                                                                                                                                                                                                7 | * * * * * * * * * * % } % % % 5 * & 7 y p y y y p p y ^ | & & 5 5 6 3                                                                                                                   lqmqnqL!oqpqqqrqsqtquqYfvqmb:cwqq|xqyqzqAqBqCqDq/&:^epEq>1*fT}-{B3h90#N#O#jaW0q2FqN0N0N0N0`1b0>g>g`1`1Gq6ffqg1q2@2k|A<,3q:Xe0cHqIqJq                                                                                                                                                                                                                                                                                                                                                                                ",
"                                                                                                                                                                                                                                                                                                                                                7 | * * * * * * * * * * } } } % % % 5 * | y p p y y p y ^ | * * & 5 5 6 3                                                                                                                           KqLqMqNqOqPqQqRqSqTqUqVqWqXqYqZq`q r.r+r@rxjl<n(,|h9i:N#i:n([o#ri:$rV0>gD3D3D3D3D3Ff%rda%r&r&r*r*r&r;p~2>gilq2u[@2l|ac=r-r;r                                                                                                                                                                                                                                                                                                                                                                                ",
"                                                                                                                                                                                                                                                                                                                                                7 | * * * * * & * * * * 4 a 4 } } } % * & ^ y y y y y ^ | * 5 * & 5 5 6 3                                                                                                                           >r,r'r)r!r~r{r]r^r/rA3(r_r:r<r[r}r|r1r2r3r4r$g5rc2-[m<j[m<M#m<5%o#hmimjaja-m-m-mga6r7r>m8r9r9rL7L70r8r8ry395eav}Xkc_F1a0rhar                                                                                                                                                                                                                                                                                                                                                                                ",
"                                                                                                                                                                                                                                                                                                                                                7 | * * * * & & * * * 5 a a 4 4 4 } % 5 * | ^ ^ ^ y ^ 7 & * 5 5 * 5 5 6 A                                                                                                                           brcrdrerfrgrdr(ehrCeeeirjrkr!rlrmrnrorJ&prqrrrsrtrurZlvrwrxryrj<zrdm9#i:_&CcB3I/B+*&o@*{h:o@ArBrBrCrDrErErFr3gGrHr1|IrTeJrKr                                                                                                                                                                                                                                                                                                                                                                                ",
"                                                                                                                                                                                                                                                                                                                                                7 | * * * & & & * * 5 5 4 4 4 4 4 4 } } 5 & 7 ^ ^ ^ 7 | * * 5 5 5 % % 6 A                                                                                                                           LrhpMrJ}l=p=Z>Z>G}_'}=CnKhcojrNrOrPrQrRrSrTrUrVrWrXr*1YrZr`r s.s+s@s#s$s%s&s*s(r(rEr=s-s;s>s,s's's)s!s#s~s{sRn]sfh^s/std(s_s                                                                                                                                                                                                                                                                                                                                                                                ",
"                                                                                                                                                                                                                                                                                                                                                7 | * * & & & & * * 5 5 4 a 4 } } 4 } } % * | 7 7 7 | * * * 5 % 5 % % 8 e                                                                                                                           :s<sl-M4J[7e7e&97e6[o=rcj6X|[s}s|s1s2s3s4sal5s6s7s8s9s0sasbscsds'*esfsgsI_hshsisjsjsd:d:kslsmsnsosB_pspsqsrs{ssstsX*usvswsxsyszsAsBsCsDs                                                                                                                                                                                                                                                                                                                                                                    ",
"                                                                                                                                                                                                                                                                                                                                                7 & * * & & & & * * 5 5 a a a 4 } } } } % 5 * | | | | * 5 * 5 % 5 % % 8 .                                                                                                                           Es{f7!*;t)&9&9&9dek-V<Ghy2'ar=FsGsHsIsJsKsLsPhMsbl74c=ZjNs8sOsPsQsRsSsl%dmTsUsTaVsWsVsI_Xsd:ksYsYsZs`s t t.t+t@t#t$t%t&t*t=t-t;t>tBo,tao't)t!t~t{t]t                                                                                                                                                                                                                                                                                                                                                        ",
"                                                                                                                                                                                                                                                                                                                                                ^ * & * & & & & & * * * a a a 4 } } } } } % 5 * & & * 5 5 5 5 % 5 5 % 8 '                                                                                                                           ^t7escR'P=mek-k-k-x2P=P=P8k=t,/tGs(t_t8iwk:t<t[t:kbkWi}t6j6j44|t1tJ@2t[_k<A/A/n/U^t+7#bh3tUs4t5tjs6t9n7t8t9t0tatbtctdt&tetftgthtitjtktltmtntotptqtrtstttutvtwt                                                                                                                                                                                                                                                                                                                                              ",
"                                                                                                                                                                                                                                                                                                                                                ^ * & * & & & & & * * * a a a 4 4 } } } } } % 5 5 5 5 5 % % % } % % } , .                                                                                                                           xtt)yt_'H}P=x2k-x2Q'P=P=ztAtKpBtCtDtEtFtwkcjGt[tTjWiHiHtItJtDiKtv=2}Lt@jk<,|(/n/x1}1Wkse:^-#O1O@5%#@9h839tMtNtNtOtPtQtPtjhRt^[e4pdvivie4e4e4vie4^[e4vivie4'<St                                                                                                                                                                                                                                                                                                                                              ",
"                                                                                                                                                                                                                                                                                                                                                ^ * & * & & & & & * * * a a a 4 4 4 } } } } } } % } % % } } } 4 } } 4 > e                                                                                                                           Tt&2yt_'H}P=x2k-x2Q'P=P=ztAtKpBtCtDtEtFtwkcjGt[tTjWiHiHtItJtDiKtv=2}Lt@jk<(}_&e1*{(/(/ljUt)$k<j[*mVtE5Gr1oWtPtlolo~d+5tdXt9|e4e4e4vivivivivivie4e4e4vitiviw[ok                                                                                                                                                                                                                                                                                                                                              ",
"                                                                                                                                                                                                                                                                                                                                                ^ * & * & & & & & * * * a a a 4 4 4 4 4 4 4 4 4 4 4 4 } } } } 4 } } 4 , .                                                                                                                           YtZtyt_'H}P=x2k-x2Q'P=P=ztAtKpBtCtDtEtFtwkcjGt[tTjWiHiHtItJtDiKtv=2}Lt@jk<,|_&$&o@i:_&seH!Z$X+G!)$r#(}^s`t u.u~dNiQt+u+uKbEcvivivivie4e4e4e4vivie4viviviviw[ok                                                                                                                                                                                                                                                                                                                                              ",
"                                                                                                                                                                                                                                                                                                                                                7 * & * & & & & & * * * a a a 4 4 4 4 4 4 4 a 0 0 0 a 4 } } } 4 } } } , e                                                                                                                           @uZtyt_'H}P=x2k-x2Q'P=P=ztAtKpBtCtDtEtFtwkcjGt[tTjWiHiHtItJtDiKtv=2}Lt@jk<^q(///*{_&(/seUtVt*ms+A/(}6@#uWt~d+5+5+5h5e4e4^[^[vivivivivivitivie4^[)de4vivivimo`k                                                                                                                                                                                                                                                                                                                                              ",
"                                                                                                                                                                                                                                                                                                                                                ^ * & * & & & & & * * * a a a 4 4 4 4 4 4 a 0 = = = 0 a 4 } } } % % } , e                                                                                                                           $uZtyt#|y2P=x2k-x2Q'P=P=ztAtKpBtCtDtEtFtwkcjGt[tTjWiHiHtItJtDiKtv=2}Lt@jk<(/(/e1*{,|(/lj>+(cs+7+E5%u&u+bloNi6c6cKbpde4H3^[^[^[^[^[^[^[^[e4e4vivivivivivivimo*u                                                                                                                                                                                                                                                                                                                                              ",
"                                                                                                                                                                                                                                                                                                                                                y & & * & & & & & * * * a a a 4 4 4 4 4 a a 0 = = = 0 a a } } 4 % % } , e                                                                                                                           =uZtyt#|y2P=x2k-x2Q'P=P=ztAtKpBtCtDtEtFtwkcjGt[tTjWiHiHtItJtX4Ktv=2}Lt@jk<(}_&e1*{_&_&X^se(}u@7#(/fl-u+b~dh5viviviviKc$jvivivie4e4^[^[^[e4e4vivivie4^[^[^['<*u                                                                                                                                                                                                                                                                                                                                              ",
"                                                                                                                                                                                                                                                                                                                                                a } * & & & & & & * * * 4 a a a a 4 4 4 a a 0 = = = 0 0 a } } a } % % , .                                                                                                                           =u;uyt#|y2P=x2k-x2Q'P=P=ztAtKpBtCtDtEtFtwkcjGt[tTjWiHiHtIt>uDiKtv=%*Lt@jk<^q(/////(/_&E%E%(cA/7#_&I/T}zf+5h5e4e4H3H3h4h4H3H3^[^[^[^[^[e4e4vie4e4vie4e4e4}d!d,u                                                                                                                                                                                                                                                                                                                                              ",
"                                                                                                                                                                                                                                                                                                                                                d [ } 7 ^ * * 5 & | & * 4 a a a a a 4 4 4 0 8 8 = = 8 6 , = a 0 4 * % ; '                                                                                                                           =uZtyt_'H}P=t)k-x2Q'P=&2ztqkKpBtCtDtEtHt'ucjGt[tTjWiHiHtItek)u jv=p|!u@jk<(c(/////(/(/sese%0(/_&(/4}b4~u+5Gce4G3g4g4g4I3I3G3^[^[e4e4e4e4e4e4^[^[^[^[^[^[^['<N3                                                                                                                                                                                                                                                                                                                                              ",
"                                                                                                                                                                                                                                                                                                                                                              , | p ^ & a = 8 = 4 % * & | * 4 = 8 = 6 ; ( 3                                                                                                                                         =uZtyt_'H}P=t)k-x2Q'P=&2ztqkKpBtCtDtEtHt'ucjGt[tTjWiHiHtItek)u jv=p|!u@jk<(c(/////(/(/sese%0(/_&(/4}Eq{u+5Gc^[H3h4h4h4h4h4h4^[^[^[e4e4e4e4e4^[^[^[^[^[^[^['<N3                                                                                                                                                                                                                                                                                                                                              ",
"                                                                                                                                                                                                                                                                                                                                                                                                                                                                                                                                                    $uZtyt_'H}P=t)N9x2Q'P=&2ztqkKpBtCtDtEtHt'ucjGt[tTjWiHiHtItek)u jv=p|!u@jk<(c(/////(/(/sese%0(/_&(/4}dql2i5Fcvi$jI3I3I3g4w[E3^[^[^[^[e4e4e4e4^[^[^[^[^[^[^['<St                                                                                                                                                                                                                                                                                                                                              ",
"                                                                                                                                                                                                                                                                                                                                                                                                                                                                                                                                                    =uZtyt_'H}P=t)n9Q'Q'P=&2ztqkKpBtCtDtEtHt'ucjGt[tTjWiHiHtItek)u jv=p|!u@jk<(c(/////(/(/sese%0(/_&(/4}*fl2i5Fcvi$jI3I3I3Pimow[^[^[^[^[e4e4e4e4^[^[^[^[^[^[^['<St                                                                                                                                                                                                                                                                                                                                              ",
"                                                                                                                                                                                                                                                                                                                                                                                                                                                                                                                                                    ]uZtyt_'H}o=|dn9Q'Q'P=&2ztqkKpBtCtDtEtHt'ucjGt[tTjWiHiHtItek)u jv=p|!u@jk<(c(/////(/(/sese;[A/X^seD]Y^l2i5Hbe4G3g4E3'<'<'<i4^[^[^[^[^[e4e4e4^[^[^[^[^[^[^['<St                                                                                                                                                                                                                                                                                                                                              ",
"                                                                                                                                                                                                                                                                                                                                                                                                                                                                                                                                                    YtZtyt_'H}o=|dn9Q'Q'P=m-ztqkKpBtCtDtEtHt'ucjGt[tTjWiHiHtItek)u jv=p|!u@jk<(c(/////(/(/sese;[A/X^seD]Y^l2i5Hbe4G3G3E3'<'<'<i4^[^[^[^[^[^[^[e4^[^[^[^[^[^[^['<St                                                                                                                                                                                                                                                                                                                                              ",
"                                                                                                                                                                                                                                                                                                                                                                                                                                                                                                                                                    YtZtyt_'H}o=|dn9Q'Q'&2m-ztqkKpBtCtDtEtHt'ucjGt^uTjWisjHtIt/u)u jv=p|!u@jk<(c(/////(/(/sese;[A/X^sef|Y^l2i5Hbe4)ds4zo'<'<'<i4^[^[^[^[^[^[^[^[^[^[^[^[^[^[^['<ok                                                                                                                                                                                                                                                                                                                                              ",
"                                                                                                                                                                                                                                                                                                                                                                                                                                                                                                                                                    @uIhZt^|H}o=J[J[Q'Q'Q'J[~f/e+}/0GsYhhjHt'uHtcj]jWiWiWiHiIt(u)u%k_uMd+gsfr|A/(/////,|6@4}6@t+A/X^sef|Y^:u(dGc^[1d@5h7,<,<><h7^[^[^[^[^[^[^[^[^[^[^[^[^[^[^[O7ok                                                                                                                                                                                                                                                                                                                                              ",
"                                                                                                                                                                                                                                                                                                                                                                                                                                                                                                                                                    <u{fZtP=Kp|-w5a!~fKkT<N9-4de[u}u|u1u4s&k:t'uIt<jHiWiWiIi2uXj3uF=4u(@5u6um(H!se(/6@7u8u8uCc(c+!o((c4}Y^9uTdk7^[^[^[^[^['3h7'3h4h4h4h4h4h4h4H3^[^[^[^[^[^[^[O70u                                                                                                                                                                                                                                                                                                                                              ",
"                                                                                                                                                                                                                                                                                                                                                                                                                                                                                                                                                    au[it)P=Z>|-k=k=P8KkT<XoXok-_'bucuduKt&k:teufugu<jTjbkhuiuXj3uF=_ujuku6um(H!se6@4}6p8u8u6pY/+!o((c4}4}9uTdd4^[^[^[^[^[^[@5'3u|u|h4h4h4h4h4h4^[^[^[^[^[^[^[O7M3                                                                                                                                                                                                                                                                                                                                              ",
"                                                                                                                                                                                                                                                                                                                                                                                                                                                                                                                                                    <s[i7eP=Z>m=|-x517yeT<T<KkA2|=luGsHsmu6jX9Itnuou<jTjbkIipu(uquruV'=2sutu#!sed~4}4}6p6pCc4}(cA/(}(/6@4}9uTdd4^[H3h4h4h4h4'<6du|u|u|u|h4h4h4h4h4h4h4h4h4h4h4O7M3                                                                                                                                                                                                                                                                                                                                              ",
"                                                                                                                                                                                                                                                                                                                                                                                                                                                                                                                                                    uu-4n9m-p=m=|-S=P8Q'x2Kkm0K[<=vuwuxuyucjItfuzuouHi[t%kWiHi/uAuOhBu0:v+Q(*<Y^Y^4}4}Pd//,|(/(/(c(}(/4}b4:u>5d4^[H3h4h4h4h4'<)3u|u|u|u|u|u|u|u|u|u|u|u|u|u|u|q:Cu                                                                                                                                                                                                                                                                                                                                              ",
"                                                                                                                                                                                                                                                                                                                                                                                                                                                                                                                                                    Dupki6P8p=N=q=q=m=S=P8J[ztEuFuvuwuxuGuHiHufunuIu{jJuJu^u6jxkKuD0LuMul%dpB3NuNu7u6p,|(cA/A/(c(/=&6@T}b4>k>5d4^[H3h4h4u|6d,<,<><><We,<,<,<,<,<,<,<,<,<,<,<,< |Cu                                                                                                                                                                                                                                                                                                                                              ",
"                                                                                                                                                                                                                                                                                                                                                                                                                                                                                                                                                    OuPu-4~fZ>>-q=q=>-|-x;J[J[A2QufbRuSuWhhj:jItfufuHtTuikUu;jxkKu|hVuMu5@Pd={eqNu8uPd(/A/+!r|A/(c=&4}T}Nu>k>5d4![m|u|u|u|u|,<,<><><><><><><,<,<,<,<,<,<,<,<,<z[Wu                                                                                                                                                                                                                                                                                                                                              ",
"                                                                                                                                                                                                                                                                                                                                                                                                                                                                                                                                                    OuPu-4/eA2Z=x5|-|-p=x;]kn97!_'XuYuZu`uGtHteuJt>u v.v+v@v vhk#v$v%v&v*v=v-v;v8u8uPd(/A/o<spQ((c=&4}T}Nu>kk7'3m|j}j}j}j}We><><><><><><><><><V},3q:q:q:q:q:q:z[>v                                                                                                                                                                                                                                                                                                                                              ",
"                                                                                                                                                                                                                                                                                                                                                                                                                                                                                                                                                    ,v'v-4/e17A2P8Kp+}P=P=Zt7edj[u/t_c)v!v&k:teuJt~v{v]v.v^v'u/v(v_v:v]}<vrp$([v8u6p6p(/A/o<spQ((c=&4}T}Nu>kk7m|j}j}j}j}j}E<w<w<w<><><><><><><V}q:q:q:q:q:q:q:z[>v                                                                                                                                                                                                                                                                                                                                              ",
"                                                                                                                                                                                                                                                                                                                                                                                                                                                                                                                                                    }v|v1vJkT<P6~fV<&2|dk-7!4!nj2p2v3v4v5v6v veu~v7v/udk8v9v0vavbvcvdvO|ev&<<&8u8u6p6ph9t+_^#!;[}14}4}T}Nu>k9|A1)[k}![![k}~[y<y<r[q[><><><><><><,<<pp:p:p:p:q:z[>v                                                                                                                                                                                                                                                                                                                                              ",
"                                                                                                                                                                                                                                                                                                                                                                                                                                                                                                                                                        fvgvhv|3$6ivjv&9kv^txtnjlvmvnv4vov:kA9A5pvqvnurvwksvtvuvvvK*wv5$Zl0awf6p6p6p6p_&_&*<*<X^(/=&4}T}Nu;p6}h|z</[/[/[/['[y<y<y<y<x<w<w<w<><><><V}p:X_X_p:p:B}>v                                                                                                                                                                                                                                                                                                                                              ",
"                                                                                                                                                                                                                                                                                                                                                                                                                                                                                                                                                                      o)xvyvzvAvp=BvCvDvEvc=FvGvHvIvvv97HuJvKvLvMvNvOv(oPvO1n(//PdPdPd_&_&E%E%%0(/=&4}B3Qv5}W[QeIrg1_2ilc0`pm[m[SeSeRev[v[y<x<x<w<w<X[X[X_X_X_'1Rv                                                                                                                                                                                                                                                                                                                                              ",
"                                                                                                                                                                                                                                                                                                                                                                                                                                                                                                                                                                                SvTvUvVvWvXvYv7-x0Zv`v w.w+w@w#w$w%w&w*w=w[_Y+U^//////_&_&8+8+_&(/=&4}={Nu5}QeW0W0l2>g~gv}5kR/-wR/R/p/;w3f,[,[y<v<w<w<><p:p:X_!<>w                                                                                                                                                                                                                                                                                                                                              ",
"                                                                                                                                                                                                                                                                                                                                                                                                                                                                                                                                                                                    ,w'w)w!w~w{w]w^w/w(w_w:w<wGu`u[w7'}wsu|wG!o(Y/U^U^_&_&b/b/%0(c(/6@I/4})mk2:ul25kv})m%3Xpl[V[V[1|1|5kc0`p`pRej|u[A<j}u8u8W}Xe1w                                                                                                                                                                                                                                                                                                                                              ",
"                                                                                                                                                                                                                                                                                                                                                                                                                                                                                                                                                                                      2w3w4w5w6wGs7w8w9w0wawbw2sV'cwdwewY$fwu@A/A/n(n((}_&8+8+6@l6(c(/B+4}Dc9u%3@_%3eaeaeaeagw[^ea=+)m)mv}5k5k{2_2q2D9A<A<A<j}p:1w                                                                                                                                                                                                                                                                                                                                              ",
"                                                                                                                                                                                                                                                                                                                                                                                                                                                                                                                                                                                      +-hwiwjwkwlwmw%unwowpwqwrwswtwuwvwS(wwLjA/A/n(n(t+_&b/T%%0l6(c(/B+I/ue=}xwyw=f=f=f0_;mzw;m=f=f=f=fxwga+_tgXkn2`1;0a0D9A<X_1w                                                                                                                                                                                                                                                                                                                                              ",
"                                                                                                                                                                                                                                                                                                                                                                                                                                                                                                                                                                                      AwBwCwDwEwFwGwHwIwJwKwLwMw3#RaNwOwPwWsQwkbkbk<k<)$3+0#0#r#s+7+,|B+=&ue=+p#e~(&f:b~t{t{Rwt{=&I/b/b/b/f:e~e~f1f1*3pgo2b0q2Z[Sw                                                                                                                                                                                                                                                                                                                                              ",
"                                                                                                                                                                                                                                                                                                                                                                                                                                                                                                                                                                                      :-Tw47UwVwWwXwXwYw-du,s=.eZw/h`wA+so:eBmKa xT[P2E_.x+xUkQ&m<'$n(0#80$@@x0&T}T}7u#x80Y/Y/7++m+m+m#r+m+mU^6+-$.i1n$x%x&x%xIeR3*x                                                                                                                                                                                                                                                                                                                                            ",
"                                                                                                                                                                                                                                                                                                                                                                                                                                                                                                                                                                                      =xyem-m-scscscscm-Q'P8S=M4l=-x;x9h>xfe3pe|~n,x'x)x!x~x{x]x^x/x(xdm5+_x:x<x[x[xAr}x|x1x2x3x0m0m0m0m4x5x5x6x7xos!s#sI_8xVs9x0xaxbxcxdxexfx                                                                                                                                                                                                                                                                                                                                  ",
"                                                                                                                                                                                                                                                                                                                                                                                                                                                                                                                                                                                      =xyeP8a!o=o=6[6[J[Q'Q'/es6qk^hgx9hOl:c(niocd:f:fwqwq/nd*hxixjxkxlxmxnxoxpxTaTaqxrxVsO[sxtxtxtxuxlsvxvxR2w3nswxnsxx#s#sjsyxzxAxBxCxDxExFxGxHxIxzsJx                                                                                                                                                                                                                                                                                                                        ",
"                                                                                                                                                                                                                                                                                                                                                                                                                                                                                                                                                                                      =xyeP8a!o=Zt6[t)Q'Q'Q'/eKkqk^hgx9hKx:cioLxMxNx:fe|-1(n(nwqofP[xqE2OxPxQxA+h2=sRxSxnxTxUxRaksRaRaksksksOmVxWx5wI_nxXxYxZx`x y.y+y@y#y$y%y&y&y*y=y-y;y                                                                                                                                                                                                                                                                                                                      ",
"                                                                                                                                                                                                                                                                                                                                                                                                                                                                                                                                                                                      =xyeP8M4o=P=,},}Q'Q'Q'/eKkqk^hgx9hKx:cwowogo*2*2-1-1d*(npb>y,yof7|Vq'yM#)yk<3+G!v&f3yb!s!yXsd:Ra1>~y{y{y~y]y^y/y8t(y_y:y<y[y}y|y1y2y3y4y5y6y7y8y9y0yaybycydyeyfygy                                                                                                                                                                                                                                                                                                        ",
"                                                                                                                                                                                                                                                                                                                                                                                                                                                                                                                                                                                      =xyeP8S=P=me,},}Q'Q'Q'/eT<qk^hgx9hKx:cwoM++[:f*2-1-1 <<cp|c<iorb,yhyiy 9aqj[(^r|r|r|70j[5%#@;s$s@}jyd:Ow6tkylymynyJ+oypyqyrysytyuyvywyxyyyzyqtAy.oBy6oCyj4!3r2P3DyEy                                                                                                                                                                                                                                                                                                      ",
"                                                                                                                                                                                                                                                                                                                                                                                                                                                                                                                                                                                      =xyeP8S=P=me,},}Q'Q'Q'/eT<17^hEg9hKx<fwowogoNx:f~n~niowoFyGyycc<_1P[HyIyaqF!(^+!Q(Jy:_n<n<$0n<kb(^-#u+9#KyLyTnMyNyOyPyQyRy^[G3H3k}m|m|m|$bG3G3$jF3H3'3$jSy$bTy_)UyVy                                                                                                                                                                                                                                                                                                      ",
"                                                                                                                                                                                                                                                                                                                                                                                                                                                                                                                                                                                      =xyeP8S=P=me,},}Q'Q'Q'/eT<Wy^heb9hKx:nwop|ycwo:f:f:fwowoXyYyj&Nx,yZy`y zO1kbQ(A/A/A/+!+!+!r|r|r|R(R(.zE5A/3g+z#iTd(dHbk7e4^[titivitiviGcvih5c4h5pdh5EcEcEcpde4j4'k@z                                                                                                                                                                                                                                                                                                      ",
"                                                                                                                                                                                                                                                                                                                                                                                                                                                                                                                                                                                      =xyeP8S=P=me,},}Q'Q'Q'~fT<Wy^4eb9hKx<fwowogoM+L1L1:fwowo}cN}Z|Nxsb,@#zO1p@7+(c#jlj}1#j#jA/+!+!Q(.mJy+!;[c~$z%z(d>5k7H3)d$j)d)dLba|1de42d2d+dKb5c]7056c6c+5Ni+5h7&z*z                                                                                                                                                                                                                                                                                                      ",
"                                                                                                                                                                                                                                                                                                                                                                                                                                                                                                                                                                                      =xyeP8P8P=me,},}Q'Q'Q'/eT<WyJ4Ig9h=z:cwowogo:f:f:f:fwowoxouoF2io<fH2#z&mQ1Y/Wkf|d~Y^f|f|WkA/A/A/A/A/A/seE%HrAdjhk7G3g4@d!dw[w[s4s4e4^[^[^[^[e4e4e4EcHb+5+5pipiGc0c-z                                                                                                                                                                                                                                                                                                      ",
"                                                                                                                                                                                                                                                                                                                                                                                                                                                                                                                                                                                      =xyeP8P8P=me,},}Q'Q'Q'/eXoye59Ig9h=z:cwowogoNxNx:f:fwowoxoAp[c/n;z>za3j[h:806@Y^Y^Y^Y^Y^d~(/(c(c(c(c(cf|T%=}Ad,zk7g4g4O78ow[w[zos4E3G3G3G3)d)dG3e4viFcGc+5piqi05l4St                                                                                                                                                                                                                                                                                                      ",
"                                                                                                                                                                                                                                                                                                                                                                                                                                                                                                                                                                                      'zyeP8P8P=me,},}Q'Q'Q'/eXoye59Ig9h=z:cwowogo)z)z:f:fwowo>qzp<cd*:c>z!zj[U^h9T}NuNu*f*f*fY^(/(/(/(/(/(/Y^b/=}AdJbk7g4g4O7J3'<'<'<'<w[w[w[w['<w[w[zo}de4e4Gcpiqi05r2~z                                                                                                                                                                                                                                                                                                      ",
"                                                                                                                                                                                                                                                                                                                                                                                                                                                                                                                                                                                      'zyeP8P8P=me,},}Q'Q'Q'/eXoye59{z]z=z:cwowogo)z)z:f:fwocdxowo<cd*nb^z/zk<0#6@4}NuT}*f*fY^4}4}(/(/(/(/(/Y^b/=}AdJbk7g4g4*6t8E3E3E3'<E3E3E3E3'<t8w[w[F3G3G3GcNi(zGcr2~z                                                                                                                                                                                                                                                                                                      ",
"                                                                                                                                                                                                                                                                                                                                                                                                                                                                                                                                                                                      'zyeP8P8P=me,},}Q'Q'Q'/eXoye59_zAr=z:cwowogo)z)z:f:fcdgogocd[cd*nb:z<zk<t+(/6@4}4}4}4}4}4}4}6@(/(/(/(/4}I/=}AdJbk7G3g4h4g4G3e4e4^[^[^[^[^[H3g4g4g4I3g4g4G3Oi[ze5}zv|                                                                                                                                                                                                                                                                                                      ",
"                                                                                                                                                                                                                                                                                                                                                                                                                                                                                                                                                                                      'zyeP8P8P=me,},}Q'Q'Q'/eXo9!59_zAr=z|ziowogo)z)zNx:fgogogogoc<wqnb1z2zg23+(c6@4}4}4}4}4}4}4}4}(/(/(/6@4}I/=}AdJb>5e4G3h4g4e4Gch52d2d2d^[g7H3G3g4g4$jg4g4G3Gch5t8U33z                                                                                                                                                                                                                                                                                                      ",
"                                                                                                                                                                                                                                                                                                                                                                                                                                                                                                                                                                                      4z17P8P8P=me,},}Q'Q'Q'/eXo9!595zAr=z#<iowogo)z)z)z)zgogo)z)zc<wqnb1z2zn<5%n(Y/(/(/(/,|//#x4}4}4}4}4}4}4}I/=m uJb>5^[e4h4g42dF56zF56zF52d2d2dpdpdpd$jg4g4g4#d#d@d7z8z                                                                                                                                                                                                                                                                                                      ",
"                                                                                                                                                                                                                                                                                                                                                                                                                                                                                                                                                                                      9zWyZ=Z=P=P=,}meQ'Q'Q'/eJp9!595zArOl:cwowogo)z)z)z)zgogo@p)zc<wq:c-q2z[_)$n(Y/(/(/(/,|//806@4}4}4}4}4}4}I/ca0zKbk7^[e4h4g4G6c4F5F5F5c4h5e42de4e4e4}dg4G3G32d#dHc8jaz                                                                                                                                                                                                                                                                                                      ",
"                                                                                                                                                                                                                                                                                                                                                                                                                                                                                                                                                                                      bzWy{0L4p=Z>P=P=Q'Q'/e/eJpKkczdz9hKx:cwowogogogogogogogo*1*1*2wq:cmb'y[_)$A/(c(/(/(/(/(/(/(/(/(/(/(/(/4}I/5}9|Fc![^[e4h4g4^[^[^[^[^[)de4s41d@5^[@5@5@5@5@5Gc2d<pO3ez                                                                                                                                                                                                                                                                                                      ",
"                                                                                                                                                                                                                                                                                                                                                                                                                                                                                                                                                                                      fzgz3527p=Z>P=P=Q'Q'/e/eJp/eczhz9hKx:cwowogogogogogogogo*1*1*2<fnbmbOm&ms+A/(c(/(/(/(/(/(cA/(c(/(/(/(/4}I/v}t[Fc![^[e4h4g4@5@5@5@5@5@5s4s4@5@5@5@5@5@5@5@5Hbh5@dv8iz                                                                                                                                                                                                                                                                                                      ",
"                                                                                                                                                                                                                                                                                                                                                                                                                                                                                                                                                                                      jzkzQ'V<P=P=,},}k-x2/e/e;a/e6qhz9hKx:cwowogogogocdwowowocdgo~nobnb1zlz)ys+A/(c(/(/(/(/(/(cA/(c(/(/(/(/4}I/v}>5Ec![^[e4h4g4@5@5@5@5@5@5@5@5@5@5@5@5@5@5@5@5HbGc<pmziz                                                                                                                                                                                                                                                                                                      ",
"                                                                                                                                                                                                                                                                                                                                                                                                                                                                                                                                                                                      nzXox2Q'P=me,},}x2Q'/e/e;am0croz9hKx:cwowogogogowowowowocdgo~nobnb1zlz)ys+A/(c(/(/(/(/(/(cA/(c(/(/(/(/4}I/v}>5vi^[^[e4h4g4@5@5@5@5@5@5@5@5@5@5@5@5@5@5@5@505c4<p!1pz                                                                                                                                                                                                                                                                                                      ",
"                                                                                                                                                                                                                                                                                                                                                                                                                                                                                                                                                                                      qzXok-k-,},},}meQ'Q'Q'/ekzm0crrz9hKx:ciowogowowo;q(n(niocdgo~nobnb1zlz)ys+A/(c(/(/(/(/(/(cA/(c(/(/(/(/4}I/v}>5vi^[^[e4h4g4@5@5@5@5(6(6(6(6@5@5@5@5@5@5@5@505c4<p!1ez                                                                                                                                                                                                                                                                                                      ",
"                                                                                                                                                                                                                                                                                                                                                                                                                                                                                                                                                                                      szXok-7!,},}meP=Q'Z=Z=qk/eqkcrrz9hKx:c(nwocdwowo(n(n(niowocd~nobnb1zlz&ms+A/(c(/(/(/(/(/(cA/(c(/(/(/(/4}f:5k>5vi^[^[e4u|h4h7(6(6(6(6(6(6(6@5@5@5@5@5@5@5@505c4Hc>f>w                                                                                                                                                                                                                                                                                                      ",
"                                                                                                                                                                                                                                                                                                                                                                                                                                                                                                                                                                                      tz$6l-V<P=P=P=P=P8Z=Z=qk/eqkcrrz9hKx:c(nwowowowo(n(n(niop|yce|<fnbmbOm&ms+A/(c(/(/(/(/(/(cA/(c(/(/(/(/4}f:5k>5vi^[^[^[u|h4,<,<,<,<,<,<,<,<'<'<'<'<'<'<'<i405c4a5mziz                                                                                                                                                                                                                                                                                                      ",
"                                                                                                                                                                                                                                                                                                                                                                                                                                                                                                                                                                                      uzboye*;P=P=P=7[Z=[-[-qk/em0crrz9hKx:c(nwowowowo(n(n(niop|yce|<fH2mb'yj[u^A/(c(/(/(/(/(/(cA/(c(/(/(/(/4}f:5k>5Ec^[^[^[u|h4,<,<,<,<,<,<,<><,<'<'<'<'<'<'<i41dd4<p!1u:                                                                                                                                                                                                                                                                                                      ",
"                                                                                                                                                                                                                                                                                                                                                                                                                                                                                                                                                                                      vzgvP6;4Q'm-*;j-k=[-EuwzT</8crxz3%yz:c <wowowowo(n(n(niowocd*2<fnb1zOmj[)$A/(c(/(/_&_&_&(}t+t+_&_&_&_&I/O#5kve^[![e4^[j}u|,<,<,<,<,<,<,<,<,<,<,<,<'<'<'<i4^[2d<pzzAz                                                                                                                                                                                                                                                                                                      ",
"                                                                                                                                                                                                                                                                                                                                                                                                                                                                                                                                                                                      BzCz@lDzC8EzJ[Fz{0Gz8[xnHz|7q=Iz3%yz#<$fiowowowo;q(n(niocdgo*2<fnb1zlz&m)$A/(c(/(/(/_&_&(}t+(}_&_&_&_&I/p#l29|^[![e4^[j}u|,<,<><><><><><><,<,<,<,<,<,<'<i4d4d4<pJzAz                                                                                                                                                                                                                                                                                                      ",
"                                                                                                                                                                                                                                                                                                                                                                                                                                                                                                                                                                                      KzLzMz;a}7Nz|7AvOzt7xnPzCz5dq=QzArRzSz(nwowowowowowowowocdgo*2<fnb1zlz&m)$A/(c(/(/(/(/_&(}t+(}_&_&_&_&I/p#l29|^[![^[^[A<j}><><><><><><><><,<,<,<,<,<,<,<h7![g7V}JzAz                                                                                                                                                                                                                                                                                                      ",
"                                                                                                                                                                                                                                                                                                                                                                                                                                                                                                                                                                                        TzUzVzWzIkXzivs6P6C8C8!fNe>-YzK0Zz|zd*(nwowowowowowowocdgo*2<fnb1zlz&m)$A/(c(/(/(/(/(/(/t+(}_&_&_&_&I/O#5k6}![)[^[![A<j}w<w<w<><><><><><,<,<,<,<,<><><q[![g7V}`z A                                                                                                                                                                                                                                                                                                      ",
"                                                                                                                                                                                                                                                                                                                                                                                                                                                                                                                                                                                                .A+A@A#AIk+f[d~0$A'a%A&A*A#<=A(nwowowowowocdgogogo*2<fnb1zlz&m)$A/(c(/(/(/(/(/(/t+(}_&_&_&_&I/O#v}W[)[/[)[)[A<j}w<w<w<w<w<><><><><><><><><><><q[7c![V}y:Sw                                                                                                                                                                                                                                                                                                      ",
"                                                                                                                                                                                                                                                                                                                                                                                                                                                                                                                                                                                                        -A;A>A,A'A+})A!A~A{A.<(nwowowowowocdgogogo*2<fnb1zlz&m)$A/(c(/(/(/(/(/(/t+(}_&_&_&_&I/b~@_Qez<z</[/[j|A<v<v<v<v<w<w<w<w<><><><><><><><q[)[X}V}y:Sw                                                                                                                                                                                                                                                                                                      ",
"                                                                                                                                                                                                                                                                                                                                                                                                                                                                                                                                                                                                                  ]A^A/A(A_A:A(nwocdgogogogogogogo*2<fnb1zlz&m)$A/(c(/(/(/(/(/(ct+(}_&_&_&_&I/b~5}Qez<_2q2q2;0a0~l][][][][v<v<v<w<w<w<w<><><V}h7)[X}V}y:Sw                                                                                                                                                                                                                                                                                                      ",
"                                                                                                                                                                                                                                                                                                                                                                                                                                                                                                                                                                                                                        <A[A}A:znb,y,y,y,y,ywq:f:f^n|A1A2AOm&mF!l<Y/6@Y^Y^d~3AWkE%E%E%b/I/I/={e~v}QeQec0_2(2o2`1_[_[{[{[{[{[][][v<v<w<w<><><,3<pk})[V}4A5A                                                                                                                                                                                                                                                                                                      ",
"                                                                                                                                                                                                                                                                                                                                                                                                                                                                                                                                                                                                                        6A7A8Azb9A0AaACvbAcAX:dAeAfAgAhAiAjAkAlAP1n(d~mA%+nAoAk[GepAqArAsAtAuAtAv}R/B/V[~gvAFfFfwAwA:/X0X0^2_[{[/q/q[2)1W_l|p:q:a5l|h1xAyA                                                                                                                                                                                                                                                                                                      ",
"                                                                                                                                                                                                                                                                                                                                                                                                                                                                                                                                                                                                                        zAAABACADAEAFAGAHAIAJAKALAMANAOAPAQqQARASAg2WkqATAUA.!VAWAXAYAR.uAZAZAtAFl`A`Agwea&3 Bpg._'m'mV(#_{]kaX0_[G1G1{[[2W_X_p:a5W}XeM3.B                                                                                                                                                                                                                                                                                                      ",
"                                                                                                                                                                                                                                                                                                                                                                                                                                                                                                                                                                                                                        +BN9k=@B#Bdr$B%B&B*B[g=B-BP#;B>B,BjAe2'B)B5r(^:^!Bse_^~B{BK7j:O#]B]B^Bxw/B(Bkmzwz3O#L7>8(&Q_Q_Q_N__B:B<B[B[B>{T0p27fE1&0Z0Z0r:y:}B                                                                                                                                                                                                                                                                                                      ",
"                                                                                                                                                                                                                                                                                                                                                                                                                                                                                                                                                                                                                        |BB8AvT=1B2B3B&q(e[=4B5B6B7B8B:g9B0BaBbBcBdBA_eB`l|f=$B*/_fBG!n(x1gBhB4}K_iB0hjBb~4}6pg:T}*fT}*fT}T}-{sAkBkB7_xwqgO0lB>k)mmBnBoB;/                                                                                                                                                                                                                                                                                                      ",
"                                                                                                                                                                                                                                                                                                                                                                                                                                                                                                                                                                                                                        pBf8B8Q'Z=l=czcz6q}=qBrBsBomtB(et=uBvBwBxByBzBABBBCBDBEBFB+rGBHBIBR}>|5+-$(}*<%0Wk%uJBgBKB&uLB&uMB&uNBOBPB&uNBf77u0&gmDbQBRBSBlln:                                                                                                                                                                                                                                                                                                      ",
"                                                                                                                                                                                                                                                                                                                                                                                                                                                                                                                                                                                                                        TBUB%~x2*;*9VBWBL4KpXBYB~c#|Z>0[ZB`B C.C+C8s@C#C$C%C&C*C=C-CT&;C>C,C'C)Cp@$0!C~C}1MBJBuf{C]C{CVt^Cn(n(Y+Qx=s=s=s$soxSxWs/C3tRB(C_C:C                                                                                                                                                                                                                                                                                                    ",
"                                                                                                                                                                                                                                                                                                                                                                                                                                                                                                                                                                                                                        <C[C$AT<1717Wyj-}Cl-V<|C1CU<7kk=2C3C4C5C%k6C7C8C9C0CaCbCcCdCeCApfCgChCiCjCa$kCE!%s|xC%lCmCOnmCreienCoCpCqCqCqCqC!s#s!y!y+3rCsCtCuCvCwCxCyCzC                                                                                                                                                                                                                                                                                            ",
"                                                                                                                                                                                                                                                                                                                                                                                                                                                                                                                                                                                                                        ACBCS<T<KkP6P6~fT<9!9!CCDCECXok=FCGCHC!vICJCmu3sKC1kJuLC+CMCNCOCPCQCRCSCTCUCVCWCXCYCr1ZC`C`CWxns DB_.D.DSs+D+D+D@snsns@DXs#D$D%D&D*D=D-DIx;D>D,D'D)D!D~D                                                                                                                                                                                                                                                                                ",
"                                                                                                                                                                                                                                                                                                                                                                                                                                                                                                                                                                                                                        {D&apkT<Kk/e/eKkKkkzs6]D^D+lIk_8/D(DHs<-_D_D:D<D[D}D|D1D2D3D j1k6s4D5D6Dyo7Dref3rxrx8Dc[Txks9DZgZg0DNmaD;1;1bDbDcDcDdDOmeDfDgDhDiDjDkDlDmDnDoDpDpDqDrDsDtDuDvDwDxDyD                                                                                                                                                                                                                                                                    ",
"                                                                                                                                                                                                                                                                                                                                                                                                                                                                                                                                                                                                                        zDJpCzKk/e/e/e/e/e;aJk&~ADBD1vCDDDED9CFDGDGDICHD}DIDJDKDLDMDNDMDHD ju9ODpbPDm<*mA+S}QDRDSDTDOmUDVDWDWDXDBaYD0qZD0D`Dlx E.E+E@E#E$E%E&E*E=E-E;E>E,EWo'E)E!E~E{Evnun]E^E/E(E                                                                                                                                                                                                                                                              ",
"                                                                                                                                                                                                                                                                                                                                                                                                                                                                                                                                                                                                                        _EJpCz/em0m0m0t7m0:ET<de<E$AJk[E}E|E1E2E3E3Equ4E5EIDJD6E7EKs8E8EKs[t1k9Eqb0Em<^C0#'l%<%<s@,$aEnCnsdDZDbEcEdEeElbucfEgEhEiEjEkElEmEnE4yoEpEqErEsEtEuEvEwExEyEzEqt.oAEBECEDE                                                                                                                                                                                                                                                              ",
"                                                                                                                                                                                                                                                                                                                                                                                                                                                                                                                                                                                                                        zDJpCz/eqkqkt7t7qkm0Kkt)7edes6[-EEFEGEHEIE(vAuLD}DIDJDJEKELEME)uME<k1k9EioNEx+5+_}l6l<OEPEPEPE-[[@a$BcQEpCwx9DRESETEUEVEWEXEYExyZE`E F.F+F@F#F$F%F&F$56dh47o*FF3Fc=F-F;F>F                                                                                                                                                                                                                                                              ",
"                                                                                                                                                                                                                                                                                                                                                                                                                                                                                                                                                                                                                        ,FJp}7~fA2A217Wy1717Q't)7e<Ei6'F)F!FxlLDIEIEKs~F{FLD6E7E7E8E)uGDGD]j j]Frb.x%<Y/_}}15+5+V^rpwfOE^Fg2-[-[g2t@/Fc3(F_F:F<F[Ff4g4*6b5Ic}FHc|F1F2F3F0di54Fti5FI3G3+uRt6F7F8F9F                                                                                                                                                                                                                                                              ",
"                                                                                                                                                                                                                                                                                                                                                                                                                                                                                                                                                                                                                        {DIk-4x2Q'*;*;*;*;Q'x2HhU<ffde/|U=0FaFbFcFdFKseFfF<DgFgFhF8E)uGDiFsjjF]FkFZ+l<}18+PBU^V^*{PdPdV^h:Q1Y+Y+Y+5+h:lFmFnFoFpFqFvivig4Kc7on1!dzo=F,zrFrFJbvisFtFg4G3uFnivFwFxFyF                                                                                                                                                                                                                                                              ",
"                                                                                                                                                                                                                                                                                                                                                                                                                                                                                                                                                                                                                        zFm9Xok-k-l-l-l-l-7!,}AFBF^DCFM|DFEFFFGFJELEHFIFJFIFKFHFHDKs)uGDLFhjujMF,ya$n(epI/flh9e1g:8ug:e7e1,|Y/Y/Y/,|#xNFOFOiPFQFtiRFRF#bSFSFSFSFTF,zUFVF,zWFXFYFYFI3G3RFAdZF`F G.G                                                                                                                                                                                                                                                              ",
"                                                                                                                                                                                                                                                                                                                                                                                                                                                                                                                                                                                                                        TBm9Xok-=;3737373737ze+G@G#Gff45$G%G&G*G6EKEFDIF=GNv-GICHDhFMEGD3uhjuj;G,y>G5+4};dfl_&_&={={={T}4}6@(/(/6@4}NupgX},G'G)Gvii50dTF!G!Gs4!GTF*5%5(dKb[6m6~Gq4{Gw[viTd&5]G^G/G                                                                                                                                                                                                                                                              ",
"                                                                                                                                                                                                                                                                                                                                                                                                                                                                                                                                                                                                                        TB(G[dde=;AeAe37djdjze_G:G5!9!u)<G[G}G|GLsKEFDIF=G1G2GICHFMDhF8E3G4G5G;G_nU56+6@t{d~8+6@f:;d={T}4}b/=&=&I/I/Nu*30|f4e5e5viRFRFRF#bFc)d)dFc4FRtRF6G7G'G8G{G{G9G0GJbUFaG_)bG                                                                                                                                                                                                                                                              ",
"                                                                                                                                                                                                                                                                                                                                                                                                                                                                                                                                                                                                                        {D>a[d=;37}-}-=;$6k-ce_GCCx2t7j-cGdGeG~F7EKEHFIF=GIFICICICfG~FHDMEKFfGgGhG4@*{(/1+>+b/I/0&$(I/I/4}4}4}4}fl4}EqxwW[HbGce4e4e4G3vivivivie4e4viEcvivivivi$jI3I3$jiGi5i5!G;FjG                                                                                                                                                                                                                                                              ",
"                                                                                                                                                                                                                                                                                                                                                                                                                                                                                                                                                                                                                        kG(G%~3737}-}-=;=;k-ce_GCCQ'CD27cGlGmGHD7EKEKsIFIFIFHFICICND}DLDMEKFfGnGoGpG*{(/s#Utb/|+g:$(B3I/4}4}4}4}4}4}Y^=fqGi5Gce4e4e4vivivivivie4e4vivivivivivivivi$jG3tii5i5!GrG/G                                                                                                                                                                                                                                                              ",
"                                                                                                                                                                                                                                                                                                                                                                                                                                                                                                                                                                                                                        kG(G[d3737}-}-=;=;=;ce_GCCQ'CD27cGlGmGHD7EKEKsIFIFIFHFICICND}DLDMEKFfGsGoGpG*{(/s#Utb/|+6p6p4}4}I/I/I/I/4}4}*f=fqGi5Gce4e4e4vivivivivie4e4vivivivivivivivi$je4#b>5i5!G$o/G                                                                                                                                                                                                                                                              ",
"                                                                                                                                                                                                                                                                                                                                                                                                                                                                                                                                                                                                                        tGuG$A3737}-}-=;=;=;de_GCCQ'CD27cGlGmGHD7EKEKsIFIFIFHFICICND}DLDMEKFfGsGoGpG*{(/s#Utb/|+6p6p4}4}I/I/I/I/4}4}*f=fW[JbGce4e4e4vivivivivie4e4vivivivivivivivi$je4#b>5>5s4$ovG                                                                                                                                                                                                                                                              ",
"                                                                                                                                                                                                                                                                                                                                                                                                                                                                                                                                                                                                                        ,F>a[d3737}-wG6!=;=;nj_GCCQ'CD27cGlGmGHD7EKEKsIFIFIFHFICICND}DLDMEKFfGsGoGpG*{(/s#Utb/|+6p6p4}4}I/I/I/I/4}4}*fa_`}JbGce4e4e4vivivivivie4e4vivivivivivivivi$je4#b>5k7zo$oxG                                                                                                                                                                                                                                                              ",
"                                                                                                                                                                                                                                                                                                                                                                                                                                                                                                                                                                                                                        kG(G<E3737AewGyG=;=;nj_GCCQ'CD27cGlGmGHD7EKEKsIFIFIFHFICICND}DLDMEKFfGsGoGpG*{(/s#Utb/|+6p6pCc4}I/I/I/I/I/I/T}a_`}JbGce4e4e4vivivivivie4e4vivivivivivivivi$je46G05i5!GzGvG                                                                                                                                                                                                                                                              ",
"                                                                                                                                                                                                                                                                                                                                                                                                                                                                                                                                                                                                                        kG(G$A3737wGwGyGyG=;nj_GCCQ'CD27cGlGmGHD7EKEKsIFIFIFHFICICND}DLDMEKFfGsGoGpG*{(/s#Utb/|+$($(I/I/4}4}4}4}I/I/T}a_`}JbGce4e4e4vivivivivie4e4viviviviviviviviI3viiGi5i5!G;FAG                                                                                                                                                                                                                                                              ",
"                                                                                                                                                                                                                                                                                                                                                                                                                                                                                                                                                                                                                        tG$qBG3737wGwG49yG=;nj_GCCQ'xn27cGlGmGHD7EKEKsIFIFIFHFICICND}DLDMEKFfGnG!qpGV^(}U[H!D]|+g:$(I/I/4}4}4}4}I/I/|+a_`}JbGce4vie4e4vivivie4e4e4vivivivivivivi$jI3vitii5Hb!GrGCG                                                                                                                                                                                                                                                              ",
"                                                                                                                                                                                                                                                                                                                                                                                                                                                                                                                                                                                                                        DGm9BG3737}-}-=;=;=;nj_GCCyexn27cGlGmGHEEG#vKsIFIFFG<kGtICND}DLDMEKFfGGGv*3xn/7#H!U[HG|+6p6pCc4}4}4}4}4}I/I/b/a_`}JbEcvivie4e4e4e4e4e4e4e4vivivivivivivivig4vi6Gi5IGzo_)JG                                                                                                                                                                                                                                                              ",
"                                                                                                                                                                                                                                                                                                                                                                                                                                                                                                                                                                                                                        KGm9%~3737}-}-=;=;=;nj_G:Gyexn27cGlGmGHEEG#vKsIFIFFG<kGtICND}DLDMEKFfGGGv*3xn/7#H!U[HG|+$($(I/I/I/I/I/I/I/I/T}a_`}JbEcvivie4e4e4vivie4e4e4vivivivivivivivig4vi6Gi5IGzo_)LG                                                                                                                                                                                                                                                              ",
"                                                                                                                                                                                                                                                                                                                                                                                                                                                                                                                                                                                                                        MGNGOGPG37}-}-=;=;=;nj_GQG*;xn}CcGlGmGHEEG#vKsIFIFFG<kGtICND}DLDMEKFfGGGv*3xn/7#H!U[HG|+g:$(I/I/I/I/I/I/I/I/T}a_`}JbEcvivie4e4vivivie4e4e4vivivivivivivivig4vi6Gi5IG!GRGSG                                                                                                                                                                                                                                                              ",
"                                                                                                                                                                                                                                                                                                                                                                                                                                                                                                                                                                                                                        tGf8TGTw37Ae}-=;=;=;nj_GQG*;xn}CcGlGmGHEEG#vKsIFIFFG<kGtICND}DLDMEKFfGGGv*3xn/7#H!U[HG|+6p6p4}4}4}4}4}4}I/I/T}a_`}JbEcvivie4e4vivivivie4e4vivivivivivivivig4vi6G05IG!GRGUG                                                                                                                                                                                                                                                              ",
"                                                                                                                                                                                                                                                                                                                                                                                                                                                                                                                                                                                                                        W7NGNeTwTwwGwGyGyGyG5!VGQG*;WG{7cGlGmG^uEG#vKsIFIFFG<kGtICND}DLDMEKFfGGGv*3xn/7#H!U[HG|+6p6p4}4}4}4}4}4}I/I/T}=fqGJbEcvivie4vivivivivie4e4viviviviviviviviI3vi6G05XG!GrGYG                                                                                                                                                                                                                                                              ",
"                                                                                                                                                                                                                                                                                                                                                                                                                                                                                                                                                                                                                        tGZG`GTwTwwGwGyGyGyG5!:GQG*;WG{7 HlG1E[tEG#vKsIFIFFG<kGtICND}DLDMEKFfGGGv*3xn/7#H!U[HG|+$($(I/I/I/I/I/I/I/I/T}=fqGi5Fcvie4e4vivivivivivie4viviviviviviviviI3vi6Gk7Jb!GrG.H                                                                                                                                                                                                                                                              ",
"                                                                                                                                                                                                                                                                                                                                                                                                                                                                                                                                                                                                                        +H@H#HPGTw$HwGyGyGyG5!:GQG*;WG{7%HlG1E[tEG:tKsIFIF2E<kGtICND}D4EMEKFeFnGv*3xn/7#H!U[HG|+g:$(I/I/I/I/I/I/4}I/T}=fqGi5Fcvivivivivivivivivie4vivivivivivivivi$jvi6G>5Jb!GrG&H                                                                                                                                                                                                                                                              ",
"                                                                                                                                                                                                                                                                                                                                                                                                                                                                                                                                                                                                                          *H=HuG-H;H>HNeNeNe>H>H>H178[,HGgFE8C2E6jqu'HMDHD)HEG<tIFfGHDhFMEICKt!H~H3xdp7#:^U[lj=&4}4}4}4}4}4}4}4}4}Y^*f=fW[4FFcFcvivivivivivivivivivivivivivivivivivivi{H]HJb!G^H/H                                                                                                                                                                                                                                                              ",
"                                                                                                                                                                                                                                                                                                                                                                                                                                                                                                                                                                                                                                (H_H:H<H[H}H3q|H1H2H3H4H}s5H6H7H8H9H0H1DaHaHbHgFcv!-cH;ldHeH30fHyoaEU^_}_&t+n(*{I/*fY^Y^b/b/b/Y^b/|+|+fagH4FIbs4zow[F3momomoSFw[mohHiHmow[w[w[mojH6Gi5lo9xjh4F8FkH                                                                                                                                                                                                                                                              ",
"                                                                                                                                                                                                                                                                                                                                                                                                                                                                                                                                                                                                                                        lHmHnHoHvz[5j-qBpH|EqHrHsHsjKs1DtHUuuHvH34cvwHME'u'HxHyH~HzHn(_}_&_&U^5+I/*f4}Y^b/b/b/Y^b/|+|+gw_6JbIbIbzow[F3momomoSFw[mohHmomow[w[w[SF#b#bi5lo9xvFUFAHBH                                                                                                                                                                                                                                                              ",
"                                                                                                                                                                                                                                                                                                                                                                                                                                                                                                                                                                                                                                                CHDHEHU<FHGHG)HHIHNvTj&8Ej<k]jGtF7GtHtfkgkJHKHLHMHNHn(_}b/I/4}_&$(I/6p4}_&_&_&(/=&I/={zdOH{Hi5PHHbe4}dvivivi}de4}dvivivivivivivivi!Gs4Rt9djhTFrGQH                                                                                                                                                                                                                                                              ",
"                                                                                                                                                                                                                                                                                                                                                                                                                                                                                                                                                                                                                                                        RHSHTHUH^w|8VHWHovXHYHZHHF;j vdF`H I.I+IMH@Ik<B+|+|+NuI/$($(6p$(*{_&_&(/=&I/={haOH{HMii5Fce4vivivivivie4e4vivivivivivie4G3SFw[Eci5XGzorG#I                                                                                                                                                                                                                                                              ",
"                                                                                                                                                                                                                                                                                                                                                                                                                                                                                                                                                                                                                                                          $I%I&I*I=I-I;Iu0>I,I'I)IaHJD6E^v!I~I{IMH]IkbB+|+^IrA6#$(S%)l*{*{*{*{//e7$(8u*eOH6c6cKbEcpdviWFWFWFvipdpdWFWFWFWFWFWFpdG3w[w[!Gs4jH*F/I(I                                                                                                                                                                                                                                                              ",
"                                                                                                                                                                                                                                                                                                                                                                                                                                                                                                                                                                                                                                                            _I:I<I[I}I|I1I2I3I4I5I6I7Iik8I9I0IaIbI]Ikb_}|+^IZA7_N@S%S%S%*{o@*{*{<&$(8uNFOF6c6c+dWFpdviWFWFWFWFpdpdWFWFWFWFWFWFWFI38o6o9Gs4cIdIzheI                                                                                                                                                                                                                                                              ",
"                                                                                                                                                                                                                                                                                                                                                                                                                                                                                                                                                                                                                                                            fIgIhIhbiIjIkIH!VCjxlImInIoIpIqIrIsIOetIn<=#b/ywZA7_J$$($($($(s$$($(uI={vIwI0|+dpd7GI3g4$jI3I3I3$jg4$jtivivie4e4pdviI38o6ohHw[!GdIxIyI                                                                                                                                                                                                                                                              ",
"                                                                                                                                                                                                                                                                                                                                                                                                                                                                                                                                                                                                                                                          zIAIBICIDIEIFIpm%HGIHIIIJIKILIMINIOIPI gQIj[K$=&O#]B6#6#$($($(N@N@$(0&={={u{*30|pdf4RII3g4PiI3I3I3I3g4$jtitivie4e4e4$j{GO78oiHzo!GdISITI                                                                                                                                                                                                                                                              ",
"                                                                                                                                                                                                                                                                                                                                                                                                                                                                                                                                                                                                                                                          UIVIWIXIYIZI`I J.J+J@J$G#J$J%J&J*J=J-J6grs&m;JA+>J7uHdI/I/;dO#O#0&Cc4}*f*fk:+_A1$jI3PimomomomomomomomoSF!G!G!G!G!G}ds4}dPig4viPHRFSF,J^g                                                                                                                                                                                                                                                              ",
"                                                                                                                                                                                                                                                                                                                                                                                                                                                                                                                                                                                                                                                          'J)JBG!JEC~J{J{J~JECTw}-]J^J/Jdroz(J_JRn1>O[!sms,$PEU^(/6@6@=&=&_}t{b~b/|+|+%398:JF3w[w['<'<zoSFmojHjHSFs4Ibs4IbIb4F4FRF0G<J[J~d}JHb8F|J                                                                                                                                                                                                                                                              ",
"                                                                                                                                                                                                                                                                                                                                                                                                                                                                                                                                                                                                                                                          1J l#H2J3J4J5J5J6J2JivNe7Jbz8J9J0J,-!r(rDeaJbJcJdJeJ)sh2fJ=#(cA/(c%0=&;+P_e~5}>5gJ$b$j}d1dGcGcFcFc4FHbRFIG6F,zRtnini(d(d.uhJiJjJkJoilJmJ                                                                                                                                                                                                                                                              ",
"                                                                                                                                                                                                                                                                                                                                                                                                                                                                                                                                                                                                                                                          nJu5oJbzpJqJrJsJ2JtJ euJvJwJxJ4zyJzJAJBJCJDJ|z.[:c`2dE]yXxEJFJGJZ$3+o(;#c~_&0_HJRtKb+dQt}J}J}J}JNioimiIJvFIJIJJJJJKJ1oJJLJMJNJOJPJQJRJSJ                                                                                                                                                                                                                                                              ",
"                                                                                                                                                                                                                                                                                                                                                                                                                                                                                                                                                                                                                                                          TJUJ8JtJDzVJWJXJYJZJ7<BD}H`J`Jnz K.K+K@K#K{Ayoge-17d$K%K&K2c*K=K-K;K>K,Kv&Y+W^'K1o)K!K~K{K]K^K/K(K_K8t:K<K[K}K|K1K2K3K4K5K6K7K8K9K0KaKbK                                                                                                                                                                                                                                                              ",
"                                                                                                                                                                                                                                                                                                                                                                                                                                                                                                                                                                                                                                                          cKdKeKfKgKbzXJ!J49ZJ}C$6*~hK3qBD=diKjKkKlK!q(nmK:f]pnKoKpKqKrKsKtKuKvKCaZgOmd:wKxKyKzKAKBKCKCKDKEKFKGKGK8K8KHKIKJKKKKKLKMKNKOKNKPKQKRKSK                                                                                                                                                                                                                                                              ",
"                                                                                                                                                                                                                                                                                                                                                                                                                                                                                                                                                                                                                                                          TKUKVKWKXKYKZKEC!JWI`K^fWI L:-.L+L@L#Lng$L%LEe'@<e&L*L[ee|=Le|C@C@7d-LpKP[hyvq;L8K>L,L'L)L!L~L~L~L~LMK{L]L{L^L/L(L(L_L:L<L[L}L|L1L2L3L4L                                                                                                                                                                                                                                                              ",
"                                                                                                                                                                                                                                                                                                                                                                                                                                                                                                                                                                                                                                                          5L6L7L8L9L]fEC0LECYKaLbLcLdLeLfLgLhLiLjLkLlL <<*mLnLnL=2*2p|cdc<*2*2oL6|-*0:pLqLrLsLPKtLuLuLvLOKOKwL<L<LwL<L|LxL|LyLyLyLzLzLALBL/LCLDLEL                                                                                                                                                                                                                                                              ",
"                                                                                                                                                                                                                                                                                                                                                                                                                                                                                                                                                                                                                                                          FLGLHLILJLeLq0q0q0KLLLMLNLOLYJXJPLQLRLSL2Ad[/nc@^nY@{nC@C@e|c<*2e|e|e|C@c@<f##TLULVLVL^LwL<L/L/L/LULUL<L[L[LWLWLWLWL|LALXLBLYLZLUL`L M.M                                                                                                                                                                                                                                                              ",
"                                                                                                                                                                                                                                                                                                                                                                                                                                                                                                                                                                                                                                                          h6+M@M L LeLeLeLeLeL#M$MeLG4Dz2JZK5[%MMq&M;2<fd[:c-1*2c@S[-1e|-1-1-1-1c@c@<f##*MUL:L:LULVL:L:L:L:L:L:LULULULULULULULUL|LXLBL=M-M/L;M>M,M                                                                                                                                                                                                                                                              ",
"                                                                                                                                                                                                                                                                                                                                                                                                                                                                                                                                                                                                                                                          'M+M=xVJ LeLeLeLeLeL#M)MeL!M K2J2J~M{M]M^M/Mq|a:.[-1*2S[S[-1-1-1-1-1-1-1-1<f##*MUL:L:L:L:L:L:L:L:L:L:L:LULULULULULULULWLXL(M_M-M^L;M:M,M                                                                                                                                                                                                                                                              ",
"                                                                                                                                                                                                                                                                                                                                                                                                                                                                                                                                                                                                                                                          <M[M.L}M LeLeLeLeLeLq0$MeL!M|MVJXJ~M1M_r^M/M,@2M.[-1*2c@S[-1-1-1-1-1-1-1-1<f##*MULULULUL:L:L:L:L:L:L:L:LULULULULULULUL3M4M(M_M-M^L;M>M5M                                                                                                                                                                                                                                                              ",
"                                                                                                                                                                                                                                                                                                                                                                                                                                                                                                                                                                                                                                                          6M7M8M}M LeLeLeLeLeL#M$MeL!M|MVJVJ~M1M_r^Mn+,@2M.[-1~nc@S[-1-1-1-1-1-1-1-1<f##9M0MULULULULULULULULULULULULULULULULULUL3M4M(M_MaM^L;MbMcM                                                                                                                                                                                                                                                              ",
"                                                                                                                                                                                                                                                                                                                                                                                                                                                                                                                                                                                                                                                          dMeMfM}M LeLeLeLeLeLq0$MeL!M|MVJVJgM{M]M&Mn+,@2M.[0:*2c@S[-1-1-1-1-1-1-1-1<f##9M0MULUL0MULULULULULULULULULULULULULULUL3M4MxL_MhMiM;MjMkM                                                                                                                                                                                                                                                              ",
"                                                                                                                                                                                                                                                                                                                                                                                                                                                                                                                                                                                                                                                          dMlMv5VJ}MeLeLeLeLq0$M)MeL!M|MVJVJgL%MmMnMn+,@2M.[c@=1S[S[-1-1-1-1-1-1c@c@-1##9M0MULULULULULULULULULULULULULULULULULUL3MoMyL_MpMiM;MjMqM                                                                                                                                                                                                                                                              ",
"                                                                                                                                                                                                                                                                                                                                                                                                                                                                                                                                                                                                                                                          rMlMR<VJVJeLeLeLeLq0$MsM#M!M|MVJVJgLtMuMnMn+q|a:.[c@=1S[S[-1-1-1-1-1-1c@c@0:vM9M0MUL:LULULULULULULULULULULULULULULULUL3MwM|LxM(LiM;MjMqM                                                                                                                                                                                                                                                              ",
"                                                                                                                                                                                                                                                                                                                                                                                                                                                                                                                                                                                                                                                          'MyMzMVJ#MeL#M#M#MAMsMsM#M!M|MVJ#MBMCMmM&M/Mof.[i}0:=1c@S[0:-1-1-1-1-1c@c@c@vM9M0M:L:L:L:L:L:L:L:L:L:L:LULULULULULULUL3MoMxL_MhM^L;MbMDM                                                                                                                                                                                                                                                              ",
"                                                                                                                                                                                                                                                                                                                                                                                                                                                                                                                                                                                                                                                          EMFMfMVJ'zGMGMAMAMAMsM$MeLHMIMJMJMKMCMmM&M/Mof.[i}-1e|0:0:c@c@-1-1-1c@-1-1S[vM*MULVL:L:L:L:L:L:L:L:L:L:LULULULULULULUL3M4M(M_M-M^L;M:MLM                                                                                                                                                                                                                                                              ",
"                                                                                                                                                                                                                                                                                                                                                                                                                                                                                                                                                                                                                                                          MMNMR<JMJMGMAMAMAMsMsM$MeLHMIMJMJMKMCMuMnMn+,@a:.[c@=10:0:c@c@-1-1-1c@-1c@S[vMOMULUL:L:L:L:L:L:L:L:L:L:LULULULULULULULWLzLBL_M-M^LPMQMRM                                                                                                                                                                                                                                                              ",
"                                                                                                                                                                                                                                                                                                                                                                                                                                                                                                                                                                                                                                                          SMUJzMJMTMAMAMAMsMUM)M$MeLHMIMJMJMKMCMmM&MVMq|a:.[$f=10:0:c@c@-1-1-1c@-1c@S[vMWMULUL:L:L:L:L:L:L:L:L:L:LULULULULULULUL[LXMYM_M-M^LPMQMZM                                                                                                                                                                                                                                                              ",
"                                                                                                                                                                                                                                                                                                                                                                                                                                                                                                                                                                                                                                                          `M lfM N.N+NAMAMsMUM)M$MeLHMIMJMJMKMCM]M^M/Mnba:#<-1*20:S[c@c@-1-1-1c@-1c@S[##WM:L:LUL:L:L:L:L:L:L:L:L:LULULULULULULULWL@NxL_MaM^L;M:M#N                                                                                                                                                                                                                                                              ",
"                                                                                                                                                                                                                                                                                                                                                                                                                                                                                                                                                                                                                                                          $N-'v5 N.N+NAMAMsMUMUM$MeLHMIMJMJMKMCMMq&M/Mq|a:i}-1e|0:S[c@c@-1-1-1c@-1c@S[##WMULUL:L:L:L:L:L:L:L:L:L:LULULULULULULUL3M%N|L&NaM^L*NjM=N                                                                                                                                                                                                                                                              ",
"                                                                                                                                                                                                                                                                                                                                                                                                                                                                                                                                                                                                                                                          -N.lv5 N;NAMAMAMsMUMUM$MeLHMIMJMJMKMCMuM>Nn+,@2M.[c@=10:S[c@c@-1-1c@c@-1c@S[vMOMULUL:L:L:L:L:L:L:L:L:L:LULULULULULULUL3M%N|L,NaM^L*NjM=N                                                                                                                                                                                                                                                              ",
"                                                                                                                                                                                                                                                                                                                                                                                                                                                                                                                                                                                                                                                          'Nhf.LJMJMAMAM+N)N!NUM$M#MHMIM~NJMKMCMuM>N{Nq|]Ni}S[C@0:S[c@c@-1-1c@c@-1-1S[vM9M3M<L:L:L:L:L:L:L:L:L:L:LULULULULULULUL3M4MyL&NaMwLVL^N/N                                                                                                                                                                                                                                                              ",
"                                                                                                                                                                                                                                                                                                                                                                                                                                                                                                                                                                                                                                                          (N_Nv5JMTGAMTM:N<N+NsM;HJM[N[N}N|NAwCMMq1N/MFdc@_1c@=L-1C@C@C@c@=Lc@c@-1c@!n2N3N4N5N6N5N(M7N7N(M7N:L:L<L/L/L/LULUL/L^L8N9N0N8NaNbN=McNdN                                                                                                                                                                                                                                                              ",
"                                                                                                                                                                                                                                                                                                                                                                                                                                                                                                                                                                                                                                                          eNfNgN NTMhNiNgLKMjNGM;NkNlNmNmN}NgLtMnNoNn+]npN|c0202=1=1=1=10202u1u1S[S[MuqNrNsNtNuN9NvNzLzLvNzL(MwNxNyNyNyNwL;MNKNKzNANBNBNlICNDNENFN                                                                                                                                                                                                                                                              ",
"                                                                                                                                                                                                                                                                                                                                                                                                                                                                                                                                                                                                                                                          GNHN#6INJNKNGMAwLNMNhNhNNNONmNPN}NQNtMRNMAn+[eSN=2c@0:C@=1C@c@0202u1u1S[S[TNUN3NVNWNXNXLYNYNYNYNvNBLBLwNwNwNwN[L/L/L^LyNsNANZN`N O.O+O@O                                                                                                                                                                                                                                                              ",
"                                                                                                                                                                                                                                                                                                                                                                                                                                                                                                                                                                                                                                                          #O$O%OuJ.L:-p0YKMN&Od}*O;-E4=O-O~N;O>O,OMA'OoL2}e|ge0:S[c@02u1u1u1u1u1u1u10:)O!O4MzL~OBLcscscscs{O{O{OYLYLYLYLYL]O]OULULyN^O/O(O_O:O<O[O                                                                                                                                                                                                                                                              ",
"                                                                                                                                                                                                                                                                                                                                                                                                                                                                                                                                                                                                                                                            }OFM_N86|O1O.NMN2O3O4O5O6O7OfM'z8O>O9O0Ou*$fZ:]}aObOa:cOu1u1u1u1u1u1u1u10:dOeO]OYMYMYL{O{O{O{O{O{O{O{O{O{O{OYLNhNh]OfO^LtLgOhOiOjOkOlO                                                                                                                                                                                                                                                              ",
"                                                                                                                                                                                                                                                                                                                                                                                                                                                                                                                                                                                                                                                              mOnOoOpOqO|NTG.NrO4O5OF48MJMsOtOuOfhvO2MgeJ1wOxOyOlLa:a:a:zOzOu1u1-L/MM1dOAO_OBOBOCOCOCOCOCOCOCOBO_L]O]O]O]OYLYLYL_L^LDOEOFOGOHOIOJO                                                                                                                                                                                                                                                              ",
"                                                                                                                                                                                                                                                                                                                                                                                                                                                                                                                                                                                                                                                                KOl9LOMONOOOPO.NQO5OF46O NROSOuO}oVf2MTOUOVOUOWOXOa:a:S[d[u1u1u1u1u1q|dOYO_OBOCOpMZOZOZOZOZOZOpM(LULULULUL:L:L:L:LULPM`ODO PHOIO.P                                                                                                                                                                                                                                                              ",
"                                                                                                                                                                                                                                                                                                                                                                                                                                                                                                                                                                                                                                                                        +P@Pszgf N N#P#P$P%PSO&P&hvO*P&vJ1Q[f%VOi#+<+<.<+<c@c@c@c@02M1dO1a_MhMpMNK=P-P-P=PMKMKMKuL;P;P;P;P>P>P>PwNBLxL,P;MiO'P)P!P                                                                                                                                                                                                                                                              ",
"                                                                                                                                                                                                                                                                                                                                                                                                                                                                                                                                                                                                                                                                              ~PR5#qNO{PF'K=tO]PW:^P_A+</P@$@$@$@$@$Ee<*Ee.<c@c@c@c@0:##YO_MhM*NMK-P-P-P-P=P~L=PuL(P(P(P(PvL;PyN_P:P<PwMwN_L[P}P|P                                                                                                                                                                                                                                                              ",
"                                                                                                                                                                                                                                                                                                                                                                                                                                                                                                                                                                                                                                                                                      1P2PO=3P4PYp5PZz6P1#7P8Ps}d%'@p|yc<*s}s}s}9P <(nl#0P/L^L`LaPbPaPcPcP(P(P(P>PyN8NyN8NZNsNdPePfPgPhPXNiPjPkPlP                                                                                                                                                                                                                                                              ",
"                                                                                                                                                                                                                                                                                                                                                                                                                                                                                                                                                                                                                                                                                            mPnPx<oPpPqPrPsPtPM1_1e|2}uPuPmK92<c <`:+<vPwL^LNKtL(OwPxP8N3M3M8N8N(MiPiPyP(MbNyLzPAPBPCPDPEPFPrLGPHP                                                                                                                                                                                                                                                              ",
"                                                                                                                                                                                                                                                                                                                                                                                                                                                                                                                                                                                                                                                                                                  IPJPKPLPMP3CNPLAzOpKOPPPc@6|=*m&@<G2QPRPSPTPaP3MUPUPVPWPXPXPH0YPYL{O{OYPYPZPBL`P Q.Q+Q@Q#Q$Q%Q&Q                                                                                                                                                                                                                                                              ",
"                                                                                                                                                                                                                                                                                                                                                                                                                                                                                                                                                                                                                                                                                                        *Q=Q-Q;Q>Q,Q'Q)Q!QYf'*~Qa:SzoG{Q]Q^QbP/Q(Q_Q:Q_Q<Q[Q}QDN|Q.OBOCOhMhM_MxMxM1Q2Q3Q4Q5Q6Q7Q8Q                                                                                                                                                                                                                                                              ",
"                                                                                                                                                                                                                                                                                                                                                                                                                                                                                                                                                                                                                                                                                                                9Q0Qe+aQbQcQdQVfeQfQLIgQhQ^LiM;M:LDNDNiQjQkQlQmQnQoQpQqQrQsQtQuQvQwQxQyQzQAQBQCQ                                                                                                                                                                                                                                                                ",
"                                                                                                                                                                                                                                                                                                                                                                                                                                                                                                                                                                                                                                                                                                                      DQEQFQGQHQ0OZfE2IQJQKQ*NPMZOLQMQNQOQPQQQRQSQTQUQVQWQXQYQZQ`Q R.R                                                                                                                                                                                                                                                                          ",
"                                                                                                                                                                                                                                                                                                                                                                                                                                                                                                                                                                                                                                                                                                                              +R@R#R$R%R&I&RjP*R=R-R;R>R,R'R)R!R~R                                                                                                                                                                                                                                                                                              ",
"                                                                                                                                                                                                                                                                                                                                                                                                                                                                                                                                                                                                                                                                                                                                    {R]R^R/R(R_R:R                                                                                                                                                                                                                                                                                                              ",
"                                                                                                                                                                                                                                                                                                                                                                                                                                                                                                                                                                                                                                                                                                                                                                                                                                                                                                                                                                                                                                                                ",
"                                                                                                                                                                                                                                                                                                                                                                                                                                                                                                                                                                                                                                                                                                                                                                                                                                                                                                                                                                                                                                                                ",
"                                                                                                                                                                                                                                                                                                                                                                                                                                                                                                                                                                                                                                                                                                                                                                                                                                                                                                                                                                                                                                                                ",
"                                                                                                                                                                                                                                                                                                                                                                                                                                                                                                                                                                                                                                                                                                                                                                                                                                                                                                                                                                                                                                                                ",
"                                                                                                                                                                                                                                                                                                                                                                                                                                                                                                                                                                                                                                                                                                                                                                                                                                                                                                                                                                                                                                                                ",
"                                                                                                                                                                                                                                                                                                                                                                                                                                                                                                                                                                                                                                                                                                                                                                                                                                                                                                                                                                                                                                                                ",
"                                                                                                                                                                                                                                                                                                                                                                                                                                                                                                                                                                                                                                                                                                                                                                                                                                                                                                                                                                                                                                                                ",
"                                                                                                                                                                                                                                                                                                                                                                                                                                                                                                                                                                                                                                                                                                                                                                                                                                                                                                                                                                                                                                                                ",
"                                                                                                                                                                                                                                                                                                                                                                                                                                                                                                                                                                                                                                                                                                                                                                                                                                                                                                                                                                                                                                                                ",
"                                                                                                                                                                                                                                                                                                                                                                                                                                                                                                                                                                                                                                                                                                                                                                                                                                                                                                                                                                                                                                                                ",
"                                                                                                                                                                                                                                                                                                                                                                                                                                                                                                                                                                                                                                                                                                                                                                                                                                                                                                                                                                                                                                                                ",
"                                                                                                                                                                                                                                                                                                                                                                                                                                                                                                                                                                                                                                                                                                                                                                                                                                                                                                                                                                                                                                                                ",
"                                                                                                                                                                                                                                                                                                                                                                                                                                                                                                                                                                                                                                                                                                                                                                                                                                                                                                                                                                                                                                                                ",
"                                                                                                                                                                                                                                                                                                                                                                                                                                                                                                                                                                                                                                                                                                                                                                                                                                                                                                                                                                                                                                                                ",
"                                                                                                                                                                                                                                                                                                                                                                                                                                                                                                                                                                                                                                                                                                                                                                                                                                                                                                                                                                                                                                                                ",
"                                                                                                                                                                                                                                                                                                                                                                                                                                                                                                                                                                                                                                                                                                                                                                                                                                                                                                                                                                                                                                                                ",
"                                                                                                                                                                                                                                                                                                                                                                                                                                                                                                                                                                                                                                                                                                                                                                                                                                                                                                                                                                                                                                                                ",
"                                                                                                                                                                                                                                                                                                                                                                                                                                                                                                                                                                                                                                                                                                                                                                                                                                                                                                                                                                                                                                                                ",
"                                                                                                                                                                                                                                                                                                                                                                                                                                                                                                                                                                                                                                                                                                                                                                                                                                                                                                                                                                                                                                                                ",
"                                                                                                                                                                                                                                                                                                                                                                                                                                                                                                                                                                                                                                                                                                                                                                                                                                                                                                                                                                                                                                                                ",
"                                                                                                                                                                                                                                                                                                                                                                                                                                                                                                                                                                                                                                                                                                                                                                                                                                                                                                                                                                                                                                                                ",
"                                                                                                                                                                                                                                                                                                                                                                                                                                                                                                                                                                                                                                                                                                                                                                                                                                                                                                                                                                                                                                                                ",
"                                                                                                                                                                                                                                                                                                                                                                                                                                                                                                                                                                                                                                                                                                                                                                                                                                                                                                                                                                                                                                                                ",
"                                                                                                                                                                                                                                                                                                                                                                                                                                                                                                                                                                                                                                                                                                                                                                                                                                                                                                                                                                                                                                                                ",
"                                                                                                                                                                                                                                                                                                                                                                                                                                                                                                                                                                                                                                                                                                                                                                                                                                                                                                                                                                                                                                                                ",
"                                                                                                                                                                                                                                                                                                                                                                                                                                                                                                                                                                                                                                                                                                                                                                                                                                                                                                                                                                                                                                                                ",
"                                                                                                                                                                                                                                                                                                                                                                                                                                                                                                                                                                                                                                                                                                                                                                                                                                                                                                                                                                                                                                                                ",
"                                                                                                                                                                                                                                                                                                                                                                                                                                                                                                                                                                                                                                                                                                                                                                                                                                                                                                                                                                                                                                                                ",
"                                                                                                                                                                                                                                                                                                                                                                                                                                                                                                                                                                                                                                                                                                                                                                                                                                                                                                                                                                                                                                                                ",
"                                                                                                                                                                                                                                                                                                                                                                                                                                                                                                                                                                                                                                                                                                                                                                                                                                                                                                                                                                                                                                                                ",
"                                                                                                                                                                                                                                                                                                                                                                                                                                                                                                                                                                                                                                                                                                                                                                                                                                                                                                                                                                                                                                                                ",
"                                                                                                                                                                                                                                                                                                                                                                                                                                                                                                                                                                                                                                                                                                                                                                                                                                                                                                                                                                                                                                                                ",
"                                                                                                                                                                                                                                                                                                                                                                                                                                                                                                                                                                                                                                                                                                                                                                                                                                                                                                                                                                                                                                                                ",
"                                                                                                                                                                                                                                                                                                                                                                                                                                                                                                                                                                                                                                                                                                                                                                                                                                                                                                                                                                                                                                                                ",
"                                                                                                                                                                                                                                                                                                                                                                                                                                                                                                                                                                                                                                                                                                                                                                                                                                                                                                                                                                                                                                                                ",
"                                                                                                                                                                                                                                                                                                                                                                                                                                                                                                                                                                                                                                                                                                                                                                                                                                                                                                                                                                                                                                                                ",
"                                                                                                                                                                                                                                                                                                                                                                                                                                                                                                                                                                                                                                                                                                                                                                                                                                                                                                                                                                                                                                                                "};
