/* XPM */
static char * pickage_xpm[] = {
"128 128 1119 2",
"   c None",
". 	c #545454",
"+ 	c #4F4F4F",
"@ 	c #4B4B4B",
"# 	c #515151",
"$ 	c #565656",
"% 	c #5F5F5F",
"& 	c #5C5C5C",
"* 	c #5D5D5D",
"= 	c #505050",
"- 	c #474747",
"; 	c #464646",
"> 	c #454545",
", 	c #4C4C4C",
"' 	c #525252",
") 	c #575757",
"! 	c #4E4E4E",
"~ 	c #4A4A4A",
"{ 	c #4D4D4D",
"] 	c #5A5A5A",
"^ 	c #484848",
"/ 	c #535353",
"( 	c #5B5B5B",
"_ 	c #595959",
": 	c #494949",
"< 	c #606060",
"[ 	c #848484",
"} 	c #ACACAC",
"| 	c #CFCFCF",
"1 	c #E9E9E9",
"2 	c #CBCBCB",
"3 	c #6D6D6D",
"4 	c #969696",
"5 	c #B8B8B8",
"6 	c #CCCCCC",
"7 	c #D8D8D8",
"8 	c #ECECEC",
"9 	c #FBFBFB",
"0 	c #FAFAFA",
"a 	c #CECECE",
"b 	c #747474",
"c 	c #919191",
"d 	c #A3A3A3",
"e 	c #B1B1B1",
"f 	c #BEBEBE",
"g 	c #C3C3C3",
"h 	c #D9D9D9",
"i 	c #555555",
"j 	c #8F8F8F",
"k 	c #939393",
"l 	c #AFAFAF",
"m 	c #C6C6C6",
"n 	c #C2C2C2",
"o 	c #EBEBEB",
"p 	c #52504A",
"q 	c #9E9E9E",
"r 	c #DADADA",
"s 	c #DBDBDB",
"t 	c #C4C4C4",
"u 	c #706247",
"v 	c #554834",
"w 	c #49391D",
"x 	c #4B4340",
"y 	c #474647",
"z 	c #C5C5C5",
"A 	c #675027",
"B 	c #6B5120",
"C 	c #654F21",
"D 	c #4D3917",
"E 	c #4C3817",
"F 	c #4B381A",
"G 	c #494340",
"H 	c #464647",
"I 	c #9D9D9D",
"J 	c #685124",
"K 	c #6C4F24",
"L 	c #654E25",
"M 	c #4C391C",
"N 	c #4B391A",
"O 	c #49391B",
"P 	c #48453F",
"Q 	c #424242",
"R 	c #404040",
"S 	c #3D3D3D",
"T 	c #3B3B3B",
"U 	c #414141",
"V 	c #444444",
"W 	c #695223",
"X 	c #6B5122",
"Y 	c #664F1F",
"Z 	c #4C3919",
"` 	c #4C3918",
" .	c #494441",
"..	c #D5D5D5",
"+.	c #CACACA",
"@.	c #B4B4B4",
"#.	c #959595",
"$.	c #5E5E5E",
"%.	c #353535",
"&.	c #333333",
"*.	c #343434",
"=.	c #373737",
"-.	c #6A5125",
";.	c #6A5123",
">.	c #664E22",
",.	c #4D3919",
"'.	c #4A3919",
").	c #4A443D",
"!.	c #C1C1C1",
"~.	c #B9B9B9",
"{.	c #AAAAAA",
"].	c #9B9B9B",
"^.	c #8D8D8D",
"/.	c #707070",
"(.	c #3A3A3A",
"_.	c #3C3C3C",
":.	c #6B5023",
"<.	c #684E21",
"[.	c #4B3A1A",
"}.	c #4B391B",
"|.	c #4B381D",
"1.	c #49443E",
"2.	c #D7D7D7",
"3.	c #D3D3D3",
"4.	c #989898",
"5.	c #898989",
"6.	c #727272",
"7.	c #695023",
"8.	c #695124",
"9.	c #664F24",
"0.	c #4E3916",
"a.	c #523B15",
"b.	c #54401D",
"c.	c #77736F",
"d.	c #8F8F90",
"e.	c #BABABA",
"f.	c #434343",
"g.	c #574322",
"h.	c #4E3B1C",
"i.	c #806330",
"j.	c #86672B",
"k.	c #866930",
"l.	c #BFB8AE",
"m.	c #2B2313",
"n.	c #2B2113",
"o.	c #3D2F16",
"p.	c #89682D",
"q.	c #8B692B",
"r.	c #8A682A",
"s.	c #BCB9B0",
"t.	c #2A2313",
"u.	c #2B2214",
"v.	c #88682D",
"w.	c #2A2212",
"x.	c #3C2E15",
"y.	c #88682C",
"z.	c #2B2215",
"A.	c #3B2E15",
"B.	c #87692B",
"C.	c #8A692A",
"D.	c #89682B",
"E.	c #BBB9AF",
"F.	c #C3C4C2",
"G.	c #C2C3C3",
"H.	c #C2C2C3",
"I.	c #C1C2C2",
"J.	c #C3C4C3",
"K.	c #464645",
"L.	c #454546",
"M.	c #626262",
"N.	c #686868",
"O.	c #696969",
"P.	c #6E6E6E",
"Q.	c #6A6A6A",
"R.	c #896732",
"S.	c #8B692A",
"T.	c #8A682B",
"U.	c #BDB9AC",
"V.	c #C2C3C1",
"W.	c #C2C3C6",
"X.	c #C5C2C4",
"Y.	c #C4C2C3",
"Z.	c #C4C3C3",
"`.	c #C5C3C3",
" +	c #525051",
".+	c #444344",
"++	c #414140",
"@+	c #3E3E3C",
"#+	c #3E3C3C",
"$+	c #3B3939",
"%+	c #4E4D4C",
"&+	c #666664",
"*+	c #6B6B6A",
"=+	c #717171",
"-+	c #757575",
";+	c #777777",
">+	c #7C7C7C",
",+	c #2A2114",
"'+	c #2B2213",
")+	c #3C2D17",
"!+	c #876732",
"~+	c #87692C",
"{+	c #876E3D",
"]+	c #C2BAB4",
"^+	c #C9C9CB",
"/+	c #CBCCCE",
"(+	c #B8B2AC",
"_+	c #8D8479",
":+	c #857C70",
"<+	c #6F675A",
"[+	c #3D3525",
"}+	c #322C20",
"|+	c #2F2C20",
"1+	c #302C21",
"2+	c #332D24",
"3+	c #373029",
"4+	c #55524F",
"5+	c #37302C",
"6+	c #39362D",
"7+	c #524C43",
"8+	c #B8AEA1",
"9+	c #C2B9AF",
"0+	c #C4C0B8",
"a+	c #D5D7D4",
"b+	c #DADAD8",
"c+	c #D9DAD7",
"d+	c #ACA69A",
"e+	c #4A391B",
"f+	c #4B3819",
"g+	c #49381E",
"h+	c #463824",
"i+	c #3B3223",
"j+	c #3A3226",
"k+	c #3B3326",
"l+	c #3D3529",
"m+	c #40372B",
"n+	c #474546",
"o+	c #454743",
"p+	c #585A5A",
"q+	c #C1C1C4",
"r+	c #C3C3C2",
"s+	c #C1C4C1",
"t+	c #D8D5D8",
"u+	c #DAD8D9",
"v+	c #D9D9DA",
"w+	c #ACA69D",
"x+	c #49381C",
"y+	c #493C26",
"z+	c #433929",
"A+	c #3F362B",
"B+	c #3F362C",
"C+	c #443A2C",
"D+	c #585959",
"E+	c #D6D6D6",
"F+	c #D8DAD9",
"G+	c #ABA59D",
"H+	c #493919",
"I+	c #4B381C",
"J+	c #4B3D2A",
"K+	c #473C2D",
"L+	c #41392B",
"M+	c #3F372B",
"N+	c #42382C",
"O+	c #473B2D",
"P+	c #4B371C",
"Q+	c #49381B",
"R+	c #4D3F2B",
"S+	c #483D2E",
"T+	c #433A2C",
"U+	c #41372B",
"V+	c #453A2D",
"W+	c #585858",
"X+	c #453B2B",
"Y+	c #463A2C",
"Z+	c #C3C2C3",
"`+	c #D5D5D6",
" @	c #ACA59E",
".@	c #493918",
"+@	c #4A371C",
"@@	c #48381B",
"#@	c #4A3C28",
"$@	c #463A2B",
"%@	c #473B2A",
"&@	c #493C2C",
"*@	c #C1C1C2",
"=@	c #C3C2C1",
"-@	c #C3C1C5",
";@	c #D6D5D4",
">@	c #DAD9D8",
",@	c #D7D8D3",
"'@	c #A69F96",
")@	c #4F3D18",
"!@	c #523F1C",
"~@	c #55421F",
"{@	c #4A3B22",
"]@	c #483822",
"^@	c #4A3920",
"/@	c #4B3C27",
"(@	c #4B3E2E",
"_@	c #4D3F2F",
":@	c #55493B",
"<@	c #4C4236",
"[@	c #A7A7A7",
"}@	c #ADADAD",
"|@	c #C1C3C3",
"1@	c #C5C2C2",
"2@	c #777470",
"3@	c #474038",
"4@	c #2F291C",
"5@	c #4C3A1F",
"6@	c #695022",
"7@	c #6A4E24",
"8@	c #6A4F25",
"9@	c #4D3A18",
"0@	c #4A3819",
"a@	c #493819",
"b@	c #4B3C24",
"c@	c #4F412E",
"d@	c #51422F",
"e@	c #52422E",
"f@	c #514230",
"g@	c #51412F",
"h@	c #4F4131",
"i@	c #737373",
"j@	c #C2C3C4",
"k@	c #C1C3C1",
"l@	c #C4C2C0",
"m@	c #58534C",
"n@	c #2A2312",
"o@	c #4C3A1D",
"p@	c #6A5022",
"q@	c #6A4F24",
"r@	c #695026",
"s@	c #4C3B1A",
"t@	c #48391B",
"u@	c #4C3D23",
"v@	c #51422E",
"w@	c #52432F",
"x@	c #4F4230",
"y@	c #4F4232",
"z@	c #C3C2C2",
"A@	c #C4C2C2",
"B@	c #58534E",
"C@	c #2B2312",
"D@	c #4C391E",
"E@	c #6A4F23",
"F@	c #4E3A19",
"G@	c #4B371B",
"H@	c #4C3C24",
"I@	c #524330",
"J@	c #534230",
"K@	c #53422F",
"L@	c #50432F",
"M@	c #51432C",
"N@	c #504331",
"O@	c #C3C3C1",
"P@	c #58544E",
"Q@	c #2C2113",
"R@	c #2B2212",
"S@	c #6A5023",
"T@	c #685025",
"U@	c #52422F",
"V@	c #52412C",
"W@	c #514331",
"X@	c #C3C1C2",
"Y@	c #C4C3C1",
"Z@	c #6A4E22",
"`@	c #685024",
" #	c #4D3A19",
".#	c #4C3E23",
"+#	c #50432E",
"@#	c #50422F",
"##	c #4F4231",
"$#	c #504231",
"%#	c #504333",
"&#	c #59554F",
"*#	c #694F22",
"=#	c #6A4F22",
"-#	c #49381A",
";#	c #4D3C26",
">#	c #504131",
",#	c #4E4132",
"'#	c #50412F",
")#	c #4D4130",
"!#	c #4E4232",
"~#	c #2C2114",
"{#	c #674F25",
"]#	c #655025",
"^#	c #4F3B18",
"/#	c #4F3A19",
"(#	c #513C18",
"_#	c #523E21",
":#	c #4F3F29",
"<#	c #4D3D29",
"[#	c #4D3D28",
"}#	c #4D3E2D",
"|#	c #50402E",
"1#	c #6C6C6C",
"2#	c #D0D0D0",
"3#	c #C8C8C8",
"4#	c #888787",
"5#	c #828281",
"6#	c #41413F",
"7#	c #27251F",
"8#	c #282521",
"9#	c #322A1D",
"0#	c #3A2C15",
"a#	c #382B15",
"b#	c #362811",
"c#	c #7C612D",
"d#	c #86652F",
"e#	c #86672C",
"f#	c #745B29",
"g#	c #503F29",
"h#	c #564532",
"i#	c #554432",
"j#	c #534433",
"k#	c #534630",
"l#	c #564434",
"m#	c #534633",
"n#	c #676767",
"o#	c #2C2C29",
"p#	c #2D2B2C",
"q#	c #2F2A24",
"r#	c #2D2010",
"s#	c #81652D",
"t#	c #8B672D",
"u#	c #896829",
"v#	c #765C26",
"w#	c #4A371A",
"x#	c #503F27",
"y#	c #554431",
"z#	c #544432",
"A#	c #54452D",
"B#	c #574332",
"C#	c #534530",
"D#	c #666666",
"E#	c #3E3E3E",
"F#	c #333332",
"G#	c #2F2E31",
"H#	c #302C26",
"I#	c #4B381B",
"J#	c #49371A",
"K#	c #503E27",
"L#	c #53452C",
"M#	c #564332",
"N#	c #544530",
"O#	c #3F3F3F",
"P#	c #373936",
"Q#	c #343334",
"R#	c #302D26",
"S#	c #2D2110",
"T#	c #544330",
"U#	c #534331",
"V#	c #53442C",
"W#	c #564231",
"X#	c #383837",
"Y#	c #312F29",
"Z#	c #292314",
"`#	c #2A2214",
" $	c #2E1F12",
".$	c #80642C",
"+$	c #8B672B",
"@$	c #896828",
"#$	c #775B28",
"$$	c #4C3719",
"%$	c #48391A",
"&$	c #503E28",
"*$	c #55422F",
"=$	c #524433",
"-$	c #656565",
";$	c #3C3B3B",
">$	c #37342E",
",$	c #2A2310",
"'$	c #2E200E",
")$	c #80642B",
"!$	c #8C672A",
"~$	c #8A6827",
"{$	c #755B29",
"]$	c #4A381A",
"^$	c #4F3E27",
"/$	c #524430",
"($	c #51432E",
"_$	c #524230",
":$	c #504332",
"<$	c #504335",
"[$	c #3F3E3E",
"}$	c #3A3732",
"|$	c #2B2115",
"1$	c #301F13",
"2$	c #81632E",
"3$	c #8B6729",
"4$	c #8B6828",
"5$	c #765A2A",
"6$	c #4B3818",
"7$	c #4E3C26",
"8$	c #4F402D",
"9$	c #4D402C",
"0$	c #4F3F2D",
"a$	c #4E402E",
"b$	c #4F4233",
"c$	c #403F3E",
"d$	c #36332D",
"e$	c #343327",
"f$	c #36312C",
"g$	c #6A582D",
"h$	c #6C5627",
"i$	c #6C562C",
"j$	c #644F2A",
"k$	c #56411C",
"l$	c #55411B",
"m$	c #55411C",
"n$	c #523F22",
"o$	c #4D3C23",
"p$	c #4B3C21",
"q$	c #4D3C24",
"r$	c #52422D",
"s$	c #524431",
"t$	c #646464",
"u$	c #484847",
"v$	c #454644",
"w$	c #382F25",
"x$	c #2D2012",
"y$	c #45341B",
"z$	c #664F22",
"A$	c #684E22",
"B$	c #674F21",
"C$	c #594420",
"D$	c #513F28",
"E$	c #564530",
"F$	c #554530",
"G$	c #544534",
"H$	c #564432",
"I$	c #544735",
"J$	c #636363",
"K$	c #383026",
"L$	c #2B2112",
"M$	c #44341C",
"N$	c #665020",
"O$	c #684E23",
"P$	c #674F20",
"Q$	c #5A441F",
"R$	c #4A381B",
"S$	c #56452F",
"T$	c #554533",
"U$	c #554731",
"V$	c #383126",
"W$	c #5A4520",
"X$	c #483819",
"Y$	c #55452F",
"Z$	c #554532",
"`$	c #48381A",
" %	c #554331",
".%	c #55442F",
"+%	c #564331",
"@%	c #544630",
"#%	c #4B4A4A",
"$%	c #383127",
"%%	c #44341A",
"&%	c #664F21",
"*%	c #674F22",
"=%	c #5A4420",
"-%	c #4A371B",
";%	c #544233",
">%	c #534330",
",%	c #534431",
"'%	c #54452F",
")%	c #554330",
"!%	c #544532",
"~%	c #373228",
"{%	c #2C2212",
"]%	c #2B2117",
"^%	c #44341B",
"/%	c #684E20",
"(%	c #684F21",
"_%	c #47391A",
":%	c #483A18",
"<%	c #524331",
"[%	c #524536",
"}%	c #CDCDCD",
"|%	c #363129",
"1%	c #2B2217",
"2%	c #2B2219",
"3%	c #43351E",
"4%	c #664F26",
"5%	c #674E22",
"6%	c #59451E",
"7%	c #4E3D26",
"8%	c #4F402B",
"9%	c #4F3F2B",
"0%	c #503E2D",
"a%	c #503F2E",
"b%	c #514130",
"c%	c #514335",
"d%	c #43351B",
"e%	c #47371B",
"f%	c #48381D",
"g%	c #5D4823",
"h%	c #6D5226",
"i%	c #694F26",
"j%	c #644D21",
"k%	c #594421",
"l%	c #4E3D25",
"m%	c #4F3D24",
"n%	c #504027",
"o%	c #51412A",
"p%	c #4B4B4C",
"q%	c #2A2216",
"r%	c #2B2016",
"s%	c #614C25",
"t%	c #89672C",
"u%	c #886829",
"v%	c #856829",
"w%	c #695123",
"x%	c #4A3818",
"y%	c #4E3D23",
"z%	c #57462F",
"A%	c #58452F",
"B%	c #564634",
"C%	c #564633",
"D%	c #554635",
"E%	c #2B2114",
"F%	c #2B2116",
"G%	c #624C23",
"H%	c #87662A",
"I%	c #876828",
"J%	c #88672A",
"K%	c #564531",
"L%	c #564632",
"M%	c #87672A",
"N%	c #876728",
"O%	c #4E3D24",
"P%	c #554531",
"Q%	c #493718",
"R%	c #48371A",
"S%	c #4E3C24",
"T%	c #564431",
"U%	c #554430",
"V%	c #2C2115",
"W%	c #624D23",
"X%	c #4A3718",
"Y%	c #54442E",
"Z%	c #544430",
"`%	c #544431",
" &	c #EDEDED",
".&	c #DDDDDD",
"+&	c #2C2213",
"@&	c #624D25",
"#&	c #87662D",
"$&	c #89672A",
"%&	c #483919",
"&&	c #4D3D25",
"*&	c #52432E",
"=&	c #534332",
"-&	c #6B6B6B",
";&	c #F9F9F9",
">&	c #EFEFEF",
",&	c #2D281E",
"'&	c #2B2518",
")&	c #2A2316",
"!&	c #614E23",
"~&	c #85682A",
"{&	c #6B5025",
"]&	c #47381D",
"^&	c #48381C",
"/&	c #4B3B24",
"(&	c #4E402B",
"_&	c #503F2D",
":&	c #50422E",
"<&	c #524231",
"[&	c #544022",
"}&	c #5B4725",
"|&	c #634D28",
"1&	c #5E4821",
"2&	c #53401B",
"3&	c #4F3E1C",
"4&	c #513A1A",
"5&	c #4E3C1F",
"6&	c #4C3C21",
"7&	c #4E3B22",
"8&	c #4D3D23",
"9&	c #4E3E25",
"0&	c #53412B",
"a&	c #2A2119",
"b&	c #4F3D20",
"c&	c #654F20",
"d&	c #5C4723",
"e&	c #4C391B",
"f&	c #4E3B1D",
"g&	c #503E20",
"h&	c #59472B",
"i&	c #5B4830",
"j&	c #605242",
"k&	c #645748",
"l&	c #605344",
"m&	c #5C4E3F",
"n&	c #645849",
"o&	c #292213",
"p&	c #4F3E1F",
"q&	c #674E20",
"r&	c #5C4720",
"s&	c #49381D",
"t&	c #4A391F",
"u&	c #554632",
"v&	c #615343",
"w&	c #49371D",
"x&	c #605342",
"y&	c #F8F8F8",
"z&	c #F0F0F0",
"A&	c #48371C",
"B&	c #4A381F",
"C&	c #56442F",
"D&	c #2C2116",
"E&	c #4F3E1E",
"F&	c #664E1F",
"G&	c #2D2115",
"H&	c #503D1D",
"I&	c #694E20",
"J&	c #654F1F",
"K&	c #5C4721",
"L&	c #49371C",
"M&	c #48371B",
"N&	c #49391F",
"O&	c #53442F",
"P&	c #53432F",
"Q&	c #534432",
"R&	c #615344",
"S&	c #2C251A",
"T&	c #292214",
"U&	c #684D22",
"V&	c #694D20",
"W&	c #5F4521",
"X&	c #47381C",
"Y&	c #51432D",
"Z&	c #51412C",
"`&	c #514332",
" *	c #5F5346",
".*	c #564A34",
"+*	c #564522",
"@*	c #604B25",
"#*	c #594621",
"$*	c #4A3814",
"%*	c #49371B",
"&*	c #4E3E28",
"**	c #4E3C29",
"=*	c #4F3E29",
"-*	c #5E5145",
";*	c #2D2111",
">*	c #564422",
",*	c #7D612C",
"'*	c #785B2A",
")*	c #6E5727",
"!*	c #634E27",
"~*	c #503D1E",
"{*	c #523E1F",
"]*	c #523E1E",
"^*	c #523F1E",
"/*	c #524124",
"(*	c #665642",
"_*	c #8F877C",
":*	c #584621",
"<*	c #886629",
"[*	c #85662B",
"}*	c #876628",
"|*	c #7E612D",
"1*	c #4A3716",
"2*	c #4E3B1B",
"3*	c #554328",
"4*	c #5A4830",
"5*	c #5C4C35",
"6*	c #60503D",
"7*	c #5C4C39",
"8*	c #594935",
"9*	c #574734",
"0*	c #85672A",
"a*	c #886628",
"b*	c #7E612C",
"c*	c #524029",
"d*	c #574531",
"e*	c #7D602B",
"f*	c #4A3816",
"g*	c #564533",
"h*	c #292115",
"i*	c #86672A",
"j*	c #292317",
"k*	c #594623",
"l*	c #866727",
"m*	c #7D612B",
"n*	c #493916",
"o*	c #49361C",
"p*	c #514029",
"q*	c #544331",
"r*	c #2A2112",
"s*	c #2A2115",
"t*	c #584623",
"u*	c #866629",
"v*	c #88652A",
"w*	c #88652D",
"x*	c #7F602E",
"y*	c #4A361C",
"z*	c #49361D",
"A*	c #483719",
"B*	c #48371D",
"C*	c #504029",
"D*	c #3B352D",
"E*	c #312B22",
"F*	c #5B4B2B",
"G*	c #84662C",
"H*	c #876626",
"I*	c #886624",
"J*	c #7D6228",
"K*	c #4B3717",
"L*	c #4E3E27",
"M*	c #51402B",
"N*	c #50412B",
"O*	c #50412C",
"P*	c #514232",
"Q*	c #4F3D1E",
"R*	c #5E4B25",
"S*	c #6C5628",
"T*	c #705A2F",
"U*	c #4A3918",
"V*	c #493719",
"W*	c #4C3C22",
"X*	c #4B3B23",
"Y*	c #4B3C22",
"Z*	c #4B3B22",
"`*	c #4C3C25",
" =	c #4F3E2A",
".=	c #51402F",
"+=	c #2B2015",
"@=	c #382911",
"#=	c #634D26",
"$=	c #614A20",
"%=	c #5D461F",
"&=	c #584320",
"*=	c #503D20",
"==	c #4E3B1F",
"-=	c #513D1E",
";=	c #523D1D",
">=	c #523D1C",
",=	c #513E1E",
"'=	c #574428",
")=	c #7D7266",
"!=	c #999086",
"~=	c #292316",
"{=	c #372A13",
"]=	c #664E23",
"^=	c #654E23",
"/=	c #493818",
"(=	c #4B3919",
"_=	c #4E3C1C",
":=	c #513F1F",
"<=	c #5B492C",
"[=	c #5F4E36",
"}=	c #675746",
"|=	c #675848",
"1=	c #635545",
"2=	c #5E5040",
"3=	c #584C3D",
"4=	c #2A2215",
"5=	c #292216",
"6=	c #382A14",
"7=	c #654E26",
"8=	c #654E21",
"9=	c #674E23",
"0=	c #55401E",
"a=	c #47371C",
"b=	c #54442C",
"c=	c #574630",
"d=	c #382A15",
"e=	c #664E26",
"f=	c #664E21",
"g=	c #54401F",
"h=	c #2A2314",
"i=	c #372A14",
"j=	c #664E20",
"k=	c #54411E",
"l=	c #53432D",
"m=	c #2A2217",
"n=	c #292315",
"o=	c #362A13",
"p=	c #54401E",
"q=	c #54432E",
"r=	c #534430",
"s=	c #544531",
"t=	c #292417",
"u=	c #292313",
"v=	c #362A14",
"w=	c #654D26",
"x=	c #664E24",
"y=	c #37332D",
"z=	c #38332C",
"A=	c #392C1B",
"B=	c #664D28",
"C=	c #654E24",
"D=	c #52412E",
"E=	c #50412E",
"F=	c #43351D",
"G=	c #4D3C1D",
"H=	c #564421",
"I=	c #5E4C28",
"J=	c #534020",
"K=	c #46381D",
"L=	c #46391C",
"M=	c #483721",
"N=	c #4D3E25",
"O=	c #4D3B25",
"P=	c #4B3B26",
"Q=	c #4C3D29",
"R=	c #4E3E2C",
"S=	c #514231",
"T=	c #282118",
"U=	c #2D2211",
"V=	c #2F2312",
"W=	c #65502B",
"X=	c #705828",
"Y=	c #634C20",
"Z=	c #57411A",
"`=	c #503918",
" -	c #4F3C21",
".-	c #504127",
"+-	c #272217",
"@-	c #2A2318",
"#-	c #6D5729",
"$-	c #856529",
"%-	c #86642E",
"&-	c #85652E",
"*-	c #816331",
"=-	c #54401C",
"--	c #503D1F",
";-	c #57431F",
">-	c #58441F",
",-	c #5A4624",
"'-	c #67563E",
")-	c #827666",
"!-	c #877D6F",
"~-	c #857A6E",
"{-	c #7F756A",
"]-	c #7B7165",
"^-	c #2A2315",
"/-	c #6F552B",
"(-	c #876529",
"_-	c #86642C",
":-	c #523E1B",
"<-	c #4A361B",
"[-	c #4F3B1D",
"}-	c #5C482F",
"|-	c #5B4A36",
"1-	c #594A39",
"2-	c #564832",
"3-	c #564631",
"4-	c #574633",
"5-	c #564831",
"6-	c #282219",
"7-	c #2C2217",
"8-	c #2B2218",
"9-	c #2C2318",
"0-	c #6E552C",
"a-	c #86652A",
"b-	c #846629",
"c-	c #85652B",
"d-	c #83662B",
"e-	c #49371E",
"f-	c #48381E",
"g-	c #574634",
"h-	c #564732",
"i-	c #292219",
"j-	c #2B2316",
"k-	c #6E562A",
"l-	c #85652A",
"m-	c #85652C",
"n-	c #83652B",
"o-	c #533D1E",
"p-	c #49381F",
"q-	c #574632",
"r-	c #292319",
"s-	c #2C2317",
"t-	c #2C2319",
"u-	c #85662A",
"v-	c #4A371E",
"w-	c #564630",
"x-	c #2A231A",
"y-	c #2C2417",
"z-	c #86652B",
"A-	c #433F38",
"B-	c #2E2920",
"C-	c #2C2415",
"D-	c #6E5729",
"E-	c #87652C",
"F-	c #84642D",
"G-	c #533E1E",
"H-	c #48371E",
"I-	c #574733",
"J-	c #574631",
"K-	c #564731",
"L-	c #675532",
"M-	c #775F2B",
"N-	c #80662F",
"O-	c #87652E",
"P-	c #856431",
"Q-	c #533E1C",
"R-	c #48381F",
"S-	c #4B371D",
"T-	c #4B381F",
"U-	c #57452F",
"V-	c #564733",
"W-	c #362D23",
"X-	c #312416",
"Y-	c #382A18",
"Z-	c #564123",
"`-	c #67522E",
" ;	c #523E1D",
".;	c #4A381E",
"+;	c #493820",
"@;	c #332E27",
"#;	c #2C261B",
"$;	c #2A261C",
"%;	c #2F2615",
"&;	c #5F4928",
"*;	c #624C24",
"=;	c #5A4724",
"-;	c #53401E",
";;	c #4E3D1F",
">;	c #59472F",
",;	c #5C4A31",
"';	c #5E4B31",
");	c #604E32",
"!;	c #624F32",
"~;	c #655032",
"{;	c #665337",
"];	c #343025",
"^;	c #2D2619",
"/;	c #2E251B",
"(;	c #2E2619",
"_;	c #302519",
":;	c #604A26",
"<;	c #665124",
"[;	c #715935",
"};	c #735A37",
"|;	c #735A36",
"1;	c #735B35",
"2;	c #735B34",
"3;	c #745A33",
"4;	c #725B38",
"5;	c #343029",
"6;	c #2E261B",
"7;	c #2D261B",
"8;	c #2F261A",
"9;	c #5F4C26",
"0;	c #675026",
"a;	c #664F25",
"b;	c #725A34",
"c;	c #725B37",
"d;	c #2E261C",
"e;	c #30271A",
"f;	c #674F27",
"g;	c #745B34",
"h;	c #735C37",
"i;	c #343028",
"j;	c #2F271D",
"k;	c #2F261E",
"l;	c #2E271B",
"m;	c #31271B",
"n;	c #664F27",
"o;	c #725B36",
"p;	c #332F27",
"q;	c #30271E",
"r;	c #2E271D",
"s;	c #30271C",
"t;	c #5F4D26",
"u;	c #675025",
"v;	c #665026",
"w;	c #735934",
"x;	c #735A33",
"y;	c #735A34",
"z;	c #735A35",
"A;	c #735B36",
"B;	c #755A34",
"C;	c #725B35",
"D;	c #322F29",
"E;	c #2F2920",
"F;	c #30281D",
"G;	c #2E291E",
"H;	c #30281B",
"I;	c #604C27",
"J;	c #684F26",
"K;	c #665027",
"L;	c #735A32",
"M;	c #725B31",
"N;	c #725B32",
"O;	c #735B33",
"P;	c #745A37",
"Q;	c #705C37",
"R;	c #38322C",
"S;	c #332E26",
"T;	c #32291B",
"U;	c #614B2A",
"V;	c #6A4F26",
"W;	c #685026",
"X;	c #715A34",
"Y;	c #725A38",
"Z;	c #725A37",
"`;	c #745A36",
" >	c #755A33",
".>	c #685738",
"+>	c #64502D",
"@>	c #66502A",
"#>	c #68502A",
"$>	c #725937",
"%>	c #725A31",
"&>	c #715A33",
"*>	c #715A35",
"=>	c #735936",
"->	c #705A3E",
";>	c #675636",
">>	c #705C39",
",>	c #725E40",
"'>	c #6F5C3F",
"                                                                                                                                                                                                                                                                ",
"                                                                                                                                                                                                                                                                ",
"                                                                                                                                                                                                                                                                ",
"                                                                                                                                                                                                                                                                ",
"                                                                                                                                                                                                                                                                ",
"                                                                                                                                                                                                                                                                ",
"                                                                                                                                                                                                                                                                ",
"                                                                                                                                                                                                                                                                ",
"                                                                                                                                        . + @ # # $ % & *                                                                                                       ",
"                                                                                                                                = - ; ; > ; , ' # # ' ' '                                                                                                       ",
"                                                                                                                        ) , ; ; ; ; ; ; > ; @ # # # # ' '                                                                                                       ",
"                                                                                                                ' - ; ; ; ; ; ; ; ; ; ; > ; @ # # # # = #                                                                                                       ",
"                                                                                                        ! - ; - - ; ; ; ; ; ; ; ; ; ; ; ; ; @ # = = = = #                                                                                                       ",
"                                                                                                        - > ; ; ; ; ; ; ; ; ; ; ; ; ; ; ; > @ + + ! + = =                                                                                                       ",
"                                                                                                        ; ; ; ; ; ; ; ; ; ; ; ; ; ; ; ; ; ; ~ ! { ! ! + +                                                                                                       ",
"                                                                                                        ; ; ; ; ; ; ; ; ; ; > ; ; ; ; ; > - ] @ ~ ^ ^ / / ) ( _ ]                                                                                               ",
"                                                                                                        ; ; ; ; ; ; ; ; ; ; ; > : < [ } | 1 2 ; > ; ; / / / / / / $                                                                                             ",
"                                                                                                        ; ; ; ; ; ; ; ; = 3 4 5 6 7 8 9 9 0 a ; ; ; ; / / / ' / / $                                                                                             ",
"                                                                                                        ; ; - # b c d e f g a h h h 8 9 9 0 a ; ; ; ; . / / / ' / i                                                                                             ",
"                                                                                                      j k l m n g g n n n n a h h h o 9 9 0 a ; ; ; ; / ' ' / / / $                                                                                             ",
"                                                                                                p = = q r r s t g g g n n n a h h h o 9 9 0 a ; > ; - / / ' ' / / $                                                                                             ",
"                                                                                        u v w w x y ; q r r s z g n n n n n a h h h o 9 0 0 a > > > - / / ' ' / / $                                                                                             ",
"                                                                                    A B C D E F G H ; I r r r t g n n n n n a h h h o 9 9 0 | > ; > - / / ' ' / / $                                                                                             ",
"                                                                                    J K L M N O P ; ; I r r r t g n n n n n a h h h o 9 9 9 a Q R S T U V / % & & *                                                                                             ",
"                                                                                    W X Y Z ` O  .H ; I r r r t g n n n n n a r ..+.2 6 @.#.$.%.&.&.*.%.=.#                                                                                                     ",
"                                                                                    -.;.>.,.` '.).; ; I r r r z g g !.~.{.].^./.$ - > ; > > ^ R T (._.S R                                                                                                       ",
"                                                                                    -.:.<.[.}.|.1.; ; I h 2.3.4.5.6.] ^ > > > > > ; ; > > > ^ - U R R U >                                                                                                       ",
"                                                                                    7.8.9.0.a.b.c.d.d e.t g t # ; ; ; ; ; ; > ; ; ; ; > > > : ~ - f.Q V ^                                                                                                       ",
"                                                                                    g.h.'.i.j.k.l.g g g g g g ' ; ; ; ; ; ; ; ; ; ; > > > > : @ ~ ; V ^ :                                                                                                       ",
"                                                                                    m.n.o.p.q.r.s.g g g g g g ' ; ; ; ; ; ; ; ; ; ; > > ; ; : , , ~ ^ ~ ~                                                                                                       ",
"                                                                                    t.u.o.v.q.r.s.g g g n g g # ; ; ; ; ; ; ; ; ; > > > ; > : , , { , @ @                                                                                                       ",
"                                                                                    w.u.x.y.q.r.s.g g g g g g # ; ; ; ; ; ; ; ; ; > > ; ; > ^ { { + ! { @                                                                                                       ",
"                                                                                    w.z.A.B.C.D.E.F.G.g H.I.J.' K.; ; L.; ; K.K.- @ + i & M.N.O.N.P.Q.& /                                                                                                       ",
"                                                                                    w.z.A.R.S.T.U.V.W.X.Y.Z.`. +.+++@+#+$+%+&+*+=+-+;+>+                                                                                                                        ",
"                                                                                    ,+'+)+!+~+{+]+^+/+(+_+:+<+[+}+|+1+2+3+4+                                                                                                                                    ",
"                                                                                    5+6+7+8+9+0+a+b+c+d+e+f+g+h+i+j+k+l+m+                                                                                                                                      ",
"                                                                                    n+o+p+q+r+s+t+u+v+w+}.f+x+y+z+A+B+m+C+                                                                                                                                      ",
"                                                                                    ; ; D+!.g n E+h F+G+H+I+x+J+K+L+M+N+O+                                                                                                                                      ",
"                                                                                    ; ; _ !.g n E+h F+G+H+P+Q+R+S+T+U+V+O+                                                                                                                                      ",
"                                                                                    ; ; W+!.g g ..h F+G+H+P+Q+J+K+X+Y+Y+O+                                                                                                                                      ",
"                                                                                    ; ; W+!.g Z+`+v+F+ @.@+@@@#@$@%@&@$@O+                                                                                                                                      ",
"                                                                                    ; ; ) *@=@-@;@>@,@'@)@!@~@{@]@^@/@(@_@:@<@                                                                                                                                  ",
"                                                                                    I [@}@|@V.1@2@3@4@5@6@7@8@9@0@a@b@c@d@e@f@g@h@                                                                                                                              ",
"                                                                              > ; i@r h 2.j@k@l@m@u.n@o@p@q@r@s@t@H+u@v@w@e@x@v@y@                                                                                                                              ",
"                                                                              > ; i@r r 7 z@n A@B@'+C@D@E@E@q@F@G@F H@I@J@K@L@M@N@                                                                                                                              ",
"                                                                              > ; =+r h 2.H.n O@P@Q@R@D@S@7@T@F@G@0@u@w@U@V@f@U@W@                                                                                                                              ",
"                                                                              > ; /.r h 2.j@X@Y@P@Q@R@D@S@Z@`@ #x+a@.#+#@#v@##$#%#                                                                                                                              ",
"                                                                              > ; /.r h 2.j@X@O@&#Q@R@D@*#=#`@9@-#-#;#>#,#'#)#$#!#                                                                                                                              ",
"                                                                              > ; /.r h 2.j@X@=@&#~#R@D@*#{#]#^#/#(#_#:#<#[#}#|#W@                                                                                                                              ",
"                                                                              > ; 1#2#a 3#^.4#5#6#7#8#9#0#a#b#c#d#e#f#I+H+x+g#h#i#j#k#l#m#                                                                                                                      ",
"                                                                              > ; n#n n 5 : ; ; _.o#p#q#n.R@r#s#t#u#v#I+.@w#x#y#y#z#A#B#C#                                                                                                                      ",
"                                                                              > ; D#n n ~.~ ; ; E#F#G#H#z.R@r#s#t#u#v#I#.@J#K#y#y#z#L#M#N#                                                                                                                      ",
"                                                                              > ; D#n n ~.~ ; > O#P#Q#R#t.w.S#s#t#u#v#I+.@J#K#T#T#U#V#W#C#                                                                                                                      ",
"                                                                              V ; D#n n ~.~ ; ; R (.X#Y#Z#`# $.$+$@$#$$$%$-#&$z#U#U#I@*$=$                                                                                                                      ",
"                                                                              > ; -$n n ~.: ; ; R T ;$>$'+,$'$)$!$~${$]$f+E ^$/$($_$:$K@<$                                                                                                                      ",
"                                                                              > ; -$n n ~.~ ; > U S [$}$z.|$1$2$3$4$5$0@Q+6$7$8$9$0$a$@#b$                                                                                                                      ",
"                                                                              > ; -$n n ~.~ ; > f.++V c$d$e$f$g$h$i$j$k$l$m$n$o$p$q$:#r$s$                                                                                                                      ",
"                                                                              > ; t$n n ~.~ ; > > ; ^ ^ u$v$  w$x$R@y$z$A$B$C$a@a@]$D$E$F$G$h#H$I$                                                                                                              ",
"                                                                              > ; J$n n ~.~ ; > ; : ~ : : ^   K$L$`#M$N$O$P$Q$-#-#R$D$y#S$T$F$H$U$                                                                                                              ",
"                                                                              > ; M.n n ~.~ ; ; ^ @ ~ ~ ~ ~   V$R@`#M$N$O$P$W$X$-#]$D$y#Y$Z$Y$M#U$                                                                                                              ",
"                                                                              > ; M.n !.~.~ ; ; : @ @ @ ~ ~   V$R@`#M$N$O$P$W$X$`$w#x# %.%z#Y$+%@%                                                                                                              ",
"                                                                              > ; M.!.!.~.~ ; > ~ , , @ @ #%  $%R@`#%%&%*%&%=%]$]$-%&$;%>%,%'%)%!%                                                                                                              ",
"                                                                              > ; M.n !.~.~ ; > ~ , , , @ #%  ~%{%]%^%O$/%(%=%_%:%H+^$K@r$U@<%T#[%                                                                                                              ",
"                                                                              > ; -$2#}%t @ ; ; @ , , @ , @   |%1%2%3%4%<.5%6%%$@@R$7%8%9%0%a%b%c%                                                                                                              ",
"                                                                              > ; n#h 7 | @ ; ; , { , , @ @           d%e%f%g%h%i%j%k%l%l%m%n%o%H$                                                                                                              ",
"                                                                              > ; D#h 7 | , ; > , { { , @ p%          q%]%r%s%t%u%v%w%O H+x%y%z%A%B%C%h#D%                                                                                                      ",
"                                                                              > ; D#h 7 | , ; > , ! { { { ,           E%~#F%G%H%I%J%S@@@0@Q+l%h#E$Z$Z$K%L%                                                                                                      ",
"                                                                              > ; -$h 7 | , ; > , ! ! { , ,           |$~#F%G%M%N%M%S@`$a@-#O%H$Y$Z$Z$P%Z$                                                                                                      ",
"                                                                              > ; t$7 7 | , ; ; { ! ! { , ,           |$~#F%G%H%N%M%S@`$Q%R%S%T%.%P%!%U%Z$                                                                                                      ",
"                                                                              > ; t$7 2.| , ; > , + ! { { {           F%V%E%W%M%I%N%w%Q+X%`$S%y#Y%Z%`%Z%Z%                                                                                                      ",
"                                                                              > ; O. &1 .&{ ; > , ! ! ! { {           E%+&`#@&#&$&$&8.f%.@%&&&>%*&J@_$I@=&                                                                                                      ",
"                                                                              > ; -&;&;&>&+ ; > , + ! ! { !           ,&'&)&!&~&I%t%{&]&^&-%/&8$(&_&8$:&<&                                                                                                      ",
"                                                                              ; ; Q.;&;&>&+ > ; { + ! ! ! !                   [&}&|&1&2&3&4&5&q$6&7&8&9&0&                                                                                                      ",
"                                                                              ; ; Q.0 ;&>&+ > ; { + + ! ! !                   a&z.w.b&&%c&>.d&R$e&f&g&h&i&j&k&l&m&n&                                                                                            ",
"                                                                              ; ; N.0 ;&>&+ ; > { ! + ! ! {                   F%F%o&p&/%>.q&r&@@I#s&t&E$h#u&K%K%T$v&                                                                                            ",
"                                                                              ; > n#;&;&>&+ ; > { + ! ! ! {                   F%F%`#p&/%>.q&r&@@-%w&t&E$h#P%U%y#T$x&                                                                                            ",
"                                                                              @ ; N.y&;&z&+ > > { + + ! ! !                   F%F%`#p&/%>.q&r&@@w#A&B&C&y#P%U%U%Z$v&                                                                                            ",
"                                                                                    [@f m ~ Q V { + { . # #                   F%D&`#E&/%>.F&r&@@J#A&B&F$i#Z%U%y#T$v&                                                                                            ",
"                                                                                    > > ; f.S S E#O#f.                        D&G&V%H&I&>.J&K&L&X$M&N&O&,%P&O&,%Q&R&                                                                                            ",
"                                                                                    > > > ^ U O#O#R ;                         S&T&q%b&A$U&V&W&A&X&J#w Y&:&Z&d@I@`& *                                                                                            ",
"                                                                                    > ; ; : - U U V ^                               .*+*}&@*#*$*%*L&|.&*[#7$**=*|#-*                                                                                            ",
"                                                                                    > > ; ~ : > f.- :                                 '+E%;*>*,*'*)*!*~*g&{*]*^*/*(*_*                                                                                          ",
"                                                                                    > > ; @ : : ^ : ~                                 ~#q%`#:*<*[*}*|*1*%*O 2*3*4*5*6*7*8*9*                                                                                    ",
"                                                                                    > > ; @ ~ @ , : ~                                 ~#q%`#:*<*0*a*b*1*%*@@J#c*d*K%K%K%K%L%                                                                                    ",
"                                                                                        ' W+& _                                       ~#q%`#:*}*0*a*e*f*%*@@A&o%g*g*U%K%U%y#                                                                                    ",
"                                                                                                                                      ~#h*`#:*}*i*a*e*f*%*@@@@o%P%!%U%U%U%y#                                                                                    ",
"                                                                                                                                      ,+`#j*k*H%l*l*m*n*A&o*R%p*y#`%q*i#y#i#                                                                                    ",
"                                                                                                                                      `#r*s*t*u*v*w*x*y*z*A*B*C*T#>%I@I@Q&Q&                                                                                    ",
"                                                                                                                                      |%D*E*F*G*H*I*J*K*y*@@B*L*M*N*O*v@_$P*                                                                                    ",
"                                                                                                                                              Q*R*S*T*U*V*x+M&W*X*Y*Z*`* =.=                                                                                    ",
"                                                                                                                                              s*+=`#@=#=$=%=&=*===-=;=>=,='=)=!=                                                                                ",
"                                                                                                                                              `#F%~={=L >.]=^=b./=(=_=:=<=[=}=|=1=2=3=                                                                          ",
"                                                                                                                                              4=F%5=6=7=8=>.9=0=A&a=A*@@b=T$Z$K%K%c=E$                                                                          ",
"                                                                                                                                              4=F%5=d=e=c&f=^=g=A&B*A&B*b=h#E$U%h#g*Z$                                                                          ",
"                                                                                                                                              h=F%~=i=7=j=f=^=k=R%M&M&A&l=y#U%F$F$P%z#                                                                          ",
"                                                                                                                                              m=F%n=o=7=>.]=^=p=R%M&R%A&q=y#Z%r=s=N#,%                                                                          ",
"                                                                                                                                              t=T&u=v=w=>.]=x=p=R%Q+Q+s&l=T#,%I@,%s=U#                                                                          ",
"                                                                                                                                                y=z=A=B=>.f=C=p=R%M&Q+s&M*D=E=d@I@I@_$                                                                          ",
"                                                                                                                                                      F=G=H=I=J=V*K=L=M=N=O=P=Q=R=b%S=                                                                          ",
"                                                                                                                                                      T=m.U=V=W=X=Y=Z=`=e+-%%*R$o@ -.-                                                                          ",
"                                                                                                                                                      +-n=j*@-#-$-%-&-*-=---g=;->-,-'-)-!-~-{-]-                                                                ",
"                                                                                                                                                      +-^-q%1%/-(-_-(-G*:-%*<-f+[-}-|-1-2-3-4-5-                                                                ",
"                                                                                                                                                      6-7-8-9-0-a-b-c-d-]*f%e-B*f-E$3-L%3-4-g-h-                                                                ",
"                                                                                                                                                      i-7-2%j-k-a-l-m-n-o-^&w&g+p-Y$K%q-q-q-q-u&                                                                ",
"                                                                                                                                                      r-s-t-j-k-a-u-m-n-o-X&v-B*N&w-K%K%q-q-4-h-                                                                ",
"                                                                                                                                                      x-9-t-y-k-z-u-m-n-o-X&v-g+p-w-q-q-q-q-4-h-                                                                ",
"                                                                                                                                                        A-B-C-D-a-E-[*F-G-Q+H-f-N&Y$C%C%I-C%J-K-                                                                ",
"                                                                                                                                                              L-M-N-O-P-Q-R-S-+@T-U-J-q-q-q-C%V-                                                                ",
"                                                                                                                                                              W-X-Y-Z-`- ;.;v-.;+;h#C%B%q-3-g-V-                                                                ",
"                                                                                                                                                              @;#;S&$;%;&;*;=;-;;;>;,;';);!;~;{;                                                                ",
"                                                                                                                                                              ];^;/;(;_;:;<;9.9.A [;};|;1;2;3;4;                                                                ",
"                                                                                                                                                              5;6;6;7;8;9;4%0;a;4%b;1;b;1;1;2;c;                                                                ",
"                                                                                                                                                              5;d;d;6;e;9;f;4%a;A b;b;b;1;1;g;h;                                                                ",
"                                                                                                                                                              i;j;k;l;m;9;n;0;a;A b;b;b;1;1;2;o;                                                                ",
"                                                                                                                                                              p;j;q;r;s;t;0;u;v;A w;x;y;z;A;B;C;                                                                ",
"                                                                                                                                                              D;E;F;G;H;I;J;A K;K;L;M;N;N;O;P;Q;                                                                ",
"                                                                                                                                                                  R;S;T;U;V;J;W;A X;Y;Z;|;`; >Q;                                                                ",
"                                                                                                                                                                          .>+>@>#>$>%>%>&>*>=>->                                                                ",
"                                                                                                                                                                                ;>>>,>'>                                                                        ",
"                                                                                                                                                                                                                                                                ",
"                                                                                                                                                                                                                                                                ",
"                                                                                                                                                                                                                                                                ",
"                                                                                                                                                                                                                                                                ",
"                                                                                                                                                                                                                                                                ",
"                                                                                                                                                                                                                                                                ",
"                                                                                                                                                                                                                                                                ",
"                                                                                                                                                                                                                                                                ",
"                                                                                                                                                                                                                                                                "};
