/* XPM */
static char * door_xpm[] = {
"128 128 1242 2",
"  	c #B8945F",
". 	c #B4905B",
"+ 	c #AE8A55",
"@ 	c #A8844F",
"# 	c #A6824D",
"$ 	c #A7834E",
"% 	c #AB8752",
"& 	c #B28E59",
"* 	c #B7935E",
"= 	c #B6925D",
"- 	c #B08C57",
"; 	c #AA8651",
"> 	c #A7834F",
", 	c #AD8954",
"' 	c #B38F5A",
") 	c #AF8B57",
"! 	c #A98550",
"~ 	c #B4915C",
"{ 	c #AB8854",
"] 	c #9E7B48",
"^ 	c #967441",
"/ 	c #AC8853",
"( 	c #B5915C",
"_ 	c #AF8B56",
": 	c #A88450",
"< 	c #AA8754",
"[ 	c #9D7B48",
"} 	c #A5814D",
"| 	c #A3804B",
"1 	c #A37F4B",
"2 	c #A37F4A",
"3 	c #A4804C",
"4 	c #AE8A56",
"5 	c #B28E5A",
"6 	c #B28F5A",
"7 	c #B08D58",
"8 	c #A6834E",
"9 	c #A4804B",
"0 	c #A4814C",
"a 	c #AB8853",
"b 	c #A6824E",
"c 	c #A5814C",
"d 	c #A98551",
"e 	c #AE8B56",
"f 	c #B38F5B",
"g 	c #AF8C57",
"h 	c #A58250",
"i 	c #967645",
"j 	c #8F6F3E",
"k 	c #8F6F3D",
"l 	c #A07E49",
"m 	c #9B7945",
"n 	c #9A7744",
"o 	c #9A7844",
"p 	c #9B7845",
"q 	c #9C7A47",
"r 	c #9E7C49",
"s 	c #9E7C48",
"t 	c #9C7946",
"u 	c #9D7A47",
"v 	c #9A7946",
"w 	c #8E6E40",
"x 	c #7D6137",
"y 	c #745A31",
"z 	c #735931",
"A 	c #9D7A46",
"B 	c #987643",
"C 	c #977441",
"D 	c #977542",
"E 	c #977541",
"F 	c #927240",
"G 	c #86673A",
"H 	c #745932",
"I 	c #69522D",
"J 	c #68512C",
"K 	c #92703F",
"L 	c #856739",
"M 	c #725930",
"N 	c #67502C",
"O 	c #66502C",
"P 	c #A5824D",
"Q 	c #957341",
"R 	c #927140",
"S 	c #8D6D3D",
"T 	c #8D6D3E",
"U 	c #8E6E3E",
"V 	c #8F6E3E",
"W 	c #906F3E",
"X 	c #92723F",
"Y 	c #937140",
"Z 	c #906F3F",
"` 	c #8E6E3D",
" .	c #8E6D3E",
"..	c #91713F",
"+.	c #947340",
"@.	c #957441",
"#.	c #AE8B57",
"$.	c #A3814D",
"%.	c #9A7845",
"&.	c #836539",
"*.	c #715731",
"=.	c #674E2D",
"-.	c #654D2C",
";.	c #664D2D",
">.	c #664E2D",
",.	c #6A512E",
"'.	c #6F5630",
").	c #725931",
"!.	c #795E34",
"~.	c #91703F",
"{.	c #967341",
"].	c #947240",
"^.	c #89693B",
"/.	c #775B34",
"(.	c #69502E",
"_.	c #664D2C",
":.	c #69502D",
"<.	c #6E552F",
"[.	c #725831",
"}.	c #765C33",
"|.	c #816438",
"1.	c #8D6E3D",
"2.	c #B7945F",
"3.	c #B18E59",
"4.	c #A5824F",
"5.	c #7E6137",
"6.	c #664E2C",
"7.	c #564126",
"8.	c #533E25",
"9.	c #533F25",
"0.	c #554025",
"a.	c #5A4527",
"b.	c #624C2A",
"c.	c #69512C",
"d.	c #705630",
"e.	c #816337",
"f.	c #937240",
"g.	c #85663A",
"h.	c #6D5330",
"i.	c #594327",
"j.	c #543F25",
"k.	c #584226",
"l.	c #604A29",
"m.	c #664F2C",
"n.	c #68502C",
"o.	c #6D542E",
"p.	c #7B5F35",
"q.	c #8C6C3C",
"r.	c #7E6037",
"s.	c #644C2C",
"t.	c #513D24",
"u.	c #533F24",
"v.	c #584326",
"w.	c #654F2B",
"x.	c #6F562F",
"y.	c #806337",
"z.	c #6C532F",
"A.	c #574226",
"B.	c #503C24",
"C.	c #523E24",
"D.	c #5E4828",
"E.	c #644E2B",
"F.	c #654F2C",
"G.	c #6B532D",
"H.	c #7A5E34",
"I.	c #856639",
"J.	c #90703E",
"K.	c #544025",
"L.	c #554125",
"M.	c #574326",
"N.	c #5B4727",
"O.	c #5F4928",
"P.	c #5E4928",
"Q.	c #7E6237",
"R.	c #997744",
"S.	c #997743",
"T.	c #957442",
"U.	c #88693C",
"V.	c #705531",
"W.	c #5A4427",
"X.	c #5A4627",
"Y.	c #5E4827",
"Z.	c #775C33",
"`.	c #8C6C3D",
" +	c #997643",
".+	c #846638",
"++	c #705730",
"@+	c #644E2C",
"#+	c #634D2B",
"$+	c #644D2B",
"%+	c #836538",
"&+	c #624C2B",
"*+	c #634C2B",
"=+	c #614B29",
"-+	c #574425",
";+	c #47371C",
">+	c #382A14",
",+	c #322511",
"'+	c #332612",
")+	c #312511",
"!+	c #4E3C20",
"~+	c #785D35",
"{+	c #967544",
"]+	c #A27E4A",
"^+	c #A27F4A",
"/+	c #A07D49",
"(+	c #927242",
"_+	c #7B5F36",
":+	c #67502D",
"<+	c #614B2A",
"[+	c #624B2A",
"}+	c #5B4627",
"|+	c #4D3B1F",
"1+	c #3B2C16",
"2+	c #322612",
"3+	c #302410",
"4+	c #43331B",
"5+	c #8E6F40",
"6+	c #A07D48",
"7+	c #A27F4B",
"8+	c #A07C49",
"9+	c #674F2D",
"0+	c #574225",
"a+	c #846639",
"b+	c #654E2B",
"c+	c #574424",
"d+	c #3D2F17",
"e+	c #1D1508",
"f+	c #090602",
"g+	c #0B0702",
"h+	c #0C0702",
"i+	c #0A0702",
"j+	c #41311A",
"k+	c #765B34",
"l+	c #987646",
"m+	c #7E6238",
"n+	c #6B532E",
"o+	c #664F2B",
"p+	c #5D4827",
"q+	c #47361C",
"r+	c #261C0C",
"s+	c #050301",
"t+	c #312412",
"u+	c #8F7041",
"v+	c #A7834D",
"w+	c #987542",
"x+	c #90703F",
"y+	c #B89460",
"z+	c #B18E5A",
"A+	c #92713F",
"B+	c #68512D",
"C+	c #574324",
"D+	c #3C2E17",
"E+	c #181106",
"F+	c #000000",
"G+	c #3F3019",
"H+	c #987746",
"I+	c #A7824D",
"J+	c #967545",
"K+	c #7F6239",
"L+	c #6B532F",
"M+	c #674F2B",
"N+	c #46361B",
"O+	c #23190A",
"P+	c #302311",
"Q+	c #907041",
"R+	c #9D7B46",
"S+	c #987642",
"T+	c #B19369",
"U+	c #B19268",
"V+	c #AC8D62",
"W+	c #A28154",
"X+	c #997846",
"Y+	c #3C2D17",
"Z+	c #403019",
"`+	c #775D34",
" @	c #9A7846",
".@	c #A7834C",
"+@	c #A9844D",
"@@	c #977645",
"#@	c #806339",
"$@	c #68502D",
"%@	c #927142",
"&@	c #A8834D",
"*@	c #A5814B",
"=@	c #9E7B46",
"-@	c #806338",
";@	c #69512E",
">@	c #5A4528",
",@	c #594427",
"'@	c #918D8A",
")@	c #918D89",
"!@	c #92897F",
"~@	c #947F66",
"{@	c #96774C",
"]@	c #44331A",
"^@	c #7E6136",
"/@	c #A37E48",
"(@	c #B0894F",
"_@	c #B28B50",
":@	c #B18A50",
"<@	c #AF884E",
"[@	c #836639",
"}@	c #332512",
"|@	c #6E542E",
"1@	c #AE874E",
"2@	c #B18A4F",
"3@	c #AC864C",
"4@	c #A27E47",
"5@	c #93723F",
"6@	c #896B3C",
"7@	c #7C6036",
"8@	c #755B33",
"9@	c #745A32",
"0@	c #755A32",
"a@	c #828B93",
"b@	c #818B94",
"c@	c #868788",
"d@	c #8E7E6C",
"e@	c #94774F",
"f@	c #967440",
"g@	c #45341B",
"h@	c #A58149",
"i@	c #B48C4F",
"j@	c #B58D50",
"k@	c #B68D50",
"l@	c #A17D47",
"m@	c #85673A",
"n@	c #342612",
"o@	c #70562F",
"p@	c #9C7944",
"q@	c #B18A4E",
"r@	c #B48C50",
"s@	c #AF884D",
"t@	c #A47F48",
"u@	c #9A7743",
"v@	c #7D6136",
"w@	c #808B95",
"x@	c #808B94",
"y@	c #858688",
"z@	c #8D7E6D",
"A@	c #9C7A44",
"B@	c #B18B4E",
"C@	c #B68E50",
"D@	c #8C6D3D",
"E@	c #7E8790",
"F@	c #7E8890",
"G@	c #7D8891",
"H@	c #848385",
"I@	c #8D7C6B",
"J@	c #94764E",
"K@	c #7F6237",
"L@	c #A48049",
"M@	c #B28B4F",
"N@	c #B38C50",
"O@	c #AF894E",
"P@	c #9F7C47",
"Q@	c #84663A",
"R@	c #6F552F",
"S@	c #9B7844",
"T@	c #B0894E",
"U@	c #B48B50",
"V@	c #AD874C",
"W@	c #A37E47",
"X@	c #9A7643",
"Y@	c #816538",
"Z@	c #7C6035",
"`@	c #74777B",
" #	c #74787B",
".#	c #74777A",
"+#	c #7C7772",
"@#	c #8A765E",
"##	c #937449",
"$#	c #413119",
"%#	c #795D35",
"&#	c #AA844D",
"*#	c #AB864E",
"=#	c #AB854E",
"-#	c #997745",
";#	c #806439",
">#	c #6C542F",
",#	c #69512D",
"'#	c #937343",
")#	c #AA854E",
"!#	c #A6824C",
"~#	c #87683B",
"{#	c #6E5630",
"]#	c #6D552F",
"^#	c #6E562F",
"/#	c #6F7071",
"(#	c #6F7171",
"_#	c #717070",
":#	c #797168",
"<#	c #887358",
"[#	c #927447",
"}#	c #674F2C",
"|#	c #907042",
"1#	c #6F6F6F",
"2#	c #716F6F",
"3#	c #797067",
"4#	c #887357",
"5#	c #584425",
"6#	c #3E2E17",
"7#	c #1C1407",
"8#	c #070401",
"9#	c #0A0602",
"0#	c #0B0602",
"a#	c #0C0602",
"b#	c #090501",
"c#	c #090502",
"d#	c #765C35",
"e#	c #251B0B",
"f#	c #040201",
"g#	c #312512",
"h#	c #77716C",
"i#	c #78716B",
"j#	c #7F7265",
"k#	c #8A7355",
"l#	c #937447",
"m#	c #6A522E",
"n#	c #6A532E",
"o#	c #503D21",
"p#	c #42321A",
"q#	c #3D2E18",
"r#	c #3E2F19",
"s#	c #443319",
"t#	c #453419",
"u#	c #453319",
"v#	c #433319",
"w#	c #3F2F19",
"x#	c #3E2F18",
"y#	c #564224",
"z#	c #7D6138",
"A#	c #997847",
"B#	c #A5824C",
"C#	c #816439",
"D#	c #634D2A",
"E#	c #45341C",
"F#	c #3E2E18",
"G#	c #4C3A1F",
"H#	c #725832",
"I#	c #937243",
"J#	c #987C59",
"K#	c #987B55",
"L#	c #97784B",
"M#	c #8A6B3C",
"N#	c #795D34",
"O#	c #785D34",
"P#	c #795F35",
"Q#	c #7F6338",
"R#	c #87693D",
"S#	c #8D6D40",
"T#	c #8E6F41",
"U#	c #8E6E41",
"V#	c #9B7843",
"W#	c #937242",
"X#	c #8F6F41",
"Y#	c #917142",
"Z#	c #9A7847",
"`#	c #886A3D",
" $	c #785E34",
".$	c #7C6137",
"+$	c #84673C",
"@$	c #8B6D3F",
"#$	c #947342",
"$$	c #977545",
"%$	c #A07D4A",
"&$	c #A4824F",
"*$	c #A4814F",
"=$	c #A27F4C",
"-$	c #9C7A46",
";$	c #7D6237",
">$	c #8A6C3E",
",$	c #987745",
"'$	c #A7824C",
")$	c #AC864D",
"!$	c #B1894E",
"~$	c #B28B4E",
"{$	c #A5804C",
"]$	c #9B7947",
"^$	c #8C6D3E",
"/$	c #806438",
"($	c #7E6337",
"_$	c #86683B",
":$	c #947343",
"<$	c #AB854D",
"[$	c #8B6C3E",
"}$	c #A8844D",
"|$	c #AD874E",
"1$	c #B38B4F",
"2$	c #B48D50",
"3$	c #8C6C3F",
"4$	c #7E6338",
"5$	c #87693C",
"6$	c #A27E4B",
"7$	c #AC864E",
"8$	c #9E7B47",
"9$	c #8B6B3C",
"0$	c #7A5F36",
"a$	c #795E35",
"b$	c #7A5F35",
"c$	c #7C6037",
"d$	c #87683C",
"e$	c #957444",
"f$	c #A17E4A",
"g$	c #A07E4A",
"h$	c #A8834C",
"i$	c #AD864D",
"j$	c #AE884D",
"k$	c #AB854C",
"l$	c #A6814B",
"m$	c #A17E4B",
"n$	c #896A3D",
"o$	c #83653A",
"p$	c #917042",
"q$	c #9D7A48",
"r$	c #A6824B",
"s$	c #A27E49",
"t$	c #9C7945",
"u$	c #715730",
"v$	c #654E2C",
"w$	c #644D2C",
"x$	c #AD8955",
"y$	c #A3804C",
"z$	c #826538",
"A$	c #634C2C",
"B$	c #614A2B",
"C$	c #624B2B",
"D$	c #614B2B",
"E$	c #634D2C",
"F$	c #765C34",
"G$	c #7D6238",
"H$	c #7F6339",
"I$	c #82663A",
"J$	c #86683A",
"K$	c #826539",
"L$	c #83663B",
"M$	c #8D6E3F",
"N$	c #977643",
"O$	c #775C34",
"P$	c #68502E",
"Q$	c #735933",
"R$	c #7E6339",
"S$	c #81653A",
"T$	c #8A6B3E",
"U$	c #594426",
"V$	c #B18D59",
"W$	c #A5824E",
"X$	c #554126",
"Y$	c #523F25",
"Z$	c #6A522D",
"`$	c #715831",
" %	c #6D5430",
".%	c #584327",
"+%	c #523E25",
"@%	c #604A2A",
"#%	c #8C6D3C",
"$%	c #7F6137",
"%%	c #644C2B",
"&%	c #523D24",
"*%	c #503D24",
"=%	c #564226",
"-%	c #7A5F34",
";%	c #584426",
">%	c #5D4828",
",%	c #624C29",
"'%	c #6B522D",
")%	c #7F6236",
"!%	c #6F5430",
"~%	c #604A28",
"{%	c #614C29",
"]%	c #604B29",
"^%	c #785D33",
"/%	c #8B6C3D",
"(%	c #967442",
"_%	c #826438",
":%	c #604B2A",
"<%	c #5F4929",
"[%	c #4B391E",
"}%	c #3F3018",
"|%	c #3B2D16",
"1%	c #3C2D16",
"2%	c #533F22",
"3%	c #957443",
"4%	c #795D36",
"5%	c #5B4626",
"6%	c #4F3D20",
"7%	c #41321A",
"8%	c #392C16",
"9%	c #49381D",
"0%	c #6D5530",
"a%	c #886A3C",
"b%	c #7A5E35",
"c%	c #715832",
"d%	c #1F1608",
"e%	c #100A03",
"f%	c #120C04",
"g%	c #110B04",
"h%	c #41321B",
"i%	c #5C4727",
"j%	c #271D0D",
"k%	c #0C0803",
"l%	c #322513",
"m%	c #191106",
"n%	c #010100",
"o%	c #010000",
"p%	c #7E6239",
"q%	c #A4814E",
"r%	c #AC8854",
"s%	c #A88551",
"t%	c #43331A",
"u%	c #A17E48",
"v%	c #AF894F",
"w%	c #B08A4F",
"x%	c #322512",
"y%	c #A17E47",
"z%	c #87693B",
"A%	c #70572F",
"B%	c #45351B",
"C%	c #B38C4F",
"D%	c #85683A",
"E%	c #6D552E",
"F%	c #342712",
"G%	c #69522C",
"H%	c #B28A4F",
"I%	c #7F6337",
"J%	c #A07D47",
"K%	c #84673A",
"L%	c #9B7944",
"M%	c #AE874C",
"N%	c #A47E47",
"O%	c #B18D58",
"P%	c #423219",
"Q%	c #9D7B47",
"R%	c #AA864D",
"S%	c #AC874E",
"T%	c #816539",
"U%	c #312411",
"V%	c #947443",
"W%	c #A8844C",
"X%	c #A07C47",
"Y%	c #B6935E",
"Z%	c #1B1307",
"`%	c #040301",
" &	c #060301",
".&	c #060401",
"+&	c #40301A",
"@&	c #46361C",
"#&	c #241B0B",
"$&	c #020100",
"%&	c #362814",
"&&	c #362914",
"*&	c #372915",
"=&	c #392B15",
"-&	c #382A15",
";&	c #362915",
">&	c #503E22",
",&	c #7A5F37",
"'&	c #997746",
")&	c #523E21",
"!&	c #352714",
"~&	c #46351D",
"{&	c #6E5531",
"]&	c #917243",
"^&	c #896A3B",
"/&	c #85673C",
"(&	c #86683C",
"_&	c #896B3D",
":&	c #85683C",
"<&	c #896B3E",
"[&	c #957445",
"}&	c #A17D4A",
"|&	c #86693C",
"1&	c #82653B",
"2&	c #7C6237",
"3&	c #977745",
"4&	c #A37F4C",
"5&	c #AA854C",
"6&	c #9A7947",
"7&	c #85683B",
"8&	c #9F7D49",
"9&	c #A9844C",
"0&	c #AF874E",
"a&	c #513E24",
"b&	c #AE884E",
"c&	c #8C6D3F",
"d&	c #A3804A",
"e&	c #533E24",
"f&	c #9B7A47",
"g&	c #B38B50",
"h&	c #B38B4E",
"i&	c #82653A",
"j&	c #A6814C",
"k&	c #A17E49",
"l&	c #574126",
"m&	c #554026",
"n&	c #977543",
"o&	c #977544",
"p&	c #AA844C",
"q&	c #A68049",
"r&	c #A57F47",
"s&	c #A47F47",
"t&	c #A07C46",
"u&	c #987644",
"v&	c #917141",
"w&	c #917041",
"x&	c #917040",
"y&	c #937342",
"z&	c #957544",
"A&	c #977646",
"B&	c #A7824A",
"C&	c #A58048",
"D&	c #A17D46",
"E&	c #927241",
"F&	c #947341",
"G&	c #6F5631",
"H&	c #6E5530",
"I&	c #A4814D",
"J&	c #816338",
"K&	c #8C6E3F",
"L&	c #83663A",
"M&	c #937340",
"N&	c #9F7C49",
"O&	c #A17F4B",
"P&	c #8F6E3D",
"Q&	c #997644",
"R&	c #88693B",
"S&	c #8D6E3E",
"T&	c #84673B",
"U&	c #80633A",
"V&	c #7F633A",
"W&	c #81653B",
"X&	c #876A3D",
"Y&	c #83653B",
"Z&	c #81643B",
"`&	c #83673C",
" *	c #7E6236",
".*	c #7C6136",
"+*	c #735A32",
"@*	c #957340",
"#*	c #886A3B",
"$*	c #806237",
"%*	c #5A4428",
"&*	c #574227",
"**	c #574327",
"=*	c #594428",
"-*	c #5E4829",
";*	c #6B542E",
">*	c #6A532D",
",*	c #68522D",
"'*	c #68522C",
")*	c #6F5531",
"!*	c #5C4629",
"~*	c #5C4729",
"{*	c #69522E",
"]*	c #6C542E",
"^*	c #584427",
"/*	c #5E4929",
"(*	c #8B6C3C",
"_*	c #B08D59",
":*	c #A4824E",
"<*	c #544026",
"[*	c #523F24",
"}*	c #5B4628",
"|*	c #86673B",
"1*	c #6E5430",
"2*	c #6B5432",
"3*	c #6A5538",
"4*	c #69553B",
"5*	c #68553B",
"6*	c #6C583D",
"7*	c #7A6240",
"8*	c #8A6D44",
"9*	c #927347",
"0*	c #947447",
"a*	c #937446",
"b*	c #947446",
"c*	c #AA8652",
"d*	c #6C532E",
"e*	c #5D4829",
"f*	c #917140",
"g*	c #9F7C48",
"h*	c #A07C48",
"i*	c #8F6F40",
"j*	c #634B2B",
"k*	c #5C4728",
"l*	c #836638",
"m*	c #806A4D",
"n*	c #7A7064",
"o*	c #767471",
"p*	c #767574",
"q*	c #767573",
"r*	c #767473",
"s*	c #7A736F",
"t*	c #7E7269",
"u*	c #817166",
"v*	c #817165",
"w*	c #807165",
"x*	c #86725F",
"y*	c #8E7253",
"z*	c #947346",
"A*	c #765B33",
"B*	c #87683A",
"C*	c #967542",
"D*	c #7E6138",
"E*	c #94733F",
"F*	c #94723F",
"G*	c #937344",
"H*	c #8F795E",
"I*	c #87817D",
"J*	c #80878E",
"K*	c #7E8892",
"L*	c #7F8892",
"M*	c #7F8992",
"N*	c #798189",
"O*	c #737780",
"P*	c #6F7079",
"Q*	c #6E6F77",
"R*	c #6E6F78",
"S*	c #6D6F78",
"T*	c #6F6F77",
"U*	c #78706E",
"V*	c #87725D",
"W*	c #927349",
"X*	c #967546",
"Y*	c #917B60",
"Z*	c #88837F",
"`*	c #828991",
" =	c #7E8993",
".=	c #79828C",
"+=	c #727782",
"@=	c #6C717C",
"#=	c #6B6F7A",
"$=	c #6A6F7A",
"%=	c #6C6F79",
"&=	c #767070",
"*=	c #86725E",
"==	c #A48254",
"-=	c #A18051",
";=	c #9C7A4A",
">=	c #89693A",
",=	c #947241",
"'=	c #725830",
")=	c #917A5F",
"!=	c #87837E",
"~=	c #80888F",
"{=	c #7E8A94",
"]=	c #7E8A93",
"^=	c #7E8992",
"/=	c #7E8891",
"(=	c #7C868F",
"_=	c #777F88",
":=	c #71767F",
"<=	c #6C6E77",
"[=	c #6E6E76",
"}=	c #776F6E",
"|=	c #86725C",
"1=	c #94877A",
"2=	c #948779",
"3=	c #948370",
"4=	c #957C5D",
"5=	c #967649",
"6=	c #8E6F3F",
"7=	c #A17F4A",
"8=	c #8E765A",
"9=	c #827B75",
"0=	c #787D84",
"a=	c #757D88",
"b=	c #767D88",
"c=	c #747B84",
"d=	c #70757B",
"e=	c #6C6F72",
"f=	c #6B6C6D",
"g=	c #6A6B6C",
"h=	c #6A6B6D",
"i=	c #6B6B6C",
"j=	c #6E6B69",
"k=	c #726963",
"l=	c #75695F",
"m=	c #75685E",
"n=	c #76695E",
"o=	c #7D6B59",
"p=	c #89704F",
"q=	c #937345",
"r=	c #6B522E",
"s=	c #5D4728",
"t=	c #838B92",
"u=	c #838B93",
"v=	c #838A91",
"w=	c #878686",
"x=	c #8E7E6B",
"y=	c #94774E",
"z=	c #7F6437",
"A=	c #947444",
"B=	c #8C7355",
"C=	c #7D726C",
"D=	c #707179",
"E=	c #6C707C",
"F=	c #6D707C",
"G=	c #6D707B",
"H=	c #6D717C",
"I=	c #696B74",
"J=	c #615E60",
"K=	c #594E45",
"L=	c #554535",
"M=	c #544433",
"N=	c #554534",
"O=	c #544434",
"P=	c #584735",
"Q=	c #655137",
"R=	c #735C3B",
"S=	c #7B623D",
"T=	c #7D633E",
"U=	c #7D633D",
"V=	c #7C633D",
"W=	c #7C623D",
"X=	c #83673E",
"Y=	c #8C6E40",
"Z=	c #937341",
"`=	c #808B96",
" -	c #858788",
".-	c #85663B",
"+-	c #7C706B",
"@-	c #6B6F7B",
"#-	c #676A72",
"$-	c #5F5A5C",
"%-	c #56483C",
"&-	c #523E26",
"*-	c #513C23",
"=-	c #745A33",
"--	c #513D23",
";-	c #7F8A93",
">-	c #848687",
",-	c #8D7D6C",
"'-	c #94764F",
")-	c #806437",
"!-	c #85673B",
"~-	c #8C7353",
"{-	c #7B6F68",
"]-	c #6D6D74",
"^-	c #696D77",
"/-	c #6A6D77",
"(-	c #66676F",
"_-	c #5E5859",
":-	c #55473B",
"<-	c #513E26",
"[-	c #513D22",
"}-	c #785C34",
"|-	c #87693A",
"1-	c #564125",
"2-	c #767E88",
"3-	c #767E89",
"4-	c #7D7C7D",
"5-	c #8A7966",
"6-	c #93754D",
"7-	c #A7824B",
"8-	c #AE884F",
"9-	c #947442",
"0-	c #8A6E49",
"a-	c #766454",
"b-	c #645C5A",
"c-	c #5F5B5C",
"d-	c #5D5656",
"e-	c #594D46",
"f-	c #534332",
"g-	c #513E25",
"h-	c #503C23",
"i-	c #735832",
"j-	c #9D7A45",
"k-	c #9C7A45",
"l-	c #6D717B",
"m-	c #777272",
"n-	c #87735F",
"o-	c #92744A",
"p-	c #88693D",
"q-	c #705736",
"r-	c #594631",
"s-	c #53412F",
"t-	c #52412F",
"u-	c #52422F",
"v-	c #53402E",
"w-	c #533F2A",
"x-	c #4F3C23",
"y-	c #9F7B46",
"z-	c #AD864C",
"A-	c #997642",
"B-	c #7C6135",
"C-	c #6C6F7A",
"D-	c #767071",
"E-	c #927449",
"F-	c #66502B",
"G-	c #4F3B23",
"H-	c #5D4729",
"I-	c #6F7178",
"J-	c #707177",
"K-	c #79716F",
"L-	c #88735C",
"M-	c #8A6B3B",
"N-	c #91703E",
"O-	c #8A6C3C",
"P-	c #735A31",
"Q-	c #614A2A",
"R-	c #5B4527",
"S-	c #5B4528",
"T-	c #8A7868",
"U-	c #8B7868",
"V-	c #8E7761",
"W-	c #927654",
"X-	c #957446",
"Y-	c #93713F",
"Z-	c #7B6035",
"`-	c #755B32",
" ;	c #9E7B45",
".;	c #A4804A",
"+;	c #AA854D",
"@;	c #AD884F",
"#;	c #AF884F",
"$;	c #997845",
"%;	c #9F7B47",
"&;	c #A37F48",
"*;	c #A68149",
"=;	c #967342",
"-;	c #8E6E3F",
";;	c #8F6F3F",
">;	c #A6814A",
",;	c #AD874F",
"';	c #896A3C",
");	c #A38051",
"!;	c #A17F4E",
"~;	c #9B7A48",
"{;	c #B28A4E",
"];	c #B48B4F",
"^;	c #B38C4E",
"/;	c #8B6D3E",
"(;	c #B08A4E",
"_;	c #9E7A46",
":;	c #B28C4E",
"<;	c #A5804B",
"[;	c #B1894F",
"};	c #A8834B",
"|;	c #A8834A",
"1;	c #A9834A",
"2;	c #A07D46",
"3;	c #9F7D46",
"4;	c #8A6B3D",
"5;	c #967443",
"6;	c #A4814B",
"7;	c #8B6D3D",
"8;	c #826639",
"9;	c #A3814B",
"0;	c #A3814C",
"a;	c #957240",
"b;	c #8E6D3D",
"c;	c #93733F",
"d;	c #907040",
"e;	c #8C6D40",
"f;	c #8A6C3F",
"g;	c #8A6B3F",
"h;	c #8B6D40",
"i;	c #8D6E40",
"j;	c #8D6F40",
"k;	c #745B33",
"l;	c #6A512F",
"m;	c #5B4529",
"n;	c #5B4629",
"o;	c #6D542F",
"p;	c #6F5530",
"q;	c #5D4629",
"r;	c #584227",
"s;	c #5A4327",
"t;	c #82663B",
"u;	c #654D2B",
"v;	c #6F5731",
"w;	c #543F26",
"x;	c #6B512E",
"y;	c #735932",
"z;	c #7D6135",
"A;	c #594527",
"B;	c #5C4628",
"C;	c #7D6035",
"D;	c #9C7A48",
"E;	c #725732",
"F;	c #715830",
"G;	c #947441",
"H;	c #977642",
"I;	c #A7834A",
"J;	c #8E6F3E",
"K;	c #67502B",
"L;	c #987541",
"M;	c #987641",
"N;	c #816339",
"O;	c #A37F47",
"P;	c #A17C46",
"Q;	c #9D7944",
"R;	c #A27E48",
"S;	c #AB864D",
"T;	c #745B32",
"U;	c #6F572F",
"V;	c #987543",
"W;	c #9E7C46",
"X;	c #A9844B",
"Y;	c #AA844B",
"Z;	c #5F4A2A",
"`;	c #AD874D",
" >	c #A17D49",
".>	c #705731",
"+>	c #5F492A",
"@>	c #A4804D",
"#>	c #5D472A",
"$>	c #A2804C",
"%>	c #8D6D3F",
"&>	c #AC854C",
"*>	c #AC854B",
"=>	c #AB844B",
"->	c #A68249",
";>	c #9B7946",
">>	c #AB854B",
",>	c #A6824A",
"'>	c #A58049",
")>	c #624B2C",
"!>	c #9E7C47",
"~>	c #A4814A",
"{>	c #9F7C46",
"]>	c #A6814D",
"^>	c #8A6A3C",
"/>	c #A78450",
"(>	c #937244",
"_>	c #8F6E3F",
":>	c #957545",
"<>	c #8B6B3D",
"[>	c #B08C58",
"}>	c #826439",
"|>	c #6E5431",
"1>	c #60492B",
"2>	c #604A2C",
"3>	c #614B2C",
"4>	c #9A7745",
"5>	c #654C2C",
"6>	c #B69461",
"7>	c #B79461",
"8>	c #B69460",
"9>	c #B08E5C",
"0>	c #A48250",
"a>	c #AA9272",
"b>	c #AA9171",
"c>	c #A68C6A",
"d>	c #9F8159",
"e>	c #987848",
"f>	c #765B32",
"g>	c #775B33",
"h>	c #7B6036",
"i>	c #888C8F",
"j>	c #898C90",
"k>	c #898B8E",
"l>	c #8C8883",
"m>	c #917F6A",
"n>	c #95774E",
"o>	c #846739",
"p>	c #816437",
"q>	c #818B95",
"r>	c #8E7E6D",
"s>	c #808A95",
"t>	c #808A93",
"u>	c #848688",
"v>	c #7B848F",
"w>	c #7A848F",
"x>	c #7B848E",
"y>	c #818183",
"z>	c #8C7B69",
"A>	c #94764D",
"B>	c #6E737E",
"C>	c #6F737D",
"D>	c #787374",
"E>	c #887460",
"F>	c #9C7844",
"G>	c #544024",
"H>	c #86735E",
"I>	c #6D6F79",
"J>	c #777070",
"K>	c #87735E",
"L>	c #7E7471",
"M>	c #7D7471",
"N>	c #7E7470",
"O>	c #837469",
"P>	c #8D7459",
"Q>	c #916F3F",
"R>	c #5F482A",
"S>	c #9F7F56",
"T>	c #9F8056",
"U>	c #9D7D52",
"V>	c #9A794A",
"W>	c #977644",
"X>	c #89693C",
"Y>	c #9A7642",
"Z>	c #9C7845",
"`>	c #9E7A45",
" ,	c #9D7A44",
".,	c #937241",
"+,	c #B18B50",
"@,	c #9F7D47",
"#,	c #A9834B",
"$,	c #B18A4D",
"%,	c #B08A4D",
"&,	c #AF894D",
"*,	c #AE874D",
"=,	c #A9854D",
"-,	c #A6834C",
";,	c #B0894D",
">,	c #907141",
",,	c #AF884C",
"',	c #AC8956",
"),	c #8A6C3D",
"!,	c #83673A",
"~,	c #9A7843",
"{,	c #B7935F",
"],	c #AD8B59",
"^,	c #99794B",
"/,	c #86693D",
"(,	c #B6925E",
"_,	c #AD8A58",
":,	c #98794A",
"<,	c #AB8A57",
"[,	c #AC8A57",
"},	c #AB8857",
"|,	c #A28152",
"1,	c #8F7145",
"2,	c #7D6239",
"3,	c #8C6B3D",
"4,	c #997747",
"5,	c #7D6036",
"6,	c #7C6139",
"7,	c #7C613A",
"8,	c #7B6139",
"9,	c #765C36",
"0,	c #6A5230",
"a,	c #5E4729",
"b,	c #61492A",
"c,	c #654D2D",
"d,	c #664F2E",
"e,	c #674F2E",
"f,	c #664F2D",
"g,	c #60492A",
"        . + @ # # # # # # # # # # # # # $ % & *                                                             = - ; $ # # # # > , ' *                                                             = ) ! # # # # # @ , ' *                           ~ { ] ^ ^ ^ ^ ",
"        . + @ # # # # # # # # # # # # # $ % & *                                                             = - ; $ # # # # $ , ' *                                                             = ) ! # # # # # @ , ' *                           ~ { ] ^ ^ ^ ^ ",
"        . , @ # # # # # # # # # # # # # $ % & *                                                             = - ! # # # # # $ / ' *                                                             ( _ : # # # # # $ , ' *                         * . < [ ^ ^ ^ ^ ",
"( ( ( ( & % } | 1 1 1 1 1 1 1 1 1 1 1 2 3 : 4 5 ' ' ' ' ' ' ' ' ' ' ' ' ' ' ' ' ' ' ' ' ' ' ' ' ' ' ' ' ' 6 7 / 8 9 1 1 1 2 0 ! 4 5 ' ' ' ' ' ' ' ' ' ' ' ' ' ' ' ' ' ' ' ' ' ' ' ' ' ' ' ' ' 6 7 a b | 1 1 1 2 c d e 5 ' ' ' ' ' ' ' ' ' ' ' f 5 g h i j k j j ",
"; ; ; ; $ l m n n o o o o o o o o o o o o p q ] r s s s s s s s s s s s s s s s s s s s s s s s s s s s s s [ t o o o o o o o m q ] r s s s s s s s s s s s s s s s s s s s s s s s s s s s s s [ t o o o o o o o m u r r s s s s s s s s s s r [ v w x y z z z ",
"# # # # 9 A B ^ ^ ^ ^ ^ ^ ^ ^ ^ ^ ^ ^ ^ ^ ^ ^ C D D D D D D D D D D D D D D D D D D D D D D D D D D D D D D ^ ^ ^ ^ ^ ^ ^ ^ ^ ^ ^ E D D D D D D D D D D D D D D D D D D D D D D D D D D D D D D ^ ^ ^ ^ ^ ^ ^ ^ ^ ^ ^ D D D D D D D D D D D D D ^ F G H I J J J ",
"# # # # 1 A B ^ ^ ^ ^ ^ ^ ^ ^ ^ ^ ^ ^ ^ ^ ^ ^ ^ ^ ^ ^ ^ ^ ^ ^ ^ ^ ^ ^ ^ ^ ^ ^ ^ ^ ^ ^ ^ ^ ^ ^ ^ ^ ^ ^ ^ ^ ^ ^ ^ ^ ^ ^ ^ ^ ^ ^ ^ ^ ^ ^ ^ ^ ^ ^ ^ ^ ^ ^ ^ ^ ^ ^ ^ ^ ^ ^ ^ ^ ^ ^ ^ ^ ^ ^ ^ ^ ^ ^ ^ ^ ^ ^ ^ ^ ^ ^ ^ ^ ^ ^ ^ ^ ^ ^ ^ ^ ^ ^ ^ ^ ^ ^ ^ ^ K L M N O N N ",
"! ! ! ! P s B ^ ^ ^ ^ ^ Q R j S S T T T T U V j j j j j j j j j j j j j j j j j j j j j j j j j j j j j j j W X Q ^ ^ ^ ^ ^ Q Y Z ` S S T T T  .U V j j j j j j j j j j j j j j j j j j j j j j j j j j j j j j W ..+.@.^ ^ ^ ^ ^ ^ ^ ^ ^ ^ ^ ^ ^ K L M N O N N ",
". . . . #.$.%.^ ^ ^ ^ ^ K &.*.=.-.;.;.;.>.,.'.).z z z z z z z z z z z z z z z z z z z z z z z z z z z z z z !.L ~.{.^ ^ ^ ^ ].^./.(.-._.;.;.>.:.<.[.z z z z z z z z z z z z z z z z z z z z z z z z z z z z z z }.|.1.+.^ ^ ^ ^ ^ ^ ^ ^ ^ ^ ^ ^ ^ K L M N O N N ",
"      2.3.4.%.^ ^ ^ C ^ W 5.6.7.8.9.9.9.0.a.b.N c.c.c.c.c.c.c.c.c.c.c.c.c.c.c.c.c.c.c.c.c.c.c.c.c.c.c.c.J J d.e.j Q ^ ^ C C f.g.h.i.8.9.9.9.j.k.l.m.c.c.c.c.c.c.c.c.c.c.c.c.c.c.c.c.c.c.c.c.c.c.c.c.c.c.c.c.J n.o.p.q.+.^ ^ ^ ^ ^ ^ ^ ^ ^ ^ ^ ^ ^ K L M N O N N ",
"        6 4.%.^ ^ ^ C ^ W r.s.j.t.t.t.t.u.v.l.w.N N N N N N N N N N N N N N N N N N N N N N N N N N N N O O x.y.j @.^ ^ C C f.g.z.A.B.t.t.t.C.7.D.E.N N N N N N N N N N N N N N N N N N N N N N N N N N N N O F.G.H.q.+.^ ^ ^ ^ ^ ^ ^ ^ ^ ^ ^ ^ ^ K I.M N O N N ",
"        6 4.%.^ ^ ^ C ^ J.5.6.A.K.0.0.0.L.M.N.O.O.O.O.O.O.O.O.O.O.O.O.O.O.O.O.O.O.O.O.O.O.O.O.O.O.O.O.O.O.P.c.Q.~.B R.S.R.R.T.U.V.W.j.0.0.0.L.M.X.Y.O.O.O.O.O.O.O.O.O.O.O.O.O.O.O.O.O.O.O.O.O.O.O.O.O.O.O.O.O.P.E.Z.`.D R.R.S.R. +B D ^ ^ ^ ^ ^ ^ K .+++@+#+$+$+",
"        6 4.%.^ ^ ^ ^ ^ ..%+'.$+b.&+&+*+=+-+;+>+,+'+'+'+'+'+'+'+'+'+'+'+'+'+'+'+'+'+'+'+'+'+'+'+'+'+'+'+)+,+!+~+{+]+1 ^+^+| /+(+_+:+<+b.&+*+[+}+|+1+2+2+'+'+'+'+'+'+'+'+'+'+'+'+'+'+'+'+'+'+'+'+'+'+'+'+'+'+)+3+4+z.5+6+| 2 ^+7+]+8+p D ^ ^ ^ ^ ^ ~.y.9+v.7.A.0+",
"        6 4.%.^ ^ ^ ^ ^ ..a+[.J O O N N b+c+d+e+f+g+h+h+h+h+h+h+h+h+h+h+h+h+h+h+h+h+h+h+h+h+h+h+h+h+h+h+i+g+j+k+l+c # # # # 1 {+m+n+F.m.N N o+p+q+r+g+g+h+h+h+h+h+h+h+h+h+h+h+h+h+h+h+h+h+h+h+h+h+h+h+h+h+h+g+s+t+9+u+1 v+# # # } ^+A w+^ ^ ^ ^ ^ x+5.s.u.t.t.t.",
"y+y+y+2.z+4.%.^ ^ ^ ^ ^ A+a+z B+O N n.n.b+C+D+E+F+F+F+F+F+F+F+F+F+F+F+F+F+F+F+F+F+F+F+F+F+F+F+F+F+F+F+F+F+F+G+k+H+c v+# I+I+3 J+K+L+m.m.N N M+p+N+O+F+F+F+F+F+F+F+F+F+F+F+F+F+F+F+F+F+F+F+F+F+F+F+F+F+F+F+F+F+F+P+9+Q+| v+v+# # # | R+S+^ ^ ^ ^ ^ x+5.s.9.t.t.t.",
"T+T+T+U+V+W+X+^ ^ ^ ^ ^ A+a+z B+O N n.n.b+C+Y+E+F+F+F+F+F+F+F+F+F+F+F+F+F+F+F+F+F+F+F+F+F+F+F+F+F+F+F+F+F+F+Z+`+ @.@+@+@+@+@c @@#@z.m.m.N N M+p+N+O+F+F+F+F+F+F+F+F+F+F+F+F+F+F+F+F+F+F+F+F+F+F+F+F+F+F+F+F+F+F+P+$@%@c +@+@+@+@&@*@=@S+^ ^ ^ ^ ^ x+-@;@>@i.,@,@",
"'@'@'@)@!@~@{@^ ^ ^ ^ ^ A+a+z B+O N n.n.b+C+Y+E+F+F+F+F+F+F+F+F+F+F+F+F+F+F+F+F+F+F+F+F+F+F+F+F+F+F+F+F+F+F+]@^@/@(@_@:@:@_@<@=@[@o.o+o+N N M+p+N+O+F+F+F+F+F+F+F+F+F+F+F+F+F+F+F+F+F+F+F+F+F+F+F+F+F+F+F+F+F+F+}@|@n 1@_@:@:@:@2@3@4@ +^ ^ ^ ^ ^ 5@6@7@8@9@0@9@",
"a@a@b@a@c@d@e@^ f@^ ^ ^ A+a+z B+O N n.n.b+C+Y+E+F+F+F+F+F+F+F+F+F+F+F+F+F+F+F+F+F+F+F+F+F+F+F+F+F+F+F+F+F+F+g@y.h@i@j@j@j@k@2@l@m@o.o+o+N N M+p+N+O+F+F+F+F+F+F+F+F+F+F+F+F+F+F+F+F+F+F+F+F+F+F+F+F+F+F+F+F+F+F+n@o@p@q@k@j@j@j@r@s@t@u@^ ^ ^ ^ ^ ].`.&.Q.x x v@",
"w@w@w@x@y@z@e@^ f@^ ^ ^ A+a+z B+O N n.n.b+C+Y+E+F+F+F+F+F+F+F+F+F+F+F+F+F+F+F+F+F+F+F+F+F+F+F+F+F+F+F+F+F+F+g@y.h@i@j@j@j@k@2@l@m@o.o+o+N N M+p+N+O+F+F+F+F+F+F+F+F+F+F+F+F+F+F+F+F+F+F+F+F+F+F+F+F+F+F+F+F+F+F+n@o@A@B@C@j@j@j@r@s@t@u@^ ^ ^ ^ ^ ].D@&.Q.Q.Q.Q.",
"E@F@G@E@H@I@J@^ f@^ ^ ^ A+a+z B+O N n.n.b+C+Y+E+F+F+F+F+F+F+F+F+F+F+F+F+F+F+F+F+F+F+F+F+F+F+F+F+F+F+F+F+F+F+g@K@L@M@r@N@N@r@O@P@Q@o.o+o+N N M+p+N+O+F+F+F+F+F+F+F+F+F+F+F+F+F+F+F+F+F+F+F+F+F+F+F+F+F+F+F+F+F+F+'+R@S@T@r@U@N@N@M@V@W@X@^ ^ ^ ^ ^ f.`.Y@7@_+7@Z@",
"`@`@ #.#+#@###^ ^ ^ ^ ^ A+a+z B+O N n.n.b+C+Y+E+F+F+F+F+F+F+F+F+F+F+F+F+F+F+F+F+F+F+F+F+F+F+F+F+F+F+F+F+F+F+$#%#q &#*#=#=#*#v+-#;#>#o+o+N N M+p+N+O+F+F+F+F+F+F+F+F+F+F+F+F+F+F+F+F+F+F+F+F+F+F+F+F+F+F+F+F+F+F+P+,#'#.@*#=#=#=#)#!#P@B ^ ^ ^ ^ ^ A+~#`+{#]#^#^#",
"/#/#(#_#:#<#[#^ ^ ^ ^ ^ A+a+z B+O N n.n.b+C+Y+E+F+F+F+F+F+F+F+F+F+F+F+F+F+F+F+F+F+F+F+F+F+F+F+F+F+F+F+F+F+F+G+k+H+c v+v+# I+3 J+K+L+m.m.N N M+p+N+O+F+F+F+F+F+F+F+F+F+F+F+F+F+F+F+F+F+F+F+F+F+F+F+F+F+F+F+F+F+F+P+}#|#9 v+v+# # # 1 A S+^ ^ ^ ^ ^ K L z c.N n.n.",
"1#1#1#2#3#4#[#^ ^ ^ ^ ^ A+I.z B+N N n.n.b+5#6#7#8#f+9#9#9#9#0#0#h+h+a#a#a#a#a#a#a#a#a#h+h+a#0#9#9#9#9#9#b#c#j+d#H+c v+# I+I+3 J+K+L+m.N N n.}#p+q+e#b#f+9#9#9#9#0#0#a#h+h+a#a#a#a#a#a#a#a#a#h+h+0#0#9#9#9#9#c#f#g#:+Q+| v+# # # # 1 A S+^ ^ ^ ^ ^ K L M N O N N ",
"h#h#h#i#j#k#l#^ ^ ^ ^ ^ A+m@0@n+m#m#n#n#B+l.o#p#q#r#r#r#r#G+$#s#t#t#u#u#u#u#u#u#u#u#u#t#t#u#v#$#w#r#r#x#q#q#y#z#A#B## # I+I+3 J+C#{#I m#m#n#I D#y#E#F#x#r#r#r#w#$#v#u#t#t#u#u#u#u#u#u#u#u#u#t#t#s#$#G+r#r#r#q#Y+G#H#I#| v+# # # # | R+S+^ ^ ^ ^ ^ K L M N O N N ",
"J#J#J#J#K#L#{+^ ^ ^ ^ ^ f.M#K@N#O#O#O#`+P#Q#R#S#T#U#w w 5+Q+T.S.V#V#V#V#V#V#V#V#V#V#V#V#V#V#B W#X#w w w w w Y#Z#7+# # # # # 3 X+`#_+`+O#O#O# $.$+$@$U#T#w w w X#W#B V#V#V#V#V#V#V#V#V#V#V#V#V#V#S.#$Q+5+w w w w |#$$%$} # # # # # | R+S+^ ^ ^ ^ ^ K L M N O N N ",
"&$&$&$*$=$-$B ^ ^ ^ ^ ^ f.`.&.Q.;$Q.Q.;$Q#>$,$]+9 9 9 | 3 '$)$!$~$~$~$~$~$~$~$~$~$~$~$~$~$~$O@+@{$9 9 9 9 9 9 0 P # # # # # 0 ]$^$/$x Q.Q.;$($_$:$/+9 9 9 9 9 c &#T@~$~$~$~$~$~$~$~$~$~$~$~$~$~$T@<$!#3 | 9 9 9 9 0 P # # # # # # | R+S+^ ^ ^ ^ ^ K L M N O N N ",
"# # # # 1 -$B ^ ^ ^ ^ ^ f.`.[@Q.Q.Q.;$;$/$[$ @9 # # # # # }$|$1$j@j@j@j@j@j@j@j@j@j@j@j@j@2$2@*#I+# # # # # # # # # # # # # 0 ]$3$/$;$;$Q.;$4$5${+6$# # # # # v+7$2@2$j@j@j@j@j@j@j@j@j@j@j@j@j@M@|$}$# # # # # # # # # # # # # # 2 A S+^ ^ ^ ^ ^ K I.M N O N N ",
"@ @ @ @ 0 8$B ^ ^ ^ ^ ^ f.9$-@0$a$b$b$a$c$d$e$r f$f$f$g$%$1 h$i$j$j$j$j$j$j$j$j$j$j$j$j$j$j$k$l$6$g$g$f$g$f$m$7+9 3 3 3 3 0 7+-#n$x a$b$b$a$_+o$p$q$f$f$f$g$g$7+r$k$j$j$j$j$j$j$j$j$j$j$j$j$j$j$)$h$1 %$g$f$g$g$f$7+| 9 3 3 3 3 9 s$t$D ^ ^ ^ ^ ^ K .+u$v$w$b+b+",
"5 5 5 & x$y$n ^ ^ ^ ^ ^ ~.z$'.A$B$C$C$D$E$L+F$G$H$H$H$H$H$;#I$m@J$J$J$J$J$J$J$J$J$J$J$J$J$J$m@K$;#H$H$H$H$H$L$M$N$m t$m m t$R.^$O$>.B$C$C$D$&+P$Q$.$H$H$H$H$H$;#K$m@J$J$J$J$J$J$J$J$J$J$J$J$J$J$m@I$;#H$H$H$H$R$S$T$#$%.t$m m m m o B D ^ ^ ^ ^ ^ x+y.$@W.v.U$U$",
"      * V$W$%.^ ^ ^ C ^ W 5.v$X$C.Y$Y$Y$K.>@*+B+m#m#m#m#m#n#n#n#n+n+n+n+n+n+n+n+n+n+n+n+n+n#n#n#n#m#m#m#Z$m#`$Y@x+^ C ^ ^ E ].G  %.%C.+%Y$Y$9..%@%:+m#m#m#m#m#n#n#n#n#n+n+n+n+n+n+n+n+n+n+n+n+n+n#n#n#m#m#m#Z$Z$<.Z@#%Q C ^ ^ ^ ^ ^ ^ ^ ^ ^ ^ ^ ^ x+$%%%u.&%C.t.",
"        5 4.%.^ ^ ^ C ^ W r.s.9.*%t.t.t.C.v.l.F.N N N N N N N N N N N N N N N N N N N N N N N N N N N N O N x.y.j @.^ ^ C C f.g.z.A.B.t.t.t.C.=%D.b+N N N N N N N N N N N N N N N N N N N N N N N N N N N N O O n+-%q.+.^ ^ ^ ^ ^ ^ ^ ^ ^ ^ ^ ^ ^ x+5.s.u.t.t.t.",
"        6 4.%.^ ^ ^ C ^ W 5.6.7.9.j.j.j.K.;%>%=+,%,%,%,%,%,%,%,%,%,%,%,%,%,%,%,%,%,%,%,%,%,%,%,%,%,%,%,%=+=+'%)%W D B B B  +Q ~#!%i.8.j.j.j.K.=%N.~%,%{%,%,%,%,%,%,%,%,%,%,%,%,%,%,%,%,%,%,%,%,%,%,%,%,%,%,%=+]%o+^%/%(%B B B B B S+E ^ ^ ^ ^ ^ ^ x+-@P$.%A.A.A.",
"        6 4.%.^ ^ ^ ^ ^ ~._%<.[+@%@%@%:%<%5#[%}%|%1%1%1%1%1%1%1%1%1%1%1%1%1%1%1%1%1%1%1%1%1%1%1%1%1%1%1%|%|%2%a$3%/+]+f$f$f$] Q+4%v$l.@%@%@%l.5%6%7%1%|%1%1%1%1%1%1%1%1%1%1%1%1%1%1%1%1%1%1%1%1%1%1%1%1%1%1%|%8%9%0%5+] ]+f$f$f$/+s o D ^ ^ ^ ^ ^ X a%b%H#c%c%c%",
"        6 4.%.^ ^ ^ ^ ^ ..a+[.N m.N N N $+C+x#d%e%f%f%f%f%f%f%f%f%f%f%f%f%f%f%f%f%f%f%f%f%f%f%f%f%f%f%f%g%g%h%d#l+c # # # # 7+e$m+n+v$m.N N b+i%q+j%g%f%f%f%f%f%f%f%f%f%f%f%f%f%f%f%f%f%f%f%f%f%f%f%f%f%f%f%g%k%l%:+u+1 # # # # c ^+-$D ^ ^ ^ ^ ^ ].`.K$.$c$c$c$",
"        5 4.%.^ ^ ^ ^ ^ A+a+z B+O N n.n.b+C+Y+m%F+n%o%o%o%n%o%o%o%o%o%n%o%o%n%n%n%n%o%o%o%n%o%o%o%o%o%o%o%n%G+k+H+c v+# I+I+3 J+p%L+m.m.N N o+p+N+O+F+o%o%n%o%o%o%o%o%o%o%o%o%n%n%n%n%n%n%n%o%n%o%o%o%n%o%n%n%F+P+9+u+| v+v+# # # 1 A S+^ ^ ^ ^ ^ ].D@&.Q.Q.Q.Q.",
"= = = = 7 q%%.^ ^ ^ ^ ^ A+a+z B+O N n.n.b+C+Y+E+F+F+F+F+F+F+F+F+F+F+F+F+F+F+F+F+F+F+F+F+F+F+F+F+F+F+F+F+F+F+Z+O$ @.@}$}$}$}$c $$H$L+m.m.N N M+p+N+O+F+F+F+F+F+F+F+F+F+F+F+F+F+F+F+F+F+F+F+F+F+F+F+F+F+F+F+F+F+F+P+:+Y#c }$}$}$}$v+9 =@S+^ ^ ^ ^ ^ f.`.Y@7@7@7@7@",
", , , r%s%/+B ^ ^ ^ ^ ^ A+a+z B+O N n.n.b+C+Y+E+F+F+F+F+F+F+F+F+F+F+F+F+F+F+F+F+F+F+F+F+F+F+F+F+F+F+F+F+F+F+t%v@u%v%2@w%w%2@|$R+[@o.o+o+N N M+p+N+O+F+F+F+F+F+F+F+F+F+F+F+F+F+F+F+F+F+F+F+F+F+F+F+F+F+F+F+F+F+F+x%o.B i$2@w%w%w%(@k$y%S.^ ^ ^ ^ ^ A+z% $++A%A%A%",
"$ $ $ $ 3 A B ^ ^ ^ ^ ^ A+a+z B+O N n.n.b+C+Y+E+F+F+F+F+F+F+F+F+F+F+F+F+F+F+F+F+F+F+F+F+F+F+F+F+F+F+F+F+F+F+B%y.h@C%j@j@j@j@2@l@D%E%o+o+N N M+p+N+O+F+F+F+F+F+F+F+F+F+F+F+F+F+F+F+F+F+F+F+F+F+F+F+F+F+F+F+F+F+F+F%A%p@q@j@j@j@j@r@s@t@u@^ ^ ^ ^ ^ K L z G%J J J ",
"# # # # 2 -$B ^ ^ ^ ^ ^ A+a+z B+O N n.n.b+C+Y+E+F+F+F+F+F+F+F+F+F+F+F+F+F+F+F+F+F+F+F+F+F+F+F+F+F+F+F+F+F+F+g@y.h@i@j@j@j@k@H%l@m@o.o+o+N N M+p+N+O+F+F+F+F+F+F+F+F+F+F+F+F+F+F+F+F+F+F+F+F+F+F+F+F+F+F+F+F+F+F+n@o@A@B@C@j@j@j@r@s@t@u@^ ^ ^ ^ ^ K L M N O N N ",
"@ @ @ @ 3 u B ^ ^ ^ ^ ^ A+a+z B+O N n.n.b+C+Y+E+F+F+F+F+F+F+F+F+F+F+F+F+F+F+F+F+F+F+F+F+F+F+F+F+F+F+F+F+F+F+B%I%L@M@2$r@r@j@q@J%K%E%o+o+N N M+p+N+O+F+F+F+F+F+F+F+F+F+F+F+F+F+F+F+F+F+F+F+F+F+F+F+F+F+F+F+F+F+F+'+x.L%T@j@r@N@N@1$M%N%X@^ ^ ^ ^ ^ K L M N O N N ",
"& & & O%r%=$R.^ ^ ^ ^ ^ A+a+z B+O N n.n.b+C+Y+E+F+F+F+F+F+F+F+F+F+F+F+F+F+F+F+F+F+F+F+F+F+F+F+F+F+F+F+F+F+F+P%b%Q%R%S%7$7$|$+@%.T%>#o+o+N N M+p+N+O+F+F+F+F+F+F+F+F+F+F+F+F+F+F+F+F+F+F+F+F+F+F+F+F+F+F+F+F+F+F+U%Z$V%W%|$7$*#7$7$h$X% +^ ^ ^ ^ ^ K L M N O N N ",
"    * Y%V$4.%.^ ^ ^ ^ ^ A+a+z B+O N n.n.b+C+Y+E+F+F+F+F+F+F+F+F+F+F+F+F+F+F+F+F+F+F+F+F+F+F+F+F+F+F+F+F+F+F+Z+F$H+B#&@I+I+&@3 J+H$L+m.m.N N M+p+N+O+F+F+F+F+F+F+F+F+F+F+F+F+F+F+F+F+F+F+F+F+F+F+F+F+F+F+F+F+F+F+P+}#|#9 &@I+# I+I+1 A S+^ ^ ^ ^ ^ K L M N O N N ",
"        5 4.%.^ ^ ^ ^ ^ A+a+z B+N N n.n.b+C+D+Z%`% & & & & &.&8#8#8#8#8#8#8#8#8#8#8#8#8#8#8#8#.& & & & & & &+&k+H+c I+# I+I+3 J+K+L+m.N N n.}#p+@&#&s+ & & & & &.&8#8#8#8#8#8#8#8#8#8#8#8#8#8#8#8#.& & & & & &$&P+9+Q+| v+# # # # 1 A S+^ ^ ^ ^ ^ K I.M N O N N ",
"        6 4.%.^ ^ ^ ^ ^ A+L 9@n+,#I I m#n.p+[%1+%&&&&&&&&&*&=&1+1%1%1%1%1%1%1%1%1%1%1%1%1%1%1+-&;&&&&&&&&&;&>&,&'&c # # I+I+3 J+#@<.c.I I Z$,#,%)&x#%&&&&&&&&&*&-&1+1%1%1%1%1%1%1%1%1%1%1%1%1%1%1+=&*&&&&&&&;&!&~&{&]&| v+# # # # | R+S+^ ^ ^ ^ ^ K .+u$m.v$b+b+",
"        6 4.%.^ ^ ^ ^ ^ Y ^&v@Z.8@}.}.}.}.0$H$L$+$+$+$+$/&(&/%j x+x+x+x+x+x+x+x+x+x+x+x+x+x+U _&:&+$+$+$+$+$<&[&}&} # # # # 3 '&|&a$8@}.}.}.}.a$m+1&+$+$+$+$+$:&_&U x+x+x+x+x+x+x+x+x+x+x+x+x+x+j /%(&/&+$+$+$+$R#Y#] c # # # # # | R+S+^ ^ ^ ^ ^ x+e.,#}+a.a.W.",
"        6 4.%.^ ^ ^ ^ ^ f.`.&.x .$;$2&.$Q#<&3&g$4&4&4&4&y$c 5&O@2@2@2@2@2@2@2@2@2@2@2@2@2@2@1@W%0 4&4&4&4&4&| 0 P # # # # # 0 6&[$Q#.$2&;$.$Q.7&'#8&4&4&4&4&4&0 9&0&2@2@2@2@2@2@2@2@2@2@2@2@2@2@O@5&c 4&4&4&4&4&1 9 c # # # # # # | R+S+^ ^ ^ ^ ^ x+$%%%9.a&C.C.",
"        6 4.%.^ ^ ^ ^ ^ f.D@[@I%Q.Q.Q.;$/$[$6&3 # # # # # }$b&1$j@j@j@j@j@j@j@j@j@j@j@j@j@j@2@7$v+# # # # # # # # # # # # # 0 ]$c&/$;$Q.Q.Q.Q#5${+7+# # # # # &@7$H%j@j@j@j@j@j@j@j@j@j@j@j@j@j@1$|$}$# # # # # # # # # # # # # # d&R+S+^ ^ ^ ^ ^ x+5.s.e&B.t.t.",
"        6 4.%.^ ^ ^ ^ ^ +.U _$K$K$K$K$T%Q@w f&0 # # # # # }$|$2@N@N@N@N@N@N@g&1$h&h&h&h&h&h&O@9&*@| | | | | | | | | | | | 9 ]+ @M$Q@T%K$K$K$i&<&3&7+# # # # # &@7$2@N@N@N@N@N@N@g&1$1$h&h&h&h&h&T@<$j&| | | | | | | | | | | | | 1 k&t$w+^ ^ ^ ^ ^ x+K@>.l&m&7.X$",
"        6 4.%.^ ^ ^ ^ ^ D n&o&@@@@@@@@@@@@f&f$} # # # # # &@&#=#7$7$7$7$7$7$p&q&r&s&N%s&s&W@t&u&(+v&w&v&v&v&v&v&v&v&v&v&v&x&v&y&z&@@A&A&@@@@@@Z#%$c # # # # # # &@)#7$7$7$7$7$7$p&B&C&s&N%N%s&s&D&S@#$v&x&v&v&v&v&v&v&v&v&v&v&x&v&E&F&Q ^ ^ ^ ^ ^ A+~#O$G&{&{&H&",
"        6 4.%.^ ^ ^ ^ ^ w+A f$9 c {${${$3 I&P # # # # # # # # I+I+I+I+I+I+# s$p@w+D D D S+D R M#&.J&#@#@#@#@#@#@#@#@#@#@-@-@I$M$6&1 } c {${${${$} # # # # # # # # # I+I+I+I+I+# 2 A  +D D D S+D +.S m@|.-@#@#@#@#@#@#@#@#@#@-@-@C#D%1.+.^ ^ ^ ^ ^ f.`.z$x c$x v@",
"        6 4.%.^ ^ ^ ^ ^ S+R+1 # # # # # # # # # # # # # # # # # # # # # # 0 /+o ^ ^ ^ ^ ^ ^ x+z%/$Q.Q.Q.Q.Q.Q.Q.Q.Q.Q.Q.Q.;$C#K&f&3 # # # # # # # # # # # # # # # # # # # # # # ^+t$D ^ ^ ^ ^ ^ 5@9$K$K@Q.Q.Q.Q.Q.Q.Q.Q.Q.Q.Q.Q.I%L&D@M&^ ^ ^ ^ ^ ].D@&.Q.Q.Q.Q.",
"        6 4.%.^ ^ ^ ^ ^ w+p N&f$O&O&O&O&O&7+7+7+7+7+7+7+7+7+7+7+7+7+7+7+1 f$u n&+.5@5@5@5@5@P&m@Q..$c$c$c$c$.$Q.I%/$/$/$-@-@&.c&H+%$7+O&O&O&O&7+7+7+7+7+7+7+7+7+7+7+7+7+7+7+7+7+N&Q&Q 5@5@5@5@5@J.R&/$v@7@c$c$c$c$x I%/$/$/$/$-@|.D%S&+.^ ^ ^ ^ ^ ].`.K$.$c$c$7@",
"        6 4.%.^ ^ ^ ^ ^ f.T T&U&V&V&V&V&V&W&+$5$a%a%a%a%a%a%a%a%a%a%a%`#X&|&L$-@)%)%)%)%)%^@Z@}.z `$`$`$`$`$8@K@R&`.S S S S q.U.Y&U&V&V&V&V&V&Z&`&|&a%a%a%a%a%a%a%a%a%a%a%`#`#5$7&T%I%)%)%)%)% *.*O#+*).`$`$`$`$9@Z@D%/%S S S S S U A+@*^ ^ ^ ^ ^ X #*b%).`$`$`$",
"        6 4.%.^ ^ ^ C ^ x+$*(.%*&*******=*-*v$n#;*;*;*;*;*;*;*;*;*;*;*;*;*n+n#>*Z$Z$Z$Z$Z$Z$m#B+,*'*'*'*J J '.I%` +.Q Q Q ^ A+g.)*!*&*******.%~*E${*;*;*;*;*;*;*;*;*;*;*;*;*;*;*n+>*>*Z$Z$Z$Z$Z$Z$;@B+'*'*'*J J ]*b$M#f.@.Q F&F&F&Q ^ ^ ^ ^ ^ ^ ^ K L z I J J J ",
"        5 4.%.^ ^ ^ C ^ W r.s.j.B.t.t.t.9.^*:%m.N N N N N N N N N N N N N N N N N N N N N N N N N N N N O N x.y.j @.^ ^ C C f.Q@z.A.B.t.t.t.C.=%/*b+N N N N N N N N N N N N N N N N N N N N N N N :+:+:+:+:+N O n+b$(*+.^ ^ ^ ^ ^ ^ ^ ^ ^ ^ ^ ^ ^ K L M N O N N ",
"= = * = _*:*%.^ ^ ^ C ^ W ^@-.<*a&[*[*C.K.}*$+Z$n+n+G.G.G.G.G.G.G.G.G.G.G.G.G.G.G.G.G.G.G.G.G.G.G.G.G.G.G.G.[.z$~.D S+S+S+S+F&|*1*.%a&C.[*C.9..%<+,#n+n+G.G.G.G.G.G.G.G.G.G.n+n+2*3*4*4*4*4*4*4*4*4*4*4*4*4*4*5*6*7*8*9*0*a*a*l#b*b*e$(%^ ^ ^ ^ ^ K L M N O N N ",
"4 4 e 4 c*f$ +^ ^ ^ ^ ^ ~.|.d*<%>%e*D.>%l.m#O#|.a+a+a+a+a+a+a+a+a+a+a+a+a+a+a+a+a+a+a+a+a+a+a+a+a+a+a+a+a+a+z%f*%.] g*g*g*h*-$i*/.j*k*>%-*-*<%}#H $*a+a+a+a+a+a+a+a+a+a+a+a+l*L$m*n*o*p*p*q*q*q*q*q*q*q*q*q*q*p*r*s*t*u*v*w*w*w*v*x*y*z*^ f@^ ^ ^ K L M N O N N ",
"@ @ @ > 3 A B ^ ^ ^ ^ ^ ..a+[.N v$F.F.v$B+A*B*A++.+.+.+.+.+.+.+.+.+.+.+.+.+.+.+.+.+.+.+.+.+.+.+.+.+.+.+.].+.C*-$^+0 P } } # 7+3%D*m#b+v$F.v$N u$_%j +.+.+.+.+.+.+.+.+.+.+.E*F*G*H*I*J*K*K*K*K*K*K*K*K*K*K*K*L*M*E@N*O*P*Q*R*R*S*T*U*V*W*f@f@^ ^ ^ K L M N O N N ",
"# # # # 1 -$B ^ ^ ^ ^ ^ A+a+z B+O N O O Z$Z.^&f.^ ^ ^ ^ ^ ^ ^ ^ ^ ^ ^ ^ ^ ^ ^ ^ ^ ^ ^ ^ ^ ^ ^ ^ ^ ^ ^ ^ ^ ^ S+8$| # # # I+I+3 J+p%L+m.m.N O B+[.a+..^ ^ ^ ^ ^ ^ ^ ^ ^ ^ ^ ^ f@X*Y*Z*`*w@w@w@w@w@w@w@w@w@w@w@w@w@ =.=+=@=#=#=#=$=%=&=*=W*f@f@^ ^ ^ K I.M N O N N ",
"========-=;=B ^ ^ ^ ^ ^ A+a+z B+O N O O Z$Z.>=].^ ^ ^ ^ ^ ^ ^ ^ ^ ^ ^ ^ ^ ^ ^ ^ ^ ^ ^ ^ ^ ^ ^ Q ,=,=,=,=,=,=D R+| # # # I+I+3 J+p%L+m.m.N N B+'=.+..^ ^ ^ ^ ^ ^ ^ ^ ^ ^ ^ ^ f@X*)=!=~={=]=]= =]=]=^=/=F@F@F@/=/=(=_=:=S*<=<=<=<=[=}=|=W*f@f@^ ^ ^ K a+*.m.v$v$v$",
"1=1=1=2=3=4=5=^ ^ ^ ^ ^ A+a+z B+O N O O Z$Z.>=F*^ ^ ^ ^ ^ ^ ^ ^ ^ ^ ^ ^ ^ ^ ^ ^ ^ ^ ^ ^ ^ ^ f.j (*M#M#M#M#M#6=,$7=P # # I+I+3 J+p%L+m.m.N N B+'=.+..^ ^ ^ ^ ^ ^ ^ ^ ^ ^ ^ ^ f@[&8=9=0=a=b=b=b=b=c=d=e=f=g=g=h=h=i=j=k=l=m=m=m=m=n=o=p=q=^ ^ ^ ^ ^ ~.|.r=s=}*k*k*",
"t=t=u=v=w=x=y=^ f@^ ^ ^ A+a+z B+O N O O Z$Z.>=F*^ ^ ^ ^ ^ ^ ^ ^ ^ ^ ^ ^ ^ ^ ^ ^ ^ ^ ^ ^ ^ ^ ~.a%T%Q#I%z=I%I%7&:$%$} # # I+I+3 J+p%L+m.m.N N B+'=.+..^ ^ ^ ^ ^ ^ ^ ^ ^ ^ ^ ^ f@A=B=C=D=E=F=G=H=H=I=J=K=L=M=N=N=O=P=Q=R=S=T=U=V=W=U=X=Y=Z=^ ^ ^ ^ ^ x+K@w$9.a&[*[*",
"w@w@`=x@ -z@e@^ f@^ ^ ^ A+a+z B+O N O O Z$Z.>=F*^ ^ ^ ^ ^ ^ ^ ^ ^ ^ ^ ^ ^ ^ ^ ^ ^ ^ ^ ^ ^ ^ x+z%/$Q.Q.Q.;$Q..-W#%$P # # I+I+3 J+p%L+m.m.N N B+'=.+..^ ^ ^ ^ ^ ^ ^ ^ ^ ^ ^ ^ f@A=B=+-T*#=#=#=@-#=#-$-%-&-*-t.t.B.X$w$=-.*Q.Q.Q.Q.I%L&^$].^ ^ ^ ^ ^ x+5.s.e&B.t.--",
"]=]={=;->-,-'-^ f@^ ^ ^ A+a+z B+O N O O Z$Z.>=F*^ ^ ^ ^ ^ ^ ^ ^ ^ ^ ^ ^ ^ ^ ^ Q F&,=F&F&Q ].x+z%)-Q.Q.Q.Q.Q.!-:$}&v+&@&@&@&@3 J+H$L+m.m.N N B+'=.+..^ ^ ^ ^ ^ ^ ^ ^ ^ ^ ^ ^ f@V%~-{-]-^-^-^-/-^-(-_-:-<-[-t.B.B.7.>.}-|.[@&.K$K$[@|-U ].^ ^ ^ ^ ^ x+K@_.1-j.0.0.",
"2-2-3-2-4-5-6-^ ^ ^ ^ ^ A+a+z B+O N O O Z$Z.>=F*^ ^ ^ ^ ^ ^ ^ ^ ^ ^ ^ ^ ^ @.R U (*9$(*(*(*(*R&[@I%Q.Q.Q.;$Q.7&n&7-|$8-8-8-8-<$m K$>#o+o+N N B+'=.+..^ ^ ^ ^ ^ ^ ^ ^ ^ ^ ^ ^ ^ 9-0-a-b-$-$-$-c-$-d-e-f-g---t.h-h-i.i-T o j-j-k-k-k-S@ +D ^ ^ ^ ^ ^ K G 0@r=,.m#m#",
"l-l-@=l-m-n-o-^ ^ ^ ^ ^ A+a+z B+O N O O Z$Z.>=F*^ ^ ^ ^ ^ ^ ^ ^ ^ ^ ^ ^ ^ F&U J$/$I%z=z=z=z=y.K@Q.Q.Q.Q.x Q.~#o 3@C%j@2$2$j@q@J%m@E%o+o+N N B+'=.+..^ ^ ^ ^ ^ ^ ^ ^ ^ ^ ^ ^ C F&p-q-r-s-t-t-u-t-v-w-<-t.t.t.h-x-!*5.y-T@1$M@M@M@2@z-W@A-^ ^ ^ ^ ^ f.`.Y@.*Z@B-B-",
"#=#=$=C-D-*=E-^ ^ ^ ^ ^ A+a+z B+N N O O Z$Z.>=].^ ^ ^ ^ ^ ^ ^ ^ ^ ^ ^ ^ ^ F&U m@I%Q.Q.Q.Q.Q.Q.Q.Q.Q.Q.Q.x Q.z%S@z-i@j@j@j@k@H%l@m@o.o+F-N N B+M .+..^ ^ ^ ^ ^ ^ ^ ^ ^ ^ ^ ^ C F&R&G&.%t.t.t.t.t.t.t.t.t.t.t.B.G-H--@l@M@C@j@j@j@r@s@t@u@^ ^ ^ ^ ^ ].D@[@Q.Q.Q.Q.",
"I-I-I-J-K-L-E-^ ^ ^ ^ ^ A+L +*I J J J J n+^%M-Q S+w+w+w+w+w+w+D w+w+w+w+S+^ N-#*[@z$z$z$z$z$z$z$z$z$z$z$z$z$O-k-3@C%j@2$2$j@2@l@D%^#N J J J I P-L R w+w+w+w+w+w+w+D D w+D w+S+C (*=-Q-%*R-R-R-R-S-S-S-S-S-S-W.,@w$o$4@q@j@2$2$j@N@j$s&u@^ ^ ^ ^ ^ ].`.K$x .$.*.*",
"T-T-T-U-V-W-X-^ ^ ^ ^ ^ Y-#*Z-+*).).).[.`-|.v&t 8$8$8$8$8$X%4@t@C&C&C&C&C&C&4@ ;L%S@S@S@S@S@S@S@S@S@S@S@S@S@=@.;+;@;8-8-8-#;*#8$a%Z.[.).).).H v@c&$;8$8$8$8$8$%;l@&;C&C&C&C&*;C&y-=;-;`.`.`.`.`.`.`.`.`.`.`.`.`.;;R.>;|$8-8-8-8-,;9&J%S.^ ^ ^ ^ ^ X ';Z@9@9@9@9@",
"););););!;~;N$^ ^ ^ ^ ^ f./%K$v@7@c$c$7@I%>$X+1 P } } I&} v+S%{;];i@];];];];^;~$~$~$~$~$~$~$~$~$~$~$~$~$~$~$q@|$+@v+v+v+&@&@c f&/;Q#7@c$c$7@;$7&V%f$} } } } } # )#T@1$i@];];];];h&2@(;T@T@T@T@T@T@T@T@T@T@T@T@T@O@|$+;v+v+v+&@&@v+9 _;S+^ ^ ^ ^ ^ K L +*I B+,*,*",
"# # # # 1 -$B ^ ^ ^ ^ ^ f.`.[@I%Q.Q.Q.;$/$[$ @3 # # # # # }$b&1$j@j@j@j@j@j@j@j@j@j@j@j@j@j@j@j@j@j@j@j@j@j@C%b&+@# # # # # 0 ]$c&/$;$;$Q.Q.Q#5${+7+# # # # # &@7$H%j@j@j@j@j@j@j@j@j@j@j@j@j@j@j@j@j@j@j@j@j@j@r@(@)#I+# # # # # 1 A S+^ ^ ^ ^ ^ K L M N O N N ",
"# # # # 2 -$B ^ ^ ^ ^ ^ ].1.D%|.|.|./$/$&.M$f&0 # # # # # }$|$M@r@r@U@U@U@U@U@U@U@U@U@U@U@];i@^;^;:;:;:;:;:;q@7$v+c <;*@c c 7+X+c&K$I%I%I%I%/$`#{+]+P P P } } # =#[;];i@U@U@U@];i@^;^;:;:;:;:;:;:;:;:;:;:;:;:;:;~$b&+@} } P P P c ^+-$D ^ ^ ^ ^ ^ K L M N O N N ",
"# # # # ^+-$B ^ ^ ^ ^ ^ Q F&y&(+Y#Y#Y#Y#'#,$%$} # # # # # # '$};|;|;|;|;|;|;|;|;|;|;|;|;1;|;*;4@2;3;3;3;3;3;=@m u&{+{+{+{+{+3%E&M$4;';';';';M#U 5;u g*h*g*g*g*g*s$*;|;|;|;|;1;|;*;4@2;3;3;3;3;3;3;3;3;3;3;3;3;3;3;t&P@g*g*g*g*g*g*A n D ^ ^ ^ ^ ^ K L M N O N N ",
"# # # # ^+-$B ^ ^ ^ ^ ^ w+k-k&| 6;6;6;6;9 3 } # # # # # # 9 g*o B B B B B B B B B B B B  +w+].7;D%[@[@[@[@[@[@K$K$Y@Y@Y@Y@Y@8;a%;;f.,=,=,=,=,=Q ^ D S+S+S+S+S+S+B B B B B  + +D f.(*m@[@[@[@[@[@[@[@[@[@[@[@[@[@m@(*A+C*S+S+S+S+S+D ^ ^ ^ ^ ^ ^ ^ K L M N O N N ",
"# # # # 2 -$B ^ ^ ^ ^ ^ S+R+| # # # # # # # # # # # # # # | 8$B ^ ^ ^ ^ ^ ^ ^ ^ ^ ^ ^ ^ ^ ^ ~.z%/$Q.Q.Q.Q.Q.Q.Q.Q.Q.Q.Q.Q.Q.-@_$;;@*^ ^ ^ ^ ^ ^ ^ ^ ^ ^ ^ ^ ^ ^ ^ ^ ^ ^ ^ ^ ^ ^ x+z%/$Q.Q.Q.Q.Q.Q.Q.Q.Q.Q.Q.Q.Q./$z%x+Q ^ ^ ^ ^ ^ ^ ^ ^ ^ ^ ^ ^ ^ K I.M N O N N ",
"@ @ @ $ 3 A B ^ ^ ^ ^ ^ w+t }&4&y$4&4&4&y$y$y$| 9;9;9;0;y$f$t C*@*a;@*@*@*@*@*@*@*@*@*@*@*+.j J$K@x .$.$.$.$x Q.I%z=z=z=I%I%|.~#b;Y-f.f.5@5@5@c;E*+.@*@*@*@*@*@*@*@*@*@*@*@*@*E*V m@Q.x .$.$.$.$.$.$.$.$.$.$.$.$K@J$x+^ E E E E E C ^ ^ ^ ^ ^ ^ ^ K a+[.N F.m.m.",
"+ + + + c*f$ +^ ^ ^ ^ ^ Q d;e;f;g;g;g;g;f;h;i;X#u+u+u+u+u+j;4;J$I.I.m@m@m@m@m@m@m@m@m@m@K%a+_%p.A*8@8@8@8@8@O#K@D%^&^&#*#*#*#*G _%$%r.r.r.r.5.K@|.a+m@m@m@m@m@m@m@m@m@m@m@m@K%a+|.b$8@8@8@8@8@8@8@8@8@8@8@8@8@k;O#!-y&t$A A A A A m  +D ^ ^ ^ ^ ^ ~.z$z.<%-*<%<%",
"= = * = _*:*%.^ ^ ^ C ^ ~.-@l;H-m;n;!*m;~*D$$@>#^#^#^#^#^#]#o;]*d*d*d*d*d*d*d*d*d*d*d*d*d*d*n+m#I I I I ,#I ++y.` ].F&F&F&Q A+g.p;q;r;i.i.i.s;q;$+Z$d*d*d*d*d*d*d*d*d*d*d*d*d*n+n+m#I I I I I I I I I I I I ,#J {#t;@@1 c c 0 0 9 ]+-$D ^ ^ ^ ^ ^ x+K@-.K.C.u.u.",
"        5 4.%.^ ^ ^ C ^ W r.s.j.B.t.t.t.9.^*:%m.N N N N N N N N N N N N N N N N N N N N N N N N N N N N O N x.y.j @.^ ^ ^ C f.Q@z.A.B.t.t.t.C.=%/*b+N N N N N N N N N N N N N N N N N N N N N N N N N N N N N m.]#i&l+3 I+# # # # | R+S+^ ^ ^ ^ ^ x+5.s.e&B.t.t.",
"        6 4.%.^ ^ ^ C ^ W ^@u;K.t.C.C.C.j.a.&+B+m#m#m#m#m#m#m#m#m#m#m#m#m#m#m#m#m#m#m#m#m#m#m#m#m#m#m#m#I Z$*._%x+C*D C C w++.G  %r;t.C.C.C.8.k.@%n.m#m#m#m#m#m#m#m#m#m#m#m#m#m#m#m#m#m#m#m#m#m#m#m#m#m#m#m#I ,#v;L$'&{$I+# # # # | R+S+^ ^ ^ ^ ^ x+K@-.m&9.w;j.",
"        6 4.%.^ ^ ^ ^ ^ N-e.x;k*a.a.a.a.s=m.y;p.v@z;z;z;z;z;z;z;z;z;z;z;z;z;z;z;z;z;z;z;z;z;z;z;z;z;z;z;z;z;_%T u&-$A A A A %.^$=-@%A;a.a.a.B;*+'.!.z;z;z;z;z;z;z;z;z;z;z;z;z;z;z;z;z;z;z;z;z;z;z;z;z;z;z;z;C;C;/$M$D;0 # # # # # | R+S+^ ^ ^ ^ ^ K a+E;9+6.}#6.",
"        6 4.%.^ ^ ^ ^ ^ ...+F;N b+v$v$b+B+0@m@W 5@Y-Y-Y-Y-Y-Y-Y-Y-Y-Y-Y-Y-Y-Y-Y-Y-Y-Y-Y-Y-Y-Y-Y-Y-Y-Y-Y-Y-Y-{.t ]+3 0 3 c j&7+V%x m#E.v$v$b+N ++J&P&5@Y-Y-Y-Y-Y-Y-Y-Y-Y-Y-Y-Y-Y-Y-Y-Y-Y-Y-Y-Y-Y-Y-Y-Y-Y-Y-Y-Y-A++.o f$P # # # # # | R+S+^ ^ ^ ^ ^ f./%|.Z-p.p.p.",
"        6 4.%.^ ^ ^ ^ ^ A+a+).B+O N O O Z$Z.^.f.^ ^ ^ ^ ^ ^ ^ ^ ^ ^ ^ ^ ^ ^ ^ ^ ^ ^ ^ ^ ^ ^ ^ ^ ^ ^ ^ ^ ^ ^ S+8$| # # # I+I+3 J+p%L+m.m.N O B+[.a+~.^ ^ ^ ^ ^ ^ ^ ^ ^ ^ ^ ^ ^ ^ ^ ^ ^ ^ ^ ^ ^ ^ ^ ^ ^ ^ ^ ^ ^ ^ D t$^+P # # # # # 1 A S+^ ^ ^ ^ ^ ].D@&.Q.Q.Q.Q.",
"        6 4.%.^ ^ ^ ^ ^ A+a+z B+O N O O Z$Z.>=].^ ^ ^ ^ ^ ^ ^ ^ ^ ^ ^ ^ ^ ^ ^ ^ ^ ^ ^ ^ ^ ^ ^ ^ @.G;G;G;G;G;H;=@9 I+I+# I+&@3 J+H$L+m.m.N N B+'=.+..^ ^ ^ ^ ^ ^ ^ ^ ^ ^ ^ ^ ^ ^ ^ ^ ^ ^ ^ ^ ^ ^ ^ ^ @.G;G;G;G;F&^ t$^+# I+# # I+I+| A S+^ ^ ^ ^ ^ ].`.&.;$;$;$x ",
"        6 4.%.^ ^ ^ ^ ^ A+a+z B+O N O O Z$Z.>=F*^ ^ ^ ^ ^ ^ ^ ^ ^ ^ ^ ^ ^ ^ ^ ^ ^ ^ ^ ^ ^ ^ +.x+U S&S&S&S&S&R A 7-*#7$7$7$|$+@%.T%>#o+o+N N B+'=.+..^ ^ ^ ^ ^ ^ ^ ^ ^ ^ ^ ^ ^ ^ ^ ^ ^ ^ ^ ^ ^ ^ +.A+U S&S&S&S&^$Z S.L@<$7$7$7$7$7$h$X% +^ ^ ^ ^ ^ 5@';v@O$}.F$F$",
"        6 4.%.^ ^ ^ ^ ^ A+a+z B+O N O O Z$Z.>=F*^ ^ ^ ^ ^ ^ ^ ^ ^ ^ ^ ^ ^ ^ ^ ^ ^ ^ ^ ^ ^ ^ ~.';8;/$/$/$-@/$';p@3@C%r@r@r@j@q@J%K%E%o+o+N N B+'=.+..^ ^ ^ ^ ^ ^ ^ ^ ^ ^ ^ ^ ^ ^ ^ ^ ^ ^ ^ ^ ^ ^ f.`.Q@|./$/$-@-@m@@.I;M@r@r@N@N@1$M%N%X@^ ^ ^ ^ ^ K L 9@m#,#{*I ",
"        6 4.%.^ ^ ^ ^ ^ A+a+z B+O N O O Z$Z.>=F*^ ^ ^ ^ ^ ^ ^ ^ ^ ^ ^ ^ ^ ^ ^ ^ ^ ^ ^ ^ ^ ^ x+z%/$Q.Q.Q.x Q.z%S@z-i@j@j@k@k@H%l@m@o.o+o+N N B+'=.+..^ ^ ^ ^ ^ ^ ^ ^ ^ ^ ^ ^ ^ ^ ^ ^ ^ ^ ^ ^ ^ ^ f.9$K$K@Q.Q.5.x &.Q |;1$j@j@j@j@r@s@t@u@^ ^ ^ ^ ^ K L M N O N N ",
"        6 4.%.^ ^ ^ ^ ^ A+a+z B+O N O O Z$Z.>=F*^ ^ ^ ^ ^ ^ ^ ^ ^ ^ ^ ^ ^ ^ ^ @.@.@.@.@.Q F&x+z%/$Q.Q.Q.x Q.z%S@z-i@j@j@k@k@H%l@m@o.o+o+N N B+'=.+..^ ^ ^ ^ ^ ^ ^ ^ ^ ^ ^ ^ ^ ^ ^ ^ @.@.@.@.@.Q A+M#K$Q.Q.Q.x x &.Q |;1$j@j@j@j@r@s@t@u@^ ^ ^ ^ ^ K L M N O N N ",
"        6 4.%.^ ^ ^ ^ ^ A+a+z B+O N O O Z$Z.>=F*^ ^ ^ ^ ^ ^ ^ ^ ^ ^ ^ ^ ^ @.f.x+U S&S&U U T (*L )-Q.Q.Q.x Q.z%S@z-i@j@j@k@k@H%l@m@o.o+o+N N B+'=.+..^ ^ ^ ^ ^ ^ ^ ^ ^ ^ ^ ^ ^ ^ +.~.j U S&S&U U (*J$|.Q.Q.Q.x x &.Q |;1$j@j@j@j@r@s@t@u@^ ^ ^ ^ ^ K L M N O N N ",
"        6 4.%.^ ^ ^ ^ ^ A+a+z B+O N O O Z$Z.>=F*^ ^ ^ ^ ^ ^ ^ ^ ^ ^ ^ ^ ^ F&J;B*C#/$/$|.|.|./$I%Q.Q.Q.Q.x Q.z%S@z-i@j@j@k@k@H%l@m@o.o+o+N N B+'=.+..^ ^ ^ ^ ^ ^ ^ ^ ^ ^ ^ ^ ^ ^ x+';K$/$/$|.|.|./$y.Q.Q.Q.Q.x x &.Q |;1$j@j@j@j@r@s@t@u@^ ^ ^ ^ ^ K L M N O N N ",
"        6 4.%.^ ^ ^ ^ ^ A+a+z B+N N N O Z$Z.>=].^ ^ ^ ^ ^ ^ ^ ^ ^ ^ ^ ^ ^ F&U m@K@Q.Q.Q.Q.Q.Q.Q.Q.Q.Q.Q.x Q.z%S@z-i@j@j@k@k@H%l@m@o.o+K;N N B+'=.+..^ ^ ^ ^ ^ ^ ^ ^ ^ ^ ^ ^ ^ ^ x+z%/$Q.Q.Q.Q.Q.Q.Q.Q.Q.Q.Q.x x &.F&|;1$j@j@j@j@r@s@t@u@^ ^ ^ ^ ^ K I.M N O N N ",
"        6 4.%.^ ^ ^ ^ ^ A+I.z I n.J J N n+^%^&].E ^ C C ^ C L;M;S+S+S+S+w+^ W _$C#|.N;N;N;N;N;N;N;N;N;N;-@-@';p@z-i@j@j@j@j@2@l@m@<.N J J n.I z a+A+C C C C C C E L;M;S+S+S+S+E A+^&&.|.J&N;N;N;N;N;N;N;N;N;-@-@D%@.|;1$j@j@j@j@r@j$O;S+Q @.@.@.Q ~..+[.N O m.m.",
"        6 4.%.^ ^ ^ ^ ^ A+B* $F;o@A%A%x.).Q.;;n t$t$t$t$t$A y-l@4@4@4@4@4@P;Q;D F&F&F&F&F&F&F&F&F&F&F&F&F&F&B R;S;(@w%w%w%2@|$P@R&T;^#U;A%x.F;b$4;V;t$t$t$t$t$j-=@2;4@4@4@4@4@D& ; +@.F&F&F&F&F&F&F&F&F&F&F&F&Z=C*W;X;O@2@w%w%w%T@Y; ;R U U U J;U M#v@n+<+@%@%Z;",
"        6 4.%.^ ^ ^ ^ ^ f./%Y@v@7@7@7@Z-Q._&-#7+0 3 3 3 c I+)$(;~$~$~$~$~$~$q@!$T@T@T@T@T@T@T@T@T@T@T@T@T@T@s@)$+@&@}$}$}$}$B#f&/;($Z-7@7@Z@v@!-:$/+3 3 3 3 c !#+;<@~$~$~$~$~$~$q@q@T@T@T@T@T@T@T@T@T@T@T@T@T@T@T@`;+;}$}$}$}$}$.@ >W#7&/$/$|.|.|.v@.>+><*9.9.9.",
"        5 4.%.^ ^ ^ ^ ^ f.`.[@I%Q.Q.;$;$/$[$ @| # # # # # }$1@1$j@j@j@j@j@j@j@j@j@j@j@j@j@j@j@j@j@j@j@j@j@j@1$b&+@# # # # # 0 ]$c&/$;$;$Q.;$Q#5${+7+# # # # # &@7$2@j@j@j@j@j@j@j@j@j@j@j@j@j@j@j@j@j@j@j@j@j@j@i@T@+;I+# # # # c r Y#L&Q.;$Q.Q.Q.b% %!*&%B.t.t.",
"      * V$W$%.^ ^ ^ ^ ^ f.T K%#@Q#H$Q#Q#K$c&]$0 # # # # # }$1@M@j@j@j@j@j@j@j@2$r@r@r@r@r@r@N@g&g&1$g&g&U@g&H%|$v+} I&I&} } |  @c&T%Q.I%I%K@-@p-J+7+# # # # # &@7$2@2$j@j@j@j@j@j@2$r@r@r@r@r@r@N@g&g&1$1$g&U@g&M@b&+@} @>I&} } 3 [ Q+L&Q.;$Q.Q.Q.b%{&#>j.+%+%+%",
"5 5 5 & x$$>R.^ ^ ^ ^ ^ Q R 5+%>%>S#%>c&w e$r c # # # # # &@*#8-w%w%w%w%w%v%b&i$&>&>&>&>&>*>=>|;->h@h@h@*;h@L@6+q v v ;>;>]$X+V%M$R&J$J$B*J$z%M$$;1 # # # # # v+)#8-w%w%w%w%w%w%v%`;3@*>*>&>&>&>>>1;,>h@h@h@*;*;'>R;] ]$v ;>;>]$ @e$[$C#Q.Q.Q.Q.Q.7@y;P$A$)>)>C$",
"@ @ @ @ 0 Q%B ^ ^ ^ ^ ^ D m /+6$7+7+7+7+7+| c # # # # # # # v+&@}$}$}$}$&@# ^+A u@u@u@u@u@S.@.U z%D%D%D%D%D%m@K%L&L&L&L&L&L&!-';;;Y ].].].].+.D !>0 # # # # # # I+v+}$}$}$}$&@v+~>{>V#u@u@u@u@u@D x+6@_$D%D%D%D%D%m@Q@L&L&L&L&L&L&K$-@Q.Q.Q.Q.Q.Q.Q.7@Z-b$b$b$b$",
"# # # # 2 -$B ^ ^ ^ ^ ^ S+R+1 ]># # # # # # # # # # # # # # # # # # # # # 0 /+o ^ ^ ^ ^ ^ ^ ~.R&|.Q.Q.Q.Q.Q.Q.Q.Q.Q.Q.Q.Q.Q./$z%;;@*^ ^ ^ ^ ^ S.g*0 # # # # # # # # # # # # # # ^+k-S+^ ^ ^ ^ ^ f.9$K$I%Q.Q.Q.Q.Q.Q.Q.Q.Q.Q.Q.Q.Q.Q.Q.Q.Q.Q.Q.Q.Q.Q.Q.Q.Q.Q.Q.Q.",
"b b b # | A B ^ ^ ^ ^ ^ w+-$f$3 {${${${$3 3 3 3 3 3 3 3 3 3 3 3 3 3 3 3 {$| s  +Q F&F&F&Q ].Z |-y.Q.Q.Q.Q.Q.Q.Q.Q.K@K@K@K@K@|.z%j +.^ ^ ^ @.^ B 8$7+3 {$3 3 3 3 3 3 3 3 3 3 {$3 /+p ^ F&F&F&Q ,=~.^>C#;$;$Q.Q.Q.Q.Q.I%/$/$/$/$/$/$/$y.K@K@K@K@K@K@Q.Q.Q.Q.Q.Q.Q.",
"r%r%r%/ />/+B ^ ^ ^ ^ ^ ^ #$'#(>(>(>(>(>(>G*e$J+i i i i i i i i i i i i i z&(+T M#M-M-M-M-^&G K@a$O#`+`+`+`+b%K@[@J$J$J$J$J$B*';S j _>_>_>_>Z x&W#{+i i i i i i i i i i i i i :>y&_><>M#M-M-M-M-z%|.p.O#O$`+`+O$a$Q#5$[$c&c&c&c&c&[$a%B*J$J$J$J$J$a+-@0$`+`+`+`+",
"= = = = [>q%%.^ ^ ^ C ^ ~.}>|>)>1>1>2>2>3>>.z..>`$`$`$`$`$`$`$`$`$`$`$`$`$`$++'.R@R@R@R@R@R@o.n+m#m#m#m#m#m#u$y.S 5@].].].].Y U z%K$C#C#C#C#|.Q.a$+*`$`$`$`$`$`$`$`$`$`$`$`$`$`$`$'.R@R@R@R@R@R@<.]*r=m#m#m#m#I v;S${+%$7+7+7+7+6$N&4>Q ].].].].5@W a+9@n+m#m#Z$",
"        5 4.%.^ ^ ^ C ^ W 5.5>w;t.C.C.C.9.,@<+}#J J J J J J J J J J J J J J n.n.n.n.n.n.n.n.N N N N N N N N x.y.j Q ^ ^ ^ ^ +.;;_$Q#Q.Q.Q.Q.Q.b$z n+n.n.J J J J J J J J J J J J J n.n.n.n.n.n.n.N N N N N N N m.]#i&l+3 # # # # # 2 A S+^ ^ ^ ^ ^ K I.M N O N N ",
"6>6>7>8>9>0>%.^ ^ ^ C ^ W ^@u;j.t.&%&%t.9.,@[+n.I I I I I I I I I I I I I I I I I I I I I I I I I I I I B+I ++)-j ^ ^ ^ ^ ^ Q ;;J$I%;$Q.Q.Q.v@b$y;]*I B+I I I I I I I I I I I I I I I I I I I I I I I I I I ,#J '.L$'&{$I+# # # # | R+S+^ ^ ^ ^ ^ K L M N O N N ",
"a>a>a>b>c>d>e>^ ^ ^ ^ ^ N-$*(.>@M.v.v.v.a.[+<.f>Z.Z.Z.Z.Z.Z.Z.Z.Z.Z.Z.Z.Z.Z.Z.Z.Z.Z.Z.Z.Z.Z.Z.Z.Z.Z.Z.Z.Z.Z..*6@T.p p p p m R.f*K%b$`+O#O#O#O#O#Z.Z.Z.Z.Z.Z.Z.Z.Z.Z.Z.Z.Z.Z.Z.Z.Z.Z.Z.Z.Z.Z.Z.Z.Z.Z.Z.Z.Z.Z.Z.g>h>>$]$3 # # # # # | R+S+^ ^ ^ ^ ^ K L M N O N N ",
"i>i>j>k>l>m>n>^ f@^ ^ ^ ..l*u$m.E.v$@+$+N y o>j ..~.~.~.~.~.~.~.~.~.~.~.~.~.~.~.~.~.~.~.~.~.~.~.~.~.~.~.~.~.Z=%.k&9 3 3 3 3 f$e$#@{#I m#m#m#n+z p>S ~.~.~.~.~.~.~.~.~.~.~.~.~.~.~.~.~.~.~.~.~.~.~.~.~.~.~.~.~.x+F R.%$} # # # # # | R+S+^ ^ ^ ^ ^ K L M N O N N ",
"w@w@q>b@ -r>e@^ f@^ ^ ^ A+a+).B+O N O O Z$Z.>=5@^ ^ ^ ^ ^ ^ ^ ^ ^ ^ ^ ^ ^ ^ ^ ^ ^ ^ ^ ^ ^ ^ ^ ^ ^ ^ ^ ^ ^ ^ S+=@| # # # # I+| J+K+L+m.N N N B+M .+~.^ ^ ^ ^ ^ ^ ^ ^ ^ ^ ^ ^ ^ ^ ^ ^ ^ ^ ^ ^ ^ ^ ^ ^ ^ ^ ^ ^ ^ ^ D m 7=P # # # # # 1 A S+^ ^ ^ ^ ^ K I.M N O N N ",
"w@w@s>t>u>z@'-^ f@^ ^ ^ A+a+z B+O N O O Z$Z.>=F*^ ^ ^ ^ ^ ^ ^ ^ ^ ^ ^ ^ ^ ^ ^ ^ ^ ^ ^ ^ ^ ^ ^ ^ ^ ^ ^ ^ ^ ^ S+8$9 # # # # I+3 J+K+L+m.m.N N B+'=.+..^ ^ ^ ^ ^ ^ ^ ^ ^ ^ ^ ^ ^ ^ ^ ^ ^ ^ ^ ^ ^ ^ ^ ^ ^ ^ ^ ^ ^ ^ E m 7=P # # # # # 1 A S+^ ^ ^ ^ ^ K I.'=N O N N ",
"v>v>w>x>y>z>A>^ f@^ ^ ^ A+a+z B+O N O O Z$Z.>=F*^ ^ ^ ^ ^ ^ ^ ^ ^ ^ ^ ^ ^ ^ ^ ^ ^ ^ ^ ^ ^ ^ Q R x+Z Z Z Z Z ,=A l$)#=#=#=#*#v+-#;#>#o+o+N N B+'=.+..^ ^ ^ ^ ^ ^ ^ ^ ^ ^ ^ ^ ^ ^ ^ ^ ^ ^ ^ ^ ^ ^ Q f.~.Z Z Z Z W A+R.2 +@=#=#=#=#)#!#P@B ^ ^ ^ ^ ^ ~.%+H&*+<+<+<+",
"B>B>B>C>D>E>o-^ ^ ^ ^ ^ A+a+z B+O N O O Z$Z.>=F*^ ^ ^ ^ ^ ^ ^ ^ ^ ^ ^ ^ ^ ^ ^ ^ ^ ^ ^ ^ ^ ^ K ^>a+K$T%K$K$T%^>F>&>M@N@N@N@r@O@P@Q@o.o+o+N N B+'=.+..^ ^ ^ ^ ^ ^ ^ ^ ^ ^ ^ ^ ^ ^ ^ ^ ^ ^ ^ ^ ^ ^ f.`.m@K$T%K$K$Y@_$@.B&2@N@N@N@N@M@V@W@X@^ ^ ^ ^ ^ x+K@6.7.K.K.G>",
"#=#=#=C-D-H>E-^ ^ ^ ^ ^ A+a+z B+O N O O Z$Z.>=F*^ ^ ^ ^ ^ ^ ^ ^ ^ ^ ^ ^ ^ ^ ^ ^ ^ ^ ^ ^ ^ ^ x+z%/$Q.Q.Q.x Q.z%S@z-i@j@j@j@k@2@l@m@o.o+o+N N B+'=.+..^ ^ ^ ^ ^ ^ ^ ^ ^ ^ ^ ^ ^ ^ ^ ^ ^ ^ ^ ^ ^ ^ f.9$K$K@Q.Q.Q.x [@Q |;1$j@j@j@j@r@s@t@u@^ ^ ^ ^ ^ x+5.s.e&t.t.t.",
"I>I>%=R*J>K>E-^ ^ ^ ^ ^ A+a+z B+O N O O Z$Z.>=F*^ ^ ^ ^ ^ ^ ^ ^ ^ ^ ^ ^ ^ ^ ^ ^ ^ ^ ^ ^ ^ Q x+z%/$Q.Q.Q.x Q.z%S@z-i@j@j@k@k@H%l@m@o.o+o+N N B+'=.+..^ ^ ^ ^ ^ ^ ^ ^ ^ ^ ^ ^ ^ ^ ^ ^ ^ ^ ^ ^ ^ ^ A+M#K$K@Q.Q.x x &.Q |;1$j@j@j@j@r@s@t@u@^ ^ ^ ^ ^ x+K@-.j.C.u.u.",
"L>L>M>N>O>P>0*^ ^ ^ ^ ^ A+a+z B+O N O O Z$Z.>=F*^ ^ ^ ^ ^ ^ ^ ^ ^ ^ ^ ^ ^ ^ F&f*Q>Q>Q>Q>~.Z D@J$)-Q.Q.Q.x Q.z%S@z-i@j@j@k@k@H%l@m@o.o+o+N N B+'=.+..^ ^ ^ ^ ^ ^ ^ ^ ^ ^ ^ ^ ^ ^ Q F ~.Q>Q>Q>~.~.` R&|.Q.Q.Q.x x &.Q |;1$j@j@j@j@r@s@t@u@^ ^ ^ ^ ^ ~.}>h.+>-*R>R>",
"S>S>T>S>U>V>W>^ ^ ^ ^ ^ A+a+z B+O N O O Z$Z.>=F*^ ^ ^ ^ ^ ^ ^ ^ ^ ^ ^ ^ ^ F&;;z%&.K$K$K$K$K$Y@y.Q.Q.Q.Q.x Q.z%S@z-i@j@j@k@k@H%l@m@o.o+o+N N B+'=.+..^ ^ ^ ^ ^ ^ ^ ^ ^ ^ ^ ^ ^ ^ ~.6@a+K$K$K$K$K$Y@/$K@Q.Q.Q.x x &.Q |;1$j@j@j@j@r@s@t@u@^ ^ ^ ^ ^ 5@M#K@!.O#N#N#",
"b b b P 7+-$B ^ ^ ^ ^ ^ A+a+z B+O N O O Z$Z.>=].^ ^ ^ ^ ^ ^ ^ ^ ^ ^ ^ ^ ^ F&U m@I%Q.Q.Q.Q.Q.Q.Q.Q.Q.Q.Q.x Q.z%S@z-i@j@j@k@k@H%l@m@o.o+o+N N B+'=.+..^ ^ ^ ^ ^ ^ ^ ^ ^ ^ ^ ^ ^ ^ x+z%/$Q.Q.Q.Q.Q.Q.Q.Q.Q.Q.Q.x x &.Q |;1$j@j@j@j@r@s@t@u@^ ^ ^ ^ ^ ].D@&.Q.Q.Q.Q.",
"# # # # ^+-$B ^ ^ ^ ^ ^ A+I.z ,#N N N N n#^%^&].^ ^ ^ ^ ^ ^ ^ C E E E E E @.;;J$/$/$/$/$/$/$/$/$/$/$/$/$Q#-@a%p@z-i@j@j@j@k@2@l@m@]#F-N N N B+z a+A+^ ^ ^ ^ ^ ^ ^ C C E E E E ^ A+X>}>/$/$/$/$/$/$/$/$/$/$/$Q#I%K%@.|;1$j@j@j@j@r@j$s&Y>^ ^ ^ ^ @.f.`.&.Q.Q.Q.Q.",
"# # # # ^+-$B ^ ^ ^ ^ ^ A+J$Z.<.>#]#]#]*++v@S&B p o o o o o Z>`> ; ; ; ; ; ,S+A+U U U U U U U U U U U U U U .,J%)$2@+,+,_@_@O@@,z%[.]*]#]#]*<.`+R&T.o o o o o o p j-`> ; ; ; ;`>u@].J;U U U U U U U U U U U U S&d;m #,(@_@+,+,_@w%k$t&Q ~.~.~.~.~.V z% *a$a$a$a$",
"# # # # ^+-$B ^ ^ ^ ^ ^ f.(*|.h>b$_+_+b$x `#@@f$3 9 1 1 9 j&&#s@$,$,$,$,$,%,&,*,*,*,*,*,*,*,*,*,*,*,*,*,*,*,`;S;+;+@+@+@+@=,-,f&>$;$b$_+_+b$7@Q@W#N&9 9 1 1 | c +@*,;,$,$,$,$,$,&,j$*,*,*,*,*,*,*,*,*,*,*,*,*,*,`;)$+;+@+@+@+@+@&@]+#$z%z$K$K$K$K$-@a$++n+n+n+n+",
"# # # # 2 -$B ^ ^ ^ ^ ^ f.`.[@Q.Q.Q.;$;$/$[$ @| # # # # # }$1@1$j@j@j@j@j@j@j@j@j@j@j@j@j@j@j@j@j@j@j@j@j@j@1$b&+@# # # # # 0 ]$c&/$;$;$Q.;$4$5$e$6$# # # # # &@7$2@j@j@j@j@j@j@j@j@j@j@j@j@j@j@j@j@j@j@j@j@j@j@i@T@+;I+# # # # c 8&Y#L&Q.Q.Q.Q.Q.7@f>>#N N N N ",
"# # # # 1 -$H;^ ^ ^ ^ ^ f.`.[@I%Q.Q.;$;$/$[$ @| # # # # # }$1@1$j@j@j@j@j@j@j@j@j@j@j@j@j@j@j@j@j@j@j@j@j@j@M@|$}$# P # # # |  @^$/$;$;$Q.Q.Q#5$e$6$# # # # # v+7$2@j@j@j@j@j@j@j@j@j@j@j@j@j@j@j@j@j@j@j@j@j@j@i@<@+@# P # # # c s >,L&Q.;$Q.Q.Q.Z@`->#N N N N ",
"; ; ; ; W$q F&~.~.~.~.~.j ';K$K@Q.Q.Q.Q./$T$@@}&1 1 7+7+1 c R%(@+,+,+,+,+,+,+,+,+,+,+,+,+,+,2@T@s@,,,,,,,,,,V@7-f$N&r r r N&q$e$_&/$Q.Q.Q.Q.Q#_$y&r 1 1 7+7+1 3 }$v%+,+,+,+,+,+,+,+,+,+,+,+,+,+,2@T@s@s@,,,,,,,,M%9&d&8&r r r r [ ,$M$K$Q.Q.Q.Q.Q.Z@`->#N N N N ",
"( ( ( ~ ',V><&&.K$&.&.&.K$/$I%Q.Q.Q.Q.Q.Q#_$x+n&R.R.R.R.R.m k&'$+@+@+@+@+@+@+@+@+@+@+@+@+@+@l$l@ ,p@p@p@p@p@S.R ),d$_$(&(&(&(&!,|.I%Q.Q.Q.Q.I%K%U (%R.R.R.R.R.o P@*@+@+@+@+@+@+@+@+@+@+@+@+@+@+@'$s$_;p@p@p@p@p@~,Q ^$5$_$(&(&(&(&T&T%I%Q.Q.Q.Q.Q.Z@`->#N N N N ",
"      {,],^,/,Q.Q.Q.Q.Q.Q.Q.Q.Q.Q.Q.Q.Q.I%m@U Q ^ ^ ^ ^ ^ S.s 0 # # # # # # # # # # # # # # ^+-$S+^ ^ ^ ^ ^ f.`.[@Q#Q.K@K@K@Q.Q.Q.Q.Q.Q.Q.Q.I%[@`.f.^ ^ ^ ^ ^ B -$2 # # # # # # # # # # # # # # 6;!>S.E ^ ^ ^ ^ Q J;J$-@Q.K@K@K@Q.Q.Q.Q.Q.Q.Q.Q.Q.Z@`->#N N N N ",
"{,{,* (,_,:,:&x x ;$Q.Q.Q.Q.Q.Q.Q.Q.Q.;$K@m@U ].@.Q Q Q ^ B Q%1 } } } } } } } } } } } } } 0 f$m ^ Q Q Q Q Q A+O-K$Q.;$Q.Q.Q.Q.Q.Q.Q.Q.Q.Q.;$Q.K$/%Y-Q Q Q Q Q (%m f$0 } } } } } } } } } } } } } 1 R+B ^ Q Q Q @.f.S&m@K@;$Q.Q.Q.Q.Q.Q.Q.Q.Q.Q.Q.x Z-0@d*N N N N ",
"<,<,[,},|,1,2,/.A*}.}.}.}.}.}.}.}.}.}.}.}-v@m@M#`.<><><>`.U W#@@A#A#A#A#A#A#A#A#A#A#A#A#A#'&{+f*D@<><><>3,<>^&_%p.O$}.}.}.}.}.}.}.}.}.}.}.}.O$_+&.';3,3,<><><>D@v&J+4,A#A#A#A#A#A#A#A#A#A#A#A#A#@@(+U `.<><><>`.^>Q@5,O$}.}.}.}.}.}.}.}.}.}.}.F$k+=-{#N *+*+*+*+",
"6,6,7,8,9,0,+>S-}*}*}*}*}*}*}*}*}*}*}*}*}*a,b,C$C$C$C$C$C$*+c,d,e,e,e,e,e,e,e,e,e,e,e,e,e,e,f,-.*+C$C$C$j*C$B$R>s=}*}*}*}*}*}*}*}*}*}*}*}*}*}*H-+>B$j*j*C$C$C$*+-.d,e,e,e,e,e,e,e,e,e,e,e,e,e,e,d,c,*+C$C$C$C$C$C$g,H-}*}*}*}*}*}*}*}*}*}*}*}*}*}*>@,@A.1-1-1-1-",
"{*{*{*,#v$k*X$C.C.C.C.C.C.C.C.C.C.C.C.C.C.C.e&e&u.u.u.u.u.u.9.9.9.9.9.9.9.9.9.9.9.9.9.9.9.9.9.9.u.u.u.u.u.u.e&C.C.C.C.C.C.C.C.C.C.C.C.C.C.C.C.C.C.e&u.u.u.u.u.u.9.9.9.9.9.9.9.9.9.9.9.9.9.9.9.9.9.9.u.u.u.u.u.u.e&e&C.C.C.C.C.C.C.C.C.C.C.C.C.C.C.C.&%t.t.t.t.t.",
"N N N N D#}+9.t.t.t.t.t.t.t.t.t.t.t.t.t.t.t.t.t.t.t.t.t.t.t.t.t.t.t.t.t.t.t.t.t.t.t.t.t.t.t.t.t.t.t.t.t.t.t.t.t.t.t.t.t.t.t.t.t.t.t.t.t.t.t.t.t.t.t.t.t.t.t.t.t.t.t.t.t.t.t.t.t.t.t.t.t.t.t.t.t.t.t.t.t.t.t.t.t.t.t.t.t.t.t.t.t.t.t.t.t.t.t.t.t.t.t.t.t.t.t.t.t."};
