/* XPM */
static char * east_xpm[] = {
"128 128 8959 3",
"   	c #9597AB",
".  	c #8186A6",
"+  	c #7C82A5",
"@  	c #7B86AB",
"#  	c #7788B4",
"$  	c #788ABC",
"%  	c #788BC1",
"&  	c #768ABB",
"*  	c #7789B7",
"=  	c #7889B2",
"-  	c #7888B2",
";  	c #8A8FA8",
">  	c #99939A",
",  	c #A19799",
"'  	c #A3928E",
")  	c #9C837F",
"!  	c #927F80",
"~  	c #8A828D",
"{  	c #857F8E",
"]  	c #8E7781",
"^  	c #956F6C",
"/  	c #A26761",
"(  	c #AF6455",
"_  	c #B16053",
":  	c #A85C51",
"<  	c #99524B",
"[  	c #944E4A",
"}  	c #985651",
"|  	c #975450",
"1  	c #954E4A",
"2  	c #974C47",
"3  	c #944943",
"4  	c #89443B",
"5  	c #874239",
"6  	c #88433E",
"7  	c #89443C",
"8  	c #8E4944",
"9  	c #9C5550",
"0  	c #9C5F5B",
"a  	c #9C615E",
"b  	c #A1615A",
"c  	c #A86B63",
"d  	c #AF786D",
"e  	c #B28378",
"f  	c #A77970",
"g  	c #AA7067",
"h  	c #9C6964",
"i  	c #9F6760",
"j  	c #AE695C",
"k  	c #C67D69",
"l  	c #CA8572",
"m  	c #CA8471",
"n  	c #CE8975",
"o  	c #CB8471",
"p  	c #C97F6A",
"q  	c #C87B64",
"r  	c #BC735C",
"s  	c #BE7761",
"t  	c #B9735E",
"u  	c #B7725D",
"v  	c #BB745F",
"w  	c #BA735E",
"x  	c #B66E5B",
"y  	c #9F665A",
"z  	c #4D3D38",
"A  	c #22201B",
"B  	c #161815",
"C  	c #151714",
"D  	c #141613",
"E  	c #131612",
"F  	c #121511",
"G  	c #111410",
"H  	c #10130F",
"I  	c #0F1310",
"J  	c #121411",
"K  	c #131512",
"L  	c #111511",
"M  	c #131613",
"N  	c #141713",
"O  	c #151713",
"P  	c #181A17",
"Q  	c #151814",
"R  	c #161814",
"S  	c #121612",
"T  	c #111411",
"U  	c #121512",
"V  	c #171915",
"W  	c #1C1D19",
"X  	c #1F1F1C",
"Y  	c #1D1E1B",
"Z  	c #21211D",
"`  	c #21211C",
" . 	c #1E1F1B",
".. 	c #1D1E19",
"+. 	c #1D1D19",
"@. 	c #161813",
"#. 	c #111310",
"$. 	c #11130F",
"%. 	c #10120E",
"&. 	c #0E110D",
"*. 	c #8387A5",
"=. 	c #7E82A3",
"-. 	c #7781A8",
";. 	c #737FAB",
">. 	c #7689BA",
",. 	c #778ABB",
"'. 	c #7789B8",
"). 	c #7B8AB1",
"!. 	c #848EAE",
"~. 	c #808CAF",
"{. 	c #858CA6",
"]. 	c #9B9090",
"^. 	c #B89B87",
"/. 	c #C39E84",
"(. 	c #BD9580",
"_. 	c #BC8E79",
":. 	c #AC8474",
"<. 	c #938180",
"[. 	c #8C8286",
"}. 	c #907A7D",
"|. 	c #966D6A",
"1. 	c #A16159",
"2. 	c #A86257",
"3. 	c #A85D54",
"4. 	c #A05852",
"5. 	c #9A554E",
"6. 	c #96524D",
"7. 	c #924F4B",
"8. 	c #954D4A",
"9. 	c #954C48",
"0. 	c #944A46",
"a. 	c #8A4741",
"b. 	c #88453C",
"c. 	c #874138",
"d. 	c #883F36",
"e. 	c #87433C",
"f. 	c #91504E",
"g. 	c #955E5D",
"h. 	c #975E5E",
"i. 	c #955E5B",
"j. 	c #A46D65",
"k. 	c #B0776C",
"l. 	c #AB7970",
"m. 	c #A3766F",
"n. 	c #9B6E69",
"o. 	c #9C6761",
"p. 	c #A1665E",
"q. 	c #B67465",
"r. 	c #CD856F",
"s. 	c #C9816D",
"t. 	c #C8816E",
"u. 	c #CB8674",
"v. 	c #CD8773",
"w. 	c #CF836E",
"x. 	c #C87D66",
"y. 	c #C47B65",
"z. 	c #C37B65",
"A. 	c #B66E59",
"B. 	c #B26B57",
"C. 	c #B26B58",
"D. 	c #B26956",
"E. 	c #B56A57",
"F. 	c #AC6958",
"G. 	c #523D38",
"H. 	c #1D1D18",
"I. 	c #0F120D",
"J. 	c #0C0F0C",
"K. 	c #0C0F0B",
"L. 	c #0D100C",
"M. 	c #0B0E0B",
"N. 	c #0A0D0A",
"O. 	c #0D100D",
"P. 	c #0E110E",
"Q. 	c #0F120E",
"R. 	c #101310",
"S. 	c #11130E",
"T. 	c #10130E",
"U. 	c #111512",
"V. 	c #0E120E",
"W. 	c #0F110D",
"X. 	c #10120F",
"Y. 	c #171814",
"Z. 	c #947C92",
"`. 	c #888099",
" + 	c #797EA2",
".+ 	c #7982AA",
"++ 	c #7788B8",
"@+ 	c #7989B3",
"#+ 	c #7F8BAF",
"$+ 	c #8C90A8",
"%+ 	c #A79E9D",
"&+ 	c #ABA09B",
"*+ 	c #ADA08D",
"=+ 	c #BFA67E",
"-+ 	c #D4A673",
";+ 	c #DBA372",
">+ 	c #DC9E6F",
",+ 	c #D49069",
"'+ 	c #C5856C",
")+ 	c #AD7668",
"!+ 	c #A5776B",
"~+ 	c #A46D64",
"{+ 	c #A46058",
"]+ 	c #A6594F",
"^+ 	c #A55B53",
"/+ 	c #A55A53",
"(+ 	c #A15851",
"_+ 	c #9C554F",
":+ 	c #99524C",
"<+ 	c #97514B",
"[+ 	c #9A544E",
"}+ 	c #9E564F",
"|+ 	c #A15852",
"1+ 	c #9E5650",
"2+ 	c #954E49",
"3+ 	c #904A45",
"4+ 	c #89463D",
"5+ 	c #8C4742",
"6+ 	c #94504C",
"7+ 	c #8F5553",
"8+ 	c #8F6A6B",
"9+ 	c #887880",
"0+ 	c #8E787E",
"a+ 	c #9C7877",
"b+ 	c #A97D74",
"c+ 	c #A47B72",
"d+ 	c #94726E",
"e+ 	c #A16C66",
"f+ 	c #AA6D64",
"g+ 	c #BC7968",
"h+ 	c #CF866E",
"i+ 	c #CB836B",
"j+ 	c #CA8470",
"k+ 	c #CE8570",
"l+ 	c #D58971",
"m+ 	c #D48870",
"n+ 	c #CD846F",
"o+ 	c #BD7563",
"p+ 	c #B06857",
"q+ 	c #A86154",
"r+ 	c #AC6456",
"s+ 	c #B16A59",
"t+ 	c #AE6657",
"u+ 	c #AA6758",
"v+ 	c #56433F",
"w+ 	c #1B1C17",
"x+ 	c #0B0E0A",
"y+ 	c #0E100D",
"z+ 	c #0E120F",
"A+ 	c #0F120F",
"B+ 	c #B06E63",
"C+ 	c #9B777F",
"D+ 	c #887C93",
"E+ 	c #888293",
"F+ 	c #8A8A9B",
"G+ 	c #8E8FA2",
"H+ 	c #9090A1",
"I+ 	c #9695A2",
"J+ 	c #B5A596",
"K+ 	c #CDB093",
"L+ 	c #D7B18D",
"M+ 	c #DFB879",
"N+ 	c #EAB573",
"O+ 	c #ECB573",
"P+ 	c #E6A56E",
"Q+ 	c #DC9265",
"R+ 	c #CC7F61",
"S+ 	c #C1745D",
"T+ 	c #B96D5A",
"U+ 	c #AE5F54",
"V+ 	c #A9594C",
"W+ 	c #A5534A",
"X+ 	c #A2554E",
"Y+ 	c #9D554F",
"Z+ 	c #9A544D",
"`+ 	c #9A534C",
" @ 	c #99534D",
".@ 	c #A45B54",
"+@ 	c #A65B54",
"@@ 	c #A35953",
"#@ 	c #9D5650",
"$@ 	c #9B544E",
"%@ 	c #9A524C",
"&@ 	c #96514A",
"*@ 	c #97544E",
"=@ 	c #915552",
"-@ 	c #866B6D",
";@ 	c #79748C",
">@ 	c #79748E",
",@ 	c #837787",
"'@ 	c #8C797D",
")@ 	c #8E7778",
"!@ 	c #92736F",
"~@ 	c #9E6D67",
"{@ 	c #B17569",
"]@ 	c #C57E6B",
"^@ 	c #D0866D",
"/@ 	c #CE846C",
"(@ 	c #CD846E",
"_@ 	c #CA846F",
":@ 	c #D38870",
"<@ 	c #D8896E",
"[@ 	c #D58B74",
"}@ 	c #C9816C",
"|@ 	c #B86F5F",
"1@ 	c #A25F55",
"2@ 	c #9E5B53",
"3@ 	c #A66156",
"4@ 	c #A86357",
"5@ 	c #A66157",
"6@ 	c #A56458",
"7@ 	c #58433F",
"8@ 	c #1B1B18",
"9@ 	c #0D110D",
"0@ 	c #0D0F0C",
"a@ 	c #0C100C",
"b@ 	c #0E100C",
"c@ 	c #B6695A",
"d@ 	c #A27170",
"e@ 	c #8A7B8F",
"f@ 	c #897D8D",
"g@ 	c #8C818A",
"h@ 	c #91888C",
"i@ 	c #938E93",
"j@ 	c #9A9399",
"k@ 	c #B7A697",
"l@ 	c #D3B394",
"m@ 	c #E4B887",
"n@ 	c #ECC578",
"o@ 	c #F0BC72",
"p@ 	c #EFB971",
"q@ 	c #ECB46F",
"r@ 	c #E59F6A",
"s@ 	c #D28160",
"t@ 	c #C6725A",
"u@ 	c #BC6C58",
"v@ 	c #B86655",
"w@ 	c #B05D4F",
"x@ 	c #AD5C4E",
"y@ 	c #A6564C",
"z@ 	c #A2564D",
"A@ 	c #9E554E",
"B@ 	c #9C5750",
"C@ 	c #9A5752",
"D@ 	c #A25A54",
"E@ 	c #A86156",
"F@ 	c #A96257",
"G@ 	c #A75E55",
"H@ 	c #A25A53",
"I@ 	c #99544D",
"J@ 	c #97534B",
"K@ 	c #98554F",
"L@ 	c #975853",
"M@ 	c #936664",
"N@ 	c #82757D",
"O@ 	c #73738F",
"P@ 	c #757490",
"Q@ 	c #837A8C",
"R@ 	c #8C777C",
"S@ 	c #99716C",
"T@ 	c #B37769",
"U@ 	c #C9826B",
"V@ 	c #D58A6D",
"W@ 	c #D2876E",
"X@ 	c #CA816A",
"Y@ 	c #CF856E",
"Z@ 	c #D68970",
"`@ 	c #D7896F",
" # 	c #D68B74",
".# 	c #CC836E",
"+# 	c #BE7664",
"@# 	c #AF695C",
"## 	c #A56258",
"$# 	c #A76358",
"%# 	c #9B5B55",
"&# 	c #9D5D56",
"*# 	c #A56459",
"=# 	c #5F4642",
"-# 	c #191A16",
";# 	c #141612",
"># 	c #B06858",
",# 	c #A66E68",
"'# 	c #8C7886",
")# 	c #84798B",
"!# 	c #93777B",
"~# 	c #9C7C78",
"{# 	c #94878B",
"]# 	c #958D8F",
"^# 	c #AD9C91",
"/# 	c #CBA88A",
"(# 	c #E5B784",
"_# 	c #EFC176",
":# 	c #F2C274",
"<# 	c #EDB670",
"[# 	c #DA9660",
"}# 	c #D1825E",
"|# 	c #C4715A",
"1# 	c #B86956",
"2# 	c #BA6956",
"3# 	c #BD6C56",
"4# 	c #BC6B54",
"5# 	c #B3624D",
"6# 	c #AB594C",
"7# 	c #A55850",
"8# 	c #A05A53",
"9# 	c #A25B54",
"0# 	c #9E5852",
"a# 	c #A15952",
"b# 	c #A65C54",
"c# 	c #A85D55",
"d# 	c #A85C54",
"e# 	c #A65D55",
"f# 	c #A55D55",
"g# 	c #9C5751",
"h# 	c #995853",
"i# 	c #985D57",
"j# 	c #99605B",
"k# 	c #99645F",
"l# 	c #976D6A",
"m# 	c #907478",
"n# 	c #8C787F",
"o# 	c #8C7781",
"p# 	c #987678",
"q# 	c #A1736C",
"r# 	c #A37068",
"s# 	c #AD7469",
"t# 	c #C27E6B",
"u# 	c #CD856E",
"v# 	c #D18870",
"w# 	c #CE846D",
"x# 	c #CB826B",
"y# 	c #D18771",
"z# 	c #D18872",
"A# 	c #CE8671",
"B# 	c #C67C68",
"C# 	c #BC7766",
"D# 	c #BB7766",
"E# 	c #B37163",
"F# 	c #A3635A",
"G# 	c #9B5F57",
"H# 	c #9E5F58",
"I# 	c #A66459",
"J# 	c #634943",
"K# 	c #191A15",
"L# 	c #0B0F0B",
"M# 	c #0A0E0A",
"N# 	c #0A0E0B",
"O# 	c #B26A59",
"P# 	c #B06656",
"Q# 	c #A76B60",
"R# 	c #9C6F6E",
"S# 	c #A46E66",
"T# 	c #A8736C",
"U# 	c #9D7F7C",
"V# 	c #948A8C",
"W# 	c #A4918A",
"X# 	c #C8947A",
"Y# 	c #E6A978",
"Z# 	c #EEBB74",
"`# 	c #F1BF72",
" $ 	c #F0BB72",
".$ 	c #EAB56C",
"+$ 	c #D6985B",
"@$ 	c #D4885E",
"#$ 	c #C5755A",
"$$ 	c #B76B57",
"%$ 	c #B96A56",
"&$ 	c #C97A5A",
"*$ 	c #D18460",
"=$ 	c #C8785B",
"-$ 	c #C06E58",
";$ 	c #AD6051",
">$ 	c #A96355",
",$ 	c #A96458",
"'$ 	c #A66056",
")$ 	c #A65B53",
"!$ 	c #A55C54",
"~$ 	c #AA6459",
"{$ 	c #A8685D",
"]$ 	c #9D6A63",
"^$ 	c #996D68",
"/$ 	c #986E6A",
"($ 	c #9D6C66",
"_$ 	c #A36C64",
":$ 	c #A77067",
"<$ 	c #AD7368",
"[$ 	c #AC6C62",
"}$ 	c #AD6A5D",
"|$ 	c #B26B5A",
"1$ 	c #AE6658",
"2$ 	c #AD695C",
"3$ 	c #B47262",
"4$ 	c #C17D69",
"5$ 	c #C9836C",
"6$ 	c #CC836C",
"7$ 	c #C8806B",
"8$ 	c #C88470",
"9$ 	c #C58471",
"0$ 	c #BF7C6B",
"a$ 	c #BC7B68",
"b$ 	c #BB7867",
"c$ 	c #C27B69",
"d$ 	c #BB7767",
"e$ 	c #AE6F62",
"f$ 	c #A7685E",
"g$ 	c #A6675D",
"h$ 	c #A66458",
"i$ 	c #62423F",
"j$ 	c #191915",
"k$ 	c #090C09",
"l$ 	c #080B07",
"m$ 	c #0F130F",
"n$ 	c #101410",
"o$ 	c #B86E56",
"p$ 	c #B1674E",
"q$ 	c #AD6655",
"r$ 	c #A76F64",
"s$ 	c #A9776D",
"t$ 	c #A7837B",
"u$ 	c #B28779",
"v$ 	c #CD9178",
"w$ 	c #E8AE7E",
"x$ 	c #F0BF74",
"y$ 	c #F4C975",
"z$ 	c #F4C974",
"A$ 	c #F2C473",
"B$ 	c #E5AA69",
"C$ 	c #E09766",
"D$ 	c #D68C5F",
"E$ 	c #BF6F56",
"F$ 	c #BF715A",
"G$ 	c #D18260",
"H$ 	c #DC916B",
"I$ 	c #D28865",
"J$ 	c #CB7D61",
"K$ 	c #BF725B",
"L$ 	c #AD6352",
"M$ 	c #A75D54",
"N$ 	c #A96256",
"O$ 	c #AE6659",
"P$ 	c #B1685A",
"Q$ 	c #AB6156",
"R$ 	c #B0695A",
"S$ 	c #B26B5B",
"T$ 	c #B36E5F",
"U$ 	c #BA7362",
"V$ 	c #B37466",
"W$ 	c #A5736A",
"X$ 	c #98746F",
"Y$ 	c #93736F",
"Z$ 	c #966863",
"`$ 	c #A1655C",
" % 	c #A96F64",
".% 	c #AE6E61",
"+% 	c #B26A5C",
"@% 	c #AF6657",
"#% 	c #B86F5C",
"$% 	c #B26958",
"%% 	c #B66E5C",
"&% 	c #C77B65",
"*% 	c #D18068",
"=% 	c #C57C67",
"-% 	c #C57C68",
";% 	c #C47B67",
">% 	c #BE7B69",
",% 	c #B87666",
"'% 	c #BA7766",
")% 	c #C07B68",
"!% 	c #B97666",
"~% 	c #AD6C62",
"{% 	c #A76C64",
"]% 	c #9E635B",
"^% 	c #9E5F57",
"/% 	c #5D403D",
"(% 	c #191916",
"_% 	c #0A0D09",
":% 	c #090D09",
"<% 	c #0B0D0A",
"[% 	c #AB6852",
"}% 	c #B16952",
"|% 	c #B2684F",
"1% 	c #B96E56",
"2% 	c #BB7460",
"3% 	c #B17161",
"4% 	c #AA7065",
"5% 	c #AD7C6F",
"6% 	c #C58872",
"7% 	c #D99875",
"8% 	c #E9B177",
"9% 	c #F1C375",
"0% 	c #F2CB78",
"a% 	c #F5CC74",
"b% 	c #EDB66F",
"c% 	c #E5A26A",
"d% 	c #E19767",
"e% 	c #D28260",
"f% 	c #C97B5E",
"g% 	c #D08361",
"h% 	c #D8936D",
"i% 	c #D58A69",
"j% 	c #CD7F5E",
"k% 	c #C06F59",
"l% 	c #AC5F52",
"m% 	c #AA5D51",
"n% 	c #AA5F53",
"o% 	c #AE6559",
"p% 	c #B87060",
"q% 	c #BB7362",
"r% 	c #C07865",
"s% 	c #C37B68",
"t% 	c #BD7866",
"u% 	c #B06C5D",
"v% 	c #A9695D",
"w% 	c #A06E67",
"x% 	c #996E69",
"y% 	c #9A6762",
"z% 	c #A16359",
"A% 	c #AC6B5F",
"B% 	c #AF7466",
"C% 	c #B27A6B",
"D% 	c #B47263",
"E% 	c #C47963",
"F% 	c #C97C64",
"G% 	c #C17863",
"H% 	c #BA7462",
"I% 	c #BB7563",
"J% 	c #C47761",
"K% 	c #B47160",
"L% 	c #B87767",
"M% 	c #BB7968",
"N% 	c #BE7A68",
"O% 	c #BE7765",
"P% 	c #B46F62",
"Q% 	c #AD6E64",
"R% 	c #A97066",
"S% 	c #AC6E64",
"T% 	c #A96E64",
"U% 	c #A16961",
"V% 	c #985B56",
"W% 	c #975A55",
"X% 	c #5F4440",
"Y% 	c #171815",
"Z% 	c #0F110E",
"`% 	c #8E6653",
" & 	c #956151",
".& 	c #B16C59",
"+& 	c #D58C6D",
"@& 	c #C37D65",
"#& 	c #B27A68",
"$& 	c #AA8374",
"%& 	c #C79076",
"&& 	c #E3A579",
"*& 	c #ECB27A",
"=& 	c #EEB471",
"-& 	c #F0BD72",
";& 	c #F5CB75",
">& 	c #F3CC76",
",& 	c #F1C977",
"'& 	c #E8B06D",
")& 	c #E2A267",
"!& 	c #DF9964",
"~& 	c #DF9166",
"{& 	c #DC8F64",
"]& 	c #D99166",
"^& 	c #D48960",
"/& 	c #D0815F",
"(& 	c #BB6B56",
"_& 	c #AF6152",
":& 	c #AD5D50",
"<& 	c #B36555",
"[& 	c #B56B5B",
"}& 	c #C27966",
"|& 	c #C07A68",
"1& 	c #B97564",
"2& 	c #B67364",
"3& 	c #B27061",
"4& 	c #AF6759",
"5& 	c #A55E54",
"6& 	c #A6665C",
"7& 	c #9C6863",
"8& 	c #9D6963",
"9& 	c #A46B62",
"0& 	c #B17C6F",
"a& 	c #B08B7B",
"b& 	c #AC8D80",
"c& 	c #AA867B",
"d& 	c #BF8371",
"e& 	c #D3876C",
"f& 	c #CB846C",
"g& 	c #C27E69",
"h& 	c #B87867",
"i& 	c #B67162",
"j& 	c #B17264",
"k& 	c #B0786A",
"l& 	c #AF7A6E",
"m& 	c #B67C6E",
"n& 	c #AD746A",
"o& 	c #A06F6A",
"p& 	c #996762",
"q& 	c #95605D",
"r& 	c #925C59",
"s& 	c #975D59",
"t& 	c #A1635A",
"u& 	c #614743",
"v& 	c #8B6652",
"w& 	c #8C6953",
"x& 	c #936956",
"y& 	c #976C56",
"z& 	c #AB785F",
"A& 	c #BD856E",
"B& 	c #A38074",
"C& 	c #998577",
"D& 	c #B48B79",
"E& 	c #D99D7B",
"F& 	c #E8A873",
"G& 	c #EAAC72",
"H& 	c #ECB66F",
"I& 	c #F3C877",
"J& 	c #F3CD7A",
"K& 	c #F4CC79",
"L& 	c #EECF82",
"M& 	c #F0C273",
"N& 	c #ECBA73",
"O& 	c #EAAA70",
"P& 	c #E8A46E",
"Q& 	c #E8A66F",
"R& 	c #E3996C",
"S& 	c #D58663",
"T& 	c #C1725B",
"U& 	c #B76756",
"V& 	c #B76856",
"W& 	c #BA6C59",
"X& 	c #C37864",
"Y& 	c #C47A66",
"Z& 	c #C47B68",
"`& 	c #B57164",
" * 	c #AA6A5F",
".* 	c #9F6259",
"+* 	c #9E5E57",
"@* 	c #9E5E56",
"#* 	c #9F635A",
"$* 	c #A06C64",
"%* 	c #A57269",
"&* 	c #AB7A6F",
"** 	c #AE8074",
"=* 	c #AB8778",
"-* 	c #968989",
";* 	c #91898C",
">* 	c #9E8981",
",* 	c #B58574",
"'* 	c #BE8773",
")* 	c #B88571",
"!* 	c #B5806E",
"~* 	c #B67F6D",
"{* 	c #B67767",
"]* 	c #B37B6B",
"^* 	c #B48070",
"/* 	c #B9806E",
"(* 	c #C8816B",
"_* 	c #C37F6C",
":* 	c #B87D6E",
"<* 	c #A7766E",
"[* 	c #9D706C",
"}* 	c #986865",
"|* 	c #94615F",
"1* 	c #9F6A64",
"2* 	c #A7695E",
"3* 	c #654740",
"4* 	c #171813",
"5* 	c #856151",
"6* 	c #7B655E",
"7* 	c #79675C",
"8* 	c #736057",
"9* 	c #836B60",
"0* 	c #987262",
"a* 	c #9D8072",
"b* 	c #A18474",
"c* 	c #AF9080",
"d* 	c #CF9476",
"e* 	c #DB9B71",
"f* 	c #E7A871",
"g* 	c #ECB272",
"h* 	c #F2C576",
"i* 	c #F3C674",
"j* 	c #F2CD7A",
"k* 	c #F0CB7B",
"l* 	c #EFC477",
"m* 	c #EDB672",
"n* 	c #ECB172",
"o* 	c #E49D6D",
"p* 	c #D0815E",
"q* 	c #C6765E",
"r* 	c #C4735C",
"s* 	c #C47760",
"t* 	c #C77D67",
"u* 	c #CC836A",
"v* 	c #D1856B",
"w* 	c #CD846D",
"x* 	c #B77364",
"y* 	c #AF6C61",
"z* 	c #A36259",
"A* 	c #A3645B",
"B* 	c #A3665B",
"C* 	c #A97065",
"D* 	c #AE796C",
"E* 	c #BA8372",
"F* 	c #B98674",
"G* 	c #B28775",
"H* 	c #AF8575",
"I* 	c #A9877B",
"J* 	c #9D8681",
"K* 	c #938B87",
"L* 	c #A48B80",
"M* 	c #B08876",
"N* 	c #B08675",
"O* 	c #B28673",
"P* 	c #BB8571",
"Q* 	c #C3816C",
"R* 	c #C67D68",
"S* 	c #C27B67",
"T* 	c #C37C68",
"U* 	c #C9806A",
"V* 	c #BF7C6A",
"W* 	c #AF776C",
"X* 	c #9F726C",
"Y* 	c #A0736C",
"Z* 	c #9F706B",
"`* 	c #9B6C68",
" = 	c #9E6C67",
".= 	c #694C49",
"+= 	c #181915",
"@= 	c #766259",
"#= 	c #656162",
"$= 	c #646062",
"%= 	c #645E5F",
"&= 	c #756761",
"*= 	c #876B55",
"== 	c #907563",
"-= 	c #A78474",
";= 	c #B5907F",
">= 	c #D29880",
",= 	c #DB9B72",
"'= 	c #E1A36E",
")= 	c #EAAA71",
"!= 	c #EEB671",
"~= 	c #EEB971",
"{= 	c #F0BE72",
"]= 	c #F3C775",
"^= 	c #F2C777",
"/= 	c #F0C879",
"(= 	c #EDC37D",
"_= 	c #ECB47C",
":= 	c #E8A676",
"<= 	c #DB8D67",
"[= 	c #D08166",
"}= 	c #CE8267",
"|= 	c #D4886B",
"1= 	c #D2886B",
"2= 	c #D58A71",
"3= 	c #CF8770",
"4= 	c #C8826C",
"5= 	c #C17C6A",
"6= 	c #B87363",
"7= 	c #AC6E62",
"8= 	c #A66A5F",
"9= 	c #B27869",
"0= 	c #C98673",
"a= 	c #CB8774",
"b= 	c #C98774",
"c= 	c #C38675",
"d= 	c #C18876",
"e= 	c #C08775",
"f= 	c #B18C7A",
"g= 	c #A78B7C",
"h= 	c #B38876",
"i= 	c #BC8774",
"j= 	c #C38673",
"k= 	c #C88572",
"l= 	c #CA8570",
"m= 	c #CF856C",
"n= 	c #C67E69",
"o= 	c #C17A67",
"p= 	c #B67768",
"q= 	c #AC7469",
"r= 	c #A3746D",
"s= 	c #9C726D",
"t= 	c #966F6B",
"u= 	c #976E6A",
"v= 	c #9B6F6A",
"w= 	c #6A5551",
"x= 	c #1A1A16",
"y= 	c #080B08",
"z= 	c #080C08",
"A= 	c #090C08",
"B= 	c #676262",
"C= 	c #625E63",
"D= 	c #605D5F",
"E= 	c #695F5C",
"F= 	c #7D6555",
"G= 	c #886850",
"H= 	c #A67C5F",
"I= 	c #D29978",
"J= 	c #DC9F7C",
"K= 	c #E3A475",
"L= 	c #E09F6D",
"M= 	c #E19F6C",
"N= 	c #EBB26F",
"O= 	c #EDB36F",
"P= 	c #EFB871",
"Q= 	c #F0BC73",
"R= 	c #EFC47A",
"S= 	c #EDBB77",
"T= 	c #ECBA7D",
"U= 	c #ECB57F",
"V= 	c #EBAD77",
"W= 	c #E79F6F",
"X= 	c #E2936B",
"Y= 	c #DD8E6C",
"Z= 	c #DC8D6D",
"`= 	c #DD8F6F",
" - 	c #DB8C70",
".- 	c #D98B71",
"+- 	c #D38A73",
"@- 	c #CA846D",
"#- 	c #CB876D",
"$- 	c #C07963",
"%- 	c #BB7462",
"&- 	c #AF7265",
"*- 	c #AA7367",
"=- 	c #B17567",
"-- 	c #C48270",
";- 	c #CD8774",
">- 	c #CA8674",
",- 	c #CC8774",
"'- 	c #D08A75",
")- 	c #CA8973",
"!- 	c #B18877",
"~- 	c #C08674",
"{- 	c #CD8874",
"]- 	c #CA8673",
"^- 	c #CA8571",
"/- 	c #CA826B",
"(- 	c #CA816C",
"_- 	c #C98370",
":- 	c #C8806C",
"<- 	c #C97E68",
"[- 	c #B28277",
"}- 	c #967672",
"|- 	c #8B7270",
"1- 	c #877270",
"2- 	c #90736F",
"3- 	c #665553",
"4- 	c #1B1A16",
"5- 	c #070A06",
"6- 	c #060906",
"7- 	c #5F5D6B",
"8- 	c #605D69",
"9- 	c #666264",
"0- 	c #615E5F",
"a- 	c #6B5F5A",
"b- 	c #7F614B",
"c- 	c #8A5734",
"d- 	c #8B5732",
"e- 	c #B17A54",
"f- 	c #DC9E72",
"g- 	c #E8A976",
"h- 	c #E4A16F",
"i- 	c #E29B6A",
"j- 	c #E7AA6B",
"k- 	c #ECB26F",
"l- 	c #EEB770",
"m- 	c #EDB472",
"n- 	c #ECB675",
"o- 	c #ECB273",
"p- 	c #ECB177",
"q- 	c #EBAD75",
"r- 	c #EAAA73",
"s- 	c #E79F6E",
"t- 	c #E5976B",
"u- 	c #E4946E",
"v- 	c #E3926E",
"w- 	c #E49372",
"x- 	c #DE8F71",
"y- 	c #DB8D73",
"z- 	c #CE856E",
"A- 	c #C2826E",
"B- 	c #BC7966",
"C- 	c #B87360",
"D- 	c #B36C5C",
"E- 	c #AA685C",
"F- 	c #A3685E",
"G- 	c #A66D64",
"H- 	c #AA7469",
"I- 	c #BE7D6D",
"J- 	c #D38A74",
"K- 	c #D28974",
"L- 	c #D18974",
"M- 	c #D38A75",
"N- 	c #D68D77",
"O- 	c #D48A74",
"P- 	c #C78774",
"Q- 	c #C98573",
"R- 	c #CE8774",
"S- 	c #CC8672",
"T- 	c #CD8671",
"U- 	c #D28973",
"V- 	c #D58B75",
"W- 	c #D38972",
"X- 	c #CC8570",
"Y- 	c #B87B6D",
"Z- 	c #AD8679",
"`- 	c #8C7877",
" ; 	c #7D7472",
".; 	c #797170",
"+; 	c #857573",
"@; 	c #5E5453",
"#; 	c #1C1B17",
"$; 	c #060A06",
"%; 	c #0C100B",
"&; 	c #515271",
"*; 	c #525370",
"=; 	c #5F5C64",
"-; 	c #615C5C",
";; 	c #6D5749",
">; 	c #825C34",
",; 	c #8A4F2F",
"'; 	c #93623D",
"); 	c #BF855D",
"!; 	c #DD9A6C",
"~; 	c #DC9566",
"{; 	c #DE9665",
"]; 	c #E1A266",
"^; 	c #E5AB68",
"/; 	c #EDB370",
"(; 	c #EBAF72",
"_; 	c #EBAE72",
":; 	c #EBAE74",
"<; 	c #EAAC73",
"[; 	c #E9A973",
"}; 	c #E8A471",
"|; 	c #E5996B",
"1; 	c #E39468",
"2; 	c #E4956C",
"3; 	c #E3926C",
"4; 	c #E2906E",
"5; 	c #DA8A6D",
"6; 	c #C9846E",
"7; 	c #B57C6C",
"8; 	c #AE7165",
"9; 	c #A86A60",
"0; 	c #A3655B",
"a; 	c #A66559",
"b; 	c #A4645A",
"c; 	c #A4685E",
"d; 	c #AB7268",
"e; 	c #BF7D6D",
"f; 	c #D88D76",
"g; 	c #D68B75",
"h; 	c #CE8874",
"i; 	c #D18973",
"j; 	c #D68A71",
"k; 	c #D7886D",
"l; 	c #D3876D",
"m; 	c #D0846B",
"n; 	c #BA7A6A",
"o; 	c #AC7870",
"p; 	c #9B746F",
"q; 	c #8F726F",
"r; 	c #7B6D6C",
"s; 	c #766D6C",
"t; 	c #817371",
"u; 	c #5F5654",
"v; 	c #1F1F1B",
"w; 	c #5E5C65",
"x; 	c #625E5F",
"y; 	c #6D574E",
"z; 	c #784E33",
"A; 	c #854D2D",
"B; 	c #884F2E",
"C; 	c #8B5832",
"D; 	c #AD724F",
"E; 	c #CF895C",
"F; 	c #D78E60",
"G; 	c #DC9062",
"H; 	c #DB9D5F",
"I; 	c #E0A763",
"J; 	c #E8AE6B",
"K; 	c #EBB070",
"L; 	c #EAAB71",
"M; 	c #EAAB73",
"N; 	c #EAAB76",
"O; 	c #E9A974",
"P; 	c #E9A673",
"Q; 	c #E5976A",
"R; 	c #E4936B",
"S; 	c #E2916C",
"T; 	c #E49270",
"U; 	c #E39071",
"V; 	c #DF8E71",
"W; 	c #D5886E",
"X; 	c #C8836E",
"Y; 	c #B07367",
"Z; 	c #A86D64",
"`; 	c #A76B63",
" > 	c #A26259",
".> 	c #AA6559",
"+> 	c #AE685B",
"@> 	c #B26F61",
"#> 	c #B97464",
"$> 	c #DE8F74",
"%> 	c #D8947F",
"&> 	c #D68C76",
"*> 	c #D58C76",
"=> 	c #D08974",
"-> 	c #D38973",
";> 	c #D78A70",
">> 	c #CE856D",
",> 	c #CF866F",
"'> 	c #CE866F",
")> 	c #D28870",
"!> 	c #CE836B",
"~> 	c #C98069",
"{> 	c #CA7D68",
"]> 	c #BD7665",
"^> 	c #AC7065",
"/> 	c #A16B66",
"(> 	c #9E6A66",
"_> 	c #936464",
":> 	c #8A6765",
"<> 	c #8D6B69",
"[> 	c #5D5452",
"}> 	c #55556E",
"|> 	c #5C5967",
"1> 	c #625E62",
"2> 	c #625C5B",
"3> 	c #6C5A52",
"4> 	c #745341",
"5> 	c #814B2C",
"6> 	c #834E2B",
"7> 	c #854F2C",
"8> 	c #8A5331",
"9> 	c #975A38",
"0> 	c #A66740",
"a> 	c #C07752",
"b> 	c #D58C5F",
"c> 	c #E2A268",
"d> 	c #E7A96D",
"e> 	c #EAAA72",
"f> 	c #E9A874",
"g> 	c #E8A773",
"h> 	c #E8A271",
"i> 	c #E59A6B",
"j> 	c #E5956D",
"k> 	c #E59270",
"l> 	c #E19071",
"m> 	c #DE8E72",
"n> 	c #D68A72",
"o> 	c #CB8672",
"p> 	c #B87969",
"q> 	c #AF7266",
"r> 	c #B07266",
"s> 	c #B66F5E",
"t> 	c #BB715D",
"u> 	c #C77A63",
"v> 	c #D18168",
"w> 	c #D9876B",
"x> 	c #D98A6F",
"y> 	c #D78D77",
"z> 	c #D68C75",
"A> 	c #D08975",
"B> 	c #CF8874",
"C> 	c #D3876E",
"D> 	c #BF7866",
"E> 	c #B56E60",
"F> 	c #A9675D",
"G> 	c #A3665F",
"H> 	c #9B625E",
"I> 	c #996362",
"J> 	c #996562",
"K> 	c #97625E",
"L> 	c #5D4742",
"M> 	c #1D1C18",
"N> 	c #070A07",
"O> 	c #060905",
"P> 	c #0E110C",
"Q> 	c #645E61",
"R> 	c #7B564D",
"S> 	c #805540",
"T> 	c #77513F",
"U> 	c #76584C",
"V> 	c #725247",
"W> 	c #7A4A2C",
"X> 	c #804B2B",
"Y> 	c #804E2A",
"Z> 	c #824E2B",
"`> 	c #83502A",
" , 	c #87502C",
"., 	c #995D3C",
"+, 	c #C78258",
"@, 	c #DC9867",
"#, 	c #E6A06F",
"$, 	c #E8A472",
"%, 	c #E9A774",
"&, 	c #E5A270",
"*, 	c #E29E6C",
"=, 	c #E69A6C",
"-, 	c #E59371",
";, 	c #DC8C6E",
">, 	c #DA8D73",
",, 	c #D68B73",
"', 	c #CC8673",
"), 	c #BE7E6C",
"!, 	c #B6786A",
"~, 	c #B97967",
"{, 	c #BD7765",
"], 	c #C17964",
"^, 	c #D18167",
"/, 	c #DB896B",
"(, 	c #E18C6D",
"_, 	c #E28B6C",
":, 	c #E18B6C",
"<, 	c #DA8C72",
"[, 	c #D58A74",
"}, 	c #D28A73",
"|, 	c #D08872",
"1, 	c #CC8571",
"2, 	c #C67F6B",
"3, 	c #BC7867",
"4, 	c #B27365",
"5, 	c #A8675E",
"6, 	c #985753",
"7, 	c #935350",
"8, 	c #935653",
"9, 	c #935956",
"0, 	c #945A57",
"a, 	c #965854",
"b, 	c #5A423C",
"c, 	c #080C09",
"d, 	c #79594B",
"e, 	c #864F33",
"f, 	c #894F2F",
"g, 	c #7F523E",
"h, 	c #70564C",
"i, 	c #774C31",
"j, 	c #814B2B",
"k, 	c #834C2C",
"l, 	c #7F4A2A",
"m, 	c #804B2A",
"n, 	c #7E5028",
"o, 	c #8C5632",
"p, 	c #B87350",
"q, 	c #DE9367",
"r, 	c #E6A26F",
"s, 	c #E59C6E",
"t, 	c #E29E6E",
"u, 	c #D99369",
"v, 	c #D78D66",
"w, 	c #DF9069",
"x, 	c #E2926A",
"y, 	c #E4946A",
"z, 	c #E09168",
"A, 	c #E4966B",
"B, 	c #E5976F",
"C, 	c #E39173",
"D, 	c #D98C70",
"E, 	c #D98C72",
"F, 	c #C9826D",
"G, 	c #C57F6B",
"H, 	c #C57E69",
"I, 	c #C87F69",
"J, 	c #D3866E",
"K, 	c #DC8B6E",
"L, 	c #E08E70",
"M, 	c #E08B6C",
"N, 	c #E18A6B",
"O, 	c #E28A6A",
"P, 	c #DF8A6C",
"Q, 	c #CE8873",
"R, 	c #CB8673",
"S, 	c #C7806C",
"T, 	c #C47D69",
"U, 	c #B77365",
"V, 	c #B36F62",
"W, 	c #AB7064",
"X, 	c #A5665D",
"Y, 	c #A06059",
"Z, 	c #93514E",
"`, 	c #8E4B4A",
" ' 	c #894A47",
".' 	c #884C49",
"+' 	c #91534E",
"@' 	c #945652",
"#' 	c #5A443F",
"$' 	c #1D1C19",
"%' 	c #735040",
"&' 	c #884E37",
"*' 	c #765144",
"=' 	c #734C35",
"-' 	c #7C4A28",
";' 	c #7B4E26",
">' 	c #88502E",
",' 	c #9B5A39",
"'' 	c #C77F56",
")' 	c #E09967",
"!' 	c #DE9669",
"~' 	c #D08C63",
"{' 	c #C17E60",
"]' 	c #BB735B",
"^' 	c #BE745B",
"/' 	c #C67B5F",
"(' 	c #D08265",
"_' 	c #D78769",
":' 	c #DE8E6D",
"<' 	c #E4926F",
"[' 	c #E39070",
"}' 	c #DC8D72",
"|' 	c #DA8C70",
"1' 	c #D98D6F",
"2' 	c #D8896D",
"3' 	c #D6896D",
"4' 	c #D4886E",
"5' 	c #D7896D",
"6' 	c #D88B71",
"7' 	c #E29173",
"8' 	c #E29072",
"9' 	c #E28E70",
"0' 	c #DC896A",
"a' 	c #E08A6A",
"b' 	c #DD896A",
"c' 	c #CE8772",
"d' 	c #CA826C",
"e' 	c #CA846E",
"f' 	c #C6816C",
"g' 	c #C7806A",
"h' 	c #BB7765",
"i' 	c #B77465",
"j' 	c #B26D60",
"k' 	c #A8665A",
"l' 	c #9C5E57",
"m' 	c #9A5A54",
"n' 	c #995651",
"o' 	c #96514B",
"p' 	c #924C47",
"q' 	c #904944",
"r' 	c #89453F",
"s' 	c #944E48",
"t' 	c #92504D",
"u' 	c #563D3B",
"v' 	c #1C1C18",
"w' 	c #784B31",
"x' 	c #874E2E",
"y' 	c #884E2E",
"z' 	c #7E4B2F",
"A' 	c #794936",
"B' 	c #784A2F",
"C' 	c #814C2C",
"D' 	c #7D4A2A",
"E' 	c #7A4928",
"F' 	c #7A4A27",
"G' 	c #7E4E28",
"H' 	c #874F2C",
"I' 	c #905634",
"J' 	c #B0704D",
"K' 	c #BF7F5C",
"L' 	c #BF8269",
"M' 	c #BA7760",
"N' 	c #B8715B",
"O' 	c #B8715A",
"P' 	c #B7705A",
"Q' 	c #BA735B",
"R' 	c #CA7C61",
"S' 	c #D7886B",
"T' 	c #DF8D6E",
"U' 	c #DC8B6C",
"V' 	c #DC8D71",
"W' 	c #DB8B6C",
"X' 	c #D98A6B",
"Y' 	c #D98B6C",
"Z' 	c #D98A6D",
"`' 	c #D88B70",
" ) 	c #DE8D70",
".) 	c #DF8B6C",
"+) 	c #DA886A",
"@) 	c #D4866B",
"#) 	c #CB8571",
"$) 	c #C9826E",
"%) 	c #BA7A68",
"&) 	c #B47C6C",
"*) 	c #B77A6B",
"=) 	c #B87667",
"-) 	c #B37265",
";) 	c #B27064",
">) 	c #AD6A5F",
",) 	c #A26358",
"') 	c #985854",
")) 	c #99554F",
"!) 	c #974E49",
"~) 	c #8E4741",
"{) 	c #893F38",
"]) 	c #853D36",
"^) 	c #874641",
"/) 	c #864949",
"() 	c #523635",
"_) 	c #161714",
":) 	c #070B07",
"<) 	c #734A34",
"[) 	c #7B482D",
"}) 	c #7C4733",
"|) 	c #7A4831",
"1) 	c #784A2D",
"2) 	c #7C4A2F",
"3) 	c #7C4929",
"4) 	c #7A4828",
"5) 	c #7D4929",
"6) 	c #874E33",
"7) 	c #9C5B42",
"8) 	c #B26D54",
"9) 	c #B77158",
"0) 	c #B67059",
"a) 	c #B66F5B",
"b) 	c #B9725B",
"c) 	c #BD745E",
"d) 	c #DA896B",
"e) 	c #DD8B6D",
"f) 	c #E39172",
"g) 	c #E28E6E",
"h) 	c #DE8A6B",
"i) 	c #DD8B6C",
"j) 	c #D88B6F",
"k) 	c #D88A6F",
"l) 	c #DB8B6E",
"m) 	c #D9886C",
"n) 	c #D3856A",
"o) 	c #CD826B",
"p) 	c #C87E68",
"q) 	c #C77D68",
"r) 	c #BC7665",
"s) 	c #B77263",
"t) 	c #AF7164",
"u) 	c #AD7164",
"v) 	c #AD7165",
"w) 	c #AF6C60",
"x) 	c #AF6C62",
"y) 	c #AE6D62",
"z) 	c #AA675C",
"A) 	c #A7655A",
"B) 	c #995B55",
"C) 	c #945754",
"D) 	c #96544F",
"E) 	c #914E4A",
"F) 	c #884644",
"G) 	c #86413D",
"H) 	c #803E39",
"I) 	c #844543",
"J) 	c #7E4748",
"K) 	c #543A38",
"L) 	c #161713",
"M) 	c #070B08",
"N) 	c #6F4835",
"O) 	c #754435",
"P) 	c #784734",
"Q) 	c #794832",
"R) 	c #804B2C",
"S) 	c #844C2D",
"T) 	c #7E4A2E",
"U) 	c #7D492B",
"V) 	c #804A2B",
"W) 	c #7E4929",
"X) 	c #794829",
"Y) 	c #77492C",
"Z) 	c #784629",
"`) 	c #76402A",
" ! 	c #723D2A",
".! 	c #743D2B",
"+! 	c #8B4A38",
"@! 	c #A7604C",
"#! 	c #AF6956",
"$! 	c #B06A59",
"%! 	c #B66D58",
"&! 	c #BA715B",
"*! 	c #BD725B",
"=! 	c #CB7E66",
"-! 	c #E18D6E",
";! 	c #E5936E",
">! 	c #E4916E",
",! 	c #E08C6C",
"'! 	c #D9896D",
")! 	c #DB8C72",
"!! 	c #D88A70",
"~! 	c #D78A71",
"{! 	c #DA8A6E",
"]! 	c #D1846A",
"^! 	c #BF7867",
"/! 	c #BA7160",
"(! 	c #B46D5F",
"_! 	c #B36D61",
":! 	c #AC685D",
"<! 	c #A36359",
"[! 	c #9E6057",
"}! 	c #9B5B54",
"|! 	c #A36159",
"1! 	c #A9685F",
"2! 	c #AB6A60",
"3! 	c #A5665C",
"4! 	c #9E605A",
"5! 	c #925552",
"6! 	c #89504C",
"7! 	c #844643",
"8! 	c #80423E",
"9! 	c #7E403D",
"0! 	c #7E4342",
"a! 	c #7D4748",
"b! 	c #573D39",
"c! 	c #603934",
"d! 	c #703E32",
"e! 	c #814731",
"f! 	c #844832",
"g! 	c #81492C",
"h! 	c #864B32",
"i! 	c #7E4638",
"j! 	c #7D4731",
"k! 	c #7C482F",
"l! 	c #7E4A2A",
"m! 	c #794728",
"n! 	c #77462A",
"o! 	c #77462C",
"p! 	c #76422B",
"q! 	c #6D382A",
"r! 	c #6B372A",
"s! 	c #69362A",
"t! 	c #6E372B",
"u! 	c #804433",
"v! 	c #9C5949",
"w! 	c #AD6552",
"x! 	c #B26750",
"y! 	c #B86F58",
"z! 	c #B9725A",
"A! 	c #C07760",
"B! 	c #D08369",
"C! 	c #E08E6F",
"D! 	c #E49170",
"E! 	c #E28D6D",
"F! 	c #DE896A",
"G! 	c #D5876B",
"H! 	c #D38268",
"I! 	c #C97F69",
"J! 	c #BF7A67",
"K! 	c #B17163",
"L! 	c #AF6B5E",
"M! 	c #AA695E",
"N! 	c #A8685E",
"O! 	c #A76459",
"P! 	c #9D5C55",
"Q! 	c #9B5A54",
"R! 	c #99564F",
"S! 	c #98554E",
"T! 	c #95554E",
"U! 	c #955650",
"V! 	c #9C5D54",
"W! 	c #B16C60",
"X! 	c #AA675D",
"Y! 	c #A16058",
"Z! 	c #93514D",
"`! 	c #894847",
" ~ 	c #7E4344",
".~ 	c #804444",
"+~ 	c #7C4445",
"@~ 	c #794647",
"#~ 	c #593D3B",
"$~ 	c #1A1A15",
"%~ 	c #5E3534",
"&~ 	c #6E3C33",
"*~ 	c #79452C",
"=~ 	c #80472F",
"-~ 	c #7F482C",
";~ 	c #804832",
">~ 	c #7A4537",
",~ 	c #7C472E",
"'~ 	c #7D482F",
")~ 	c #7D492A",
"!~ 	c #7A4729",
"~~ 	c #794629",
"{~ 	c #75422C",
"]~ 	c #6B382A",
"^~ 	c #663429",
"/~ 	c #683429",
"(~ 	c #6A362A",
"_~ 	c #673228",
":~ 	c #693428",
"<~ 	c #7D4336",
"[~ 	c #9C5647",
"}~ 	c #B1634D",
"|~ 	c #B2634F",
"1~ 	c #B76D58",
"2~ 	c #BB7560",
"3~ 	c #CD826A",
"4~ 	c #E59273",
"5~ 	c #E59172",
"6~ 	c #E18B6B",
"7~ 	c #E08A6B",
"8~ 	c #DA8867",
"9~ 	c #DA8866",
"0~ 	c #D58467",
"a~ 	c #CB7E67",
"b~ 	c #C87B66",
"c~ 	c #C57B67",
"d~ 	c #C07866",
"e~ 	c #B57364",
"f~ 	c #A9665A",
"g~ 	c #A15E56",
"h~ 	c #9E5C54",
"i~ 	c #985852",
"j~ 	c #965751",
"k~ 	c #94534D",
"l~ 	c #92514C",
"m~ 	c #93534D",
"n~ 	c #8E524D",
"o~ 	c #8A534E",
"p~ 	c #8B534F",
"q~ 	c #965A56",
"r~ 	c #9B635A",
"s~ 	c #9D6159",
"t~ 	c #AA6155",
"u~ 	c #9B554F",
"v~ 	c #804747",
"w~ 	c #764341",
"x~ 	c #764445",
"y~ 	c #754447",
"z~ 	c #563D3A",
"A~ 	c #0C0E0B",
"B~ 	c #5C342F",
"C~ 	c #643733",
"D~ 	c #683A32",
"E~ 	c #6D3A33",
"F~ 	c #733F32",
"G~ 	c #794533",
"H~ 	c #7A4337",
"I~ 	c #7D4431",
"J~ 	c #7B452D",
"K~ 	c #7D482B",
"L~ 	c #7E492C",
"M~ 	c #814A2C",
"N~ 	c #743E2B",
"O~ 	c #663529",
"P~ 	c #603026",
"Q~ 	c #632E25",
"R~ 	c #623027",
"S~ 	c #622E26",
"T~ 	c #653027",
"U~ 	c #8A473D",
"V~ 	c #AD5D4B",
"W~ 	c #B2624E",
"X~ 	c #B46654",
"Y~ 	c #BA715E",
"Z~ 	c #D0856D",
"`~ 	c #DD8A6B",
" { 	c #E38E6D",
".{ 	c #E48F6F",
"+{ 	c #E38E6E",
"@{ 	c #DF8A6B",
"#{ 	c #DB896A",
"${ 	c #DC8968",
"%{ 	c #D88764",
"&{ 	c #D78562",
"*{ 	c #CE7C63",
"={ 	c #C77963",
"-{ 	c #C1755E",
";{ 	c #BC745E",
">{ 	c #B86F5B",
",{ 	c #B76D5A",
"'{ 	c #AE6759",
"){ 	c #9B5751",
"!{ 	c #8F514C",
"~{ 	c #8B504C",
"{{ 	c #8B514C",
"]{ 	c #8D504C",
"^{ 	c #8E5451",
"/{ 	c #8F5451",
"({ 	c #915651",
"_{ 	c #945752",
":{ 	c #975854",
"<{ 	c #995E57",
"[{ 	c #9D6058",
"}{ 	c #AA6558",
"|{ 	c #AC6656",
"1{ 	c #AC6556",
"2{ 	c #A96055",
"3{ 	c #975C58",
"4{ 	c #804A4A",
"5{ 	c #774648",
"6{ 	c #774849",
"7{ 	c #563E3B",
"8{ 	c #0D0F0D",
"9{ 	c #613630",
"0{ 	c #5E342B",
"a{ 	c #5D342B",
"b{ 	c #673731",
"c{ 	c #693C30",
"d{ 	c #6F3D2F",
"e{ 	c #774134",
"f{ 	c #784031",
"g{ 	c #77412E",
"h{ 	c #733E2C",
"i{ 	c #7B452E",
"j{ 	c #7F472F",
"k{ 	c #723B2C",
"l{ 	c #603027",
"m{ 	c #593026",
"n{ 	c #5B2F26",
"o{ 	c #592F25",
"p{ 	c #5A3026",
"q{ 	c #5C3026",
"r{ 	c #643227",
"s{ 	c #7C3E33",
"t{ 	c #A25548",
"u{ 	c #B25F4F",
"v{ 	c #B36552",
"w{ 	c #BD725D",
"x{ 	c #D0836A",
"y{ 	c #DB8869",
"z{ 	c #E38D6D",
"A{ 	c #DF896A",
"B{ 	c #DB8665",
"C{ 	c #DA8262",
"D{ 	c #D78062",
"E{ 	c #CD775C",
"F{ 	c #C9765D",
"G{ 	c #CA765D",
"H{ 	c #C7755C",
"I{ 	c #B76958",
"J{ 	c #AF6658",
"K{ 	c #9E5D56",
"L{ 	c #985752",
"M{ 	c #975651",
"N{ 	c #995650",
"O{ 	c #9B534D",
"P{ 	c #95524C",
"Q{ 	c #98544E",
"R{ 	c #995753",
"S{ 	c #985853",
"T{ 	c #9A5B56",
"U{ 	c #A96558",
"V{ 	c #AF6451",
"W{ 	c #B26452",
"X{ 	c #B46756",
"Y{ 	c #AE6458",
"Z{ 	c #A3635B",
"`{ 	c #905955",
" ] 	c #83514E",
".] 	c #7B514E",
"+] 	c #53423D",
"@] 	c #141510",
"#] 	c #5F352A",
"$] 	c #582F27",
"%] 	c #5A3228",
"&] 	c #5E3328",
"*] 	c #643328",
"=] 	c #6B382C",
"-] 	c #6C382C",
";] 	c #6F3A2E",
">] 	c #6C362A",
",] 	c #68352A",
"'] 	c #6A382B",
")] 	c #67382A",
"!] 	c #582C23",
"~] 	c #572A21",
"{] 	c #572B22",
"]] 	c #582D23",
"^] 	c #592D23",
"/] 	c #5D2F25",
"(] 	c #663126",
"_] 	c #7E3F33",
":] 	c #A65D50",
"<] 	c #B66A58",
"[] 	c #B9705A",
"}] 	c #C37863",
"|] 	c #CB7F68",
"1] 	c #D88669",
"2] 	c #DE896B",
"3] 	c #E28C6C",
"4] 	c #E08D70",
"5] 	c #DC8A6B",
"6] 	c #E0896A",
"7] 	c #DE8465",
"8] 	c #DA7F60",
"9] 	c #D77C5D",
"0] 	c #D77C5E",
"a] 	c #D77A5C",
"b] 	c #D7795B",
"c] 	c #D6795B",
"d] 	c #CA735A",
"e] 	c #B36859",
"f] 	c #A76559",
"g] 	c #A66257",
"h] 	c #A55B4F",
"i] 	c #AB5B4E",
"j] 	c #A4594E",
"k] 	c #9D554C",
"l] 	c #A75C51",
"m] 	c #A95D52",
"n] 	c #A15750",
"o] 	c #A05750",
"p] 	c #A05B52",
"q] 	c #A26057",
"r] 	c #AA665A",
"s] 	c #AF6557",
"t] 	c #B46553",
"u] 	c #B26653",
"v] 	c #AB665A",
"w] 	c #AB685E",
"x] 	c #995E58",
"y] 	c #8E5655",
"z] 	c #885755",
"A] 	c #50413E",
"B] 	c #060A05",
"C] 	c #5E362B",
"D] 	c #572D26",
"E] 	c #5A2F26",
"F] 	c #5C3227",
"G] 	c #643429",
"H] 	c #68362A",
"I] 	c #603127",
"J] 	c #5D3127",
"K] 	c #603228",
"L] 	c #613228",
"M] 	c #5C3127",
"N] 	c #5C3228",
"O] 	c #582F26",
"P] 	c #593027",
"Q] 	c #5C3328",
"R] 	c #603328",
"S] 	c #673529",
"T] 	c #6B352A",
"U] 	c #915146",
"V] 	c #B76E5C",
"W] 	c #BA7461",
"X] 	c #C0755F",
"Y] 	c #D07F66",
"Z] 	c #DB8769",
"`] 	c #E18A6A",
" ^ 	c #DD8B6F",
".^ 	c #E08869",
"+^ 	c #DC8162",
"@^ 	c #D97F60",
"#^ 	c #D87C5D",
"$^ 	c #DA7E5F",
"%^ 	c #D87B5D",
"&^ 	c #D6785A",
"*^ 	c #C3715A",
"=^ 	c #B76E5A",
"-^ 	c #BC705A",
";^ 	c #BD6D58",
">^ 	c #BC6753",
",^ 	c #B86350",
"'^ 	c #B2604F",
")^ 	c #AE5D4E",
"!^ 	c #B16552",
"~^ 	c #AA5E51",
"{^ 	c #AE6254",
"]^ 	c #B06254",
"^^ 	c #A95F54",
"/^ 	c #A96155",
"(^ 	c #B16B5C",
"_^ 	c #B2695A",
":^ 	c #AD685C",
"<^ 	c #A9685D",
"[^ 	c #A96559",
"}^ 	c #9A5853",
"|^ 	c #8E5552",
"1^ 	c #151612",
"2^ 	c #5B3429",
"3^ 	c #572F27",
"4^ 	c #592F26",
"5^ 	c #5F3227",
"6^ 	c #5B3025",
"7^ 	c #592C21",
"8^ 	c #5D2F24",
"9^ 	c #582E25",
"0^ 	c #582D24",
"a^ 	c #5A3027",
"b^ 	c #572E26",
"c^ 	c #5A3127",
"d^ 	c #5F3429",
"e^ 	c #65352A",
"f^ 	c #773D33",
"g^ 	c #904C43",
"h^ 	c #A65E52",
"i^ 	c #B06553",
"j^ 	c #B66D5B",
"k^ 	c #B86D5A",
"l^ 	c #C56C57",
"m^ 	c #D0755A",
"n^ 	c #D57B61",
"o^ 	c #D98163",
"p^ 	c #DF8868",
"q^ 	c #DB876A",
"r^ 	c #DF8767",
"s^ 	c #DB8061",
"t^ 	c #D2785B",
"u^ 	c #D4785B",
"v^ 	c #CC755B",
"w^ 	c #C5715A",
"x^ 	c #C4715B",
"y^ 	c #C6705A",
"z^ 	c #C36F59",
"A^ 	c #BF6A55",
"B^ 	c #C26C57",
"C^ 	c #B56452",
"D^ 	c #B36353",
"E^ 	c #B26354",
"F^ 	c #B06353",
"G^ 	c #B16555",
"H^ 	c #AE6556",
"I^ 	c #AA6457",
"J^ 	c #A66255",
"K^ 	c #A26153",
"L^ 	c #AB6759",
"M^ 	c #A8695F",
"N^ 	c #9D675F",
"O^ 	c #A65D54",
"P^ 	c #A05952",
"Q^ 	c #925855",
"R^ 	c #524542",
"S^ 	c #151511",
"T^ 	c #4F3228",
"U^ 	c #4F2D26",
"V^ 	c #562D25",
"W^ 	c #592E24",
"X^ 	c #572C23",
"Y^ 	c #572C22",
"Z^ 	c #572920",
"`^ 	c #572D25",
" / 	c #6A372B",
"./ 	c #6F382E",
"+/ 	c #753C2F",
"@/ 	c #9D5548",
"#/ 	c #AE5E50",
"$/ 	c #AD5C4F",
"%/ 	c #B26051",
"&/ 	c #B56453",
"*/ 	c #BD6957",
"=/ 	c #CB6A53",
"-/ 	c #D16E54",
";/ 	c #D6775A",
">/ 	c #D77A5B",
",/ 	c #D88165",
"'/ 	c #DA8366",
")/ 	c #DC8264",
"!/ 	c #D3785B",
"~/ 	c #CA7358",
"{/ 	c #C9735A",
"]/ 	c #CB765B",
"^/ 	c #CD765B",
"// 	c #C8745B",
"(/ 	c #C5705A",
"_/ 	c #BD6F5A",
":/ 	c #BE715B",
"</ 	c #B76755",
"[/ 	c #B66153",
"}/ 	c #B66252",
"|/ 	c #B3634F",
"1/ 	c #B46552",
"2/ 	c #B46554",
"3/ 	c #B56756",
"4/ 	c #AD6658",
"5/ 	c #985C51",
"6/ 	c #5D382F",
"7/ 	c #784A42",
"8/ 	c #98685C",
"9/ 	c #996862",
"0/ 	c #9A655D",
"a/ 	c #A76154",
"b/ 	c #AE5C4D",
"c/ 	c #A7594C",
"d/ 	c #8F5652",
"e/ 	c #504643",
"f/ 	c #181814",
"g/ 	c #0D100B",
"h/ 	c #4C3229",
"i/ 	c #4A2C27",
"j/ 	c #4D2925",
"k/ 	c #542B23",
"l/ 	c #572D24",
"m/ 	c #572C25",
"n/ 	c #562B23",
"o/ 	c #562C25",
"p/ 	c #593127",
"q/ 	c #5B3328",
"r/ 	c #603429",
"s/ 	c #67352A",
"t/ 	c #67362B",
"u/ 	c #68362B",
"v/ 	c #6F382C",
"w/ 	c #87473B",
"x/ 	c #A95848",
"y/ 	c #B4604D",
"z/ 	c #B65D4D",
"A/ 	c #BB6351",
"B/ 	c #C46954",
"C/ 	c #C56955",
"D/ 	c #CE6A51",
"E/ 	c #D26C53",
"F/ 	c #D27457",
"G/ 	c #DA8162",
"H/ 	c #D87E60",
"I/ 	c #D77B5D",
"J/ 	c #CF765A",
"K/ 	c #C7725A",
"L/ 	c #C56D59",
"M/ 	c #C0735B",
"N/ 	c #B86E59",
"O/ 	c #B56855",
"P/ 	c #B76A57",
"Q/ 	c #B66955",
"R/ 	c #B36452",
"S/ 	c #B56553",
"T/ 	c #BA6756",
"U/ 	c #B66555",
"V/ 	c #B46050",
"W/ 	c #B66756",
"X/ 	c #B66B58",
"Y/ 	c #B16758",
"Z/ 	c #814C42",
"`/ 	c #563631",
" ( 	c #67433A",
".( 	c #7B5449",
"+( 	c #8C5E54",
"@( 	c #9C6156",
"#( 	c #AA614F",
"$( 	c #AD5F4C",
"%( 	c #9B5850",
"&( 	c #553E3A",
"*( 	c #131511",
"=( 	c #402922",
"-( 	c #412723",
";( 	c #462825",
">( 	c #4B2C27",
",( 	c #532E27",
"'( 	c #562D26",
")( 	c #572F28",
"!( 	c #593128",
"~( 	c #5D3328",
"{( 	c #63352A",
"]( 	c #633429",
"^( 	c #67362C",
"/( 	c #67362A",
"(( 	c #69372C",
"_( 	c #71392E",
":( 	c #7E4135",
"<( 	c #934939",
"[( 	c #A04F40",
"}( 	c #A65345",
"|( 	c #AF5443",
"1( 	c #BF634F",
"2( 	c #C36654",
"3( 	c #CA6A53",
"4( 	c #D06D52",
"5( 	c #D5775A",
"6( 	c #D67C60",
"7( 	c #D7795C",
"8( 	c #D77E62",
"9( 	c #D88265",
"0( 	c #D57A60",
"a( 	c #D6795C",
"b( 	c #D47A5C",
"c( 	c #C9755C",
"d( 	c #C2715A",
"e( 	c #BF6E5A",
"f( 	c #BB705A",
"g( 	c #BD745D",
"h( 	c #B9715B",
"i( 	c #B8715D",
"j( 	c #B56E5E",
"k( 	c #B66C5B",
"l( 	c #BB6F5D",
"m( 	c #B96C59",
"n( 	c #B56755",
"o( 	c #B56654",
"p( 	c #BC6956",
"q( 	c #BB6856",
"r( 	c #B65F51",
"s( 	c #B96857",
"t( 	c #B86957",
"u( 	c #BE6D5A",
"v( 	c #B16757",
"w( 	c #8F554A",
"x( 	c #683F3A",
"y( 	c #6E4B45",
"z( 	c #7B5B4F",
"A( 	c #7B5950",
"B( 	c #7F584E",
"C( 	c #8F584C",
"D( 	c #995B50",
"E( 	c #594137",
"F( 	c #121410",
"G( 	c #2E261D",
"H( 	c #382520",
"I( 	c #3A2622",
"J( 	c #3B2724",
"K( 	c #452B26",
"L( 	c #512D27",
"M( 	c #542E27",
"N( 	c #573029",
"O( 	c #572E25",
"P( 	c #5B3228",
"Q( 	c #5E3428",
"R( 	c #66362B",
"S( 	c #69372D",
"T( 	c #6C372E",
"U( 	c #743E32",
"V( 	c #784034",
"W( 	c #814238",
"X( 	c #89463B",
"Y( 	c #934A3E",
"Z( 	c #A75345",
"`( 	c #B35B4D",
" _ 	c #BE6250",
"._ 	c #CD6E54",
"+_ 	c #D67A5E",
"@_ 	c #D67E64",
"#_ 	c #D4795D",
"$_ 	c #D1785D",
"%_ 	c #CE7B61",
"&_ 	c #CB7A62",
"*_ 	c #C5725D",
"=_ 	c #C17462",
"-_ 	c #BC725F",
";_ 	c #B8705D",
">_ 	c #B67160",
",_ 	c #B26C5F",
"'_ 	c #B86C5B",
")_ 	c #B66656",
"!_ 	c #B26252",
"~_ 	c #BE6A59",
"{_ 	c #C16958",
"]_ 	c #B96656",
"^_ 	c #C46A58",
"/_ 	c #C16B59",
"(_ 	c #BC6D59",
"__ 	c #B96A57",
":_ 	c #9C5A4C",
"<_ 	c #67423A",
"[_ 	c #6C4B43",
"}_ 	c #836154",
"|_ 	c #8F6E64",
"1_ 	c #8A6A5D",
"2_ 	c #856359",
"3_ 	c #625046",
"4_ 	c #2E2723",
"5_ 	c #121310",
"6_ 	c #2A231D",
"7_ 	c #30251D",
"8_ 	c #35241C",
"9_ 	c #372520",
"0_ 	c #3B2622",
"a_ 	c #412826",
"b_ 	c #442827",
"c_ 	c #4B2D28",
"d_ 	c #543028",
"e_ 	c #573028",
"f_ 	c #593228",
"g_ 	c #60352B",
"h_ 	c #693730",
"i_ 	c #6A3731",
"j_ 	c #713930",
"k_ 	c #753C31",
"l_ 	c #783F34",
"m_ 	c #884339",
"n_ 	c #89463C",
"o_ 	c #8C473E",
"p_ 	c #914941",
"q_ 	c #9A4C40",
"r_ 	c #A85649",
"s_ 	c #B2594B",
"t_ 	c #C76C55",
"u_ 	c #D3795E",
"v_ 	c #D57D64",
"w_ 	c #D67B60",
"x_ 	c #D67B5F",
"y_ 	c #D6795D",
"z_ 	c #D3795F",
"A_ 	c #CB765D",
"B_ 	c #CD775F",
"C_ 	c #CA7860",
"D_ 	c #C97A65",
"E_ 	c #C27865",
"F_ 	c #B67263",
"G_ 	c #B36F63",
"H_ 	c #B36D62",
"I_ 	c #AE6A60",
"J_ 	c #AC665A",
"K_ 	c #A86056",
"L_ 	c #A75D55",
"M_ 	c #AC5E55",
"N_ 	c #B9695A",
"O_ 	c #C36C5A",
"P_ 	c #C16A58",
"Q_ 	c #C06958",
"R_ 	c #C66B58",
"S_ 	c #B76654",
"T_ 	c #7B4235",
"U_ 	c #925345",
"V_ 	c #B46858",
"W_ 	c #A46255",
"X_ 	c #7D4D43",
"Y_ 	c #7D574D",
"Z_ 	c #9B776B",
"`_ 	c #AB8F7E",
" : 	c #AC9183",
".: 	c #A38A7B",
"+: 	c #8F7269",
"@: 	c #5C5049",
"#: 	c #282420",
"$: 	c #050805",
"%: 	c #050804",
"&: 	c #28201A",
"*: 	c #281F18",
"=: 	c #2B211A",
"-: 	c #2E251F",
";: 	c #332622",
">: 	c #372622",
",: 	c #3A2522",
"': 	c #3F2725",
"): 	c #482A27",
"!: 	c #512F28",
"~: 	c #573128",
"{: 	c #5E3429",
"]: 	c #65352E",
"^: 	c #6A382F",
"/: 	c #743C30",
"(: 	c #733A2E",
"_: 	c #773E32",
":: 	c #87453D",
"<: 	c #8F4840",
"[: 	c #904941",
"}: 	c #944A3D",
"|: 	c #9D4E45",
"1: 	c #A7564A",
"2: 	c #BB6250",
"3: 	c #D0765C",
"4: 	c #D4795F",
"5: 	c #D5795D",
"6: 	c #D4775B",
"7: 	c #CC755A",
"8: 	c #CB765E",
"9: 	c #CC775F",
"0: 	c #D17B62",
"a: 	c #CC7B65",
"b: 	c #C47A67",
"c: 	c #B67264",
"d: 	c #AE6A5F",
"e: 	c #B26B60",
"f: 	c #B16A5E",
"g: 	c #B3695C",
"h: 	c #B3695A",
"i: 	c #A86157",
"j: 	c #A15B54",
"k: 	c #9B5752",
"l: 	c #9F5953",
"m: 	c #A25C54",
"n: 	c #A75F55",
"o: 	c #B46355",
"p: 	c #B76556",
"q: 	c #BF6958",
"r: 	c #C56B58",
"s: 	c #C3715D",
"t: 	c #915244",
"u: 	c #4F3027",
"v: 	c #63382F",
"w: 	c #965548",
"x: 	c #A55F4F",
"y: 	c #935950",
"z: 	c #7D5850",
"A: 	c #947768",
"B: 	c #AD9484",
"C: 	c #BAA593",
"D: 	c #B9A290",
"E: 	c #AD988A",
"F: 	c #8E7D72",
"G: 	c #574841",
"H: 	c #1C1914",
"I: 	c #28221D",
"J: 	c #29231E",
"K: 	c #302520",
"L: 	c #312623",
"M: 	c #322624",
"N: 	c #312522",
"O: 	c #392624",
"P: 	c #3B2725",
"Q: 	c #462928",
"R: 	c #482A28",
"S: 	c #4D2E28",
"T: 	c #583027",
"U: 	c #67372C",
"V: 	c #6D3B31",
"W: 	c #703C33",
"X: 	c #763F34",
"Y: 	c #763C31",
"Z: 	c #7D4237",
"`: 	c #84453A",
" < 	c #8B473E",
".< 	c #8C473D",
"+< 	c #9C4E45",
"@< 	c #A25347",
"#< 	c #AE594B",
"$< 	c #CD7258",
"%< 	c #D5785B",
"&< 	c #D37157",
"*< 	c #CF7258",
"=< 	c #CF7057",
"-< 	c #C9725A",
";< 	c #CB745F",
">< 	c #D0795F",
",< 	c #D37D5F",
"'< 	c #CB7B66",
")< 	c #C07966",
"!< 	c #B16B5F",
"~< 	c #AB6659",
"{< 	c #B26B5F",
"]< 	c #AE675B",
"^< 	c #9C5B55",
"/< 	c #995854",
"(< 	c #93534F",
"_< 	c #925451",
":< 	c #995450",
"<< 	c #A55B54",
"[< 	c #A25E57",
"}< 	c #AD665A",
"|< 	c #B66655",
"1< 	c #B96956",
"2< 	c #7B423A",
"3< 	c #51302A",
"4< 	c #402925",
"5< 	c #60372C",
"6< 	c #915A4E",
"7< 	c #8C6055",
"8< 	c #87685A",
"9< 	c #9A7E70",
"0< 	c #BBA493",
"a< 	c #CDB6A1",
"b< 	c #CDB7A3",
"c< 	c #C2AB97",
"d< 	c #AD998B",
"e< 	c #806B62",
"f< 	c #3A322E",
"g< 	c #12110E",
"h< 	c #070B06",
"i< 	c #29231D",
"j< 	c #2A2522",
"k< 	c #2C2522",
"l< 	c #312624",
"m< 	c #2C2421",
"n< 	c #2F2521",
"o< 	c #352521",
"p< 	c #392623",
"q< 	c #492928",
"r< 	c #532F29",
"s< 	c #63352B",
"t< 	c #683731",
"u< 	c #68362E",
"v< 	c #6B3831",
"w< 	c #733B30",
"x< 	c #733A30",
"y< 	c #753B32",
"z< 	c #793E35",
"A< 	c #7D4338",
"B< 	c #88463C",
"C< 	c #984D46",
"D< 	c #A15246",
"E< 	c #AB5648",
"F< 	c #CC6D55",
"G< 	c #D2765B",
"H< 	c #C86A57",
"I< 	c #C96B57",
"J< 	c #CA6E56",
"K< 	c #C76E59",
"L< 	c #C6725D",
"M< 	c #CB7962",
"N< 	c #C57964",
"O< 	c #BD7766",
"P< 	c #B7725F",
"Q< 	c #AF6B5D",
"R< 	c #A9675C",
"S< 	c #A6645C",
"T< 	c #A46158",
"U< 	c #9D5D57",
"V< 	c #8F534F",
"W< 	c #8A4C4B",
"X< 	c #874949",
"Y< 	c #894B4B",
"Z< 	c #98544F",
"`< 	c #9D5C57",
" [ 	c #B76655",
".[ 	c #AB5C4F",
"+[ 	c #753F37",
"@[ 	c #4D342A",
"#[ 	c #422A25",
"$[ 	c #442A24",
"%[ 	c #704C43",
"&[ 	c #A5887D",
"*[ 	c #9B8276",
"=[ 	c #9E8679",
"-[ 	c #D6BDA7",
";[ 	c #DCC3AD",
">[ 	c #D4BBA5",
",[ 	c #C5AD98",
"'[ 	c #A79081",
")[ 	c #634F45",
"![ 	c #201C18",
"~[ 	c #29211D",
"{[ 	c #2C2623",
"][ 	c #2B2421",
"^[ 	c #29221D",
"/[ 	c #2E241F",
"([ 	c #322622",
"_[ 	c #402827",
":[ 	c #482A29",
"<[ 	c #4B2C28",
"[[ 	c #55312B",
"}[ 	c #64352B",
"|[ 	c #69382F",
"1[ 	c #6B3832",
"2[ 	c #6F3932",
"3[ 	c #763E36",
"4[ 	c #773D36",
"5[ 	c #7A4238",
"6[ 	c #84463C",
"7[ 	c #914942",
"8[ 	c #934A42",
"9[ 	c #A75448",
"0[ 	c #C56752",
"a[ 	c #C96D58",
"b[ 	c #C76A58",
"c[ 	c #C96F58",
"d[ 	c #C76F59",
"e[ 	c #C66F5A",
"f[ 	c #C2755F",
"g[ 	c #B97462",
"h[ 	c #B66F5F",
"i[ 	c #AC6659",
"j[ 	c #985650",
"k[ 	c #965752",
"l[ 	c #915754",
"m[ 	c #8C5351",
"n[ 	c #884D4C",
"o[ 	c #814443",
"p[ 	c #7D4242",
"q[ 	c #824444",
"r[ 	c #814646",
"s[ 	c #854A4A",
"t[ 	c #89514F",
"u[ 	c #8C5350",
"v[ 	c #99534E",
"w[ 	c #B05D52",
"x[ 	c #B35B4F",
"y[ 	c #B15A4F",
"z[ 	c #B16151",
"A[ 	c #9D5346",
"B[ 	c #52332D",
"C[ 	c #4F322C",
"D[ 	c #927A6D",
"E[ 	c #AC9A8D",
"F[ 	c #AF9F92",
"G[ 	c #A79388",
"H[ 	c #B8A28F",
"I[ 	c #CDB39D",
"J[ 	c #DBC1AA",
"K[ 	c #DFC5AF",
"L[ 	c #D7BCA5",
"M[ 	c #C3AA93",
"N[ 	c #857164",
"O[ 	c #2F2B27",
"P[ 	c #2A241F",
"Q[ 	c #2B211C",
"R[ 	c #2B221D",
"S[ 	c #2E241D",
"T[ 	c #302521",
"U[ 	c #352523",
"V[ 	c #442928",
"W[ 	c #4D2D28",
"X[ 	c #62352A",
"Y[ 	c #66362A",
"Z[ 	c #69392F",
"`[ 	c #6A3830",
" } 	c #6E382F",
".} 	c #733B2F",
"+} 	c #763D34",
"@} 	c #763C34",
"#} 	c #7C4139",
"$} 	c #824238",
"%} 	c #86453A",
"&} 	c #87453A",
"*} 	c #8D483D",
"=} 	c #AA594B",
"-} 	c #C46D58",
";} 	c #C8725B",
">} 	c #C66C58",
",} 	c #C66A58",
"'} 	c #C66C59",
")} 	c #B86F5A",
"!} 	c #B66A59",
"~} 	c #AC6256",
"{} 	c #A45A51",
"]} 	c #A6554D",
"^} 	c #A55249",
"/} 	c #9F534B",
"(} 	c #98554D",
"_} 	c #8A504F",
":} 	c #854848",
"<} 	c #7B4340",
"[} 	c #773F41",
"}} 	c #763E3F",
"|} 	c #76413F",
"1} 	c #794342",
"2} 	c #814848",
"3} 	c #864C4B",
"4} 	c #8C4C4C",
"5} 	c #9D524D",
"6} 	c #AA574D",
"7} 	c #AC594E",
"8} 	c #A9584B",
"9} 	c #A8574B",
"0} 	c #924B3F",
"a} 	c #5A3429",
"b} 	c #4C2F29",
"c} 	c #452B25",
"d} 	c #7B665B",
"e} 	c #B29C8B",
"f} 	c #B8A294",
"g} 	c #C6B5AA",
"h} 	c #C0ADA1",
"i} 	c #BEA998",
"j} 	c #C8B19D",
"k} 	c #DDC4AD",
"l} 	c #E1C6AE",
"m} 	c #E2C8B1",
"n} 	c #D6BDAB",
"o} 	c #928078",
"p} 	c #2E2A24",
"q} 	c #0E0F0B",
"r} 	c #19130D",
"s} 	c #281912",
"t} 	c #2F1C14",
"u} 	c #271911",
"v} 	c #16110B",
"w} 	c #0B0C08",
"x} 	c #2C231F",
"y} 	c #2F221D",
"z} 	c #32231E",
"A} 	c #2D211B",
"B} 	c #332521",
"C} 	c #372623",
"D} 	c #382725",
"E} 	c #3E2827",
"F} 	c #472D2C",
"G} 	c #5E3633",
"H} 	c #693930",
"I} 	c #6D392F",
"J} 	c #6B3930",
"K} 	c #6E382E",
"L} 	c #723B32",
"M} 	c #773E35",
"N} 	c #7F4138",
"O} 	c #834439",
"P} 	c #874439",
"Q} 	c #89463A",
"R} 	c #934C3E",
"S} 	c #A75748",
"T} 	c #BD6656",
"U} 	c #C66D59",
"V} 	c #C8725D",
"W} 	c #C66E5A",
"X} 	c #C56A58",
"Y} 	c #C36A58",
"Z} 	c #BE6957",
"`} 	c #B35D50",
" | 	c #AB5148",
".| 	c #AC5249",
"+| 	c #AB534A",
"@| 	c #A8534A",
"#| 	c #9A524B",
"$| 	c #91504C",
"%| 	c #8B4C4C",
"&| 	c #854949",
"*| 	c #7A4241",
"=| 	c #77403F",
"-| 	c #774040",
";| 	c #73403E",
">| 	c #754141",
",| 	c #7D4647",
"'| 	c #7E4647",
")| 	c #95504D",
"!| 	c #9F544C",
"~| 	c #A4554D",
"{| 	c #A3524A",
"]| 	c #A4544B",
"^| 	c #7C4039",
"/| 	c #452B24",
"(| 	c #4D352C",
"_| 	c #593B31",
":| 	c #A38073",
"<| 	c #C0AA97",
"[| 	c #C4AE9C",
"}| 	c #D3BDAC",
"|| 	c #D5BFAF",
"1| 	c #D0B9A8",
"2| 	c #D3B9A1",
"3| 	c #DABFA8",
"4| 	c #E8CEB9",
"5| 	c #DCC4B2",
"6| 	c #968473",
"7| 	c #1D1B14",
"8| 	c #090B07",
"9| 	c #18130D",
"0| 	c #391C14",
"a| 	c #57241B",
"b| 	c #702719",
"c| 	c #7E2C1C",
"d| 	c #632013",
"e| 	c #4F2116",
"f| 	c #3E1D15",
"g| 	c #15100B",
"h| 	c #3F2A2A",
"i| 	c #3C2725",
"j| 	c #342521",
"k| 	c #3D2827",
"l| 	c #412B2A",
"m| 	c #49302C",
"n| 	c #553435",
"o| 	c #714240",
"p| 	c #804742",
"q| 	c #82453D",
"r| 	c #864643",
"s| 	c #804440",
"t| 	c #7D423B",
"u| 	c #84453F",
"v| 	c #904A43",
"w| 	c #964C45",
"x| 	c #9A5047",
"y| 	c #9D5247",
"z| 	c #A35549",
"A| 	c #A9594B",
"B| 	c #BA6654",
"C| 	c #C36C58",
"D| 	c #CB715D",
"E| 	c #C76E5A",
"F| 	c #C56C59",
"G| 	c #C4705D",
"H| 	c #C6715E",
"I| 	c #C6705D",
"J| 	c #C46C5A",
"K| 	c #C36757",
"L| 	c #C26757",
"M| 	c #C36857",
"N| 	c #C06555",
"O| 	c #BC5F50",
"P| 	c #B2564B",
"Q| 	c #AD534B",
"R| 	c #AF544B",
"S| 	c #A3524B",
"T| 	c #9A4F4A",
"U| 	c #904C4A",
"V| 	c #854746",
"W| 	c #834645",
"X| 	c #7C4344",
"Y| 	c #784344",
"Z| 	c #754140",
"`| 	c #7B4344",
" 1 	c #7F4646",
".1 	c #784345",
"+1 	c #774547",
"@1 	c #774447",
"#1 	c #7B4749",
"$1 	c #854A4B",
"%1 	c #924E4C",
"&1 	c #96504B",
"*1 	c #9A534B",
"=1 	c #965049",
"-1 	c #6A3B32",
";1 	c #50352E",
">1 	c #A08372",
",1 	c #BCA18C",
"'1 	c #C7B09A",
")1 	c #CEB7A3",
"!1 	c #CEB7A9",
"~1 	c #D2BBAB",
"{1 	c #E2CAB7",
"]1 	c #E1C8B2",
"^1 	c #DFC6AF",
"/1 	c #E6CAB2",
"(1 	c #E7CDB5",
"_1 	c #D2B9A1",
":1 	c #625244",
"<1 	c #0C0E0A",
"[1 	c #13110C",
"}1 	c #3C1E16",
"|1 	c #712718",
"11 	c #8E2B16",
"21 	c #A6391D",
"31 	c #98331B",
"41 	c #9A3B21",
"51 	c #9B432A",
"61 	c #792C1A",
"71 	c #351912",
"81 	c #040704",
"91 	c #050905",
"01 	c #462D2E",
"a1 	c #432A2B",
"b1 	c #432A2A",
"c1 	c #402928",
"d1 	c #422B2A",
"e1 	c #462B2C",
"f1 	c #452D2B",
"g1 	c #4B2F30",
"h1 	c #553131",
"i1 	c #724140",
"j1 	c #814641",
"k1 	c #884845",
"l1 	c #8A4B4A",
"m1 	c #894D4B",
"n1 	c #8C4D4C",
"o1 	c #97544F",
"p1 	c #A25851",
"q1 	c #A55A52",
"r1 	c #AF6457",
"s1 	c #B5695A",
"t1 	c #B96C5C",
"u1 	c #C06B59",
"v1 	c #C7735D",
"w1 	c #C9725D",
"x1 	c #C8705C",
"y1 	c #C56C5A",
"z1 	c #BA6A59",
"A1 	c #BD6C5B",
"B1 	c #C16B5A",
"C1 	c #BD6958",
"D1 	c #B76857",
"E1 	c #B96555",
"F1 	c #B96053",
"G1 	c #B85F52",
"H1 	c #B86254",
"I1 	c #BE6655",
"J1 	c #CE6B53",
"K1 	c #C56753",
"L1 	c #B75D51",
"M1 	c #B2594D",
"N1 	c #AB554D",
"O1 	c #A6514A",
"P1 	c #9D4D48",
"Q1 	c #8B4947",
"R1 	c #824544",
"S1 	c #814544",
"T1 	c #794144",
"U1 	c #754142",
"V1 	c #6F4042",
"W1 	c #744345",
"X1 	c #764446",
"Y1 	c #7B474A",
"Z1 	c #8F4F4B",
"`1 	c #904C45",
" 2 	c #55322A",
".2 	c #53322A",
"+2 	c #79594C",
"@2 	c #B39581",
"#2 	c #C0A48C",
"$2 	c #CBB097",
"%2 	c #D5BCA6",
"&2 	c #D7BFAB",
"*2 	c #E1C8B3",
"=2 	c #E7CFB9",
"-2 	c #E9D3BE",
";2 	c #E9D1B9",
">2 	c #E8CBB2",
",2 	c #A68973",
"'2 	c #191712",
")2 	c #0D0F0A",
"!2 	c #6E2E20",
"~2 	c #9F402C",
"{2 	c #A24331",
"]2 	c #AD4A31",
"^2 	c #B75835",
"/2 	c #C26A49",
"(2 	c #CF7651",
"_2 	c #AE5339",
":2 	c #431D14",
"<2 	c #0C0D0A",
"[2 	c #1E1E19",
"}2 	c #442B2D",
"|2 	c #40292A",
"12 	c #41292A",
"22 	c #402929",
"32 	c #452A2B",
"42 	c #4D2C2E",
"52 	c #4D2D2E",
"62 	c #542F31",
"72 	c #573233",
"82 	c #6D3E3E",
"92 	c #794545",
"02 	c #824B4A",
"a2 	c #814A4A",
"b2 	c #864F4F",
"c2 	c #935552",
"d2 	c #A15C55",
"e2 	c #A0655D",
"f2 	c #B46B5E",
"g2 	c #BD725F",
"h2 	c #C17460",
"i2 	c #BD7161",
"j2 	c #C1715F",
"k2 	c #C2705E",
"l2 	c #B96A58",
"m2 	c #B86857",
"n2 	c #B56556",
"o2 	c #B36354",
"p2 	c #B35A4E",
"q2 	c #B4584B",
"r2 	c #B4594C",
"s2 	c #AF5A50",
"t2 	c #AF5B50",
"u2 	c #BB6051",
"v2 	c #C26554",
"w2 	c #BF6454",
"x2 	c #B25C51",
"y2 	c #AC564E",
"z2 	c #AD554B",
"A2 	c #B1564C",
"B2 	c #A4514A",
"C2 	c #894746",
"D2 	c #824545",
"E2 	c #7F4444",
"F2 	c #794345",
"G2 	c #754245",
"H2 	c #754144",
"I2 	c #734345",
"J2 	c #774548",
"K2 	c #804849",
"L2 	c #894B4A",
"M2 	c #8F4C49",
"N2 	c #894743",
"O2 	c #733C38",
"P2 	c #5C372E",
"Q2 	c #6C4A40",
"R2 	c #B59682",
"S2 	c #C1A58E",
"T2 	c #BFA38E",
"U2 	c #CCB198",
"V2 	c #D2B8A1",
"W2 	c #DFC7B2",
"X2 	c #E5CCB6",
"Y2 	c #E8D0BA",
"Z2 	c #EAD3BD",
"`2 	c #EAD3BB",
" 3 	c #EED3B8",
".3 	c #D6B69B",
"+3 	c #3D3227",
"@3 	c #100F0B",
"#3 	c #3E2418",
"$3 	c #863824",
"%3 	c #98412D",
"&3 	c #A03A23",
"*3 	c #BD552E",
"=3 	c #DA9255",
"-3 	c #DE966A",
";3 	c #E6AA87",
">3 	c #D17F63",
",3 	c #55281B",
"'3 	c #0E0E0A",
")3 	c #191B14",
"!3 	c #432D2D",
"~3 	c #3B2927",
"{3 	c #3D2828",
"]3 	c #422A2A",
"^3 	c #4A2E2E",
"/3 	c #4E2D2D",
"(3 	c #4F3030",
"_3 	c #4E3030",
":3 	c #4F3032",
"<3 	c #523235",
"[3 	c #593739",
"}3 	c #683D41",
"|3 	c #744447",
"13 	c #854F4F",
"23 	c #8D5452",
"33 	c #945753",
"43 	c #8F5855",
"53 	c #945E5D",
"63 	c #975F5D",
"73 	c #A3645E",
"83 	c #B06B5E",
"93 	c #B46E5F",
"03 	c #AD695D",
"a3 	c #AD685B",
"b3 	c #AD6559",
"c3 	c #B06256",
"d3 	c #B16256",
"e3 	c #A95B53",
"f3 	c #A8574F",
"g3 	c #AE534A",
"h3 	c #B35147",
"i3 	c #B3554A",
"j3 	c #AA564B",
"k3 	c #A7544A",
"l3 	c #B0584C",
"m3 	c #B55B4F",
"n3 	c #B25A4D",
"o3 	c #A9584E",
"p3 	c #A7554D",
"q3 	c #A7534B",
"r3 	c #AC544B",
"s3 	c #AB5048",
"t3 	c #964B47",
"u3 	c #924C49",
"v3 	c #8E4A49",
"w3 	c #8A4A49",
"x3 	c #844848",
"y3 	c #824A4A",
"z3 	c #804748",
"A3 	c #794244",
"B3 	c #744144",
"C3 	c #734244",
"D3 	c #764241",
"E3 	c #7A4242",
"F3 	c #7E4340",
"G3 	c #854543",
"H3 	c #83413C",
"I3 	c #814441",
"J3 	c #673D35",
"K3 	c #5C3831",
"L3 	c #806050",
"M3 	c #C2A590",
"N3 	c #D2B9A6",
"O3 	c #D2BAA7",
"P3 	c #D6BDA9",
"Q3 	c #E0C7B1",
"R3 	c #E6CDB7",
"S3 	c #E8D0B8",
"T3 	c #ECD4BB",
"U3 	c #F3D5B9",
"V3 	c #E2C7AD",
"W3 	c #66594B",
"X3 	c #1C150E",
"Y3 	c #4C1F15",
"Z3 	c #892A16",
"`3 	c #A2381E",
" 4 	c #C14E30",
".4 	c #D57741",
"+4 	c #E4A460",
"@4 	c #DE936D",
"#4 	c #E8B292",
"$4 	c #CA7E64",
"%4 	c #692C1D",
"&4 	c #0F100C",
"*4 	c #11140F",
"=4 	c #3E2A29",
"-4 	c #3D2928",
";4 	c #452B2D",
">4 	c #492F2F",
",4 	c #492F2E",
"'4 	c #4D3231",
")4 	c #513132",
"!4 	c #4C3032",
"~4 	c #4E3032",
"{4 	c #4E3131",
"]4 	c #5E383D",
"^4 	c #683F42",
"/4 	c #6A4042",
"(4 	c #714647",
"_4 	c #774B4B",
":4 	c #855150",
"<4 	c #844F50",
"[4 	c #7E4E4D",
"}4 	c #7E504F",
"|4 	c #865252",
"14 	c #995B57",
"24 	c #AC685C",
"34 	c #AF6A5D",
"44 	c #A8665D",
"54 	c #A5655C",
"64 	c #9F5E57",
"74 	c #9E5B55",
"84 	c #9D5954",
"94 	c #9B5853",
"04 	c #9F5650",
"a4 	c #A6544D",
"b4 	c #AC544C",
"c4 	c #A8544C",
"d4 	c #A6544C",
"e4 	c #AC564D",
"f4 	c #B3594E",
"g4 	c #A7554C",
"h4 	c #A5544C",
"i4 	c #A7544C",
"j4 	c #AA544C",
"k4 	c #A75048",
"l4 	c #A45049",
"m4 	c #A1524C",
"n4 	c #9E4E49",
"o4 	c #9F524D",
"p4 	c #984E4A",
"q4 	c #954F4C",
"r4 	c #925250",
"s4 	c #804848",
"t4 	c #774244",
"u4 	c #713E43",
"v4 	c #6C3E40",
"w4 	c #6C3D3E",
"x4 	c #6B3C3D",
"y4 	c #6C3C3D",
"z4 	c #743E3C",
"A4 	c #7A3D3A",
"B4 	c #7B413D",
"C4 	c #754541",
"D4 	c #633E38",
"E4 	c #735044",
"F4 	c #A38372",
"G4 	c #B59A88",
"H4 	c #CFB49D",
"I4 	c #D8BEA7",
"J4 	c #D9C0A9",
"K4 	c #E3CAB3",
"L4 	c #E8D0B9",
"M4 	c #F0D5BA",
"N4 	c #F3D6BC",
"O4 	c #EBCEB4",
"P4 	c #857667",
"Q4 	c #0D0F0B",
"R4 	c #1A120C",
"S4 	c #4A1E14",
"T4 	c #6C2618",
"U4 	c #A2341D",
"V4 	c #C45435",
"W4 	c #CF5D3A",
"X4 	c #D97D4D",
"Y4 	c #E09A5D",
"Z4 	c #DC9572",
"`4 	c #E5AB8D",
" 5 	c #BE634A",
".5 	c #792F20",
"+5 	c #13120C",
"@5 	c #422B2C",
"#5 	c #3E2829",
"$5 	c #412A2B",
"%5 	c #462C2D",
"&5 	c #4E3232",
"*5 	c #4F3132",
"=5 	c #583237",
"-5 	c #543135",
";5 	c #4F3134",
">5 	c #513134",
",5 	c #59353A",
"'5 	c #643E41",
")5 	c #6A3F42",
"!5 	c #6F4345",
"~5 	c #714446",
"{5 	c #764748",
"]5 	c #754648",
"^5 	c #6F4647",
"/5 	c #734949",
"(5 	c #7E4C4C",
"_5 	c #915350",
":5 	c #9F5C54",
"<5 	c #A25C55",
"[5 	c #9A5B55",
"}5 	c #9A5C57",
"|5 	c #985A55",
"15 	c #955854",
"25 	c #945855",
"35 	c #935755",
"45 	c #935754",
"55 	c #9B5854",
"65 	c #9F5752",
"75 	c #A45752",
"85 	c #A1564F",
"95 	c #A95850",
"05 	c #AE594F",
"a5 	c #A4534C",
"b5 	c #AC5850",
"c5 	c #AA554D",
"d5 	c #A8524B",
"e5 	c #A24E48",
"f5 	c #9A4D48",
"g5 	c #9B504A",
"h5 	c #A5544F",
"i5 	c #A7544F",
"j5 	c #A35651",
"k5 	c #9A5550",
"l5 	c #844B4C",
"m5 	c #7D484A",
"n5 	c #754244",
"o5 	c #6C3D41",
"p5 	c #6C3E41",
"q5 	c #6B3D3F",
"r5 	c #6B3B3C",
"s5 	c #6F3C3D",
"t5 	c #77403C",
"u5 	c #744B43",
"v5 	c #684238",
"w5 	c #B28B74",
"x5 	c #D3B8A2",
"y5 	c #DBC0A8",
"z5 	c #DCC2AB",
"A5 	c #DFC7AF",
"B5 	c #E5CDB5",
"C5 	c #EDD2B6",
"D5 	c #F4D5B9",
"E5 	c #F5D6BB",
"F5 	c #EED2BA",
"G5 	c #998573",
"H5 	c #13120F",
"I5 	c #0B0D09",
"J5 	c #361B12",
"K5 	c #792615",
"L5 	c #7A2413",
"M5 	c #B54023",
"N5 	c #D36A4A",
"O5 	c #DD8761",
"P5 	c #D97F56",
"Q5 	c #D88D5E",
"R5 	c #E6B292",
"S5 	c #E9BA9B",
"T5 	c #CE866E",
"U5 	c #A8604C",
"V5 	c #311C14",
"W5 	c #452C2E",
"X5 	c #4C2F32",
"Y5 	c #4D3033",
"Z5 	c #4F3135",
"`5 	c #4C3033",
" 6 	c #4B2F32",
".6 	c #503233",
"+6 	c #4F3334",
"@6 	c #4B312F",
"#6 	c #4E3132",
"$6 	c #5B363A",
"%6 	c #653D40",
"&6 	c #724143",
"*6 	c #7E4648",
"=6 	c #80494A",
"-6 	c #7E4849",
";6 	c #7A4546",
">6 	c #754547",
",6 	c #7A4749",
"'6 	c #874E4F",
")6 	c #96534D",
"!6 	c #9A5650",
"~6 	c #945A56",
"{6 	c #935A56",
"]6 	c #985B57",
"^6 	c #8C5655",
"/6 	c #8C5756",
"(6 	c #8E5755",
"_6 	c #905654",
":6 	c #A85C55",
"<6 	c #A35952",
"[6 	c #A2544D",
"}6 	c #A24F48",
"|6 	c #A5534B",
"16 	c #A9554D",
"26 	c #AA564F",
"36 	c #A8554E",
"46 	c #A5514A",
"56 	c #A1504A",
"66 	c #994E49",
"76 	c #A3534D",
"86 	c #AC554D",
"96 	c #AB5950",
"06 	c #9F5852",
"a6 	c #945352",
"b6 	c #884D4F",
"c6 	c #764548",
"d6 	c #6B3E42",
"e6 	c #6A3E41",
"f6 	c #683D40",
"g6 	c #673C3E",
"h6 	c #683B3D",
"i6 	c #763F3E",
"j6 	c #7F4544",
"k6 	c #7B4D48",
"l6 	c #603F39",
"m6 	c #885648",
"n6 	c #A98373",
"o6 	c #C09E8A",
"p6 	c #CBAD98",
"q6 	c #D8BDA7",
"r6 	c #E2C8B2",
"s6 	c #E5CBB5",
"t6 	c #EED2B7",
"u6 	c #F5D5B8",
"v6 	c #F0D4BC",
"w6 	c #AD9885",
"x6 	c #191815",
"y6 	c #26150D",
"z6 	c #431B11",
"A6 	c #782615",
"B6 	c #8D2A16",
"C6 	c #B83920",
"D6 	c #CE5937",
"E6 	c #D05E3C",
"F6 	c #D58555",
"G6 	c #D17F59",
"H6 	c #E7B999",
"I6 	c #EEC2A0",
"J6 	c #D28F76",
"K6 	c #B06550",
"L6 	c #41241C",
"M6 	c #4E3234",
"N6 	c #5D373D",
"O6 	c #573238",
"P6 	c #573339",
"Q6 	c #5D363C",
"R6 	c #5F373C",
"S6 	c #62383D",
"T6 	c #683B40",
"U6 	c #6F4144",
"V6 	c #6C3D40",
"W6 	c #6C3C3F",
"X6 	c #714043",
"Y6 	c #764346",
"Z6 	c #824747",
"`6 	c #8E4C4B",
" 7 	c #95504C",
".7 	c #9C534E",
"+7 	c #9F534E",
"@7 	c #9B524E",
"#7 	c #94514C",
"$7 	c #94524E",
"%7 	c #A35650",
"&7 	c #9B5650",
"*7 	c #955752",
"=7 	c #945854",
"-7 	c #9F5D56",
";7 	c #A45D55",
">7 	c #A15A54",
",7 	c #AA5D54",
"'7 	c #A55A54",
")7 	c #A25852",
"!7 	c #AA564E",
"~7 	c #A6534C",
"{7 	c #AA554B",
"]7 	c #AD554A",
"^7 	c #A55049",
"/7 	c #A7544E",
"(7 	c #A95750",
"_7 	c #995551",
":7 	c #935452",
"<7 	c #874C4E",
"[7 	c #7A4547",
"}7 	c #6D4043",
"|7 	c #693D40",
"17 	c #663B3E",
"27 	c #693C3F",
"37 	c #683C3F",
"47 	c #824645",
"57 	c #7C4B49",
"67 	c #543836",
"77 	c #81564E",
"87 	c #B99A87",
"97 	c #CAAD97",
"07 	c #D3B6A0",
"a7 	c #DDC1AA",
"b7 	c #DDC3AC",
"c7 	c #EAD1B8",
"d7 	c #F4D5B8",
"e7 	c #F4D7BF",
"f7 	c #F2D8C3",
"g7 	c #B8A393",
"h7 	c #201E1A",
"i7 	c #14120D",
"j7 	c #572317",
"k7 	c #892A15",
"l7 	c #9D3018",
"m7 	c #BA4122",
"n7 	c #C34624",
"o7 	c #C64A27",
"p7 	c #CC5632",
"q7 	c #D26D44",
"r7 	c #D17555",
"s7 	c #EAC0A1",
"t7 	c #ECC09F",
"u7 	c #D08E78",
"v7 	c #744134",
"w7 	c #14130E",
"x7 	c #693F41",
"y7 	c #704043",
"z7 	c #754345",
"A7 	c #784447",
"B7 	c #7C4546",
"C7 	c #7A4445",
"D7 	c #8E4D4C",
"E7 	c #934F4D",
"F7 	c #8E4E4C",
"G7 	c #804546",
"H7 	c #834747",
"I7 	c #8F4C4B",
"J7 	c #9B534E",
"K7 	c #A1554E",
"L7 	c #AC5D53",
"M7 	c #AB574F",
"N7 	c #A8554D",
"O7 	c #A3534B",
"P7 	c #A7574F",
"Q7 	c #99554D",
"R7 	c #A15751",
"S7 	c #AA5952",
"T7 	c #AE5C53",
"U7 	c #B26255",
"V7 	c #B16255",
"W7 	c #AD6357",
"X7 	c #A95D54",
"Y7 	c #AC5F55",
"Z7 	c #A85A54",
"`7 	c #AD5C53",
" 8 	c #AC5A52",
".8 	c #AB5A52",
"+8 	c #AA5850",
"@8 	c #AA574E",
"#8 	c #AB584E",
"$8 	c #AE584D",
"%8 	c #B0584A",
"&8 	c #AC5547",
"*8 	c #A15049",
"=8 	c #964E4B",
"-8 	c #96504C",
";8 	c #8C4E4D",
">8 	c #834C4E",
",8 	c #7B484A",
"'8 	c #6F4040",
")8 	c #704143",
"!8 	c #673C3F",
"~8 	c #653B3E",
"{8 	c #663C3F",
"]8 	c #7A4A49",
"^8 	c #3A2C27",
"/8 	c #55372F",
"(8 	c #977261",
"_8 	c #C3A28E",
":8 	c #D9BEA4",
"<8 	c #E1C7B0",
"[8 	c #E1C8B1",
"}8 	c #E2C9B3",
"|8 	c #E6CCB7",
"18 	c #F0D3B8",
"28 	c #F5D7BC",
"38 	c #F3D7BF",
"48 	c #D0BAA7",
"58 	c #48403A",
"68 	c #211812",
"78 	c #712D1F",
"88 	c #A6331B",
"98 	c #B03920",
"08 	c #B4391E",
"a8 	c #C14825",
"b8 	c #C6562F",
"c8 	c #C75937",
"d8 	c #C6502B",
"e8 	c #C4664B",
"f8 	c #E7AC89",
"g8 	c #E9B895",
"h8 	c #C7825F",
"i8 	c #49281A",
"j8 	c #9E554F",
"k8 	c #A0534D",
"l8 	c #934C49",
"m8 	c #97514C",
"n8 	c #914F4D",
"o8 	c #8F4E4D",
"p8 	c #99514C",
"q8 	c #99524E",
"r8 	c #894949",
"s8 	c #944F4C",
"t8 	c #9B524C",
"u8 	c #A5584F",
"v8 	c #B16054",
"w8 	c #B45C51",
"x8 	c #B25B4D",
"y8 	c #B35A4D",
"z8 	c #B15A4D",
"A8 	c #A8584F",
"B8 	c #A45951",
"C8 	c #A2564F",
"D8 	c #AC584F",
"E8 	c #AE5950",
"F8 	c #AE5B53",
"G8 	c #AC5D54",
"H8 	c #A75B53",
"I8 	c #A65A54",
"J8 	c #AF6055",
"K8 	c #AE5E54",
"L8 	c #AB5D54",
"M8 	c #AC5B53",
"N8 	c #B15A51",
"O8 	c #B35B52",
"P8 	c #A95951",
"Q8 	c #AB564C",
"R8 	c #AF584D",
"S8 	c #B0574B",
"T8 	c #B0554A",
"U8 	c #A2534B",
"V8 	c #914C4A",
"W8 	c #79474A",
"X8 	c #794749",
"Y8 	c #744143",
"Z8 	c #723E41",
"`8 	c #744043",
" 9 	c #6A3E40",
".9 	c #694042",
"+9 	c #683E41",
"@9 	c #6F4244",
"#9 	c #764345",
"$9 	c #784546",
"%9 	c #312521",
"&9 	c #493730",
"*9 	c #A48372",
"=9 	c #CDAD99",
"-9 	c #D9BFA9",
";9 	c #DEC4AD",
">9 	c #E8CEB6",
",9 	c #F5D6B9",
"'9 	c #F5D6B8",
")9 	c #E6C8AD",
"!9 	c #928478",
"~9 	c #5B4940",
"{9 	c #AF6151",
"]9 	c #A03922",
"^9 	c #963622",
"/9 	c #A5361D",
"(9 	c #BC4C32",
"_9 	c #BB614B",
":9 	c #C15638",
"<9 	c #B7482D",
"[9 	c #CE7758",
"}9 	c #C68065",
"|9 	c #BA785E",
"19 	c #8E513F",
"29 	c #1E130A",
"39 	c #BF6352",
"49 	c #B5594C",
"59 	c #B55C4E",
"69 	c #AF5A4F",
"79 	c #9F544D",
"89 	c #93504D",
"99 	c #905151",
"09 	c #8B4C4A",
"a9 	c #8A4C4C",
"b9 	c #87494A",
"c9 	c #8B4D4E",
"d9 	c #94524F",
"e9 	c #9A524D",
"f9 	c #A85A51",
"g9 	c #B76758",
"h9 	c #B86656",
"i9 	c #B75F53",
"j9 	c #B2594C",
"k9 	c #B45A4E",
"l9 	c #AE5B4F",
"m9 	c #AB5B50",
"n9 	c #AB594E",
"o9 	c #AE5B4E",
"p9 	c #B35A50",
"q9 	c #AE5B52",
"r9 	c #AA5B53",
"s9 	c #A75B54",
"t9 	c #A95A51",
"u9 	c #AB5A51",
"v9 	c #AD5B52",
"w9 	c #AB5B53",
"x9 	c #AC5B52",
"y9 	c #AD5A52",
"z9 	c #A55750",
"A9 	c #A6534B",
"B9 	c #A05048",
"C9 	c #984E49",
"D9 	c #8C4A48",
"E9 	c #7B4547",
"F9 	c #794547",
"G9 	c #774445",
"H9 	c #6F3F3F",
"I9 	c #6A3C3E",
"J9 	c #663C3E",
"K9 	c #683F41",
"L9 	c #6A4043",
"M9 	c #6B4244",
"N9 	c #6B4242",
"O9 	c #744342",
"P9 	c #322421",
"Q9 	c #362922",
"R9 	c #7B5647",
"S9 	c #B28D79",
"T9 	c #C9B19A",
"U9 	c #D0B49C",
"V9 	c #D3B9A0",
"W9 	c #DFC6AE",
"X9 	c #E9CCB2",
"Y9 	c #F2D3B5",
"Z9 	c #F4D6BA",
"`9 	c #F2D1B2",
" 0 	c #DBBCA1",
".0 	c #B75D49",
"+0 	c #B6462E",
"@0 	c #8F4535",
"#0 	c #9C4737",
"$0 	c #C5816E",
"%0 	c #CB8D77",
"&0 	c #AE614D",
"*0 	c #BA806D",
"=0 	c #BB7B64",
"-0 	c #4A2D20",
";0 	c #2B1912",
">0 	c #201610",
",0 	c #C7654F",
"'0 	c #C26450",
")0 	c #C36652",
"!0 	c #B65F52",
"~0 	c #A5564F",
"{0 	c #9A544F",
"]0 	c #934E4C",
"^0 	c #814647",
"/0 	c #824B4B",
"(0 	c #814A4C",
"_0 	c #814E4E",
":0 	c #834B4C",
"<0 	c #905352",
"[0 	c #B06155",
"}0 	c #B46456",
"|0 	c #B36052",
"10 	c #B45D51",
"20 	c #B25B4F",
"30 	c #B65D50",
"40 	c #BC5F4F",
"50 	c #B45A4D",
"60 	c #B55C4F",
"70 	c #B25F50",
"80 	c #B25E51",
"90 	c #B25D4E",
"00 	c #B1594E",
"a0 	c #9F5750",
"b0 	c #A25B55",
"c0 	c #A45A54",
"d0 	c #9E5853",
"e0 	c #A6564F",
"f0 	c #A5564E",
"g0 	c #A2554D",
"h0 	c #A1554D",
"i0 	c #9C544F",
"j0 	c #9B544D",
"k0 	c #9D534D",
"l0 	c #9A514C",
"m0 	c #99514B",
"n0 	c #884847",
"o0 	c #834646",
"p0 	c #7A4243",
"q0 	c #774142",
"r0 	c #743F41",
"s0 	c #733E3F",
"t0 	c #653D3C",
"u0 	c #643B3D",
"v0 	c #643B3E",
"w0 	c #5E363C",
"x0 	c #623A3F",
"y0 	c #61393D",
"z0 	c #6B3E40",
"A0 	c #734447",
"B0 	c #2E2321",
"C0 	c #1B1A14",
"D0 	c #584134",
"E0 	c #855D4E",
"F0 	c #9B6D5F",
"G0 	c #BF9D88",
"H0 	c #DEC0A5",
"I0 	c #E3C8AF",
"J0 	c #E6CBB3",
"K0 	c #F0D4BB",
"L0 	c #F5D5B7",
"M0 	c #EECBAB",
"N0 	c #E0BDA2",
"O0 	c #BD7561",
"P0 	c #AF5345",
"Q0 	c #BE8F80",
"R0 	c #8C6259",
"S0 	c #AB6E5F",
"T0 	c #D6B29F",
"U0 	c #D0C1B9",
"V0 	c #B0A4A0",
"W0 	c #938280",
"X0 	c #352F2D",
"Y0 	c #161611",
"Z0 	c #11120E",
"`0 	c #BA6657",
" a 	c #B76759",
".a 	c #A65952",
"+a 	c #8E5352",
"@a 	c #7C4648",
"#a 	c #814A4B",
"$a 	c #7C484A",
"%a 	c #774749",
"&a 	c #7D494B",
"*a 	c #8B5051",
"=a 	c #9C5752",
"-a 	c #A85951",
";a 	c #A85850",
">a 	c #AA584F",
",a 	c #AC5B51",
"'a 	c #AE5A51",
")a 	c #B55C50",
"!a 	c #B45B50",
"~a 	c #AE5B51",
"{a 	c #A85A52",
"]a 	c #A6564D",
"^a 	c #A5534C",
"/a 	c #9F534D",
"(a 	c #99544E",
"_a 	c #995652",
":a 	c #A3564E",
"<a 	c #9E544D",
"[a 	c #9F544F",
"}a 	c #9F554F",
"|a 	c #9C534D",
"1a 	c #924D4B",
"2a 	c #8D4B4A",
"3a 	c #794243",
"4a 	c #774042",
"5a 	c #6C3B3B",
"6a 	c #68393B",
"7a 	c #673B3E",
"8a 	c #5D363B",
"9a 	c #5E353B",
"0a 	c #60373C",
"aa 	c #5D343B",
"ba 	c #5C333B",
"ca 	c #5D353C",
"da 	c #653A3F",
"ea 	c #724345",
"fa 	c #2D231E",
"ga 	c #161712",
"ha 	c #322B27",
"ia 	c #705547",
"ja 	c #C6A489",
"ka 	c #E2C1A4",
"la 	c #DFC2A5",
"ma 	c #E2C5AB",
"na 	c #DFC5AD",
"oa 	c #ECD1B8",
"pa 	c #F5D6BA",
"qa 	c #F2D1B1",
"ra 	c #ECCBAC",
"sa 	c #DCBCA2",
"ta 	c #B8A196",
"ua 	c #C5B3A8",
"va 	c #C3B3AB",
"wa 	c #9C7C77",
"xa 	c #A17F70",
"ya 	c #B8ABA7",
"za 	c #A6A1A9",
"Aa 	c #868395",
"Ba 	c #595666",
"Ca 	c #1B1C1A",
"Da 	c #A8635B",
"Ea 	c #AB695F",
"Fa 	c #A9655C",
"Ga 	c #9C5C56",
"Ha 	c #905755",
"Ia 	c #865050",
"Ja 	c #754346",
"Ka 	c #724245",
"La 	c #724244",
"Ma 	c #794648",
"Na 	c #884E50",
"Oa 	c #915250",
"Pa 	c #955450",
"Qa 	c #995550",
"Ra 	c #9D5651",
"Sa 	c #A05651",
"Ta 	c #A05751",
"Ua 	c #A65A53",
"Va 	c #AD594F",
"Wa 	c #B25B50",
"Xa 	c #A8564E",
"Ya 	c #A35750",
"Za 	c #A35751",
"`a 	c #99524D",
" b 	c #964F4B",
".b 	c #93524E",
"+b 	c #945451",
"@b 	c #8E5150",
"#b 	c #914F4C",
"$b 	c #9C514C",
"%b 	c #A7584E",
"&b 	c #A45750",
"*b 	c #884B4B",
"=b 	c #7E484A",
"-b 	c #744445",
";b 	c #6E4041",
">b 	c #6B3C3E",
",b 	c #673B3C",
"'b 	c #62383C",
")b 	c #5C353C",
"!b 	c #5A343A",
"~b 	c #573438",
"{b 	c #513337",
"]b 	c #543437",
"^b 	c #5E353C",
"/b 	c #673D42",
"(b 	c #6E4043",
"_b 	c #2E2320",
":b 	c #13140F",
"<b 	c #151611",
"[b 	c #5C4A3E",
"}b 	c #BE9C85",
"|b 	c #DABFA5",
"1b 	c #D6BBA5",
"2b 	c #D9BEA6",
"3b 	c #E4CAB2",
"4b 	c #E9D0B8",
"5b 	c #F0D5BB",
"6b 	c #F2D2B3",
"7b 	c #EBC9AB",
"8b 	c #E0BFA5",
"9b 	c #DCC7B6",
"0b 	c #E3D7CB",
"ab 	c #DFD2C8",
"bb 	c #AE918A",
"cb 	c #9D736A",
"db 	c #B3A9A9",
"eb 	c #80829D",
"fb 	c #686886",
"gb 	c #282934",
"hb 	c #9C605B",
"ib 	c #A1635E",
"jb 	c #9E5D57",
"kb 	c #955855",
"lb 	c #855151",
"mb 	c #744547",
"nb 	c #6D4144",
"ob 	c #6B4043",
"pb 	c #6C3E43",
"qb 	c #6C3E42",
"rb 	c #734245",
"sb 	c #7B4647",
"tb 	c #884E4F",
"ub 	c #8D5251",
"vb 	c #8F5452",
"wb 	c #955653",
"xb 	c #9D5852",
"yb 	c #A65750",
"zb 	c #AB5951",
"Ab 	c #92504B",
"Bb 	c #8D4C4B",
"Cb 	c #8A4A4A",
"Db 	c #864B4A",
"Eb 	c #874B4A",
"Fb 	c #844747",
"Gb 	c #8C4A49",
"Hb 	c #974F4A",
"Ib 	c #9C504A",
"Jb 	c #A2534C",
"Kb 	c #A3544B",
"Lb 	c #A2554F",
"Mb 	c #A35752",
"Nb 	c #8F4D4D",
"Ob 	c #8E4C4C",
"Pb 	c #8B4D4D",
"Qb 	c #804A4B",
"Rb 	c #6D4244",
"Sb 	c #673F40",
"Tb 	c #643B40",
"Ub 	c #60383E",
"Vb 	c #62393D",
"Wb 	c #61383C",
"Xb 	c #5C363B",
"Yb 	c #583439",
"Zb 	c #593439",
"`b 	c #503436",
" c 	c #4C3335",
".c 	c #4C3135",
"+c 	c #58333A",
"@c 	c #643A3F",
"#c 	c #2F2220",
"$c 	c #27221D",
"%c 	c #917567",
"&c 	c #C4A58F",
"*c 	c #D5B398",
"=c 	c #E4C6AA",
"-c 	c #E5C9B1",
";c 	c #EAD1B9",
">c 	c #EFD5BD",
",c 	c #F1D6BE",
"'c 	c #F2D5B9",
")c 	c #F4D4B6",
"!c 	c #F2D2B2",
"~c 	c #EBCBAC",
"{c 	c #DDC1A9",
"]c 	c #E5D1BF",
"^c 	c #E7DBD0",
"/c 	c #D4C9C2",
"(c 	c #A4857F",
"_c 	c #997C7A",
":c 	c #8F8E9C",
"<c 	c #7A7B96",
"[c 	c #49495A",
"}c 	c #965A58",
"|c 	c #975B5B",
"1c 	c #844E4F",
"2c 	c #834E4F",
"3c 	c #7D494A",
"4c 	c #673C40",
"5c 	c #704144",
"6c 	c #714144",
"7c 	c #6A3C40",
"8c 	c #653B40",
"9c 	c #663C41",
"0c 	c #693D42",
"ac 	c #704044",
"bc 	c #8B4E4E",
"cc 	c #904F4C",
"dc 	c #95514D",
"ec 	c #9B544F",
"fc 	c #9C544C",
"gc 	c #98524C",
"hc 	c #844B4B",
"ic 	c #7F4647",
"jc 	c #7A4344",
"kc 	c #7D4444",
"lc 	c #864746",
"mc 	c #844445",
"nc 	c #854545",
"oc 	c #8A4847",
"pc 	c #924B48",
"qc 	c #9B514C",
"rc 	c #994F4A",
"sc 	c #97504D",
"tc 	c #8D4C4A",
"uc 	c #884A4A",
"vc 	c #84494A",
"wc 	c #7C4749",
"xc 	c #744446",
"yc 	c #6A3F43",
"zc 	c #663E43",
"Ac 	c #653D42",
"Bc 	c #60373D",
"Cc 	c #5A353B",
"Dc 	c #563438",
"Ec 	c #513336",
"Fc 	c #533437",
"Gc 	c #563338",
"Hc 	c #61383E",
"Ic 	c #633B3F",
"Jc 	c #5C373B",
"Kc 	c #2E221F",
"Lc 	c #1F1C18",
"Mc 	c #554034",
"Nc 	c #A47261",
"Oc 	c #E1BB9E",
"Pc 	c #E4C5AA",
"Qc 	c #E5C8AE",
"Rc 	c #E7CDB7",
"Sc 	c #E6CDB6",
"Tc 	c #F0D6BD",
"Uc 	c #EDD2B9",
"Vc 	c #F0D2B4",
"Wc 	c #F0CFAE",
"Xc 	c #E8C9AD",
"Yc 	c #DFC4AB",
"Zc 	c #E6D4C2",
"`c 	c #E1D6CC",
" d 	c #C7C4C5",
".d 	c #B8B1B4",
"+d 	c #7A5A57",
"@d 	c #938182",
"#d 	c #7E7E96",
"$d 	c #61627F",
"%d 	c #131619",
"&d 	c #834D4E",
"*d 	c #835050",
"=d 	c #673B41",
"-d 	c #65393F",
";d 	c #663A3F",
">d 	c #673A40",
",d 	c #63373D",
"'d 	c #62373D",
")d 	c #653B3F",
"!d 	c #633A3F",
"~d 	c #673B40",
"{d 	c #6D3E42",
"]d 	c #734246",
"^d 	c #734144",
"/d 	c #7A4446",
"(d 	c #864D4D",
"_d 	c #8C4C4A",
":d 	c #864B4B",
"<d 	c #824848",
"[d 	c #7F4445",
"}d 	c #814545",
"|d 	c #864745",
"1d 	c #914A48",
"2d 	c #944A47",
"3d 	c #984C48",
"4d 	c #9A504A",
"5d 	c #974F49",
"6d 	c #914C4B",
"7d 	c #884B4A",
"8d 	c #844849",
"9d 	c #7C4748",
"0d 	c #7A4548",
"ad 	c #643C42",
"bd 	c #603B41",
"cd 	c #613A3F",
"dd 	c #5B393E",
"ed 	c #593539",
"fd 	c #523236",
"gd 	c #513437",
"hd 	c #513236",
"id 	c #543438",
"jd 	c #5A3539",
"kd 	c #2E2220",
"ld 	c #131611",
"md 	c #2A221C",
"nd 	c #815C4E",
"od 	c #CEA891",
"pd 	c #DBBDA3",
"qd 	c #E7C8AE",
"rd 	c #E6CCB4",
"sd 	c #E7CFB7",
"td 	c #E8CFB8",
"ud 	c #E4CBB6",
"vd 	c #E2C5AA",
"wd 	c #E8D9CB",
"xd 	c #E3DACF",
"yd 	c #CCC8C9",
"zd 	c #B0AFB5",
"Ad 	c #8F8489",
"Bd 	c #704B47",
"Cd 	c #7A6F82",
"Dd 	c #686B91",
"Ed 	c #252734",
"Fd 	c #10120D",
"Gd 	c #684043",
"Hd 	c #674345",
"Id 	c #684044",
"Jd 	c #643C41",
"Kd 	c #5C373D",
"Ld 	c #5D383D",
"Md 	c #533438",
"Nd 	c #553438",
"Od 	c #4F3034",
"Pd 	c #543236",
"Qd 	c #5B343A",
"Rd 	c #5D343A",
"Sd 	c #5A3239",
"Td 	c #5F353C",
"Ud 	c #633A3E",
"Vd 	c #653C40",
"Wd 	c #633B41",
"Xd 	c #64393F",
"Yd 	c #693C41",
"Zd 	c #734044",
"`d 	c #774344",
" e 	c #7D4546",
".e 	c #834848",
"+e 	c #854747",
"@e 	c #874747",
"#e 	c #8B4A49",
"$e 	c #914D4A",
"%e 	c #9A4F4B",
"&e 	c #A3514B",
"*e 	c #A8534C",
"=e 	c #AC554C",
"-e 	c #A4534B",
";e 	c #9D534C",
">e 	c #944F4B",
",e 	c #864948",
"'e 	c #784547",
")e 	c #794649",
"!e 	c #834A4B",
"~e 	c #6B4345",
"{e 	c #5F3A40",
"]e 	c #5C343B",
"^e 	c #5F383E",
"/e 	c #5E373C",
"(e 	c #523436",
"_e 	c #503336",
":e 	c #4D2E34",
"<e 	c #4D3035",
"[e 	c #4E3035",
"}e 	c #4D3336",
"|e 	c #57363A",
"1e 	c #302322",
"2e 	c #11110E",
"3e 	c #10110C",
"4e 	c #4C392E",
"5e 	c #B28F7D",
"6e 	c #E4C4A9",
"7e 	c #E0C3AA",
"8e 	c #E2C7B0",
"9e 	c #E4CBB5",
"0e 	c #DEC7B4",
"ae 	c #DDC6B2",
"be 	c #DCC1AA",
"ce 	c #E3CFBE",
"de 	c #EADFD2",
"ee 	c #EAE1D3",
"fe 	c #CFCAC9",
"ge 	c #B9B6BB",
"he 	c #9A9AA5",
"ie 	c #6E595E",
"je 	c #70575E",
"ke 	c #6A6A8B",
"le 	c #434356",
"me 	c #4E3436",
"ne 	c #503538",
"oe 	c #57383C",
"pe 	c #553537",
"qe 	c #503236",
"re 	c #4A2F34",
"se 	c #4B3136",
"te 	c #482E32",
"ue 	c #533035",
"ve 	c #543035",
"we 	c #593339",
"xe 	c #5E333B",
"ye 	c #673B3F",
"ze 	c #6A3D40",
"Ae 	c #6D3D40",
"Be 	c #774141",
"Ce 	c #7C4343",
"De 	c #793F3F",
"Ee 	c #834443",
"Fe 	c #944B48",
"Ge 	c #954B47",
"He 	c #9E514C",
"Ie 	c #9C504B",
"Je 	c #9D504A",
"Ke 	c #A9544C",
"Le 	c #B0574D",
"Me 	c #B2584E",
"Ne 	c #B0584D",
"Oe 	c #AB564E",
"Pe 	c #8D5250",
"Qe 	c #874F4F",
"Re 	c #824C4D",
"Se 	c #834C4C",
"Te 	c #844D4C",
"Ue 	c #754446",
"Ve 	c #6F4043",
"We 	c #643C40",
"Xe 	c #633A40",
"Ye 	c #653C41",
"Ze 	c #643B3F",
"`e 	c #5A363B",
" f 	c #59363A",
".f 	c #5E383C",
"+f 	c #734546",
"@f 	c #362423",
"#f 	c #65594B",
"$f 	c #BEA38B",
"%f 	c #DABCA5",
"&f 	c #E1C3A9",
"*f 	c #DCBFA6",
"=f 	c #D8BDA6",
"-f 	c #E1C7AF",
";f 	c #E0C7B2",
">f 	c #D8C5B6",
",f 	c #D4BDAC",
"'f 	c #D6BFAE",
")f 	c #E8DACC",
"!f 	c #EBE2D4",
"~f 	c #E0D8CE",
"{f 	c #C1BDBE",
"]f 	c #A1A2AD",
"^f 	c #8A838F",
"/f 	c #5A3F3E",
"(f 	c #6D687F",
"_f 	c #5D5D72",
":f 	c #111311",
"<f 	c #080B06",
"[f 	c #412B2C",
"}f 	c #432C2F",
"|f 	c #452E30",
"1f 	c #452C30",
"2f 	c #492E32",
"3f 	c #4A2E32",
"4f 	c #462B31",
"5f 	c #472D31",
"6f 	c #482E33",
"7f 	c #4C3134",
"8f 	c #4E3034",
"9f 	c #4B2C30",
"0f 	c #553136",
"af 	c #5E343B",
"bf 	c #63393E",
"cf 	c #683C41",
"df 	c #6E3D42",
"ef 	c #6D3E41",
"ff 	c #794142",
"gf 	c #844344",
"hf 	c #884545",
"if 	c #954A46",
"jf 	c #994B47",
"kf 	c #9E4F4A",
"lf 	c #A2504A",
"mf 	c #9E514B",
"nf 	c #9D514B",
"of 	c #9F524C",
"pf 	c #AE574E",
"qf 	c #B2584D",
"rf 	c #B2594F",
"sf 	c #A8574D",
"tf 	c #9F5954",
"uf 	c #9A5854",
"vf 	c #955551",
"wf 	c #8B504E",
"xf 	c #874F4D",
"yf 	c #864C4C",
"zf 	c #854849",
"Af 	c #683E43",
"Bf 	c #693F43",
"Cf 	c #663E42",
"Df 	c #623A41",
"Ef 	c #834C4D",
"Ff 	c #3A2523",
"Gf 	c #201E18",
"Hf 	c #847568",
"If 	c #DBBCA2",
"Jf 	c #E3BDA0",
"Kf 	c #D9B395",
"Lf 	c #D6BBA4",
"Mf 	c #DABEA6",
"Nf 	c #DFC3AC",
"Of 	c #D3BCAB",
"Pf 	c #CAB4A1",
"Qf 	c #D9C6B7",
"Rf 	c #E9DDD0",
"Sf 	c #EBE1D3",
"Tf 	c #DBD3CB",
"Uf 	c #B0AEB6",
"Vf 	c #87889F",
"Wf 	c #76686B",
"Xf 	c #5B505A",
"Yf 	c #5E5D73",
"Zf 	c #181A18",
"`f 	c #080A06",
" g 	c #15130D",
".g 	c #291F19",
"+g 	c #27211B",
"@g 	c #11120D",
"#g 	c #0B0E09",
"$g 	c #0A0D08",
"%g 	c #3D2929",
"&g 	c #3C2929",
"*g 	c #3B2727",
"=g 	c #3D2829",
"-g 	c #412A2C",
";g 	c #472C2F",
">g 	c #4A2F30",
",g 	c #462C2E",
"'g 	c #482C2F",
")g 	c #492D2E",
"!g 	c #563237",
"~g 	c #6E3E42",
"{g 	c #7A4244",
"]g 	c #844444",
"^g 	c #894645",
"/g 	c #8A4646",
"(g 	c #934B48",
"_g 	c #974D49",
":g 	c #954C49",
"<g 	c #98514B",
"[g 	c #9C524C",
"}g 	c #A3534C",
"|g 	c #A9564E",
"1g 	c #AF574D",
"2g 	c #A65146",
"3g 	c #904239",
"4g 	c #98473E",
"5g 	c #A25048",
"6g 	c #9E544E",
"7g 	c #9C554E",
"8g 	c #99544C",
"9g 	c #94504B",
"0g 	c #8F4E4B",
"ag 	c #8D4B4B",
"bg 	c #784446",
"cg 	c #6B3F43",
"dg 	c #6A3E42",
"eg 	c #683F43",
"fg 	c #6B4245",
"gg 	c #784649",
"hg 	c #864A4A",
"ig 	c #382222",
"jg 	c #333028",
"kg 	c #AC947F",
"lg 	c #D7AB91",
"mg 	c #C99D86",
"ng 	c #D2B8A3",
"og 	c #D6BBA3",
"pg 	c #DDC2AB",
"qg 	c #CFB8A4",
"rg 	c #E1D1C3",
"sg 	c #E8DDD1",
"tg 	c #EBE0D3",
"ug 	c #EBE1D4",
"vg 	c #E8DED2",
"wg 	c #CFC6C1",
"xg 	c #A49FA8",
"yg 	c #868497",
"zg 	c #523D40",
"Ag 	c #665C65",
"Bg 	c #292826",
"Cg 	c #14140F",
"Dg 	c #14110C",
"Eg 	c #12100C",
"Fg 	c #15110B",
"Gg 	c #221812",
"Hg 	c #50342B",
"Ig 	c #856251",
"Jg 	c #B18C75",
"Kg 	c #BA9A83",
"Lg 	c #4D3E32",
"Mg 	c #201B15",
"Ng 	c #492D31",
"Og 	c #462A2C",
"Pg 	c #42292B",
"Qg 	c #432A2C",
"Rg 	c #462A2B",
"Sg 	c #492C2C",
"Tg 	c #4C2C2C",
"Ug 	c #502E34",
"Vg 	c #4C2C31",
"Wg 	c #4C2D31",
"Xg 	c #4E2F34",
"Yg 	c #4F3133",
"Zg 	c #533135",
"`g 	c #5C3539",
" h 	c #5C343A",
".h 	c #63363A",
"+h 	c #703D3E",
"@h 	c #763E3D",
"#h 	c #84443F",
"$h 	c #914844",
"%h 	c #A14C46",
"&h 	c #A04D48",
"*h 	c #9F514B",
"=h 	c #9C524E",
"-h 	c #A25650",
";h 	c #9C544D",
">h 	c #9F544E",
",h 	c #A2544E",
"'h 	c #A6564E",
")h 	c #9D4C43",
"!h 	c #8D4036",
"~h 	c #7B382E",
"{h 	c #692D26",
"]h 	c #6E332B",
"^h 	c #70372C",
"/h 	c #74382F",
"(h 	c #82423B",
"_h 	c #9C534C",
":h 	c #A0524C",
"<h 	c #A0504A",
"[h 	c #974F4B",
"}h 	c #954E4B",
"|h 	c #944D4B",
"1h 	c #824445",
"2h 	c #7B4343",
"3h 	c #7B4042",
"4h 	c #794042",
"5h 	c #753F42",
"6h 	c #6C4345",
"7h 	c #7D413E",
"8h 	c #834441",
"9h 	c #352120",
"0h 	c #413B2F",
"ah 	c #9D8071",
"bh 	c #B29385",
"ch 	c #CFB8A2",
"dh 	c #C7B19C",
"eh 	c #CEBDAE",
"fh 	c #DDD3C8",
"gh 	c #EAE0D3",
"hh 	c #EADDD0",
"ih 	c #EADCCF",
"jh 	c #DBCEC1",
"kh 	c #D6C7BC",
"lh 	c #9A939F",
"mh 	c #5D556B",
"nh 	c #8A7672",
"oh 	c #98908B",
"ph 	c #938983",
"qh 	c #523834",
"rh 	c #5B2B26",
"sh 	c #5A261C",
"th 	c #702B1E",
"uh 	c #8E5144",
"vh 	c #BC8B79",
"wh 	c #DDAE91",
"xh 	c #E4B99C",
"yh 	c #DDB197",
"zh 	c #C7A48A",
"Ah 	c #D4AE91",
"Bh 	c #8D7361",
"Ch 	c #503035",
"Dh 	c #4C2B2C",
"Eh 	c #472929",
"Fh 	c #462929",
"Gh 	c #452A2A",
"Hh 	c #452928",
"Ih 	c #472A29",
"Jh 	c #4B2E2D",
"Kh 	c #4E2E31",
"Lh 	c #532F33",
"Mh 	c #5A3236",
"Nh 	c #613639",
"Oh 	c #64383B",
"Ph 	c #693A3C",
"Qh 	c #6B3A3D",
"Rh 	c #6E3A3C",
"Sh 	c #733C3B",
"Th 	c #7F3E38",
"Uh 	c #8E433B",
"Vh 	c #A54B3D",
"Wh 	c #A44B3F",
"Xh 	c #8F423A",
"Yh 	c #8D453E",
"Zh 	c #9A5149",
"`h 	c #9F534C",
" i 	c #A0554F",
".i 	c #93504C",
"+i 	c #AA554C",
"@i 	c #74362D",
"#i 	c #662B24",
"$i 	c #652B24",
"%i 	c #662C25",
"&i 	c #682F27",
"*i 	c #6F352C",
"=i 	c #814039",
"-i 	c #924B45",
";i 	c #9D4F4A",
">i 	c #8F4C4A",
",i 	c #864645",
"'i 	c #854444",
")i 	c #7E4244",
"!i 	c #7B4043",
"~i 	c #724144",
"{i 	c #7F4143",
"]i 	c #864444",
"^i 	c #813D39",
"/i 	c #7B3E3A",
"(i 	c #362222",
"_i 	c #483E38",
":i 	c #927C6B",
"<i 	c #C7AD97",
"[i 	c #D2B7A0",
"}i 	c #C5AF9B",
"|i 	c #C6B3A5",
"1i 	c #C8BCB3",
"2i 	c #E3D8CD",
"3i 	c #E7DCD0",
"4i 	c #ECE1D3",
"5i 	c #EADACC",
"6i 	c #E8D8C9",
"7i 	c #DFD1C4",
"8i 	c #DED1C5",
"9i 	c #BCB2B0",
"0i 	c #BBB3B4",
"ai 	c #BBAFA7",
"bi 	c #C5BBB4",
"ci 	c #BFB6B1",
"di 	c #9A7C74",
"ei 	c #913321",
"fi 	c #A2331D",
"gi 	c #AF351D",
"hi 	c #BF6D58",
"ii 	c #E5C4AC",
"ji 	c #F3D1B0",
"ki 	c #F0CBA8",
"li 	c #EAC3A2",
"mi 	c #E8C1A1",
"ni 	c #C8A990",
"oi 	c #302B25",
"pi 	c #4E2D30",
"qi 	c #492929",
"ri 	c #482929",
"si 	c #47292A",
"ti 	c #442A2B",
"ui 	c #442929",
"vi 	c #432928",
"wi 	c #482B2A",
"xi 	c #502F2E",
"yi 	c #5B3433",
"zi 	c #613739",
"Ai 	c #693A3B",
"Bi 	c #743E3F",
"Ci 	c #763F3A",
"Di 	c #763D3B",
"Ei 	c #763D3C",
"Fi 	c #7C3F3C",
"Gi 	c #853F38",
"Hi 	c #8B433A",
"Ii 	c #9D493C",
"Ji 	c #8B4338",
"Ki 	c #692E26",
"Li 	c #662C24",
"Mi 	c #7A3B34",
"Ni 	c #9E534C",
"Oi 	c #99534C",
"Pi 	c #9F524B",
"Qi 	c #AE564C",
"Ri 	c #A35249",
"Si 	c #6C3128",
"Ti 	c #622A22",
"Ui 	c #672C26",
"Vi 	c #682D26",
"Wi 	c #6B3029",
"Xi 	c #6F342C",
"Yi 	c #743730",
"Zi 	c #7A3D37",
"`i 	c #834340",
" j 	c #874746",
".j 	c #854646",
"+j 	c #884848",
"@j 	c #884747",
"#j 	c #774345",
"$j 	c #714244",
"%j 	c #754041",
"&j 	c #7E3E40",
"*j 	c #813E3C",
"=j 	c #7E3C36",
"-j 	c #753E3B",
";j 	c #392524",
">j 	c #685F58",
",j 	c #C6B3A6",
"'j 	c #CEBBAB",
")j 	c #CFC1B5",
"!j 	c #DFD3C8",
"~j 	c #D4CAC1",
"{j 	c #E2D7CD",
"]j 	c #E9DCD1",
"^j 	c #ECDFD0",
"/j 	c #ECDCCD",
"(j 	c #E9D9CB",
"_j 	c #E5D7CA",
":j 	c #DACFC6",
"<j 	c #C4B7AF",
"[j 	c #DCCEC2",
"}j 	c #DBCEC4",
"|j 	c #DACEC4",
"1j 	c #E1D5CA",
"2j 	c #DFCCC0",
"3j 	c #BE5A49",
"4j 	c #B73B1F",
"5j 	c #C54023",
"6j 	c #BA4F38",
"7j 	c #DAB29B",
"8j 	c #F1D3B5",
"9j 	c #F4D2B1",
"0j 	c #F1CEAB",
"aj 	c #E9C1A0",
"bj 	c #E9BFA0",
"cj 	c #B5957E",
"dj 	c #201D18",
"ej 	c #422A2B",
"fj 	c #4B2C2D",
"gj 	c #4F2E30",
"hj 	c #512F2E",
"ij 	c #522F31",
"jj 	c #553030",
"kj 	c #613637",
"lj 	c #6A3A3B",
"mj 	c #713D3B",
"nj 	c #773E39",
"oj 	c #7E413A",
"pj 	c #87443C",
"qj 	c #87453B",
"rj 	c #8B463D",
"sj 	c #834038",
"tj 	c #642C25",
"uj 	c #984F48",
"vj 	c #A8544B",
"wj 	c #A65449",
"xj 	c #B1554B",
"yj 	c #B2594E",
"zj 	c #B4594F",
"Aj 	c #AB554C",
"Bj 	c #70332A",
"Cj 	c #5D281F",
"Dj 	c #5F2920",
"Ej 	c #632B23",
"Fj 	c #622A21",
"Gj 	c #5F291F",
"Hj 	c #5D291F",
"Ij 	c #5E2921",
"Jj 	c #5D2A22",
"Kj 	c #5D2C25",
"Lj 	c #5A2D25",
"Mj 	c #532B24",
"Nj 	c #58312D",
"Oj 	c #6C3F3C",
"Pj 	c #7E4848",
"Qj 	c #844A4B",
"Rj 	c #914B4A",
"Sj 	c #904C4B",
"Tj 	c #834647",
"Uj 	c #7B4345",
"Vj 	c #7C4143",
"Wj 	c #783E3F",
"Xj 	c #793C3A",
"Yj 	c #763C38",
"Zj 	c #743E3E",
"`j 	c #7F7974",
" k 	c #DFD4CA",
".k 	c #DDD3C9",
"+k 	c #E2D8CE",
"@k 	c #E6DCD1",
"#k 	c #DACFC7",
"$k 	c #E4D9CE",
"%k 	c #EEE0D0",
"&k 	c #ECDBCB",
"*k 	c #E9D7C9",
"=k 	c #E9DBCF",
"-k 	c #D7CCC3",
";k 	c #C7BAB1",
">k 	c #D8CAC0",
",k 	c #D9CCC1",
"'k 	c #DFD1C3",
")k 	c #E2D4C8",
"!k 	c #DCCEC5",
"~k 	c #C38278",
"{k 	c #BF452C",
"]k 	c #CB5838",
"^k 	c #C0624C",
"/k 	c #D3A693",
"(k 	c #EBCDB0",
"_k 	c #F3D1AF",
":k 	c #EFCCAA",
"<k 	c #E1BC9E",
"[k 	c #C29F86",
"}k 	c #564A40",
"|k 	c #442A2D",
"1k 	c #41292B",
"2k 	c #3F2929",
"3k 	c #442A2A",
"4k 	c #4A2B2A",
"5k 	c #4A2B2C",
"6k 	c #482B2B",
"7k 	c #452A29",
"8k 	c #4C2C2D",
"9k 	c #5F3435",
"0k 	c #673734",
"ak 	c #6B3937",
"bk 	c #723C38",
"ck 	c #773F37",
"dk 	c #814239",
"ek 	c #8A463F",
"fk 	c #944A45",
"gk 	c #89433D",
"hk 	c #642C24",
"ik 	c #602A21",
"jk 	c #984C47",
"kk 	c #9F504A",
"lk 	c #A65048",
"mk 	c #A8524A",
"nk 	c #AE554B",
"ok 	c #A9554C",
"pk 	c #89453E",
"qk 	c #5B2A20",
"rk 	c #54261C",
"sk 	c #4F261B",
"tk 	c #51261B",
"uk 	c #4F251B",
"vk 	c #4E251B",
"wk 	c #4B251B",
"xk 	c #48241A",
"yk 	c #4A251C",
"zk 	c #47231C",
"Ak 	c #432019",
"Bk 	c #43211A",
"Ck 	c #472520",
"Dk 	c #583332",
"Ek 	c #6B4040",
"Fk 	c #98514C",
"Gk 	c #8C4A4A",
"Hk 	c #844545",
"Ik 	c #854645",
"Jk 	c #814343",
"Kk 	c #793E3F",
"Lk 	c #763D3A",
"Mk 	c #753C39",
"Nk 	c #733F41",
"Ok 	c #3A2928",
"Pk 	c #1D1D1A",
"Qk 	c #AEA79F",
"Rk 	c #E9E0D3",
"Sk 	c #E9DED3",
"Tk 	c #E6DBD0",
"Uk 	c #E7DCD1",
"Vk 	c #E2D6CC",
"Wk 	c #E5D6C8",
"Xk 	c #EEE0D1",
"Yk 	c #EDDDCD",
"Zk 	c #EBDBCC",
"`k 	c #EBDED0",
" l 	c #E6D9CD",
".l 	c #CDC2BA",
"+l 	c #D7CCC2",
"@l 	c #D2C5BC",
"#l 	c #D4C6BA",
"$l 	c #CBBBAE",
"%l 	c #D1C4B8",
"&l 	c #D4C9C0",
"*l 	c #C2A79F",
"=l 	c #B5847C",
"-l 	c #B8958D",
";l 	c #B59B94",
">l 	c #BCA79E",
",l 	c #AF9C8E",
"'l 	c #AB927B",
")l 	c #826C5C",
"!l 	c #4C4135",
"~l 	c #29231B",
"{l 	c #040804",
"]l 	c #472B2F",
"^l 	c #462B2D",
"/l 	c #402829",
"(l 	c #422928",
"_l 	c #422929",
":l 	c #43292A",
"<l 	c #462A2A",
"[l 	c #4B2B2C",
"}l 	c #542E2D",
"|l 	c #5A322D",
"1l 	c #673632",
"2l 	c #693834",
"3l 	c #6D3932",
"4l 	c #7C4038",
"5l 	c #84443B",
"6l 	c #884541",
"7l 	c #88443F",
"8l 	c #622D25",
"9l 	c #592920",
"0l 	c #773E3B",
"al 	c #904D4C",
"bl 	c #964B48",
"cl 	c #9A4E48",
"dl 	c #9B4F4A",
"el 	c #964B46",
"fl 	c #8D473F",
"gl 	c #83453D",
"hl 	c #5C2D24",
"il 	c #492117",
"jl 	c #432018",
"kl 	c #442018",
"ll 	c #45221A",
"ml 	c #44221A",
"nl 	c #46231A",
"ol 	c #46231B",
"pl 	c #43221B",
"ql 	c #42211A",
"rl 	c #411E17",
"sl 	c #412019",
"tl 	c #41231D",
"ul 	c #4A2927",
"vl 	c #683B3B",
"wl 	c #824A49",
"xl 	c #8D4D4B",
"yl 	c #8F4D4B",
"zl 	c #8D4A49",
"Al 	c #7F4344",
"Bl 	c #774041",
"Cl 	c #723D3C",
"Dl 	c #6E3C3D",
"El 	c #352626",
"Fl 	c #33312D",
"Gl 	c #CFC6BC",
"Hl 	c #EAE1D4",
"Il 	c #E8DDD2",
"Jl 	c #E0D3C8",
"Kl 	c #D3C2B3",
"Ll 	c #CDC1B9",
"Ml 	c #E4DAD0",
"Nl 	c #EDDFD0",
"Ol 	c #EEE1D2",
"Pl 	c #E6D8CA",
"Ql 	c #E1D4C9",
"Rl 	c #D9CFC5",
"Sl 	c #CABFB7",
"Tl 	c #CABBB1",
"Ul 	c #AEA29C",
"Vl 	c #AEA4A0",
"Wl 	c #C9BFB7",
"Xl 	c #BAB2B0",
"Yl 	c #A5A1A5",
"Zl 	c #A7A5AA",
"`l 	c #908C93",
" m 	c #8D878C",
".m 	c #666161",
"+m 	c #070906",
"@m 	c #4B2F33",
"#m 	c #442A2E",
"$m 	c #432A2E",
"%m 	c #42292A",
"&m 	c #472A2A",
"*m 	c #3F2829",
"=m 	c #482C2E",
"-m 	c #4D2E30",
";m 	c #522E31",
">m 	c #573031",
",m 	c #603431",
"'m 	c #663632",
")m 	c #683632",
"!m 	c #6E3935",
"~m 	c #733C3A",
"{m 	c #763C39",
"]m 	c #773C36",
"^m 	c #5B2D24",
"/m 	c #552820",
"(m 	c #73403F",
"_m 	c #874A4B",
":m 	c #8C4947",
"<m 	c #87433E",
"[m 	c #82423D",
"}m 	c #7A3E37",
"|m 	c #7F413A",
"1m 	c #7A3D36",
"2m 	c #783C38",
"3m 	c #713933",
"4m 	c #5D2E26",
"5m 	c #47221A",
"6m 	c #422019",
"7m 	c #411F18",
"8m 	c #401F18",
"9m 	c #401E17",
"0m 	c #3E1D16",
"am 	c #3F1F18",
"bm 	c #3E1E17",
"cm 	c #46231D",
"dm 	c #5E3532",
"em 	c #744243",
"fm 	c #854847",
"gm 	c #7B4244",
"hm 	c #703F42",
"im 	c #6E3E41",
"jm 	c #724346",
"km 	c #2E2020",
"lm 	c #080C07",
"mm 	c #4A4640",
"nm 	c #E0D7CA",
"om 	c #E8DACD",
"pm 	c #E9DED2",
"qm 	c #E9DDD2",
"rm 	c #DCCCBF",
"sm 	c #C9B3A0",
"tm 	c #C0B3AC",
"um 	c #CDC6C1",
"vm 	c #E2D6CB",
"wm 	c #E8DCD1",
"xm 	c #E8DACE",
"ym 	c #D9CBC0",
"zm 	c #CBC0B6",
"Am 	c #C4B8B0",
"Bm 	c #C9BAB0",
"Cm 	c #9F9494",
"Dm 	c #948E92",
"Em 	c #B8B1B0",
"Fm 	c #AAA7AD",
"Gm 	c #9899A3",
"Hm 	c #92929B",
"Im 	c #6F6B6E",
"Jm 	c #726E6F",
"Km 	c #504E4D",
"Lm 	c #40292C",
"Mm 	c #3C2828",
"Nm 	c #472C2E",
"Om 	c #442A2C",
"Pm 	c #422A2C",
"Qm 	c #452A2C",
"Rm 	c #482C2D",
"Sm 	c #4A2C2C",
"Tm 	c #502F2F",
"Um 	c #6C3D3A",
"Vm 	c #743D37",
"Wm 	c #773B36",
"Xm 	c #6D3A39",
"Ym 	c #6D3C3C",
"Zm 	c #6C3D3D",
"`m 	c #663832",
" n 	c #4E271D",
".n 	c #4F261C",
"+n 	c #6E3A36",
"@n 	c #864847",
"#n 	c #834442",
"$n 	c #773A34",
"%n 	c #783C36",
"&n 	c #733932",
"*n 	c #713934",
"=n 	c #733B36",
"-n 	c #70382F",
";n 	c #74392D",
">n 	c #753A31",
",n 	c #753B33",
"'n 	c #6D372F",
")n 	c #5D2F29",
"!n 	c #512A22",
"~n 	c #48251D",
"{n 	c #421F18",
"]n 	c #3E2018",
"^n 	c #3E1F18",
"/n 	c #3F2019",
"(n 	c #3E1F17",
"_n 	c #46241E",
":n 	c #5D3331",
"<n 	c #7F4748",
"[n 	c #864848",
"}n 	c #7F4546",
"|n 	c #744244",
"1n 	c #754849",
"2n 	c #2B1E1D",
"3n 	c #645F59",
"4n 	c #E4D7CC",
"5n 	c #D1C5BC",
"6n 	c #E5DBCF",
"7n 	c #E8DCD2",
"8n 	c #E3D5CA",
"9n 	c #E4D2C2",
"0n 	c #DFCEC1",
"an 	c #BCB2AF",
"bn 	c #CDC5C1",
"cn 	c #D0C8C3",
"dn 	c #CFC9C6",
"en 	c #CDC1B7",
"fn 	c #C2B3AB",
"gn 	c #BAB2AE",
"hn 	c #C9BBB2",
"in 	c #9C9090",
"jn 	c #868087",
"kn 	c #A7A3AA",
"ln 	c #9F9EA7",
"mn 	c #838394",
"nn 	c #77757F",
"on 	c #514E4D",
"pn 	c #2B2B29",
"qn 	c #40292D",
"rn 	c #472C31",
"sn 	c #442B2E",
"tn 	c #482C30",
"un 	c #4A2D31",
"vn 	c #452B2C",
"wn 	c #492D2F",
"xn 	c #402A2B",
"yn 	c #61554F",
"zn 	c #544E46",
"An 	c #544F4C",
"Bn 	c #4D4945",
"Cn 	c #462F2B",
"Dn 	c #5C362F",
"En 	c #5F342E",
"Fn 	c #512E2C",
"Gn 	c #5E3637",
"Hn 	c #5B302C",
"In 	c #4A241B",
"Jn 	c #49241A",
"Kn 	c #5B2E28",
"Ln 	c #7C4140",
"Mn 	c #884746",
"Nn 	c #7E3E3A",
"On 	c #80413D",
"Pn 	c #6C3331",
"Qn 	c #68342C",
"Rn 	c #763C33",
"Sn 	c #733B34",
"Tn 	c #6A3230",
"Un 	c #65322F",
"Vn 	c #512A24",
"Wn 	c #3E2119",
"Xn 	c #3D1E17",
"Yn 	c #3C2018",
"Zn 	c #3C1F18",
"`n 	c #402019",
" o 	c #4B2620",
".o 	c #633A3A",
"+o 	c #81494A",
"@o 	c #6C4042",
"#o 	c #6D3F42",
"$o 	c #714345",
"%o 	c #734648",
"&o 	c #291C1B",
"*o 	c #56514C",
"=o 	c #D5CBC1",
"-o 	c #C9C1BC",
";o 	c #C8C2BE",
">o 	c #D5CDC6",
",o 	c #E1D6CD",
"'o 	c #E2D8CD",
")o 	c #D0C5BE",
"!o 	c #BEB5B0",
"~o 	c #B3A9A7",
"{o 	c #ACA8AD",
"]o 	c #C1BDBF",
"^o 	c #C9C4C5",
"/o 	c #C6BCB5",
"(o 	c #BEB2AC",
"_o 	c #BCB4B0",
":o 	c #AAA6AB",
"<o 	c #C0B7B4",
"[o 	c #9B9293",
"}o 	c #7E787D",
"|o 	c #94939C",
"1o 	c #898792",
"2o 	c #6A6871",
"3o 	c #424244",
"4o 	c #37211D",
"5o 	c #3B2322",
"6o 	c #482C31",
"7o 	c #4B2D32",
"8o 	c #4A2C31",
"9o 	c #4C2E30",
"0o 	c #432B2A",
"ao 	c #413634",
"bo 	c #7E746D",
"co 	c #B8A399",
"do 	c #8F827B",
"eo 	c #7D7876",
"fo 	c #7B7774",
"go 	c #66625F",
"ho 	c #605B58",
"io 	c #857D77",
"jo 	c #847870",
"ko 	c #3F2925",
"lo 	c #482926",
"mo 	c #5A3633",
"no 	c #58322D",
"oo 	c #45231B",
"po 	c #502924",
"qo 	c #6B3939",
"ro 	c #794143",
"so 	c #7B4040",
"to 	c #783F3E",
"uo 	c #794040",
"vo 	c #743C3A",
"wo 	c #6C3531",
"xo 	c #6E3730",
"yo 	c #753B35",
"zo 	c #763B33",
"Ao 	c #7D403D",
"Bo 	c #763E3C",
"Co 	c #5B312E",
"Do 	c #40241C",
"Eo 	c #3B1E16",
"Fo 	c #3B1C15",
"Go 	c #44231E",
"Ho 	c #4B2826",
"Io 	c #462622",
"Jo 	c #3C1E17",
"Ko 	c #3D1D16",
"Lo 	c #3F1E17",
"Mo 	c #3C1D16",
"No 	c #40211A",
"Oo 	c #472521",
"Po 	c #5A3231",
"Qo 	c #6E4244",
"Ro 	c #6D3F43",
"So 	c #6F4044",
"To 	c #7B4C4C",
"Uo 	c #2E2522",
"Vo 	c #1C1B18",
"Wo 	c #97908B",
"Xo 	c #D7CCC4",
"Yo 	c #E1D7CD",
"Zo 	c #D2C9C2",
"`o 	c #E0D8CF",
" p 	c #DAD2CC",
".p 	c #B3B0B4",
"+p 	c #A7A6AD",
"@p 	c #A8A5AB",
"#p 	c #7D6F72",
"$p 	c #A09C9F",
"%p 	c #C1BDC0",
"&p 	c #C8C2C1",
"*p 	c #C0B9B7",
"=p 	c #B1ADAF",
"-p 	c #A6A5AD",
";p 	c #B5B3B7",
">p 	c #8D888F",
",p 	c #716E7F",
"'p 	c #7D7C8B",
")p 	c #5F5D62",
"!p 	c #2A2A28",
"~p 	c #311D17",
"{p 	c #361D17",
"]p 	c #472B2D",
"^p 	c #4A2C30",
"/p 	c #3A2B27",
"(p 	c #524C49",
"_p 	c #77706E",
":p 	c #C4B7A5",
"<p 	c #D0C1B6",
"[p 	c #AFA59E",
"}p 	c #807B79",
"|p 	c #807C79",
"1p 	c #807C78",
"2p 	c #87817E",
"3p 	c #BDB3AB",
"4p 	c #B8ADA4",
"5p 	c #3F3733",
"6p 	c #402421",
"7p 	c #452622",
"8p 	c #44241D",
"9p 	c #492621",
"0p 	c #753F41",
"ap 	c #7D4042",
"bp 	c #79413F",
"cp 	c #7B4141",
"dp 	c #7F403E",
"ep 	c #7D403E",
"fp 	c #763F41",
"gp 	c #623638",
"hp 	c #462724",
"ip 	c #3A1E17",
"jp 	c #3B1D15",
"kp 	c #3B1D16",
"lp 	c #4A2826",
"mp 	c #583035",
"np 	c #583034",
"op 	c #502B2D",
"pp 	c #442723",
"qp 	c #3E2019",
"rp 	c #3D1F18",
"sp 	c #44231C",
"tp 	c #492824",
"up 	c #4A2928",
"vp 	c #563030",
"wp 	c #6B3F42",
"xp 	c #694043",
"yp 	c #6B4044",
"zp 	c #271B19",
"Ap 	c #36332E",
"Bp 	c #E5D8CB",
"Cp 	c #D7CABF",
"Dp 	c #EFE1D2",
"Ep 	c #EEDFD1",
"Fp 	c #D3CAC5",
"Gp 	c #C4BEBD",
"Hp 	c #C8BBB4",
"Ip 	c #7D5049",
"Jp 	c #5E4C4C",
"Kp 	c #928D94",
"Lp 	c #A9A7AF",
"Mp 	c #B0AFB3",
"Np 	c #AAA8AE",
"Op 	c #A2A1AA",
"Pp 	c #9E9DA6",
"Qp 	c #7E7C85",
"Rp 	c #525056",
"Sp 	c #2C2C2D",
"Tp 	c #121311",
"Up 	c #391E19",
"Vp 	c #4D2F32",
"Wp 	c #553436",
"Xp 	c #3E2A28",
"Yp 	c #3F3630",
"Zp 	c #8A7F77",
"`p 	c #7B7573",
" q 	c #9E9691",
".q 	c #C4BAB3",
"+q 	c #B6AEA9",
"@q 	c #817C7A",
"#q 	c #85807D",
"$q 	c #837E7A",
"%q 	c #8C8683",
"&q 	c #BAB1AC",
"*q 	c #AFA7A5",
"=q 	c #625E5B",
"-q 	c #271F1A",
";q 	c #40221C",
">q 	c #42221B",
",q 	c #492521",
"'q 	c #67383A",
")q 	c #703D41",
"!q 	c #713C3D",
"~q 	c #753D3F",
"{q 	c #743E41",
"]q 	c #783F41",
"^q 	c #833F40",
"/q 	c #803E3F",
"(q 	c #753D3E",
"_q 	c #6C3B3C",
":q 	c #512B29",
"<q 	c #3C1E18",
"[q 	c #3A1D16",
"}q 	c #3B1D17",
"|q 	c #4C2929",
"1q 	c #5F3239",
"2q 	c #60333B",
"3q 	c #5F343B",
"4q 	c #553237",
"5q 	c #4E2F30",
"6q 	c #432422",
"7q 	c #41211D",
"8q 	c #482826",
"9q 	c #512C2D",
"0q 	c #592D2F",
"aq 	c #623539",
"bq 	c #734043",
"cq 	c #6F3F43",
"dq 	c #6B3E43",
"eq 	c #643B41",
"fq 	c #251916",
"gq 	c #4A4540",
"hq 	c #E4D4C6",
"iq 	c #E4D5C8",
"jq 	c #DBCEC2",
"kq 	c #EEDECE",
"lq 	c #E2D3C7",
"mq 	c #D5C8BE",
"nq 	c #DBCEC3",
"oq 	c #966056",
"pq 	c #532F2E",
"qq 	c #756D7F",
"rq 	c #6E708E",
"sq 	c #767895",
"tq 	c #737590",
"uq 	c #5B5C76",
"vq 	c #343335",
"wq 	c #222322",
"xq 	c #331D17",
"yq 	c #3B1F1A",
"zq 	c #6D615B",
"Aq 	c #BAABA0",
"Bq 	c #CEBFB2",
"Cq 	c #9C938C",
"Dq 	c #7E7977",
"Eq 	c #7C7876",
"Fq 	c #948E8A",
"Gq 	c #8D8782",
"Hq 	c #807A77",
"Iq 	c #89827F",
"Jq 	c #8A8481",
"Kq 	c #8D8684",
"Lq 	c #A7A1A1",
"Mq 	c #787372",
"Nq 	c #5B5754",
"Oq 	c #4B4743",
"Pq 	c #33211C",
"Qq 	c #41211A",
"Rq 	c #4A241D",
"Sq 	c #613332",
"Tq 	c #6E3D3F",
"Uq 	c #6F3C3E",
"Vq 	c #713D40",
"Wq 	c #703D3F",
"Xq 	c #753E41",
"Yq 	c #7A3D3D",
"Zq 	c #743D3F",
"`q 	c #6D3C3E",
" r 	c #6D3C3F",
".r 	c #583030",
"+r 	c #40211B",
"@r 	c #3B1E17",
"#r 	c #3A1E16",
"$r 	c #4B2827",
"%r 	c #5D3238",
"&r 	c #61333B",
"*r 	c #5B323A",
"=r 	c #60343C",
"-r 	c #60353D",
";r 	c #593239",
">r 	c #533136",
",r 	c #5B333A",
"'r 	c #64353B",
")r 	c #6E3D41",
"!r 	c #5F373E",
"~r 	c #64373F",
"{r 	c #724445",
"]r 	c #291B19",
"^r 	c #605A51",
"/r 	c #E9D9CA",
"(r 	c #DECFC3",
"_r 	c #E1D5C9",
":r 	c #EFE1D1",
"<r 	c #EFDFD0",
"[r 	c #E1D0C3",
"}r 	c #DFCFC1",
"|r 	c #A86B5F",
"1r 	c #5F352E",
"2r 	c #827A86",
"3r 	c #747693",
"4r 	c #6F7194",
"5r 	c #585A7D",
"6r 	c #4E506E",
"7r 	c #1C1D20",
"8r 	c #3A1C16",
"9r 	c #3C1F1A",
"0r 	c #5B373C",
"ar 	c #533837",
"br 	c #7B706A",
"cr 	c #D1C2B6",
"dr 	c #CEC2B7",
"er 	c #C9BCB1",
"fr 	c #9A8E87",
"gr 	c #7A7573",
"hr 	c #7F7B78",
"ir 	c #847F7E",
"jr 	c #8C8583",
"kr 	c #837E7C",
"lr 	c #888281",
"mr 	c #787371",
"nr 	c #5C5754",
"or 	c #56524F",
"pr 	c #342F2B",
"qr 	c #3A231E",
"rr 	c #381C15",
"sr 	c #401E16",
"tr 	c #542924",
"ur 	c #6D3737",
"vr 	c #703C3C",
"wr 	c #6E3C3E",
"xr 	c #6A3C3C",
"yr 	c #6B3C3F",
"zr 	c #6A3C3D",
"Ar 	c #603638",
"Br 	c #43221F",
"Cr 	c #3A1C15",
"Dr 	c #492725",
"Er 	c #5D3339",
"Fr 	c #5F333A",
"Gr 	c #63353C",
"Hr 	c #63343B",
"Ir 	c #653741",
"Jr 	c #61373F",
"Kr 	c #5A363C",
"Lr 	c #5A353A",
"Mr 	c #61353D",
"Nr 	c #66393E",
"Or 	c #693C40",
"Pr 	c #623B41",
"Qr 	c #5F3B41",
"Rr 	c #653941",
"Sr 	c #7B4D4B",
"Tr 	c #30221D",
"Ur 	c #12140F",
"Vr 	c #7B7369",
"Wr 	c #EBDACB",
"Xr 	c #D6C8BD",
"Yr 	c #F1E1D0",
"Zr 	c #EBDCCD",
"`r 	c #D7C7BB",
" s 	c #E2D1C3",
".s 	c #EBD8C8",
"+s 	c #B27C6E",
"@s 	c #693831",
"#s 	c #817A83",
"$s 	c #777998",
"%s 	c #7E7D95",
"&s 	c #4F5075",
"*s 	c #20212A",
"=s 	c #3D2018",
"-s 	c #42221D",
";s 	c #724645",
">s 	c #42332F",
",s 	c #958A83",
"'s 	c #CEC1B6",
")s 	c #CABEB4",
"!s 	c #CFBEAE",
"~s 	c #A09188",
"{s 	c #7F7B77",
"]s 	c #7C7976",
"^s 	c #7B7876",
"/s 	c #716D6B",
"(s 	c #666260",
"_s 	c #817A78",
":s 	c #9B918B",
"<s 	c #7B7370",
"[s 	c #595653",
"}s 	c #2D2A26",
"|s 	c #341C16",
"1s 	c #44211A",
"2s 	c #4D2721",
"3s 	c #4C2924",
"4s 	c #633939",
"5s 	c #613938",
"6s 	c #4F2A28",
"7s 	c #673A3C",
"8s 	c #66393C",
"9s 	c #4E2929",
"0s 	c #3C1C16",
"as 	c #4A2726",
"bs 	c #5D333A",
"cs 	c #5E3239",
"ds 	c #63333B",
"es 	c #62343D",
"fs 	c #5D333B",
"gs 	c #5F353E",
"hs 	c #5E3840",
"is 	c #58363A",
"js 	c #5E343C",
"ks 	c #63363D",
"ls 	c #63383D",
"ms 	c #60353C",
"ns 	c #5F383F",
"os 	c #5B393F",
"ps 	c #583539",
"qs 	c #643841",
"rs 	c #7D4846",
"ss 	c #2B1C18",
"ts 	c #968F86",
"us 	c #EEDACA",
"vs 	c #D5C6BB",
"ws 	c #EBDCCF",
"xs 	c #F3E0D0",
"ys 	c #ECDACA",
"zs 	c #DCC4B3",
"As 	c #ECD6C6",
"Bs 	c #F1DAC9",
"Cs 	c #C18C7B",
"Ds 	c #7F473F",
"Es 	c #A6928F",
"Fs 	c #7D7D98",
"Gs 	c #8B8EA4",
"Hs 	c #636485",
"Is 	c #4D4E74",
"Js 	c #313349",
"Ks 	c #3F201B",
"Ls 	c #402522",
"Ms 	c #4E3531",
"Ns 	c #8B827B",
"Os 	c #C6BAB1",
"Ps 	c #D5C4B7",
"Qs 	c #D9C8B6",
"Rs 	c #B7A899",
"Ss 	c #8A8280",
"Ts 	c #837F7A",
"Us 	c #7D7A77",
"Vs 	c #817D78",
"Ws 	c #65615F",
"Xs 	c #948B86",
"Ys 	c #B1A298",
"Zs 	c #9C9189",
"`s 	c #726B66",
" t 	c #585552",
".t 	c #4E4946",
"+t 	c #3F201A",
"@t 	c #391D16",
"#t 	c #391C16",
"$t 	c #482622",
"%t 	c #4A2723",
"&t 	c #3C1F19",
"*t 	c #61393A",
"=t 	c #603636",
"-t 	c #46231F",
";t 	c #3D1D17",
">t 	c #522A2C",
",t 	c #62353D",
"'t 	c #62343C",
")t 	c #5E333C",
"!t 	c #5D343C",
"~t 	c #5B373D",
"{t 	c #5B343B",
"]t 	c #5D363D",
"^t 	c #5F343D",
"/t 	c #62353C",
"(t 	c #5C343C",
"_t 	c #5B363D",
":t 	c #59373B",
"<t 	c #633941",
"[t 	c #84524A",
"}t 	c #564B2D",
"|t 	c #554E2B",
"1t 	c #524D26",
"2t 	c #504C25",
"3t 	c #504B26",
"4t 	c #1D1C0F",
"5t 	c #141511",
"6t 	c #A79F96",
"7t 	c #EDD9CA",
"8t 	c #D5C5BA",
"9t 	c #ECDCCC",
"0t 	c #F1DCCB",
"at 	c #EED6C4",
"bt 	c #E4C8B0",
"ct 	c #EFD7C5",
"dt 	c #F0D8C8",
"et 	c #C58A78",
"ft 	c #8D4F44",
"gt 	c #C6B1A5",
"ht 	c #8F8B9C",
"it 	c #8D90A4",
"jt 	c #666585",
"kt 	c #4C4D73",
"lt 	c #3F415D",
"mt 	c #080B09",
"nt 	c #39201B",
"ot 	c #352B25",
"pt 	c #8C837C",
"qt 	c #C2B7AE",
"rt 	c #D4C5B8",
"st 	c #D9C6B5",
"tt 	c #CDBCA8",
"ut 	c #8E847D",
"vt 	c #8D8787",
"wt 	c #868180",
"xt 	c #85817F",
"yt 	c #86817C",
"zt 	c #807B78",
"At 	c #696563",
"Bt 	c #5F5B59",
"Ct 	c #8D847F",
"Dt 	c #B0A196",
"Et 	c #ADA097",
"Ft 	c #A29790",
"Gt 	c #615B58",
"Ht 	c #6A6461",
"It 	c #918680",
"Jt 	c #453C36",
"Kt 	c #3B1F19",
"Lt 	c #381D16",
"Mt 	c #391C15",
"Nt 	c #3A1F17",
"Ot 	c #603136",
"Pt 	c #61343C",
"Qt 	c #63363F",
"Rt 	c #5F333B",
"St 	c #5A343B",
"Tt 	c #5A373D",
"Ut 	c #5A373C",
"Vt 	c #5D353D",
"Wt 	c #563136",
"Xt 	c #573538",
"Yt 	c #58373B",
"Zt 	c #5F363D",
"`t 	c #865943",
" u 	c #A4944F",
".u 	c #A59750",
"+u 	c #9C9146",
"@u 	c #A1964A",
"#u 	c #9C9247",
"$u 	c #676031",
"%u 	c #AFA49B",
"&u 	c #EED8C9",
"*u 	c #D2C3B8",
"=u 	c #EDDBCB",
"-u 	c #F0DACA",
";u 	c #EDD4C1",
">u 	c #E9CAAD",
",u 	c #EED7C5",
"'u 	c #EDD7C8",
")u 	c #CF947E",
"!u 	c #935445",
"~u 	c #CCB7A9",
"{u 	c #A69EA8",
"]u 	c #9294A4",
"^u 	c #73748E",
"/u 	c #4E4E70",
"(u 	c #4E4D66",
"_u 	c #0F1112",
":u 	c #322D28",
"<u 	c #AB9B8E",
"[u 	c #CFBEAF",
"}u 	c #D3C4B8",
"|u 	c #D6C5B8",
"1u 	c #D4C4B6",
"2u 	c #9C8D84",
"3u 	c #847E79",
"4u 	c #837D7B",
"5u 	c #827D7A",
"6u 	c #898381",
"7u 	c #827D78",
"8u 	c #76706D",
"9u 	c #67605C",
"0u 	c #8F857F",
"au 	c #B0A297",
"bu 	c #AFA098",
"cu 	c #AC9F97",
"du 	c #9D918B",
"eu 	c #A49891",
"fu 	c #AEA097",
"gu 	c #9A8D85",
"hu 	c #50453E",
"iu 	c #321D15",
"ju 	c #381C16",
"ku 	c #371C16",
"lu 	c #40201A",
"mu 	c #4A2725",
"nu 	c #4A2623",
"ou 	c #4D2825",
"pu 	c #532C2E",
"qu 	c #5B3036",
"ru 	c #5E323A",
"su 	c #5F343C",
"tu 	c #5B3239",
"uu 	c #583238",
"vu 	c #573237",
"wu 	c #543237",
"xu 	c #533337",
"yu 	c #533236",
"zu 	c #4F2E34",
"Au 	c #4A2D33",
"Bu 	c #4B2E34",
"Cu 	c #4C3034",
"Du 	c #513438",
"Eu 	c #5F373D",
"Fu 	c #835B42",
"Gu 	c #A4954D",
"Hu 	c #9F9348",
"Iu 	c #9D9245",
"Ju 	c #9B8F44",
"Ku 	c #A2944B",
"Lu 	c #938A4F",
"Mu 	c #181A0F",
"Nu 	c #23221D",
"Ou 	c #C0B2A4",
"Pu 	c #EDD8C9",
"Qu 	c #D1C4BA",
"Ru 	c #EDDCCB",
"Su 	c #EAD9CB",
"Tu 	c #E7D0BD",
"Uu 	c #ECCEB3",
"Vu 	c #EED8C8",
"Wu 	c #EBD7C7",
"Xu 	c #CA9581",
"Yu 	c #965546",
"Zu 	c #C2ADA1",
"`u 	c #AEA6AB",
" v 	c #A9A4AB",
".v 	c #838292",
"+v 	c #464468",
"@v 	c #4D4D6A",
"#v 	c #141519",
"$v 	c #9F938B",
"%v 	c #D0C0B1",
"&v 	c #D6C4B2",
"*v 	c #D4C5B7",
"=v 	c #D3C5B8",
"-v 	c #C5B8AE",
";v 	c #8B827C",
">v 	c #7E7A77",
",v 	c #7E7978",
"'v 	c #7E7976",
")v 	c #817C78",
"!v 	c #85807B",
"~v 	c #86807B",
"{v 	c #787168",
"]v 	c #918880",
"^v 	c #A99D91",
"/v 	c #AFA197",
"(v 	c #AB9E95",
"_v 	c #AC9F96",
":v 	c #B0A298",
"<v 	c #A89C94",
"[v 	c #93867E",
"}v 	c #3E352E",
"|v 	c #331C14",
"1v 	c #351C16",
"2v 	c #3F1F17",
"3v 	c #42241F",
"4v 	c #5B3032",
"5v 	c #633235",
"6v 	c #613135",
"7v 	c #643339",
"8v 	c #62363F",
"9v 	c #663A41",
"0v 	c #643840",
"av 	c #542F35",
"bv 	c #4C2C33",
"cv 	c #4A2C32",
"dv 	c #4B2F34",
"ev 	c #4B2D33",
"fv 	c #4B3034",
"gv 	c #482B32",
"hv 	c #442A32",
"iv 	c #462A32",
"jv 	c #5F363C",
"kv 	c #785140",
"lv 	c #877B3C",
"mv 	c #7C7937",
"nv 	c #777433",
"ov 	c #706F31",
"pv 	c #717033",
"qv 	c #717239",
"rv 	c #212213",
"sv 	c #312D27",
"tv 	c #D2C2B3",
"uv 	c #E9D5C8",
"vv 	c #CDC3BC",
"wv 	c #E6D2C0",
"xv 	c #EFD9C9",
"yv 	c #EAD7C8",
"zv 	c #D19C89",
"Av 	c #A55B4B",
"Bv 	c #CAB1A6",
"Cv 	c #AFABB0",
"Dv 	c #BAB4B7",
"Ev 	c #958F99",
"Fv 	c #49476A",
"Gv 	c #49496A",
"Hv 	c #1F2129",
"Iv 	c #CBBEB4",
"Jv 	c #CABFB6",
"Kv 	c #CEC3B8",
"Lv 	c #CDC1B6",
"Mv 	c #A29992",
"Nv 	c #7D7976",
"Ov 	c #827C7C",
"Pv 	c #7A7775",
"Qv 	c #817C79",
"Rv 	c #87817D",
"Sv 	c #88817D",
"Tv 	c #786E66",
"Uv 	c #68615D",
"Vv 	c #726B65",
"Wv 	c #948A85",
"Xv 	c #ADA197",
"Yv 	c #B0A39A",
"Zv 	c #B0A398",
"`v 	c #ADA096",
" w 	c #786F68",
".w 	c #2F2823",
"+w 	c #281A13",
"@w 	c #522824",
"#w 	c #683536",
"$w 	c #69393A",
"%w 	c #623339",
"&w 	c #62343B",
"*w 	c #673942",
"=w 	c #643640",
"-w 	c #63353F",
";w 	c #61343D",
">w 	c #5C3139",
",w 	c #583138",
"'w 	c #4E2D33",
")w 	c #492B31",
"!w 	c #452A30",
"~w 	c #472B32",
"{w 	c #492C33",
"]w 	c #4A3034",
"^w 	c #482C32",
"/w 	c #422A2F",
"(w 	c #432A2F",
"_w 	c #482C33",
":w 	c #563036",
"<w 	c #6A503F",
"[w 	c #726E37",
"}w 	c #686B31",
"|w 	c #616630",
"1w 	c #5D632F",
"2w 	c #575D2D",
"3w 	c #585D30",
"4w 	c #31341D",
"5w 	c #342F29",
"6w 	c #D4C3B6",
"7w 	c #E5D4C9",
"8w 	c #C8BDB8",
"9w 	c #EDDACB",
"0w 	c #EAD9CA",
"aw 	c #E8D3C3",
"bw 	c #EEDAC9",
"cw 	c #EBD8C9",
"dw 	c #D4A28E",
"ew 	c #B05D49",
"fw 	c #C9A496",
"gw 	c #AFABB1",
"hw 	c #C1BABB",
"iw 	c #ABA3A7",
"jw 	c #4A496A",
"kw 	c #49486B",
"lw 	c #2E2E43",
"mw 	c #070A08",
"nw 	c #C9BEB5",
"ow 	c #C5BBB5",
"pw 	c #CBC1B7",
"qw 	c #CBC2B7",
"rw 	c #A29A93",
"sw 	c #827C78",
"tw 	c #807A78",
"uw 	c #7F7A78",
"vw 	c #7B7775",
"ww 	c #827E7B",
"xw 	c #86807C",
"yw 	c #8A837E",
"zw 	c #7F756C",
"Aw 	c #5D5855",
"Bw 	c #5F5A58",
"Cw 	c #78706D",
"Dw 	c #AB9F96",
"Ew 	c #AEA299",
"Fw 	c #B4A79E",
"Gw 	c #B1A398",
"Hw 	c #A89B93",
"Iw 	c #7D746E",
"Jw 	c #615551",
"Kw 	c #36211B",
"Lw 	c #341B15",
"Mw 	c #502A28",
"Nw 	c #692F31",
"Ow 	c #683537",
"Pw 	c #66373B",
"Qw 	c #633339",
"Rw 	c #5F333C",
"Sw 	c #643741",
"Tw 	c #64363F",
"Uw 	c #5C323A",
"Vw 	c #5A3138",
"Ww 	c #582F36",
"Xw 	c #552F36",
"Yw 	c #4D2C31",
"Zw 	c #452A2E",
"`w 	c #442A2F",
" x 	c #442A30",
".x 	c #452B32",
"+x 	c #3F292D",
"@x 	c #42292F",
"#x 	c #644A3B",
"$x 	c #5B5F31",
"%x 	c #474E26",
"&x 	c #464B28",
"*x 	c #444A27",
"=x 	c #474C29",
"-x 	c #494E2B",
";x 	c #373B1E",
">x 	c #0B0F09",
",x 	c #2D2923",
"'x 	c #CABCAF",
")x 	c #E2D4C9",
"!x 	c #BCB3B4",
"~x 	c #ECD8CA",
"{x 	c #EED9CA",
"]x 	c #EAD6C8",
"^x 	c #EAD2BE",
"/x 	c #F0D9C9",
"(x 	c #EFD8C8",
"_x 	c #D6A28C",
":x 	c #B25E44",
"<x 	c #BC9286",
"[x 	c #AAA6AE",
"}x 	c #C3B9B7",
"|x 	c #B5AAA8",
"1x 	c #4E4E6C",
"2x 	c #49486A",
"3x 	c #3A3B57",
"4x 	c #0B0D0E",
"5x 	c #CBC0B7",
"6x 	c #CDC1B8",
"7x 	c #D1C3B7",
"8x 	c #CFC2B7",
"9x 	c #CEC2B8",
"0x 	c #CCC1B7",
"ax 	c #A59C93",
"bx 	c #87817C",
"cx 	c #877F7E",
"dx 	c #857F7E",
"ex 	c #857F7A",
"fx 	c #8D8379",
"gx 	c #7C6F69",
"hx 	c #605C59",
"ix 	c #78706C",
"jx 	c #ACA097",
"kx 	c #AB9E96",
"lx 	c #AA9D95",
"mx 	c #A89B94",
"nx 	c #A99D95",
"ox 	c #8B817A",
"px 	c #504844",
"qx 	c #2F201A",
"rx 	c #321C16",
"sx 	c #361C16",
"tx 	c #361B15",
"ux 	c #3D211C",
"vx 	c #522E2B",
"wx 	c #633136",
"xx 	c #64353C",
"yx 	c #5D323A",
"zx 	c #61353E",
"Ax 	c #593138",
"Bx 	c #593038",
"Cx 	c #583037",
"Dx 	c #542E35",
"Ex 	c #4C2D33",
"Fx 	c #492B33",
"Gx 	c #41292E",
"Hx 	c #41292D",
"Ix 	c #432A30",
"Jx 	c #3D282A",
"Kx 	c #462B32",
"Lx 	c #563E33",
"Mx 	c #474C28",
"Nx 	c #3F4623",
"Ox 	c #3C4423",
"Px 	c #3E4523",
"Qx 	c #404725",
"Rx 	c #414826",
"Sx 	c #3A4022",
"Tx 	c #13150D",
"Ux 	c #23211D",
"Vx 	c #BDB1A7",
"Wx 	c #B5AEB0",
"Xx 	c #EDDCCC",
"Yx 	c #F0DACB",
"Zx 	c #EAD4C4",
"`x 	c #EAD1BC",
" y 	c #EFD8C9",
".y 	c #F1D8C7",
"+y 	c #D9A38B",
"@y 	c #BA6348",
"#y 	c #B4877C",
"$y 	c #ADA8AF",
"%y 	c #BBB3B2",
"&y 	c #BAAEAC",
"*y 	c #575774",
"=y 	c #4B4B6C",
"-y 	c #4B4C6A",
";y 	c #1A1B20",
">y 	c #CFC3B8",
",y 	c #CAC0B7",
"'y 	c #C9BEB6",
")y 	c #C7BAAC",
"!y 	c #8E867F",
"~y 	c #88827D",
"{y 	c #8F8885",
"]y 	c #847E7C",
"^y 	c #867E73",
"/y 	c #6C655D",
"(y 	c #5A5754",
"_y 	c #5A5653",
":y 	c #6E6763",
"<y 	c #ADA198",
"[y 	c #AA9E96",
"}y 	c #AEA198",
"|y 	c #A79B92",
"1y 	c #413A34",
"2y 	c #2E1A12",
"3y 	c #2F1A13",
"4y 	c #361C15",
"5y 	c #482725",
"6y 	c #5B3033",
"7y 	c #5F3439",
"8y 	c #5E333A",
"9y 	c #5C3238",
"0y 	c #5A3139",
"ay 	c #583038",
"by 	c #542F36",
"cy 	c #562F36",
"dy 	c #552E35",
"ey 	c #562E35",
"fy 	c #4F2D34",
"gy 	c #4B2C33",
"hy 	c #482B33",
"iy 	c #3B2728",
"jy 	c #3E282B",
"ky 	c #42292E",
"ly 	c #3F282C",
"my 	c #452B30",
"ny 	c #4D3034",
"oy 	c #503531",
"py 	c #404525",
"qy 	c #3A4121",
"ry 	c #393F20",
"sy 	c #3A4122",
"ty 	c #373E1F",
"uy 	c #3D4425",
"vy 	c #202315",
"wy 	c #0B0E08",
"xy 	c #282723",
"yy 	c #D9D0C8",
"zy 	c #ADA7AC",
"Ay 	c #E9D9CC",
"By 	c #EAD6C7",
"Cy 	c #E8D1BD",
"Dy 	c #EDD5C1",
"Ey 	c #EED6C2",
"Fy 	c #EED5C2",
"Gy 	c #D9A994",
"Hy 	c #B6674E",
"Iy 	c #AE8C83",
"Jy 	c #B3AEB3",
"Ky 	c #BDB5B6",
"Ly 	c #BEB5B2",
"My 	c #5D5D7B",
"Ny 	c #4C4D6F",
"Oy 	c #4F4F6E",
"Py 	c #2B2B3A",
"Qy 	c #C5BCB5",
"Ry 	c #C8BEB6",
"Sy 	c #D6C6B6",
"Ty 	c #B2A295",
"Uy 	c #8A837F",
"Vy 	c #7D7977",
"Wy 	c #837D7A",
"Xy 	c #8B7F76",
"Yy 	c #786E65",
"Zy 	c #5E5956",
"`y 	c #5C5855",
" z 	c #726B67",
".z 	c #AA9E95",
"+z 	c #B4A79D",
"@z 	c #AA9E97",
"#z 	c #AFA298",
"$z 	c #ACA098",
"%z 	c #B2A49A",
"&z 	c #B3A498",
"*z 	c #8B7D72",
"=z 	c #37261F",
"-z 	c #331C16",
";z 	c #321B14",
">z 	c #3E211A",
",z 	c #4E2A28",
"'z 	c #5F3638",
")z 	c #60343A",
"!z 	c #4A2B31",
"~z 	c #4D2C32",
"{z 	c #4B2B2F",
"]z 	c #4E2E33",
"^z 	c #552F35",
"/z 	c #472C32",
"(z 	c #462A31",
"_z 	c #452A2D",
":z 	c #4E2C30",
"<z 	c #412829",
"[z 	c #4C3035",
"}z 	c #4C3231",
"|z 	c #3B3F24",
"1z 	c #353B20",
"2z 	c #353C20",
"3z 	c #363D21",
"4z 	c #343B1F",
"5z 	c #32381D",
"6z 	c #2D331E",
"7z 	c #151711",
"8z 	c #736C67",
"9z 	c #DACEC3",
"0z 	c #D0C6BE",
"az 	c #A8A1A6",
"bz 	c #E1D4CA",
"cz 	c #E6D3C3",
"dz 	c #EED5BF",
"ez 	c #F1D6C0",
"fz 	c #E5CDBB",
"gz 	c #D4AE98",
"hz 	c #D1C1B6",
"iz 	c #B8B2B6",
"jz 	c #BEB7B9",
"kz 	c #C0B9B6",
"lz 	c #5C5C78",
"mz 	c #4C4D72",
"nz 	c #4D4E6E",
"oz 	c #3B3B4D",
"pz 	c #070A05",
"qz 	c #C3BBB7",
"rz 	c #C7BDB6",
"sz 	c #D6C5B7",
"tz 	c #C3B2A4",
"uz 	c #7E797A",
"vz 	c #7D7978",
"wz 	c #837D79",
"xz 	c #827B78",
"yz 	c #766F6D",
"zz 	c #776E6A",
"Az 	c #655E5B",
"Bz 	c #605A57",
"Cz 	c #766E69",
"Dz 	c #A89D93",
"Ez 	c #ADA299",
"Fz 	c #AFA299",
"Gz 	c #AEA199",
"Hz 	c #B2A59A",
"Iz 	c #B3A499",
"Jz 	c #AE9E94",
"Kz 	c #A6988C",
"Lz 	c #362D25",
"Mz 	c #311C16",
"Nz 	c #351C15",
"Oz 	c #3B1C16",
"Pz 	c #41221B",
"Qz 	c #502D2B",
"Rz 	c #5B3337",
"Sz 	c #5B333B",
"Tz 	c #573138",
"Uz 	c #512E34",
"Vz 	c #502D34",
"Wz 	c #4F2D33",
"Xz 	c #4D2F34",
"Yz 	c #512E35",
"Zz 	c #472B33",
"`z 	c #462A2E",
" A 	c #482B2E",
".A 	c #4C2B2D",
"+A 	c #40292B",
"@A 	c #4A2E33",
"#A 	c #4A3131",
"$A 	c #31361F",
"%A 	c #2C341D",
"&A 	c #2C311C",
"*A 	c #2F351E",
"=A 	c #31381E",
"-A 	c #444828",
";A 	c #5A5E36",
">A 	c #6B675A",
",A 	c #C1B6AE",
"'A 	c #E5D4C6",
")A 	c #BFB6B3",
"!A 	c #B5ACAC",
"~A 	c #DACBC1",
"{A 	c #E8D9CD",
"]A 	c #E3D2C3",
"^A 	c #EAD2BC",
"/A 	c #EFD6C2",
"(A 	c #ECD6C5",
"_A 	c #EADACD",
":A 	c #BFB7B7",
"<A 	c #C3BDBC",
"[A 	c #C1BAB7",
"}A 	c #5F5F77",
"|A 	c #53547A",
"1A 	c #464668",
"2A 	c #45465F",
"3A 	c #0D1011",
"4A 	c #ADA5A3",
"5A 	c #BFB8B5",
"6A 	c #C4BCB6",
"7A 	c #C6BDB6",
"8A 	c #C8BEB5",
"9A 	c #D0C3B7",
"0A 	c #CDC2B7",
"aA 	c #B4A8A0",
"bA 	c #847D79",
"cA 	c #827D7C",
"dA 	c #857F7B",
"eA 	c #8F8680",
"fA 	c #645E5B",
"gA 	c #635D5B",
"hA 	c #665F5E",
"iA 	c #665E5B",
"jA 	c #6F6862",
"kA 	c #A3998E",
"lA 	c #ADA298",
"mA 	c #A99C94",
"nA 	c #B2A398",
"oA 	c #AB9F97",
"pA 	c #B3A59A",
"qA 	c #B4A69B",
"rA 	c #8C8278",
"sA 	c #544D47",
"tA 	c #69605B",
"uA 	c #311F18",
"vA 	c #43231D",
"wA 	c #4E2C2A",
"xA 	c #542E32",
"yA 	c #5C333A",
"zA 	c #563437",
"AA 	c #452A32",
"BA 	c #422A2D",
"CA 	c #41292C",
"DA 	c #492D32",
"EA 	c #4D3434",
"FA 	c #363B22",
"GA 	c #30381F",
"HA 	c #3B4024",
"IA 	c #535635",
"JA 	c #827C5B",
"KA 	c #B9A88D",
"LA 	c #D0BFA7",
"MA 	c #CCC0B5",
"NA 	c #E5D7CC",
"OA 	c #B7B0B0",
"PA 	c #B5AAA6",
"QA 	c #CBBBB2",
"RA 	c #E9DACD",
"SA 	c #EDD7C6",
"TA 	c #EFD9CA",
"UA 	c #EBDBCD",
"VA 	c #EADCCE",
"WA 	c #C9BFB8",
"XA 	c #CBC3BD",
"YA 	c #BFB5B0",
"ZA 	c #63627A",
"`A 	c #636487",
" B 	c #46486D",
".B 	c #4C4D6A",
"+B 	c #181A21",
"@B 	c #9D9493",
"#B 	c #BEB3AD",
"$B 	c #D4C4B7",
"%B 	c #D0C2B7",
"&B 	c #C8BCB4",
"*B 	c #D1C0B5",
"=B 	c #C7BDB5",
"-B 	c #B3AAA4",
";B 	c #88817B",
">B 	c #88827E",
",B 	c #837D78",
"'B 	c #65605D",
")B 	c #585451",
"!B 	c #595552",
"~B 	c #736B67",
"{B 	c #A59991",
"]B 	c #ACA096",
"^B 	c #AFA297",
"/B 	c #BBAB9F",
"(B 	c #B3A59C",
"_B 	c #AEA197",
":B 	c #A89B92",
"<B 	c #5E544E",
"[B 	c #72675F",
"}B 	c #A29489",
"|B 	c #9C8D81",
"1B 	c #29221C",
"2B 	c #341C15",
"3B 	c #462521",
"4B 	c #4F2B29",
"5B 	c #5B3339",
"6B 	c #5A3439",
"7B 	c #5A3339",
"8B 	c #452A31",
"9B 	c #472B30",
"0B 	c #42292D",
"aB 	c #3F292B",
"bB 	c #4A2C33",
"cB 	c #513534",
"dB 	c #444628",
"eB 	c #515335",
"fB 	c #767553",
"gB 	c #ABA583",
"hB 	c #D2C4AC",
"iB 	c #E4D3C1",
"jB 	c #EFDAC9",
"kB 	c #E1D2C5",
"lB 	c #DBCEC5",
"mB 	c #EADDCF",
"nB 	c #D0C5BC",
"oB 	c #BBB3B0",
"pB 	c #B0A5A1",
"qB 	c #D4C7BF",
"rB 	c #E1D2C6",
"sB 	c #ECDBCC",
"tB 	c #ECD9CB",
"uB 	c #E8D8CA",
"vB 	c #D6CBC1",
"wB 	c #BEB5B3",
"xB 	c #67667F",
"yB 	c #696C90",
"zB 	c #4D5178",
"AB 	c #4C4E6D",
"BB 	c #252631",
"CB 	c #928B8C",
"DB 	c #C2B6AE",
"EB 	c #C4BBB5",
"FB 	c #C8BBB3",
"GB 	c #CEBDB3",
"HB 	c #B6ADA7",
"IB 	c #8A847D",
"JB 	c #8C8580",
"KB 	c #85807A",
"LB 	c #615D5B",
"MB 	c #575350",
"NB 	c #524E4B",
"OB 	c #47413D",
"PB 	c #5E5854",
"QB 	c #9C928C",
"RB 	c #AD9F96",
"SB 	c #AA9C93",
"TB 	c #AA9D94",
"UB 	c #B2A59C",
"VB 	c #9B8D83",
"WB 	c #6E645E",
"XB 	c #887E78",
"YB 	c #A5978D",
"ZB 	c #B4A497",
"`B 	c #7F7266",
" C 	c #35231C",
".C 	c #3D1C15",
"+C 	c #45221D",
"@C 	c #5C3239",
"#C 	c #60363D",
"$C 	c #563037",
"%C 	c #553036",
"&C 	c #502F33",
"*C 	c #83594F",
"=C 	c #A59878",
"-C 	c #C7BB9D",
";C 	c #DECFB9",
">C 	c #E4D5C5",
",C 	c #F1DFCF",
"'C 	c #EFDECE",
")C 	c #DDCCC0",
"!C 	c #E1D3C6",
"~C 	c #E9D8C9",
"{C 	c #D1C6BE",
"]C 	c #C0B8B3",
"^C 	c #BDB5B4",
"/C 	c #B5B0B5",
"(C 	c #BEB4B3",
"_C 	c #E8D7C9",
":C 	c #E5D5C7",
"<C 	c #EADBCD",
"[C 	c #DACCC2",
"}C 	c #D9CDC4",
"|C 	c #64637E",
"1C 	c #6E6F90",
"2C 	c #5A5F84",
"3C 	c #4C4E74",
"4C 	c #353440",
"5C 	c #857E7F",
"6C 	c #ADA59F",
"7C 	c #CFC0B4",
"8C 	c #D4C2B3",
"9C 	c #C8BFB6",
"0C 	c #B5ADA6",
"aC 	c #8A847F",
"bC 	c #8B8582",
"cC 	c #676361",
"dC 	c #5B5855",
"eC 	c #5A5552",
"fC 	c #4C4946",
"gC 	c #413C38",
"hC 	c #877D75",
"iC 	c #AD9F94",
"jC 	c #6F665D",
"kC 	c #716962",
"lC 	c #8E847C",
"mC 	c #847972",
"nC 	c #7B7067",
"oC 	c #7D7570",
"pC 	c #AB9D93",
"qC 	c #B7A699",
"rC 	c #534A3C",
"sC 	c #4C2F26",
"tC 	c #3C1C15",
"uC 	c #43201A",
"vC 	c #562F2D",
"wC 	c #5B3137",
"xC 	c #61343B",
"yC 	c #5E3238",
"zC 	c #5B2F36",
"AC 	c #5F353B",
"BC 	c #62363C",
"CC 	c #5B3139",
"DC 	c #563138",
"EC 	c #512F35",
"FC 	c #573035",
"GC 	c #552D2B",
"HC 	c #512A27",
"IC 	c #542D2A",
"JC 	c #8A5751",
"KC 	c #C88D7A",
"LC 	c #E0C0A4",
"MC 	c #E5D2C2",
"NC 	c #E6D5C8",
"OC 	c #E3D5C8",
"PC 	c #F0DFD0",
"QC 	c #EDDECF",
"RC 	c #E7D5C5",
"SC 	c #EAD8C8",
"TC 	c #E5D6C9",
"UC 	c #D0C2BA",
"VC 	c #B5ADAD",
"WC 	c #C9C2C0",
"XC 	c #9E9AA5",
"YC 	c #DED0C5",
"ZC 	c #D7C3B4",
"`C 	c #DCCBBD",
" D 	c #E5D9CE",
".D 	c #D5CCC6",
"+D 	c #ACA5AA",
"@D 	c #6E6E89",
"#D 	c #68698B",
"$D 	c #696C8E",
"%D 	c #4C4F76",
"&D 	c #393A50",
"*D 	c #807A7A",
"=D 	c #908985",
"-D 	c #B3AAA3",
";D 	c #CEBEB2",
">D 	c #D0BEB0",
",D 	c #ADA49D",
"'D 	c #88827B",
")D 	c #847E7D",
"!D 	c #6D6866",
"~D 	c #625C5A",
"{D 	c #5E5A57",
"]D 	c #605B5A",
"^D 	c #605B59",
"/D 	c #635D57",
"(D 	c #897D75",
"_D 	c #9B8E85",
":D 	c #AEA096",
"<D 	c #887C73",
"[D 	c #8E8074",
"}D 	c #736960",
"|D 	c #83786E",
"1D 	c #AB9C8E",
"2D 	c #514B42",
"3D 	c #B3A398",
"4D 	c #C3B1A1",
"5D 	c #B09A87",
"6D 	c #462E26",
"7D 	c #371B14",
"8D 	c #572D29",
"9D 	c #613436",
"0D 	c #5F3338",
"aD 	c #5C3236",
"bD 	c #592F36",
"cD 	c #66383D",
"dD 	c #64363D",
"eD 	c #61363D",
"fD 	c #66393D",
"gD 	c #683B3F",
"hD 	c #64383D",
"iD 	c #7B4140",
"jD 	c #905048",
"kD 	c #A7594E",
"lD 	c #B65846",
"mD 	c #8E3929",
"nD 	c #B25E50",
"oD 	c #CB735E",
"pD 	c #E29F83",
"qD 	c #E4C9B6",
"rD 	c #DFD1C5",
"sD 	c #EDDCCE",
"tD 	c #EADCD0",
"uD 	c #E7D7C8",
"vD 	c #E7D5C7",
"wD 	c #D9CEC6",
"xD 	c #B6A9A5",
"yD 	c #989298",
"zD 	c #B5AAA7",
"AD 	c #DCCEC3",
"BD 	c #CCC0B9",
"CD 	c #DBC8B8",
"DD 	c #D9C7B9",
"ED 	c #CCB9AA",
"FD 	c #E1CFC1",
"GD 	c #E6D8CC",
"HD 	c #D8CDC5",
"ID 	c #D4C7C0",
"JD 	c #D4CDC8",
"KD 	c #9C969D",
"LD 	c #6F7191",
"MD 	c #767995",
"ND 	c #4D5077",
"OD 	c #434459",
"PD 	c #988F8C",
"QD 	c #AC9F99",
"RD 	c #C7BCB5",
"SD 	c #CBBDB4",
"TD 	c #A39B93",
"UD 	c #89837D",
"VD 	c #87807D",
"WD 	c #7C7674",
"XD 	c #625E5C",
"YD 	c #5C5856",
"ZD 	c #5B5654",
"`D 	c #726A67",
" E 	c #978B84",
".E 	c #AC9F95",
"+E 	c #AE9F94",
"@E 	c #BDAA9B",
"#E 	c #B2A08C",
"$E 	c #897F6E",
"%E 	c #928272",
"&E 	c #85766A",
"*E 	c #867B71",
"=E 	c #AE9C8C",
"-E 	c #BBA595",
";E 	c #5C4941",
">E 	c #361E15",
",E 	c #422018",
"'E 	c #45221B",
")E 	c #532E25",
"!E 	c #58302E",
"~E 	c #522F32",
"{E 	c #5A3332",
"]E 	c #5A3437",
"^E 	c #603538",
"/E 	c #67393B",
"(E 	c #6B3B3F",
"_E 	c #6F3F41",
":E 	c #734143",
"<E 	c #713F41",
"[E 	c #734243",
"}E 	c #844F4C",
"|E 	c #A36B5E",
"1E 	c #C1735F",
"2E 	c #CB7F6B",
"3E 	c #B96A5A",
"4E 	c #9E4030",
"5E 	c #944B3A",
"6E 	c #BD715D",
"7E 	c #C8614A",
"8E 	c #CB5E43",
"9E 	c #D1755D",
"0E 	c #D7B1A1",
"aE 	c #E3D6CA",
"bE 	c #E3D3C7",
"cE 	c #EDD9C8",
"dE 	c #CCBFB8",
"eE 	c #A29BA1",
"fE 	c #99949F",
"gE 	c #ABA6A9",
"hE 	c #BEAEA2",
"iE 	c #E5CFC0",
"jE 	c #D5C2B6",
"kE 	c #D4BFB0",
"lE 	c #E7D5C8",
"mE 	c #D9C6B9",
"nE 	c #C1B3A8",
"oE 	c #C6BBB5",
"pE 	c #C8BFBA",
"qE 	c #D2C7C0",
"rE 	c #D8CFC9",
"sE 	c #9997A3",
"tE 	c #6F708C",
"uE 	c #636789",
"vE 	c #535680",
"wE 	c #454553",
"xE 	c #837F7D",
"yE 	c #958D8C",
"zE 	c #A49994",
"AE 	c #BEB0A6",
"BE 	c #C8BDB5",
"CE 	c #BAAEA6",
"DE 	c #918983",
"EE 	c #908885",
"FE 	c #928A88",
"GE 	c #6F6966",
"HE 	c #2F2D27",
"IE 	c #3C3835",
"JE 	c #615C5A",
"KE 	c #76706F",
"LE 	c #655F5A",
"ME 	c #5D5753",
"NE 	c #A79C94",
"OE 	c #B2A498",
"PE 	c #83786B",
"QE 	c #7C7066",
"RE 	c #B2A093",
"SE 	c #5D534A",
"TE 	c #A19287",
"UE 	c #433B31",
"VE 	c #302519",
"WE 	c #392D20",
"XE 	c #36281E",
"YE 	c #34251B",
"ZE 	c #32271A",
"`E 	c #3C2E1E",
" F 	c #43331F",
".F 	c #473A21",
"+F 	c #59512F",
"@F 	c #5E5533",
"#F 	c #655535",
"$F 	c #645534",
"%F 	c #71583C",
"&F 	c #745B3F",
"*F 	c #685039",
"=F 	c #634738",
"-F 	c #654739",
";F 	c #6E5040",
">F 	c #785940",
",F 	c #7A563E",
"'F 	c #825645",
")F 	c #885A49",
"!F 	c #A57C6F",
"~F 	c #C5A99A",
"{F 	c #D3A390",
"]F 	c #C76C58",
"^F 	c #C46C58",
"/F 	c #B35845",
"(F 	c #BB6550",
"_F 	c #CE7F66",
":F 	c #C77560",
"<F 	c #BC614E",
"[F 	c #C77461",
"}F 	c #C97E6B",
"|F 	c #BE8E81",
"1F 	c #C1ACA0",
"2F 	c #E8D9CC",
"3F 	c #EDDDCE",
"4F 	c #BBB0AC",
"5F 	c #9C979F",
"6F 	c #A3A2A9",
"7F 	c #B3ADB0",
"8F 	c #B9B3B3",
"9F 	c #D3C5BA",
"0F 	c #E7D6C9",
"aF 	c #D4C6BC",
"bF 	c #A49997",
"cF 	c #D8C7BA",
"dF 	c #E1CEBE",
"eF 	c #C0B9B5",
"fF 	c #CCC3BC",
"gF 	c #E3D8CE",
"hF 	c #9392A5",
"iF 	c #767899",
"jF 	c #8588A0",
"kF 	c #50537C",
"lF 	c #535681",
"mF 	c #34343F",
"nF 	c #74726F",
"oF 	c #8E8886",
"pF 	c #ACA29C",
"qF 	c #C6B9AE",
"rF 	c #C6BBB2",
"sF 	c #B8AEA6",
"tF 	c #8D8682",
"uF 	c #6D6764",
"vF 	c #625D5B",
"wF 	c #5E5B59",
"xF 	c #43403B",
"yF 	c #433F3B",
"zF 	c #57524F",
"AF 	c #3A3833",
"BF 	c #787270",
"CF 	c #A79B95",
"DF 	c #9E9188",
"EF 	c #837770",
"FF 	c #877A71",
"GF 	c #847469",
"HF 	c #726960",
"IF 	c #504C46",
"JF 	c #2C2E20",
"KF 	c #2C321C",
"LF 	c #2D2F1B",
"MF 	c #2E301B",
"NF 	c #353A1D",
"OF 	c #4E552B",
"PF 	c #5D6332",
"QF 	c #676C38",
"RF 	c #72753C",
"SF 	c #74773C",
"TF 	c #7E7E43",
"UF 	c #7B7C3F",
"VF 	c #7C7B43",
"WF 	c #777742",
"XF 	c #6F703D",
"YF 	c #6D6F3C",
"ZF 	c #686C39",
"`F 	c #656939",
" G 	c #71723D",
".G 	c #716F3B",
"+G 	c #6D6838",
"@G 	c #787147",
"#G 	c #CBBBA8",
"$G 	c #E2D3C8",
"%G 	c #DCAB96",
"&G 	c #BD5D4A",
"*G 	c #C8634B",
"=G 	c #C16550",
"-G 	c #B05A49",
";G 	c #B25241",
">G 	c #AA5C4F",
",G 	c #B0695B",
"'G 	c #C27F6E",
")G 	c #C99989",
"!G 	c #D9C0B1",
"~G 	c #E3D4C6",
"{G 	c #D5C6BD",
"]G 	c #B7AFB2",
"^G 	c #A4A4AD",
"/G 	c #A2A2AD",
"(G 	c #B6B0B2",
"_G 	c #CCC0B8",
":G 	c #D0C3BA",
"<G 	c #DACDC3",
"[G 	c #D8C9BE",
"}G 	c #D3C6BB",
"|G 	c #ACA4A3",
"1G 	c #D7C7BC",
"2G 	c #EBD5C7",
"3G 	c #E3D0C1",
"4G 	c #E0D6CB",
"5G 	c #E1D5CC",
"6G 	c #B7B4BA",
"7G 	c #787A9C",
"8G 	c #8285A1",
"9G 	c #6C7090",
"0G 	c #555885",
"aG 	c #48496B",
"bG 	c #121517",
"cG 	c #505534",
"dG 	c #65664D",
"eG 	c #7D7C66",
"fG 	c #878568",
"gG 	c #8A8967",
"hG 	c #7A785B",
"iG 	c #6D695C",
"jG 	c #767265",
"kG 	c #797567",
"lG 	c #716C63",
"mG 	c #807970",
"nG 	c #58564E",
"oG 	c #4F4C45",
"pG 	c #504D47",
"qG 	c #54514D",
"rG 	c #585551",
"sG 	c #575450",
"tG 	c #514F4A",
"uG 	c #54504D",
"vG 	c #5C5753",
"wG 	c #4E4C49",
"xG 	c #504E46",
"yG 	c #A09784",
"zG 	c #9F9483",
"AG 	c #867C6D",
"BG 	c #65624F",
"CG 	c #A2997F",
"DG 	c #716C52",
"EG 	c #3F4224",
"FG 	c #464C27",
"GG 	c #4F572C",
"HG 	c #585F30",
"IG 	c #5F6633",
"JG 	c #696E3C",
"KG 	c #6E7241",
"LG 	c #6C713D",
"MG 	c #6B703D",
"NG 	c #6E733F",
"OG 	c #767C41",
"PG 	c #787D42",
"QG 	c #74793E",
"RG 	c #6E753D",
"SG 	c #676E39",
"TG 	c #666C3C",
"UG 	c #606833",
"VG 	c #5E6534",
"WG 	c #555B30",
"XG 	c #464D26",
"YG 	c #444B25",
"ZG 	c #4D542B",
"`G 	c #4A5126",
" H 	c #6E7044",
".H 	c #D2C8B2",
"+H 	c #EBD4C1",
"@H 	c #CF856F",
"#H 	c #AA4735",
"$H 	c #A54E3C",
"%H 	c #AF5B4C",
"&H 	c #BF5F4B",
"*H 	c #B85948",
"=H 	c #A6503F",
"-H 	c #D7AA98",
";H 	c #EED9C9",
">H 	c #E3D3C6",
",H 	c #CDC0B9",
"'H 	c #ABA6AC",
")H 	c #A19FA9",
"!H 	c #ACAAB2",
"~H 	c #C1BCBD",
"{H 	c #D2C8BF",
"]H 	c #D6CCC3",
"^H 	c #E4D3C6",
"/H 	c #E0CFC2",
"(H 	c #E8D6C8",
"_H 	c #E6D0C0",
":H 	c #DDCABA",
"<H 	c #D5C9BF",
"[H 	c #C2BBB8",
"}H 	c #8B8A9F",
"|H 	c #8386A3",
"1H 	c #8D91A6",
"2H 	c #575A87",
"3H 	c #545681",
"4H 	c #292A38",
"5H 	c #646941",
"6H 	c #64693F",
"7H 	c #64683E",
"8H 	c #5D6335",
"9H 	c #4B5328",
"0H 	c #3E4622",
"aH 	c #3A4325",
"bH 	c #343C21",
"cH 	c #313920",
"dH 	c #343B22",
"eH 	c #373D26",
"fH 	c #353C23",
"gH 	c #313821",
"hH 	c #2D341F",
"iH 	c #2E3520",
"jH 	c #303723",
"kH 	c #363C29",
"lH 	c #3A402D",
"mH 	c #3A3F2C",
"nH 	c #3E4230",
"oH 	c #3F4232",
"pH 	c #4C5036",
"qH 	c #696E3F",
"rH 	c #6F733F",
"sH 	c #6E713D",
"tH 	c #676E3A",
"uH 	c #6A713C",
"vH 	c #666E38",
"wH 	c #696F3A",
"xH 	c #626A35",
"yH 	c #6D7240",
"zH 	c #6B703F",
"AH 	c #606535",
"BH 	c #555B2E",
"CH 	c #555C2B",
"DH 	c #666C36",
"EH 	c #6F733D",
"FH 	c #676D3B",
"GH 	c #616736",
"HH 	c #636938",
"IH 	c #6A713D",
"JH 	c #616738",
"KH 	c #58602E",
"LH 	c #525926",
"MH 	c #4D5429",
"NH 	c #494F27",
"OH 	c #4E5529",
"PH 	c #5A6231",
"QH 	c #646B36",
"RH 	c #696F3B",
"SH 	c #6E723E",
"TH 	c #C3B89E",
"UH 	c #F1D4BD",
"VH 	c #D78C74",
"WH 	c #B86354",
"XH 	c #A75546",
"YH 	c #AE6A5D",
"ZH 	c #C48573",
"`H 	c #C78B75",
" I 	c #E3BFAC",
".I 	c #E8D5C6",
"+I 	c #D8C8B9",
"@I 	c #C3B7B1",
"#I 	c #A79D9F",
"$I 	c #B3AAAE",
"%I 	c #CCC4BF",
"&I 	c #D9D1CA",
"*I 	c #DAD2C9",
"=I 	c #DCD3C9",
"-I 	c #E4D1C2",
";I 	c #DBC4B1",
">I 	c #DCC5B4",
",I 	c #E4D2C5",
"'I 	c #E9D5C7",
")I 	c #E7D1C0",
"!I 	c #DBC7B7",
"~I 	c #DAC6B6",
"{I 	c #DAC7B6",
"]I 	c #DDCEC2",
"^I 	c #E0D5CC",
"/I 	c #C4BDB8",
"(I 	c #918F9F",
"_I 	c #8D8FA8",
":I 	c #A0A3B1",
"<I 	c #6B6F91",
"[I 	c #5A5C87",
"}I 	c #4D4D61",
"|I 	c #111313",
"1I 	c #565C34",
"2I 	c #454C2B",
"3I 	c #384020",
"4I 	c #323A1E",
"5I 	c #2F371E",
"6I 	c #323920",
"7I 	c #31381F",
"8I 	c #2E361E",
"9I 	c #2C351C",
"0I 	c #333B20",
"aI 	c #333B22",
"bI 	c #2F361F",
"cI 	c #2E351E",
"dI 	c #2D351E",
"eI 	c #2B341C",
"fI 	c #2E361C",
"gI 	c #384022",
"hI 	c #373F21",
"iI 	c #373E23",
"jI 	c #394027",
"kI 	c #41472B",
"lI 	c #4D5430",
"mI 	c #515931",
"nI 	c #555D33",
"oI 	c #596135",
"pI 	c #596134",
"qI 	c #586035",
"rI 	c #555D31",
"sI 	c #545B31",
"tI 	c #4E562F",
"uI 	c #464D2A",
"vI 	c #454B29",
"wI 	c #4D532D",
"xI 	c #4D542D",
"yI 	c #444B26",
"zI 	c #484E2A",
"AI 	c #4D522F",
"BI 	c #4C522E",
"CI 	c #4B512C",
"DI 	c #4D522B",
"EI 	c #545A2C",
"FI 	c #565D2B",
"GI 	c #535B27",
"HI 	c #5F6530",
"II 	c #626933",
"JI 	c #636A33",
"KI 	c #676E37",
"LI 	c #697037",
"MI 	c #6B7138",
"NI 	c #6A7138",
"OI 	c #6E743A",
"PI 	c #AFA98B",
"QI 	c #EDD7C4",
"RI 	c #E9C5B2",
"SI 	c #E6C6B4",
"TI 	c #E4C7B4",
"UI 	c #E2C4AC",
"VI 	c #EBCEB5",
"WI 	c #EAD5C3",
"XI 	c #DED1C7",
"YI 	c #C2B7B4",
"ZI 	c #AFA7A7",
"`I 	c #AFA49F",
" J 	c #CFC2B9",
".J 	c #E2D7CC",
"+J 	c #E7DBD1",
"@J 	c #DBD3C9",
"#J 	c #D9C5B7",
"$J 	c #D9C3B3",
"%J 	c #E3D2C5",
"&J 	c #DCC7B7",
"*J 	c #E2D2C4",
"=J 	c #E0D1C5",
"-J 	c #E3D0C0",
";J 	c #E4D3C5",
">J 	c #B7B1B0",
",J 	c #8F8D9D",
"'J 	c #9698A9",
")J 	c #AAADB9",
"!J 	c #8D8FA7",
"~J 	c #595B87",
"{J 	c #696B8D",
"]J 	c #616067",
"^J 	c #303722",
"/J 	c #303820",
"(J 	c #2D361F",
"_J 	c #2E361F",
":J 	c #2C351D",
"<J 	c #2C341C",
"[J 	c #323A20",
"}J 	c #363D22",
"|J 	c #323A21",
"1J 	c #323922",
"2J 	c #313822",
"3J 	c #333C22",
"4J 	c #363E24",
"5J 	c #394124",
"6J 	c #3B4324",
"7J 	c #394123",
"8J 	c #3C4425",
"9J 	c #3F4628",
"0J 	c #363E23",
"aJ 	c #3C4325",
"bJ 	c #3F4626",
"cJ 	c #414829",
"dJ 	c #3F4629",
"eJ 	c #3E452A",
"fJ 	c #41482C",
"gJ 	c #424926",
"hJ 	c #4B5228",
"iJ 	c #565D2C",
"jJ 	c #5F6730",
"kJ 	c #646C33",
"lJ 	c #666C34",
"mJ 	c #5F672F",
"nJ 	c #5E6730",
"oJ 	c #696F37",
"pJ 	c #6D733A",
"qJ 	c #72773C",
"rJ 	c #6C7239",
"sJ 	c #6F753D",
"tJ 	c #929070",
"uJ 	c #E7D8C8",
"vJ 	c #F1E0CE",
"wJ 	c #F0DBCB",
"xJ 	c #E9D3BF",
"yJ 	c #DDD0C6",
"zJ 	c #B4ACAA",
"AJ 	c #B5ACA9",
"BJ 	c #EADACA",
"CJ 	c #E3D6CB",
"DJ 	c #D9CFC7",
"EJ 	c #DBD0C7",
"FJ 	c #E0D0C4",
"GJ 	c #E5D0BF",
"HJ 	c #E8D1BF",
"IJ 	c #D6C9C0",
"JJ 	c #CBBFB7",
"KJ 	c #DFCDBE",
"LJ 	c #D7C6BB",
"MJ 	c #DAC7B8",
"NJ 	c #DACAC0",
"OJ 	c #CEC3BD",
"PJ 	c #BAB3B3",
"QJ 	c #9B98A2",
"RJ 	c #8C8D9F",
"SJ 	c #A4A5B1",
"TJ 	c #C0BEC3",
"UJ 	c #ADADB9",
"VJ 	c #64668D",
"WJ 	c #67698C",
"XJ 	c #86889B",
"YJ 	c #64646B",
"ZJ 	c #2D351F",
"`J 	c #2E3420",
" K 	c #2F3620",
".K 	c #303620",
"+K 	c #2B341D",
"@K 	c #2C331D",
"#K 	c #2D351D",
"$K 	c #2D361D",
"%K 	c #30371E",
"&K 	c #30371F",
"*K 	c #333A1F",
"=K 	c #33391F",
"-K 	c #343B20",
";K 	c #373E22",
">K 	c #32391C",
",K 	c #383F21",
"'K 	c #3E4525",
")K 	c #424A24",
"!K 	c #454B24",
"~K 	c #505629",
"{K 	c #494F28",
"]K 	c #414925",
"^K 	c #464C29",
"/K 	c #464C2C",
"(K 	c #444A2C",
"_K 	c #474E2B",
":K 	c #474D29",
"<K 	c #555E2B",
"[K 	c #5C642E",
"}K 	c #5D6630",
"|K 	c #666D36",
"1K 	c #676D36",
"2K 	c #646A31",
"3K 	c #666D35",
"4K 	c #6C7139",
"5K 	c #73793D",
"6K 	c #737739",
"7K 	c #72763B",
"8K 	c #6B7339",
"9K 	c #6A7039",
"0K 	c #6D733D",
"aK 	c #737649",
"bK 	c #D7C9B9",
"cK 	c #F1E0D0",
"dK 	c #F1DFCE",
"eK 	c #EFDCCA",
"fK 	c #EEDDCA",
"gK 	c #F0DFCE",
"hK 	c #DBCDC3",
"iK 	c #B8AFAC",
"jK 	c #D8CDC4",
"kK 	c #E9D7C7",
"lK 	c #E3CFBD",
"mK 	c #E0D0C3",
"nK 	c #E5D7CB",
"oK 	c #DDD2C8",
"pK 	c #E4D6CA",
"qK 	c #D3C5BB",
"rK 	c #B9B2B2",
"sK 	c #CEC4BC",
"tK 	c #B2A9AC",
"uK 	c #9996A5",
"vK 	c #9292A2",
"wK 	c #8D8EA1",
"xK 	c #7F8096",
"yK 	c #999BAA",
"zK 	c #C0BCBF",
"AK 	c #DAD1CB",
"BK 	c #C9C5C6",
"CK 	c #787994",
"DK 	c #74748F",
"EK 	c #A2A2B1",
"FK 	c #858796",
"GK 	c #232427",
"HK 	c #2C341E",
"IK 	c #2C321D",
"JK 	c #2B321C",
"KK 	c #313720",
"LK 	c #32391E",
"MK 	c #3B4121",
"NK 	c #3E4524",
"OK 	c #3D4421",
"PK 	c #424723",
"QK 	c #4C5026",
"RK 	c #52572A",
"SK 	c #565B2C",
"TK 	c #4F5424",
"UK 	c #585C2A",
"VK 	c #60652E",
"WK 	c #66682E",
"XK 	c #6E6E30",
"YK 	c #6E6F31",
"ZK 	c #747434",
"`K 	c #747333",
" L 	c #6F7133",
".L 	c #696E35",
"+L 	c #656D35",
"@L 	c #626835",
"#L 	c #5C6431",
"$L 	c #596230",
"%L 	c #59612F",
"&L 	c #58612C",
"*L 	c #5A632C",
"=L 	c #616A33",
"-L 	c #5E6732",
";L 	c #626A34",
">L 	c #636B35",
",L 	c #626A32",
"'L 	c #606931",
")L 	c #636B34",
"!L 	c #686F37",
"~L 	c #6A703A",
"{L 	c #646C3A",
"]L 	c #BAB198",
"^L 	c #EFDFCF",
"/L 	c #F3E2D2",
"(L 	c #F2E1D0",
"_L 	c #EDDFD1",
":L 	c #C7BDB8",
"<L 	c #D5CBC2",
"[L 	c #E2D5C9",
"}L 	c #E3D5C9",
"|L 	c #E1D2C7",
"1L 	c #DECBBC",
"2L 	c #E2CCB9",
"3L 	c #DECCBF",
"4L 	c #D2C4BC",
"5L 	c #CFC4BF",
"6L 	c #CCC2BE",
"7L 	c #C4BBB8",
"8L 	c #C0BBBC",
"9L 	c #A9A7AD",
"0L 	c #C1BEC0",
"aL 	c #D4CEC9",
"bL 	c #D7CFC8",
"cL 	c #D5CCC5",
"dL 	c #CDC6C3",
"eL 	c #CCC6C3",
"fL 	c #BFBBBE",
"gL 	c #9B9AA6",
"hL 	c #C2BDC0",
"iL 	c #E3D5CB",
"jL 	c #CFC7C3",
"kL 	c #94929E",
"lL 	c #A8A6B1",
"mL 	c #CAC6C7",
"nL 	c #B4B2B6",
"oL 	c #45454B",
"pL 	c #2E341F",
"qL 	c #2B301D",
"rL 	c #2E351D",
"sL 	c #343A1E",
"tL 	c #3D4322",
"uL 	c #444926",
"vL 	c #474A27",
"wL 	c #4A4E28",
"xL 	c #535829",
"yL 	c #545726",
"zL 	c #5B5C28",
"AL 	c #62632B",
"BL 	c #6A692E",
"CL 	c #6F6E30",
"DL 	c #6D6C2F",
"EL 	c #6D6D30",
"FL 	c #707135",
"GL 	c #6F7033",
"HL 	c #727031",
"IL 	c #777131",
"JL 	c #7C7734",
"KL 	c #7B7936",
"LL 	c #707134",
"ML 	c #6B7036",
"NL 	c #6A7037",
"OL 	c #676D37",
"PL 	c #646A35",
"QL 	c #616933",
"RL 	c #5E6630",
"SL 	c #5F6732",
"TL 	c #5F6833",
"UL 	c #59622C",
"VL 	c #5B642D",
"WL 	c #5B642F",
"XL 	c #5D6632",
"YL 	c #616934",
"ZL 	c #676E36",
"`L 	c #666D34",
" M 	c #646D36",
".M 	c #5E6834",
"+M 	c #5D6733",
"@M 	c #656B37",
"#M 	c #636B36",
"$M 	c #979570",
"%M 	c #E9D9C9",
"&M 	c #EDDCCA",
"*M 	c #D6C9BE",
"=M 	c #C8BEB8",
"-M 	c #D4CAC2",
";M 	c #E6D9CC",
">M 	c #DBCFC6",
",M 	c #D6C7BD",
"'M 	c #D6C7BB",
")M 	c #C7BEBD",
"!M 	c #A6A3AD",
"~M 	c #8C8C9E",
"{M 	c #898BA2",
"]M 	c #B4B3BB",
"^M 	c #CBC7C7",
"/M 	c #B4B2B8",
"(M 	c #AFADB5",
"_M 	c #BCB7BA",
":M 	c #CAC3BF",
"<M 	c #CFC4BD",
"[M 	c #CCC3BB",
"}M 	c #BEB9BA",
"|M 	c #B4B1B3",
"1M 	c #CDC5BE",
"2M 	c #D3C7BD",
"3M 	c #918D98",
"4M 	c #BAB6B9",
"5M 	c #CFCBCA",
"6M 	c #AAA7A8",
"7M 	c #4D4C54",
"8M 	c #0B0E0C",
"9M 	c #353B25",
"0M 	c #363C21",
"aM 	c #353B1F",
"bM 	c #373D21",
"cM 	c #393F23",
"dM 	c #3D4220",
"eM 	c #434922",
"fM 	c #4C5229",
"gM 	c #545928",
"hM 	c #5E612B",
"iM 	c #66652C",
"jM 	c #68672C",
"kM 	c #706E2F",
"lM 	c #766F31",
"mM 	c #7F7333",
"nM 	c #837534",
"oM 	c #817634",
"pM 	c #7C7132",
"qM 	c #757131",
"rM 	c #797331",
"sM 	c #727133",
"tM 	c #747336",
"uM 	c #6D7137",
"vM 	c #6D7237",
"wM 	c #6C7136",
"xM 	c #707236",
"yM 	c #6F7236",
"zM 	c #6E7236",
"AM 	c #6E7136",
"BM 	c #686D35",
"CM 	c #636A35",
"DM 	c #5E6632",
"EM 	c #5C652F",
"FM 	c #606934",
"GM 	c #636B33",
"HM 	c #626931",
"IM 	c #5B632D",
"JM 	c #5A632D",
"KM 	c #5A642D",
"LM 	c #606932",
"MM 	c #5C652D",
"NM 	c #5D662F",
"OM 	c #666E37",
"PM 	c #636C37",
"QM 	c #5A632E",
"RM 	c #5B642E",
"SM 	c #5C6532",
"TM 	c #5E6733",
"UM 	c #777B49",
"VM 	c #CEC4AC",
"WM 	c #DBCEB7",
"XM 	c #A59E80",
"YM 	c #88855E",
"ZM 	c #D6C7B5",
"`M 	c #DBCDC1",
" N 	c #D3C3B6",
".N 	c #E0CEC0",
"+N 	c #DACEC6",
"@N 	c #D3CAC6",
"#N 	c #C0B8B7",
"$N 	c #AAA9B3",
"%N 	c #CFCCCB",
"&N 	c #C4C0BF",
"*N 	c #CEC8C5",
"=N 	c #DBD2C9",
"-N 	c #DDD3CB",
";N 	c #DCD1C7",
">N 	c #DDD3CA",
",N 	c #DCD2C9",
"'N 	c #D4CCC6",
")N 	c #B5B2B7",
"!N 	c #C8C1BE",
"~N 	c #999498",
"{N 	c #B5B3B9",
"]N 	c #B8B6BB",
"^N 	c #807F8A",
"/N 	c #3C3B41",
"(N 	c #3E4427",
"_N 	c #404724",
":N 	c #404524",
"<N 	c #4B512B",
"[N 	c #565D2F",
"}N 	c #5A6031",
"|N 	c #5E6432",
"1N 	c #666C37",
"2N 	c #6C7036",
"3N 	c #737236",
"4N 	c #757336",
"5N 	c #757335",
"6N 	c #777337",
"7N 	c #7C7233",
"8N 	c #7A7031",
"9N 	c #817535",
"0N 	c #7B7031",
"aN 	c #7A7135",
"bN 	c #746F36",
"cN 	c #6F6C30",
"dN 	c #6C6D30",
"eN 	c #6A6C32",
"fN 	c #6B7037",
"gN 	c #6C7038",
"hN 	c #6F7034",
"iN 	c #767538",
"jN 	c #79783E",
"kN 	c #6B7035",
"lN 	c #696D33",
"mN 	c #6C7034",
"nN 	c #626935",
"oN 	c #606933",
"pN 	c #61672F",
"qN 	c #60672F",
"rN 	c #5D652D",
"sN 	c #656C35",
"tN 	c #656C36",
"uN 	c #5B652F",
"vN 	c #5A642C",
"wN 	c #616B36",
"xN 	c #606834",
"yN 	c #616935",
"zN 	c #696F39",
"AN 	c #75784C",
"BN 	c #7E804B",
"CN 	c #818447",
"DN 	c #7D8146",
"EN 	c #B2AE84",
"FN 	c #DFD3BF",
"GN 	c #E2D8CA",
"HN 	c #E0D5CA",
"IN 	c #D9CEC4",
"JN 	c #D6C8BB",
"KN 	c #D5C6B8",
"LN 	c #CFC4B9",
"MN 	c #C4BAB2",
"NN 	c #B4ADA9",
"ON 	c #A2A09F",
"PN 	c #C6C1BF",
"QN 	c #CDC8C5",
"RN 	c #D0CBC8",
"SN 	c #D2CCC7",
"TN 	c #D2CAC4",
"UN 	c #D2C9C0",
"VN 	c #CBC2BB",
"WN 	c #BEB7B5",
"XN 	c #A7A5AD",
"YN 	c #BDB8BA",
"ZN 	c #CBC3BF",
"`N 	c #AEA49E",
" O 	c #807A7D",
".O 	c #8D8A92",
"+O 	c #81808C",
"@O 	c #53535F",
"#O 	c #25262A",
"$O 	c #5A5F3A",
"%O 	c #5E623B",
"&O 	c #63673D",
"*O 	c #666944",
"=O 	c #6A6C44",
"-O 	c #696B44",
";O 	c #686B40",
">O 	c #6A6E3E",
",O 	c #6F733E",
"'O 	c #747539",
")O 	c #767438",
"!O 	c #747239",
"~O 	c #6E6F34",
"{O 	c #6E6D33",
"]O 	c #6E6C30",
"^O 	c #6B6730",
"/O 	c #66642D",
"(O 	c #5D5D28",
"_O 	c #555727",
":O 	c #515529",
"<O 	c #4C4E26",
"[O 	c #4E4C24",
"}O 	c #505024",
"|O 	c #56592A",
"1O 	c #646935",
"2O 	c #747238",
"3O 	c #7E793E",
"4O 	c #888342",
"5O 	c #828144",
"6O 	c #797B41",
"7O 	c #6E7239",
"8O 	c #70743B",
"9O 	c #686E36",
"0O 	c #696F38",
"aO 	c #6B7038",
"bO 	c #696E36",
"cO 	c #656B35",
"dO 	c #656B33",
"eO 	c #656B34",
"fO 	c #676B34",
"gO 	c #64692F",
"hO 	c #646B35",
"iO 	c #686D37",
"jO 	c #697038",
"kO 	c #626A33",
"lO 	c #616A34",
"mO 	c #666D3A",
"nO 	c #666D38",
"oO 	c #6B723A",
"pO 	c #727740",
"qO 	c #7C7F4A",
"rO 	c #868756",
"sO 	c #85865A",
"tO 	c #8A8A6B",
"uO 	c #98967E",
"vO 	c #9A9780",
"wO 	c #948E75",
"xO 	c #838061",
"yO 	c #767854",
"zO 	c #6E704F",
"AO 	c #5F643C",
"BO 	c #5D643A",
"CO 	c #7C7D5D",
"DO 	c #8E8B6F",
"EO 	c #908C76",
"FO 	c #96917B",
"GO 	c #8E8974",
"HO 	c #8E8877",
"IO 	c #8A8574",
"JO 	c #7E7A76",
"KO 	c #747377",
"LO 	c #737273",
"MO 	c #605E5F",
"NO 	c #535151",
"OO 	c #423F3E",
"PO 	c #313031",
"QO 	c #1A1B1B",
"RO 	c #0E100F",
"SO 	c #6C6E49",
"TO 	c #676B3E",
"UO 	c #636A38",
"VO 	c #646A3F",
"WO 	c #656A3D",
"XO 	c #686C43",
"YO 	c #686C3E",
"ZO 	c #6A703B",
"`O 	c #676B33",
" P 	c #5F632F",
".P 	c #585C2D",
"+P 	c #51552A",
"@P 	c #4F542A",
"#P 	c #484D27",
"$P 	c #454A27",
"%P 	c #414726",
"&P 	c #434625",
"*P 	c #454327",
"=P 	c #454725",
"-P 	c #4E4F25",
";P 	c #5A5A29",
">P 	c #66672E",
",P 	c #6C6E33",
"'P 	c #75753B",
")P 	c #79793E",
"!P 	c #7C7B40",
"~P 	c #797B40",
"{P 	c #73773E",
"]P 	c #6E733B",
"^P 	c #6F753C",
"/P 	c #6E743B",
"(P 	c #6D723A",
"_P 	c #6F743A",
":P 	c #676C36",
"<P 	c #676C33",
"[P 	c #6B6E35",
"}P 	c #6E7035",
"|P 	c #6A6F35",
"1P 	c #686E37",
"2P 	c #636A34",
"3P 	c #626934",
"4P 	c #5E6835",
"5P 	c #606935",
"6P 	c #6A6F3D",
"7P 	c #5D6734",
"8P 	c #626A36",
"9P 	c #636A37",
"0P 	c #616834",
"aP 	c #606835",
"bP 	c #5F6835",
"cP 	c #626937",
"dP 	c #5F6735",
"eP 	c #5D6633",
"fP 	c #5A622E",
"gP 	c #5E642F",
"hP 	c #373A1B",
"iP 	c #191B16",
"jP 	c #6A6C45",
"kP 	c #6A6C42",
"lP 	c #696C43",
"mP 	c #696B45",
"nP 	c #686B44",
"oP 	c #676A45",
"pP 	c #60663D",
"qP 	c #5A5F38",
"rP 	c #4A502C",
"sP 	c #434927",
"tP 	c #414625",
"uP 	c #404526",
"vP 	c #3F4325",
"wP 	c #3E4225",
"xP 	c #414524",
"yP 	c #3F411F",
"zP 	c #454720",
"AP 	c #515227",
"BP 	c #626034",
"CP 	c #676831",
"DP 	c #6E6E38",
"EP 	c #72733C",
"FP 	c #777A40",
"GP 	c #7A773E",
"HP 	c #7D753F",
"IP 	c #7D7A42",
"JP 	c #797843",
"KP 	c #777843",
"LP 	c #757941",
"MP 	c #73773F",
"NP 	c #76773F",
"OP 	c #7C7C43",
"PP 	c #7B7A43",
"QP 	c #797A40",
"RP 	c #73763E",
"SP 	c #70743C",
"TP 	c #6E723A",
"UP 	c #696D35",
"VP 	c #6E7237",
"WP 	c #676D33",
"XP 	c #686C33",
"YP 	c #676C34",
"ZP 	c #6D7139",
"`P 	c #6D7036",
" Q 	c #6C7137",
".Q 	c #6B7139",
"+Q 	c #686E38",
"@Q 	c #6C723A",
"#Q 	c #70753D",
"$Q 	c #72783F",
"%Q 	c #69703A",
"&Q 	c #686F39",
"*Q 	c #676E38",
"=Q 	c #5F6734",
"-Q 	c #5D6531",
";Q 	c #5C6430",
">Q 	c #5D6631",
",Q 	c #606832",
"'Q 	c #636A32",
")Q 	c #494E29",
"!Q 	c #161812",
"~Q 	c #777946",
"{Q 	c #7E7D4C",
"]Q 	c #7E7C4C",
"^Q 	c #6B6E44",
"/Q 	c #596035",
"(Q 	c #4F552D",
"_Q 	c #4A4F2A",
":Q 	c #4B502B",
"<Q 	c #424924",
"[Q 	c #3C4222",
"}Q 	c #484C27",
"|Q 	c #545229",
"1Q 	c #696534",
"2Q 	c #746B39",
"3Q 	c #7B703E",
"4Q 	c #827B45",
"5Q 	c #8C864C",
"6Q 	c #948A4F",
"7Q 	c #90894D",
"8Q 	c #8C874B",
"9Q 	c #88834B",
"0Q 	c #8A814A",
"aQ 	c #8B8149",
"bQ 	c #92884B",
"cQ 	c #8C8349",
"dQ 	c #887F48",
"eQ 	c #817C44",
"fQ 	c #7F7E45",
"gQ 	c #838147",
"hQ 	c #848146",
"iQ 	c #7F7A44",
"jQ 	c #7E7B41",
"kQ 	c #7B7A40",
"lQ 	c #7A7A3F",
"mQ 	c #7C7D42",
"nQ 	c #777A3E",
"oQ 	c #75773D",
"pQ 	c #73773B",
"qQ 	c #696F35",
"rQ 	c #6E7338",
"sQ 	c #75793F",
"tQ 	c #77793F",
"uQ 	c #7B7B40",
"vQ 	c #797C40",
"wQ 	c #73783C",
"xQ 	c #70753B",
"yQ 	c #72763C",
"zQ 	c #75783D",
"AQ 	c #797B3F",
"BQ 	c #7F8143",
"CQ 	c #848443",
"DQ 	c #7D7D3B",
"EQ 	c #75773A",
"FQ 	c #73763B",
"GQ 	c #75783B",
"HQ 	c #797B3E",
"IQ 	c #6F7338",
"JQ 	c #6A6D34",
"KQ 	c #6A6D32",
"LQ 	c #737538",
"MQ 	c #727438",
"NQ 	c #73753A",
"OQ 	c #75773B",
"PQ 	c #747538",
"QQ 	c #6C6F33",
"RQ 	c #686E33",
"SQ 	c #686D34",
"TQ 	c #6C6F36",
"UQ 	c #707439",
"VQ 	c #6D7035",
"WQ 	c #666733",
"XQ 	c #1B1C12",
"YQ 	c #A5A364",
"ZQ 	c #B5AB64",
"`Q 	c #ACA35D",
" R 	c #5C652E",
".R 	c #565F2A",
"+R 	c #555D2A",
"@R 	c #565D2A",
"#R 	c #5A602E",
"$R 	c #988F51",
"%R 	c #BEAC65",
"&R 	c #C1AE66",
"*R 	c #C1AC64",
"=R 	c #B8A75E",
"-R 	c #BBA962",
";R 	c #C0AE66",
">R 	c #C0AE65",
",R 	c #C1AD65",
"'R 	c #BEAD63",
")R 	c #C4B067",
"!R 	c #C8B269",
"~R 	c #CBB36A",
"{R 	c #C7B168",
"]R 	c #C3AD66",
"^R 	c #C2AF66",
"/R 	c #C1B165",
"(R 	c #B9AC61",
"_R 	c #B6A95F",
":R 	c #B5A95F",
"<R 	c #AAA05A",
"[R 	c #A99F59",
"}R 	c #ACA25C",
"|R 	c #AFA35C",
"1R 	c #B3A65E",
"2R 	c #AFA45D",
"3R 	c #AFA65F",
"4R 	c #ACA45D",
"5R 	c #A8A15C",
"6R 	c #A9A25E",
"7R 	c #9E9957",
"8R 	c #99995B",
"9R 	c #9E9C5D",
"0R 	c #A59F5B",
"aR 	c #B0A761",
"bR 	c #B7B06B",
"cR 	c #BFB76F",
"dR 	c #B9B16A",
"eR 	c #B4AE69",
"fR 	c #B1AD6B",
"gR 	c #ADA96D",
"hR 	c #A7A569",
"iR 	c #9F9D5E",
"jR 	c #A6A160",
"kR 	c #AEA660",
"lR 	c #B5AA5F",
"mR 	c #B7AB60",
"nR 	c #B9AD61",
"oR 	c #B8AD63",
"pR 	c #B2A75F",
"qR 	c #BDB165",
"rR 	c #BCB065",
"sR 	c #B1A65D",
"tR 	c #B6AB60",
"uR 	c #B9AD5F",
"vR 	c #B1A65B",
"wR 	c #A79E58",
"xR 	c #A59C55",
"yR 	c #ACA156",
"zR 	c #ADA258",
"AR 	c #B2A85B",
"BR 	c #B1A75A",
"CR 	c #B2A75C",
"DR 	c #B8AC60",
"ER 	c #BDB265",
"FR 	c #BCB064",
"GR 	c #A79E5A",
"HR 	c #262515",
"IR 	c #ACA96B",
"JR 	c #ACA865",
"KR 	c #929151",
"LR 	c #5E662D",
"MR 	c #58632A",
"NR 	c #59632C",
"OR 	c #59612B",
"PR 	c #6D733B",
"QR 	c #AEA967",
"RR 	c #C6B36C",
"SR 	c #CCB86E",
"TR 	c #CDBC6F",
"UR 	c #CEBB6F",
"VR 	c #CFBB6F",
"WR 	c #D2BC6F",
"XR 	c #D1B96D",
"YR 	c #CFB76E",
"ZR 	c #CDB56D",
"`R 	c #CAB16A",
" S 	c #CCB66C",
".S 	c #CFB66D",
"+S 	c #CDB46C",
"@S 	c #CEB86E",
"#S 	c #C7B468",
"$S 	c #CDBC6D",
"%S 	c #C8B66A",
"&S 	c #CAB86B",
"*S 	c #C4B568",
"=S 	c #C5B368",
"-S 	c #CDB971",
";S 	c #C8B772",
">S 	c #CABA79",
",S 	c #C3B475",
"'S 	c #C4B774",
")S 	c #C8BB79",
"!S 	c #C6BA79",
"~S 	c #C8BC7B",
"{S 	c #C6BB76",
"]S 	c #C6BB75",
"^S 	c #C3BA75",
"/S 	c #C1B76F",
"(S 	c #C4BB71",
"_S 	c #C9BE77",
":S 	c #CDC27A",
"<S 	c #CBC178",
"[S 	c #C3BA70",
"}S 	c #C2BB74",
"|S 	c #B9B577",
"1S 	c #C3BC7F",
"2S 	c #BFB774",
"3S 	c #CBBF77",
"4S 	c #D3C57A",
"5S 	c #DBCB7D",
"6S 	c #DBCB7C",
"7S 	c #DACA79",
"8S 	c #DDCD7B",
"9S 	c #D2C375",
"0S 	c #D2C374",
"aS 	c #CEC176",
"bS 	c #D0C579",
"cS 	c #CCC076",
"dS 	c #CCC074",
"eS 	c #CFC173",
"fS 	c #CBBE70",
"gS 	c #C9BC6E",
"hS 	c #CABC6A",
"iS 	c #CCBE6C",
"jS 	c #D3C470",
"kS 	c #D3C571",
"lS 	c #D9CC7D",
"mS 	c #DBCD7D",
"nS 	c #E0CE7C",
"oS 	c #DBD084",
"pS 	c #C5B972",
"qS 	c #2A2918",
"rS 	c #A8A86C",
"sS 	c #9EA369",
"tS 	c #83884E",
"uS 	c #58612A",
"vS 	c #5B652D",
"wS 	c #59632A",
"xS 	c #59642B",
"yS 	c #5B642C",
"zS 	c #6E7339",
"AS 	c #AEA561",
"BS 	c #C1B46B",
"CS 	c #C4B66B",
"DS 	c #CBBD70",
"ES 	c #C9BA70",
"FS 	c #CAB86C",
"GS 	c #CDB86E",
"HS 	c #CFB96E",
"IS 	c #C8B36A",
"JS 	c #CBB46C",
"KS 	c #BFAE66",
"LS 	c #C1AF6A",
"MS 	c #C5AF68",
"NS 	c #C3B068",
"OS 	c #C3B066",
"PS 	c #CDB76C",
"QS 	c #C8B167",
"RS 	c #CCB96B",
"SS 	c #D0C06E",
"TS 	c #CABB6A",
"US 	c #C2B166",
"VS 	c #C8B773",
"WS 	c #C5BA77",
"XS 	c #C5B97D",
"YS 	c #C0B681",
"ZS 	c #CABD86",
"`S 	c #CBBE81",
" T 	c #CBBE7F",
".T 	c #C5B878",
"+T 	c #C6B972",
"@T 	c #C7B971",
"#T 	c #C6BA73",
"$T 	c #C3B972",
"%T 	c #C4BA73",
"&T 	c #C8BD76",
"*T 	c #C7BD76",
"=T 	c #CDC278",
"-T 	c #CBC175",
";T 	c #CAC175",
">T 	c #C4BB73",
",T 	c #C9BF78",
"'T 	c #C9BD75",
")T 	c #CFC378",
"!T 	c #D0C478",
"~T 	c #DECF83",
"{T 	c #E4D387",
"]T 	c #E3D384",
"^T 	c #E1D07F",
"/T 	c #DDCD7C",
"(T 	c #E0D081",
"_T 	c #D8CA7C",
":T 	c #D9CC82",
"<T 	c #DDCF84",
"[T 	c #D6C87B",
"}T 	c #D9CB7C",
"|T 	c #D7C878",
"1T 	c #DCCC78",
"2T 	c #DCCB76",
"3T 	c #DDCC77",
"4T 	c #E1D07A",
"5T 	c #DDCD79",
"6T 	c #E3D280",
"7T 	c #E2D280",
"8T 	c #E1D383",
"9T 	c #E0D486",
"0T 	c #CFC078",
"aT 	c #35341F",
"bT 	c #9FA469",
"cT 	c #999E63",
"dT 	c #7F8348",
"eT 	c #58622A",
"fT 	c #58622B",
"gT 	c #7D7D3F",
"hT 	c #B6AD67",
"iT 	c #C3B66B",
"jT 	c #C6B76D",
"kT 	c #C5B66C",
"lT 	c #C5B46B",
"mT 	c #C9B56C",
"nT 	c #CCB66D",
"oT 	c #CDB66E",
"pT 	c #CAB56C",
"qT 	c #CDB56E",
"rT 	c #C7B26C",
"sT 	c #C6B46D",
"tT 	c #CCB26E",
"uT 	c #CBB26D",
"vT 	c #CAB26B",
"wT 	c #CCB26A",
"xT 	c #D2B46D",
"yT 	c #CEB36A",
"zT 	c #D0B96E",
"AT 	c #D3BE6F",
"BT 	c #C8B869",
"CT 	c #C1B166",
"DT 	c #C5B46A",
"ET 	c #C8BA72",
"FT 	c #CABE7D",
"GT 	c #C9BC86",
"HT 	c #CEC183",
"IT 	c #CEC282",
"JT 	c #C9BD77",
"KT 	c #CCBE75",
"LT 	c #D0C178",
"MT 	c #D3C57D",
"NT 	c #CEC178",
"OT 	c #C5BA72",
"PT 	c #D0C47D",
"QT 	c #D5C880",
"RT 	c #D7CA80",
"ST 	c #D4C87E",
"TT 	c #D0C57A",
"UT 	c #D0C47A",
"VT 	c #CAC078",
"WT 	c #CDC37B",
"XT 	c #CDC37A",
"YT 	c #CEC57B",
"ZT 	c #D2C97D",
"`T 	c #DCCF81",
" U 	c #D8CD83",
".U 	c #DDCE83",
"+U 	c #E1CF79",
"@U 	c #E0CF7C",
"#U 	c #DCCC7B",
"$U 	c #DFCF7E",
"%U 	c #E1D284",
"&U 	c #DCCD7E",
"*U 	c #DACB7B",
"=U 	c #DFD182",
"-U 	c #DECE7F",
";U 	c #DFCF7C",
">U 	c #E0CE78",
",U 	c #E0CE7A",
"'U 	c #DDCC76",
")U 	c #E2D07D",
"!U 	c #E1D081",
"~U 	c #E6D484",
"{U 	c #E5D586",
"]U 	c #E5D584",
"^U 	c #D1C278",
"/U 	c #3E3C22",
"(U 	c #94995E",
"_U 	c #8B8F54",
":U 	c #6E753C",
"<U 	c #565F29",
"[U 	c #59632B",
"}U 	c #626930",
"|U 	c #9D9857",
"1U 	c #BDB269",
"2U 	c #C5B76C",
"3U 	c #C6B66A",
"4U 	c #C3B46A",
"5U 	c #C3B167",
"6U 	c #CAB46C",
"7U 	c #CDB76F",
"8U 	c #CFB870",
"9U 	c #CBB46B",
"0U 	c #CEB068",
"aU 	c #CFB069",
"bU 	c #CAB169",
"cU 	c #CDB46F",
"dU 	c #CBB56F",
"eU 	c #C9B46C",
"fU 	c #C8B26A",
"gU 	c #CFB56C",
"hU 	c #D1B96E",
"iU 	c #D9C174",
"jU 	c #D7BF70",
"kU 	c #D5B66B",
"lU 	c #CFB46B",
"mU 	c #D0BE72",
"nU 	c #CDBA72",
"oU 	c #CABC73",
"pU 	c #D1C57A",
"qU 	c #D2C579",
"rU 	c #D7C97D",
"sU 	c #E0D083",
"tU 	c #DDCC81",
"uU 	c #E0D087",
"vU 	c #DECE84",
"wU 	c #D8CA7F",
"xU 	c #D3C77D",
"yU 	c #D7CA81",
"zU 	c #D3C780",
"AU 	c #D4C881",
"BU 	c #CCC179",
"CU 	c #CCC37D",
"DU 	c #CDC47C",
"EU 	c #CCC47A",
"FU 	c #C8C177",
"GU 	c #DACF82",
"HU 	c #D9CF85",
"IU 	c #DACD80",
"JU 	c #DFCE78",
"KU 	c #E5D383",
"LU 	c #E7D587",
"MU 	c #E3D17E",
"NU 	c #E3D27F",
"OU 	c #E0D07F",
"PU 	c #E0D082",
"QU 	c #DFCE7E",
"RU 	c #E4D382",
"SU 	c #E4D27D",
"TU 	c #E4D27C",
"UU 	c #E4D17B",
"VU 	c #E6D583",
"WU 	c #E8D68A",
"XU 	c #E9D58C",
"YU 	c #E5D482",
"ZU 	c #D1C47A",
"`U 	c #48482A",
" V 	c #564D2C",
".V 	c #877843",
"+V 	c #8B7B42",
"@V 	c #8C7C42",
"#V 	c #88753C",
"$V 	c #807238",
"%V 	c #796A34",
"&V 	c #58502B",
"*V 	c #12130D",
"=V 	c #747A42",
"-V 	c #6F753E",
";V 	c #646C36",
">V 	c #57612A",
",V 	c #73773D",
"'V 	c #B1A760",
")V 	c #C1B469",
"!V 	c #CCBE72",
"~V 	c #C3B46B",
"{V 	c #C2B469",
"]V 	c #C5B66B",
"^V 	c #CAB96E",
"/V 	c #D2C179",
"(V 	c #CAB76E",
"_V 	c #CAB36A",
":V 	c #C5B066",
"<V 	c #CAB36F",
"[V 	c #CCB877",
"}V 	c #C8B56E",
"|V 	c #CCBA71",
"1V 	c #CEBD74",
"2V 	c #CFBD75",
"3V 	c #C9B770",
"4V 	c #D2BE76",
"5V 	c #D3BE76",
"6V 	c #D6C477",
"7V 	c #D9C87B",
"8V 	c #D9C97D",
"9V 	c #D7C77C",
"0V 	c #DBCB7F",
"aV 	c #DFCF82",
"bV 	c #DACC7E",
"cV 	c #D9CA7C",
"dV 	c #D2C67B",
"eV 	c #D9CC83",
"fV 	c #DECF84",
"gV 	c #DCCE83",
"hV 	c #D6CA80",
"iV 	c #D6CA7F",
"jV 	c #CFC480",
"kV 	c #D1C680",
"lV 	c #BFB66F",
"mV 	c #C1BB76",
"nV 	c #C4BE79",
"oV 	c #C8C37B",
"pV 	c #C7C279",
"qV 	c #C9C47A",
"rV 	c #CBC57A",
"sV 	c #CDC67C",
"tV 	c #D3CA83",
"uV 	c #DACE82",
"vV 	c #E5D58A",
"wV 	c #E8D486",
"xV 	c #E2CF7C",
"yV 	c #E7D589",
"zV 	c #E3D487",
"AV 	c #E0D285",
"BV 	c #DDCC7A",
"CV 	c #E4D482",
"DV 	c #E5D481",
"EV 	c #E5D27D",
"FV 	c #E6D47D",
"GV 	c #E7D580",
"HV 	c #E6D480",
"IV 	c #E8D689",
"JV 	c #E5D381",
"KV 	c #D3C479",
"LV 	c #4E4C2F",
"MV 	c #0F110B",
"NV 	c #A28F4E",
"OV 	c #F5D864",
"PV 	c #F7D963",
"QV 	c #F7D962",
"RV 	c #F6D85F",
"SV 	c #F6D75E",
"TV 	c #CCB65E",
"UV 	c #262315",
"VV 	c #090C07",
"WV 	c #58612B",
"XV 	c #58632B",
"YV 	c #5C6530",
"ZV 	c #76793D",
"`V 	c #B6AB64",
" W 	c #CDC073",
".W 	c #C8BA6F",
"+W 	c #C6B86C",
"@W 	c #C9BB6F",
"#W 	c #CCBF74",
"$W 	c #CDC179",
"%W 	c #CCBF79",
"&W 	c #BDB065",
"*W 	c #BFAE65",
"=W 	c #C7B672",
"-W 	c #C8BB76",
";W 	c #CBBC74",
">W 	c #CCBE76",
",W 	c #CFC27B",
"'W 	c #CABF7A",
")W 	c #C7BD7D",
"!W 	c #C8BF7C",
"~W 	c #D1C683",
"{W 	c #D2C57F",
"]W 	c #D6C981",
"^W 	c #D7C980",
"/W 	c #DBCC82",
"(W 	c #E0D086",
"_W 	c #E0D084",
":W 	c #DCCE80",
"<W 	c #D6C97C",
"[W 	c #C8BE77",
"}W 	c #CCC47D",
"|W 	c #C7BC73",
"1W 	c #CCC279",
"2W 	c #D2C77C",
"3W 	c #CFC47A",
"4W 	c #CDC47B",
"5W 	c #CCC37B",
"6W 	c #C7BE77",
"7W 	c #C5BF78",
"8W 	c #BCB774",
"9W 	c #C3BF7C",
"0W 	c #C2BF78",
"aW 	c #C5C278",
"bW 	c #CBC67F",
"cW 	c #C7C179",
"dW 	c #CEC57E",
"eW 	c #DACE80",
"fW 	c #DACB79",
"gW 	c #DED085",
"hW 	c #E4D384",
"iW 	c #E3D080",
"jW 	c #E2D283",
"kW 	c #E1D181",
"lW 	c #E4D37F",
"mW 	c #E1CE7A",
"nW 	c #E4D17E",
"oW 	c #E5D37E",
"pW 	c #E5D27C",
"qW 	c #E6D27C",
"rW 	c #E6D37E",
"sW 	c #E4D07B",
"tW 	c #E7D581",
"uW 	c #E9D788",
"vW 	c #E8D685",
"wW 	c #E5D27F",
"xW 	c #D1C074",
"yW 	c #4D4B30",
"zW 	c #A28F4D",
"AW 	c #F8DA62",
"BW 	c #F9DB60",
"CW 	c #F9DA5D",
"DW 	c #F9DA5F",
"EW 	c #F9DA5E",
"FW 	c #D0B95E",
"GW 	c #282516",
"HW 	c #8F8E4E",
"IW 	c #BBAF65",
"JW 	c #C2B66C",
"KW 	c #CBBF74",
"LW 	c #CBBE75",
"MW 	c #C8BB71",
"NW 	c #C7BA6F",
"OW 	c #C6BA6E",
"PW 	c #C8BE74",
"QW 	c #C5B96F",
"RW 	c #BBAD63",
"SW 	c #C3B36A",
"TW 	c #CDBF75",
"UW 	c #CDBF76",
"VW 	c #CEC280",
"WW 	c #CAC07E",
"XW 	c #C9C184",
"YW 	c #BFB980",
"ZW 	c #C4BD84",
"`W 	c #C8C285",
" X 	c #C5BD79",
".X 	c #CBC079",
"+X 	c #D4C87F",
"@X 	c #D4C880",
"#X 	c #CFC47B",
"$X 	c #CCC078",
"%X 	c #CEC379",
"&X 	c #D8CA7E",
"*X 	c #D1C57B",
"=X 	c #BFB975",
"-X 	c #BCB778",
";X 	c #C3BC7C",
">X 	c #C0B873",
",X 	c #C0B76F",
"'X 	c #C6BB6F",
")X 	c #C8BC73",
"!X 	c #C7BE74",
"~X 	c #CAC176",
"{X 	c #CAC075",
"]X 	c #C8BF76",
"^X 	c #C5BD75",
"/X 	c #C4BF77",
"(X 	c #C2C077",
"_X 	c #CCC882",
":X 	c #D1C77B",
"<X 	c #CBC073",
"[X 	c #D4C776",
"}X 	c #D8C974",
"|X 	c #DECE79",
"1X 	c #DFCE79",
"2X 	c #DFCE82",
"3X 	c #DECD7F",
"4X 	c #D8C978",
"5X 	c #DACB7D",
"6X 	c #E3D07A",
"7X 	c #E5D07B",
"8X 	c #E4D07A",
"9X 	c #E6D37C",
"0X 	c #E2CE78",
"aX 	c #E2CF78",
"bX 	c #E5D17B",
"cX 	c #E5D27E",
"dX 	c #E6D381",
"eX 	c #D2C378",
"fX 	c #525038",
"gX 	c #A08D4B",
"hX 	c #F8D960",
"iX 	c #F9DA5C",
"jX 	c #F9DA60",
"kX 	c #D3BB59",
"lX 	c #292615",
"mX 	c #59632D",
"nX 	c #57602A",
"oX 	c #9E9856",
"pX 	c #B9AD64",
"qX 	c #C1B66C",
"rX 	c #CBBE78",
"sX 	c #C7BB76",
"tX 	c #C5BA73",
"uX 	c #C7BD77",
"vX 	c #CABE77",
"wX 	c #BFB064",
"xX 	c #C6B76B",
"yX 	c #CCBA6F",
"zX 	c #D3C376",
"AX 	c #CFBF77",
"BX 	c #CCC384",
"CX 	c #C9C085",
"DX 	c #C5BC87",
"EX 	c #BDB882",
"FX 	c #BFBA88",
"GX 	c #BFB986",
"HX 	c #BBB779",
"IX 	c #C4BD7D",
"JX 	c #C8BE79",
"KX 	c #C7BE76",
"LX 	c #CABF76",
"MX 	c #D5C97E",
"NX 	c #D3C87C",
"OX 	c #CFC67B",
"PX 	c #C1BA72",
"QX 	c #BCB773",
"RX 	c #C0BD7A",
"SX 	c #C2BE79",
"TX 	c #C3BB71",
"UX 	c #D3C574",
"VX 	c #D4C87A",
"WX 	c #D0C67A",
"XX 	c #CAC073",
"YX 	c #CDC273",
"ZX 	c #D3C778",
"`X 	c #D4C778",
" Y 	c #CEC376",
".Y 	c #C5BF74",
"+Y 	c #D0C77A",
"@Y 	c #CEC270",
"#Y 	c #CEC170",
"$Y 	c #D9C976",
"%Y 	c #DECD77",
"&Y 	c #DACB74",
"*Y 	c #D6C771",
"=Y 	c #DFCE7A",
"-Y 	c #DAC977",
";Y 	c #DECC77",
">Y 	c #E2CE79",
",Y 	c #E4D280",
"'Y 	c #E3D079",
")Y 	c #E6D482",
"!Y 	c #D3C378",
"~Y 	c #535133",
"{Y 	c #98854A",
"]Y 	c #F9DB63",
"^Y 	c #F9DA61",
"/Y 	c #DDC25D",
"(Y 	c #302B17",
"_Y 	c #575F29",
":Y 	c #5A642B",
"<Y 	c #5B652E",
"[Y 	c #606831",
"}Y 	c #686E34",
"|Y 	c #999553",
"1Y 	c #BAAF68",
"2Y 	c #C3B772",
"3Y 	c #CABF7B",
"4Y 	c #C4B973",
"5Y 	c #BDB26B",
"6Y 	c #BCB46D",
"7Y 	c #C2B972",
"8Y 	c #C3B870",
"9Y 	c #C0B268",
"0Y 	c #C5B76A",
"aY 	c #C8B96C",
"bY 	c #D4C476",
"cY 	c #D2C376",
"dY 	c #CABF77",
"eY 	c #CDC484",
"fY 	c #CEC590",
"gY 	c #C8C18B",
"hY 	c #C5BF8B",
"iY 	c #B8B584",
"jY 	c #B9B581",
"kY 	c #B1AF73",
"lY 	c #B9B576",
"mY 	c #BDB876",
"nY 	c #CAC27D",
"oY 	c #C8BD77",
"pY 	c #CDC379",
"qY 	c #D1C67C",
"rY 	c #D3C87F",
"sY 	c #C9C17B",
"tY 	c #BDB772",
"uY 	c #C0BD78",
"vY 	c #C5C07C",
"wY 	c #CDC57B",
"xY 	c #D9CA77",
"yY 	c #D6C774",
"zY 	c #D1C471",
"AY 	c #D4C673",
"BY 	c #D3C471",
"CY 	c #D5C672",
"DY 	c #CFC170",
"EY 	c #CCC170",
"FY 	c #D0C372",
"GY 	c #D3C572",
"HY 	c #D3C472",
"IY 	c #DDCC78",
"JY 	c #D6C772",
"KY 	c #DBCB76",
"LY 	c #DFCC6E",
"MY 	c #DBCA75",
"NY 	c #DFCD78",
"OY 	c #E3D07B",
"PY 	c #DBCC7E",
"QY 	c #DBCA7C",
"RY 	c #DDCC7D",
"SY 	c #E0CD79",
"TY 	c #E1CE77",
"UY 	c #DFCC77",
"VY 	c #E6D481",
"WY 	c #E7D684",
"XY 	c #D7C678",
"YY 	c #525132",
"ZY 	c #948245",
"`Y 	c #F9DB61",
" Z 	c #E6CC62",
".Z 	c #373119",
"+Z 	c #5B6530",
"@Z 	c #606830",
"#Z 	c #666D33",
"$Z 	c #76793F",
"%Z 	c #9B9655",
"&Z 	c #ACA562",
"*Z 	c #BCB472",
"=Z 	c #C0B874",
"-Z 	c #BCB371",
";Z 	c #BBB36E",
">Z 	c #BEB56F",
",Z 	c #BEB36B",
"'Z 	c #C5B86F",
")Z 	c #CABC6F",
"!Z 	c #C9BD71",
"~Z 	c #CCC17A",
"{Z 	c #C4BC76",
"]Z 	c #C4BE80",
"^Z 	c #C9C28E",
"/Z 	c #C8C391",
"(Z 	c #C3C08C",
"_Z 	c #B7B681",
":Z 	c #BBB980",
"<Z 	c #B5B376",
"[Z 	c #BBB678",
"}Z 	c #BBB674",
"|Z 	c #C0B974",
"1Z 	c #C8BF79",
"2Z 	c #CBC37B",
"3Z 	c #C7C07A",
"4Z 	c #C7BF7A",
"5Z 	c #C2BA73",
"6Z 	c #C5BF79",
"7Z 	c #C3C07D",
"8Z 	c #C6C37D",
"9Z 	c #D0C881",
"0Z 	c #D8CC81",
"aZ 	c #DDCF80",
"bZ 	c #D7CA79",
"cZ 	c #C9C177",
"dZ 	c #DECF7F",
"eZ 	c #D7C877",
"fZ 	c #DECE7E",
"gZ 	c #DECE7B",
"hZ 	c #DBCB78",
"iZ 	c #E0CF7D",
"jZ 	c #DCCE81",
"kZ 	c #D9CA7B",
"lZ 	c #D7C874",
"mZ 	c #DACA77",
"nZ 	c #D8C873",
"oZ 	c #DBCB74",
"pZ 	c #DFCD77",
"qZ 	c #DCCB7A",
"rZ 	c #DFCF80",
"sZ 	c #DBCA7A",
"tZ 	c #D9C874",
"uZ 	c #E1CE78",
"vZ 	c #E2CE77",
"wZ 	c #E1CF7B",
"xZ 	c #E7D687",
"yZ 	c #E6D485",
"zZ 	c #D7C87C",
"AZ 	c #927E40",
"BZ 	c #F7D960",
"CZ 	c #E7CC62",
"DZ 	c #393218",
"EZ 	c #0D0E0B",
"FZ 	c #59622D",
"GZ 	c #5A632F",
"HZ 	c #57612C",
"IZ 	c #666C33",
"JZ 	c #73783B",
"KZ 	c #989759",
"LZ 	c #B8B477",
"MZ 	c #BFB87A",
"NZ 	c #BBB27D",
"OZ 	c #B9B277",
"PZ 	c #C3B679",
"QZ 	c #C4B972",
"RZ 	c #C5B86C",
"SZ 	c #C8BA6D",
"TZ 	c #C5B96E",
"UZ 	c #C0B571",
"VZ 	c #C3B87D",
"WZ 	c #C1BB7F",
"XZ 	c #C5BD8A",
"YZ 	c #C8C389",
"ZZ 	c #C2C089",
"`Z 	c #C2BD85",
" ` 	c #C6C287",
".` 	c #C2BE83",
"+` 	c #C3BD81",
"@` 	c #C8C281",
"#` 	c #CBC482",
"$` 	c #C9C07B",
"%` 	c #CBC27A",
"&` 	c #C6BD74",
"*` 	c #BFB76E",
"=` 	c #CAC27A",
"-` 	c #CAC37D",
";` 	c #C3BD78",
">` 	c #C5C17D",
",` 	c #C6C17A",
"'` 	c #CCC67F",
")` 	c #D3CA7F",
"!` 	c #D8CB80",
"~` 	c #D8CB7E",
"{` 	c #D7CA7B",
"]` 	c #D5C87B",
"^` 	c #DBCF82",
"/` 	c #D8CC80",
"(` 	c #D9CD82",
"_` 	c #D9CA79",
":` 	c #DFCF7D",
"<` 	c #DDCE7E",
"[` 	c #DACA7A",
"}` 	c #DBCB7B",
"|` 	c #D8C877",
"1` 	c #D9CA7A",
"2` 	c #DBCB79",
"3` 	c #DED07F",
"4` 	c #D5CA7E",
"5` 	c #D2C67C",
"6` 	c #D7C97B",
"7` 	c #DCCE7F",
"8` 	c #D9CB7D",
"9` 	c #DECC7B",
"0` 	c #4E4C2E",
"a` 	c #988541",
"b` 	c #F9DB62",
"c` 	c #E8CC5D",
"d` 	c #5B4A1E",
"e` 	c #3D2F0F",
"f` 	c #3A2F10",
"g` 	c #3B2E10",
"h` 	c #382C0F",
"i` 	c #30250D",
"j` 	c #505626",
"k` 	c #515826",
"l` 	c #545C2A",
"m` 	c #4E5626",
"n` 	c #5C662E",
"o` 	c #676D34",
"p` 	c #70773E",
"q` 	c #9D9D62",
"r` 	c #BBB57C",
"s` 	c #B6B079",
"t` 	c #AFAC73",
"u` 	c #C5BA7F",
"v` 	c #BDB26D",
"w` 	c #BCB069",
"x` 	c #BEB167",
"y` 	c #C7B96B",
"z` 	c #C4B76B",
"A` 	c #C1B872",
"B` 	c #C4BA80",
"C` 	c #C4BD82",
"D` 	c #C1BB83",
"E` 	c #BEBA82",
"F` 	c #C2BF86",
"G` 	c #C7C387",
"H` 	c #C9C287",
"I` 	c #C9C288",
"J` 	c #BFBB84",
"K` 	c #B9B67D",
"L` 	c #C2BC81",
"M` 	c #C7C284",
"N` 	c #C3BB7A",
"O` 	c #D0C67F",
"P` 	c #CFC67C",
"Q` 	c #C7BE73",
"R` 	c #BEB56E",
"S` 	c #C0B973",
"T` 	c #C4BD78",
"U` 	c #BEB972",
"V` 	c #BBB773",
"W` 	c #BEB975",
"X` 	c #D0C477",
"Y` 	c #D3C678",
"Z` 	c #D3C675",
"`` 	c #D6CA7D",
"  .	c #D2C77A",
". .	c #CDC377",
"+ .	c #D7CA7A",
"@ .	c #E0D185",
"# .	c #DED084",
"$ .	c #DACC7F",
"% .	c #CDC176",
"& .	c #D4C77C",
"* .	c #DECF85",
"= .	c #DCCC80",
"- .	c #D8CA7B",
"; .	c #E2D17D",
"> .	c #E4D17F",
", .	c #DECB76",
"' .	c #E0CC77",
") .	c #E6D37F",
"! .	c #E6D383",
"~ .	c #C9BB72",
"{ .	c #4C4832",
"] .	c #0C0F0A",
"^ .	c #9F8C48",
"/ .	c #F8DA63",
"( .	c #F8D757",
"_ .	c #EEBF2D",
": .	c #E6B621",
"< .	c #E1B223",
"[ .	c #E5B623",
"} .	c #E5B521",
"| .	c #D6A82A",
"1 .	c #3D3111",
"2 .	c #0F0E0B",
"3 .	c #5A642E",
"4 .	c #5A6430",
"5 .	c #5F6731",
"6 .	c #697036",
"7 .	c #636930",
"8 .	c #626A31",
"9 .	c #6B7237",
"0 .	c #686E35",
"a .	c #676E35",
"b .	c #91945D",
"c .	c #939562",
"d .	c #858652",
"e .	c #AEAA72",
"f .	c #C0B573",
"g .	c #BDB26F",
"h .	c #BBB067",
"i .	c #C2B66D",
"j .	c #BEB269",
"k .	c #C8BF7D",
"l .	c #C7C07F",
"m .	c #C3BA84",
"n .	c #B7B47D",
"o .	c #BEBD84",
"p .	c #C2BF84",
"q .	c #C5BF85",
"r .	c #C9C388",
"s .	c #B9B57E",
"t .	c #BBB780",
"u .	c #BCB87F",
"v .	c #C7BF7F",
"w .	c #C7BE78",
"x .	c #C8BE73",
"y .	c #C6BD73",
"z .	c #CAC177",
"A .	c #C9C278",
"B .	c #BCB56E",
"C .	c #BEB974",
"D .	c #BDB975",
"E .	c #C1BB71",
"F .	c #CCC175",
"G .	c #D3C77B",
"H .	c #CFC377",
"I .	c #D5CA7F",
"J .	c #D4C77A",
"K .	c #CFC57A",
"L .	c #CCC57B",
"M .	c #D3CA86",
"N .	c #D1C77F",
"O .	c #D7CB7F",
"P .	c #DACF86",
"Q .	c #D7CE8F",
"R .	c #D3C77A",
"S .	c #CDC277",
"T .	c #CFC57D",
"U .	c #D2C57B",
"V .	c #D5C779",
"W .	c #D4C77B",
"X .	c #DBCC80",
"Y .	c #DBCB7E",
"Z .	c #DACA7B",
"` .	c #E0D080",
" ..	c #E3D181",
"...	c #DECD79",
"+..	c #DCCA75",
"@..	c #E6D27D",
"#..	c #E7D586",
"$..	c #D1C279",
"%..	c #534F3A",
"&..	c #978344",
"*..	c #F7D961",
"=..	c #F9D54F",
"-..	c #FAC71D",
";..	c #FAC71A",
">..	c #FAC71B",
",..	c #F3C221",
"'..	c #4C3A10",
")..	c #5E6731",
"!..	c #696F36",
"~..	c #6D743A",
"{..	c #666E35",
"]..	c #686F35",
"^..	c #676F37",
"/..	c #6F763C",
"(..	c #747A3F",
"_..	c #757A40",
":..	c #868A51",
"<..	c #B6AE6E",
"[..	c #C4B978",
"}..	c #BCB26B",
"|..	c #BEB672",
"1..	c #CCC482",
"2..	c #C5BD7F",
"3..	c #BBB87E",
"4..	c #BEB980",
"5..	c #C3BE81",
"6..	c #C4BF81",
"7..	c #BFB77F",
"8..	c #C5BE81",
"9..	c #CCC387",
"0..	c #CCC281",
"a..	c #CFC57F",
"b..	c #C9BF76",
"c..	c #CEC478",
"d..	c #CBC277",
"e..	c #D5CA80",
"f..	c #D6CD83",
"g..	c #D4CC84",
"h..	c #C6C27B",
"i..	c #C1BD77",
"j..	c #BCB46A",
"k..	c #C9BE73",
"l..	c #D4C87C",
"m..	c #D2C67A",
"n..	c #CDC378",
"o..	c #CDC479",
"p..	c #CBC47F",
"q..	c #CCC37C",
"r..	c #D3C981",
"s..	c #D4C985",
"t..	c #D4CC91",
"u..	c #D2C984",
"v..	c #CEC479",
"w..	c #D9CC7F",
"x..	c #DFD181",
"y..	c #DECE7D",
"z..	c #E0CF80",
"A..	c #E0CE80",
"B..	c #E0CF81",
"C..	c #E3D281",
"D..	c #E0CE7B",
"E..	c #E3D17C",
"F..	c #E4D27F",
"G..	c #D3C278",
"H..	c #49472C",
"I..	c #8E7B3D",
"J..	c #F7D95F",
"K..	c #F9D44C",
"L..	c #FAC81D",
"M..	c #FBC921",
"N..	c #FBCA23",
"O..	c #F4C52E",
"P..	c #4A3C14",
"Q..	c #11120C",
"R..	c #545B2E",
"S..	c #5C6631",
"T..	c #71763A",
"U..	c #767B40",
"V..	c #9A9E63",
"W..	c #91945B",
"X..	c #70763D",
"Y..	c #70763B",
"Z..	c #6E7539",
"`..	c #757A3E",
" +.	c #777C40",
".+.	c #7A7E40",
"++.	c #7C8042",
"@+.	c #A8A669",
"#+.	c #CFC484",
"$+.	c #CBC07D",
"%+.	c #CCC17E",
"&+.	c #C8BE7B",
"*+.	c #CBC27E",
"=+.	c #CBC17B",
"-+.	c #C8C17D",
";+.	c #C8C283",
">+.	c #C5BF81",
",+.	c #C4BE81",
"'+.	c #C4BE82",
")+.	c #CAC386",
"!+.	c #D3C986",
"~+.	c #D7CC8A",
"{+.	c #D8CD86",
"]+.	c #CFC57C",
"^+.	c #C6BE73",
"/+.	c #D7C97A",
"(+.	c #D8CC7E",
"_+.	c #CFC579",
":+.	c #CBC275",
"<+.	c #D0C476",
"[+.	c #D4C879",
"}+.	c #D2C779",
"|+.	c #CCC276",
"1+.	c #CEC67B",
"2+.	c #CFC67D",
"3+.	c #CAC47D",
"4+.	c #CEC57C",
"5+.	c #D6CD84",
"6+.	c #DAD288",
"7+.	c #D7CE8D",
"8+.	c #D7CE89",
"9+.	c #D8CD80",
"0+.	c #DBCC7A",
"a+.	c #E1D17E",
"b+.	c #E0D07E",
"c+.	c #E4D380",
"d+.	c #E6D584",
"e+.	c #E5D486",
"f+.	c #E1D082",
"g+.	c #DCCC7D",
"h+.	c #D9CB7E",
"i+.	c #E5D489",
"j+.	c #E6D486",
"k+.	c #E1CF7D",
"l+.	c #E4D17A",
"m+.	c #CEBD71",
"n+.	c #444128",
"o+.	c #918343",
"p+.	c #F6D95F",
"q+.	c #F8D859",
"r+.	c #F9DB64",
"s+.	c #F9D44D",
"t+.	c #FAC81E",
"u+.	c #FAC81C",
"v+.	c #FBC920",
"w+.	c #FCCB27",
"x+.	c #F4CA3A",
"y+.	c #4D411A",
"z+.	c #12130E",
"A+.	c #5B6234",
"B+.	c #5E6734",
"C+.	c #AEAE77",
"D+.	c #B1B17C",
"E+.	c #A8A872",
"F+.	c #999A60",
"G+.	c #85874A",
"H+.	c #8E9256",
"I+.	c #93955A",
"J+.	c #828548",
"K+.	c #909256",
"L+.	c #BBB879",
"M+.	c #CEC684",
"N+.	c #D2C686",
"O+.	c #D2C685",
"P+.	c #CCC380",
"Q+.	c #CCC581",
"R+.	c #CFC783",
"S+.	c #D3CA85",
"T+.	c #CFC881",
"U+.	c #CDC783",
"V+.	c #CAC583",
"W+.	c #CBC688",
"X+.	c #CDC88A",
"Y+.	c #CDC789",
"Z+.	c #D0C688",
"`+.	c #D5CB89",
" @.	c #D8CF89",
".@.	c #C3BB73",
"+@.	c #BCB66F",
"@@.	c #BAB36B",
"#@.	c #C1BA71",
"$@.	c #CEC579",
"%@.	c #CFC578",
"&@.	c #CCC478",
"*@.	c #C8C276",
"=@.	c #CAC376",
"-@.	c #CCC375",
";@.	c #C7BF74",
">@.	c #C4BD72",
",@.	c #C7BF73",
"'@.	c #D2C981",
")@.	c #DBD08B",
"!@.	c #D4CC8C",
"~@.	c #D2CA86",
"{@.	c #D4CA7F",
"]@.	c #D5CC82",
"^@.	c #D2CA82",
"/@.	c #D8CE83",
"(@.	c #DACE81",
"_@.	c #DFD284",
":@.	c #E0D383",
"<@.	c #EBDA8D",
"[@.	c #EAD98E",
"}@.	c #EBDA8F",
"|@.	c #DFCF84",
"1@.	c #DDD084",
"2@.	c #E8D68C",
"3@.	c #EAD68D",
"4@.	c #EBDA8E",
"5@.	c #EBD98D",
"6@.	c #E4D27E",
"7@.	c #363622",
"8@.	c #918342",
"9@.	c #F6D85B",
"0@.	c #F8DB5F",
"a@.	c #F8DC64",
"b@.	c #F8DB5E",
"c@.	c #F9D652",
"d@.	c #FAC820",
"e@.	c #FCCA24",
"f@.	c #FCCC27",
"g@.	c #FCCC28",
"h@.	c #F5CD3E",
"i@.	c #564C1F",
"j@.	c #121510",
"k@.	c #656C39",
"l@.	c #656B3B",
"m@.	c #5E6533",
"n@.	c #777B48",
"o@.	c #A7A86E",
"p@.	c #AFAE76",
"q@.	c #B1B077",
"r@.	c #B2B177",
"s@.	c #A9AA74",
"t@.	c #A0A56B",
"u@.	c #A8AA72",
"v@.	c #ABAB78",
"w@.	c #AFAE78",
"x@.	c #B5B481",
"y@.	c #C1BE88",
"z@.	c #C6BD89",
"A@.	c #C5BF87",
"B@.	c #C8C184",
"C@.	c #C6BF83",
"D@.	c #C8C486",
"E@.	c #CFCA8D",
"F@.	c #D2CC90",
"G@.	c #CCC88C",
"H@.	c #C8C488",
"I@.	c #C9C58C",
"J@.	c #C8C58C",
"K@.	c #C0BF87",
"L@.	c #BDBC86",
"M@.	c #BCBA83",
"N@.	c #C2C187",
"O@.	c #C9C58A",
"P@.	c #C5C287",
"Q@.	c #C3BE7E",
"R@.	c #BBB978",
"S@.	c #B5B674",
"T@.	c #B8B876",
"U@.	c #BBBA76",
"V@.	c #C0BC77",
"W@.	c #BCBA74",
"X@.	c #BFBF77",
"Y@.	c #BBBA72",
"Z@.	c #BABA73",
"`@.	c #BBB872",
" #.	c #B6B472",
".#.	c #BDBB75",
"+#.	c #CEC77D",
"@#.	c #D8CF86",
"##.	c #DDD28B",
"$#.	c #DCD28B",
"%#.	c #DCD287",
"&#.	c #DACF83",
"*#.	c #D6CC82",
"=#.	c #D4CC87",
"-#.	c #D1C987",
";#.	c #D4CB84",
">#.	c #D9D086",
",#.	c #D9CE82",
"'#.	c #DFD385",
")#.	c #DFD384",
"!#.	c #DED284",
"~#.	c #E8D58B",
"{#.	c #E2D389",
"]#.	c #EBD88F",
"^#.	c #EAD68E",
"/#.	c #EAD78E",
"(#.	c #E6D589",
"_#.	c #E2D286",
":#.	c #EAD78F",
"<#.	c #F2D7A4",
"[#.	c #F0D79F",
"}#.	c #CAB688",
"|#.	c #2C2B1C",
"1#.	c #8D7F40",
"2#.	c #F5DB63",
"3#.	c #F7DD63",
"4#.	c #F6DE65",
"5#.	c #F6DE66",
"6#.	c #F7DC66",
"7#.	c #F7DC64",
"8#.	c #F9D248",
"9#.	c #FBCB24",
"0#.	c #F7CB35",
"a#.	c #615322",
"b#.	c #1A1B16",
"c#.	c #181914",
"d#.	c #1C1B16",
"e#.	c #75723F",
"f#.	c #676D38",
"g#.	c #686E39",
"h#.	c #6E733C",
"i#.	c #575E2A",
"j#.	c #5A622D",
"k#.	c #646A37",
"l#.	c #8B8A63",
"m#.	c #ABA581",
"n#.	c #A19E75",
"o#.	c #A6A181",
"p#.	c #A7A384",
"q#.	c #A69F83",
"r#.	c #A3A271",
"s#.	c #A1A46D",
"t#.	c #AEAD7A",
"u#.	c #B1AD84",
"v#.	c #B3B188",
"w#.	c #B9B78A",
"x#.	c #B3AF8E",
"y#.	c #ADA88B",
"z#.	c #ADA887",
"A#.	c #AFAB88",
"B#.	c #B2AF86",
"C#.	c #B7B683",
"D#.	c #C7C38A",
"E#.	c #BCBC88",
"F#.	c #B3B484",
"G#.	c #B2B183",
"H#.	c #B2B086",
"I#.	c #B1AF86",
"J#.	c #B2B187",
"K#.	c #B1B183",
"L#.	c #B5B585",
"M#.	c #BDBB89",
"N#.	c #C0BE8F",
"O#.	c #C1BF8C",
"P#.	c #C1BE8B",
"Q#.	c #A5A76E",
"R#.	c #AEB178",
"S#.	c #B6B781",
"T#.	c #B5B77F",
"U#.	c #C2C284",
"V#.	c #C2BE81",
"W#.	c #BEBD7E",
"X#.	c #BFBD7F",
"Y#.	c #C8C484",
"Z#.	c #D1CA8A",
"`#.	c #DACF8A",
" $.	c #D1C984",
".$.	c #CFC77F",
"+$.	c #D2CA81",
"@$.	c #D5CD84",
"#$.	c #D3CA7E",
"$$.	c #CFC883",
"%$.	c #CDC686",
"&$.	c #CDC584",
"*$.	c #D3C982",
"=$.	c #D6CC83",
"-$.	c #DED288",
";$.	c #E0D388",
">$.	c #DDD386",
",$.	c #DDD285",
"'$.	c #E2D487",
")$.	c #E4D389",
"!$.	c #E9D58E",
"~$.	c #EBD78F",
"{$.	c #E8D78C",
"]$.	c #EAD790",
"^$.	c #F1D6A3",
"/$.	c #F2D3B1",
"($.	c #F2D3B2",
"_$.	c #D5BB9A",
":$.	c #413C2F",
"<$.	c #897B46",
"[$.	c #F4DA66",
"}$.	c #F4DB6A",
"|$.	c #F0DB6E",
"1$.	c #F2DD6A",
"2$.	c #F1DA6C",
"3$.	c #F1C42A",
"4$.	c #5C4C20",
"5$.	c #141611",
"6$.	c #29281D",
"   .  +  @  #  $  %  &  *  =  -  ;  >  ,  '  )  !  ~  {  ]  ^  /  (  _  :  <  [  }  |  1  2  3  4  5  6  7  8  9  0  a  b  c  d  e  f  g  h  i  j  k  l  m  n  o  p  q  r  s  t  u  v  w  x  y  z  A  B  C  D  D  E  F  G  H  H  H  G  G  C  C  F  G  I  J  J  J  G  G  G  G  G  K  L  M  E  N  O  N  M  P  Q  R  O  N  S  T  G  G  F  U  R  C  Q  V  W  X  Y  Z  `   . .. +. @. #. $. %. &. G  ",
"*. =. -. ;. >. ,. '. ). !. ~. {. ]. ^. /. (. _. :. <. [. }. |. 1. 2. 3. 4. 5. <  6. 7. 8. 9. 0. a. b. c. d. e. f. g. h. i. j. k. l. m. n. o. p. q. r. s. t. u. v. w. x. y. z. A. B. C. D. E. F. G. H. F  G  %. H  I. &. J. K. &. L. M. N. M. K. L. L. &. &. &. &. O. &. P. &. &. &. &. Q. H  R. $. G  S. T. #. U. T  I  V. V. W. &. X. X. Q. R. T  #. K  R  D  O  Y. R  N  F  W. &. I. I. O. X. ",
"Z. `.  + .+ ++ @+ #+ $+ %+ &+ *+ =+ -+ ;+ >+ ,+ '+ )+ !+ ~+ {+ ]+ ^+ /+ (+ _+ :+ <+ [+ }+ |+ 1+ 2+ 3+ 4+ 5+ 8  6+ 7+ 8+ 9+ 0+ a+ b+ c+ d+ e+ f+ g+ h+ i+ j+ j+ k+ l+ m+ n+ o+ p+ q+ r+ s+ t+ u+ v+ w+ H  I. W. &. O. M. M. L. L. L. M. M. M. K. K. L. J. M. N. x+ x+ K. M. J. K. y+ &. P. z+ A+ %. %. %. X. Q. R. Q. &. P. Q. K. J. J. L. L. &. L. &. Q. F  H  T. K  G  G  %. &. &. y+ H  &. G  ",
"B+ C+ D+ E+ F+ G+ H+ I+ J+ K+ L+ M+ N+ O+ P+ Q+ R+ S+ T+ U+ V+ W+ X+ Y+ Z+ `+  @ [+ .@ /+ +@ @@ #@ $@ %@ &@ <+ *@ =@ -@ ;@ >@ ,@ '@ )@ !@ ~@ {@ ]@ ^@ /@ (@ _@ :@ <@ [@ }@ |@ 1@ 2@ 3@ 4@ 5@ 6@ 7@ 8@ Q. &. J. L. K. M. M. L. L. K. M. M. M. x+ M. M. M. N. N. M. N. N. N. N. L. &. &. &. &. 9@ Q. W. L. O. L. J. &. L. J. 0@ J. J. L. L. a@ J. P. A+ $. #. $. G  K  Q. Q. W. b@ &. y+ Q. W. #. ",
"c@ d@ e@ f@ g@ h@ i@ j@ k@ l@ m@ n@ o@ p@ q@ r@ s@ t@ u@ v@ w@ x@ y@ z@ A@ B@ C@ C@ D@ ^+ E@ F@ G@ .@ H@ I@ J@ K@ L@ M@ N@ O@ P@ Q@ R@ !@ S@ T@ U@ V@ W@ X@ Y@ Z@ `@  # .# +# @# ## $# %# &# *# =# -# P. L. L. L. M. M. M. J. J. K. M. M. N. N. M. M. J. L. L. L. J. M. x+ M. &. O. &. L. &. K. M. K. L. y+ &. O. &. J. M. K. &. L. &. Q. R. A+ G  F  D  K  G  F  ;# &. P. Q. %. &. L. L. &. %. ",
"># ,# '# )# !# ~# {# ]# ^# /# (# _# :# p@ <# [# }# |# 1# 2# 3# 4# 5# 6# 7# 8# 9# 0# a# .@ b# c# d# e# f# g# h# i# j# k# l# m# n# o# p# q# r# s# t# u# v# w# x# y# z# A# B# C# D# E# F# G# H# I# J# K# W. b@ L. J. x+ M. L. H  &. Q. L. M. M. M. J. b@ M. K. &. L. M. x+ K. K. L. M. L# L# L# M# N. N. M. Q. M. N# 0@ &. L. &. &. &. A+ A+ A+ R. F  E  ;# F  U  E  U  A+ Q. Q. $. Q. W. &. &. &. ",
"O# P# Q# R# S# T# U# V# W# X# Y# Z# `#  $ .$ +$ @$ #$ $$ %$ &$ *$ =$ -$ ;$ >$ ,$ 2. ,$ '$ )$ /+ !$ !$ ~$ {$ ]$ ^$ /$ ($ _$ :$ <$ [$ }$ |$ 1$ 2$ 3$ 4$ 5$ 6$ 7$ 8$ 9$ 0$ a$ b$ c$ d$ e$ f$ g$ h$ i$ j$ %. W. L. &. K. K. K. O. O. &. O. M. M. K. O. L. L# J. M. M. N. N. N. N. k$ l$ k$ N. N. N. N. M. J. Q. a@ M. L. O. J. &. &. &. V. A+ Q. &. m$ R. R. n$ G  F  F  X. Q. R. G  F  T  A+ P. &. ",
"o$ p$ p$ q$ {$ r$ s$ t$ u$ v$ w$ x$ y$ z$ A$ B$ C$ D$ E$ F$ G$ H$ I$ J$ K$ L$ M$ N$ O$ P$ Q$ R$ S$ T$ U$ V$ W$ X$ Y$ Z$ `$  % .% +% @% $$ #% $% %% &% *% =% -% ;% >% ,% ,% '% )% !% ~% {% ]% ^% /% (% Q. &. x+ J. L. L# &. Q. Q. &. M. a@ N. x+ M# N. M. N. _% N. N. N. N. N. N. N. :% <% M. M. K. &. &. P. &. &. L# L. K. L# M. O. &. L. L. L. &. P. P. O. P. A+ #. H  H  R. T  G  G  R. Q. %. ",
"[% }% |% 1% 2% 3% 4% 5% 6% 7% 8% 9% 0% a% z$ b% c% d% e% f% g% h% i% j% k% l% m% n% o% p% q% r% s% t% D# u% v% w% x% y% z% A% B% C% D% E% F% G% H% I% J% K% L% M% N% O% P% Q% R% S% T% U% V% W% X% Y% P. &. M. M. K. y+ Z% y+ 0@ &. M. N. M. N. _% N. N. N. N. N. N. N. N. N. K. J. N. N. N. N. M. P. &. A+ O. &. z+ &. M. J. K. L. &. O. J. K. J. &. Q. P. Q. Q. V. R. R. T. R. Q. Q. H  Q. P. ",
"`%  & .& q  +& @& #& $& %& && *& =& -& ;& >& ,& '& )& !& ~& {& ]& ^& /& (& _& :& <& [& }& ;% |& 1& 2& 3& 4& 5& 6& 7& 8& 9& 0& a& b& c& d& e& f& g& h& i& j& k& l& m& ]@ |& n& o& p& q& r& s& t& u& Y% &. K. x+ K. K. P. &. L. O. &. M. M. L. M. _% _% k$ k$ _% N. N. N. N. N. N. N. J. K. M. N. x+ O. M. a@ J. K. P. 9@ O. P. &. &. &. A+ &. L. L. &. Q. Q. W. P. P. Q. &. &. &. &. &. H  Q. y+ ",
"v& w& x& y& z& A& B& C& D& E& F& G& H& I& J& K& L& M& N& O& P& Q& R& S& T& U& V& W& X& Y& Z& D# `&  * .* +* @* #* $* %* &* ** =* -* ;* >* ,* '* )* !* ~* {* ]* ^* /* (* _* :* <* [* }* |* 1* 2* 3* 4* J. M. N. x+ M. L. &. L. &. L. K. M. M. N. N. N. N. _% _% N. N. N. N. N. _% N. N. J. N. N. N. J. N. J. M. J. P. L. L. K. K. J. y+ K. J. &. &. O. O. O. &. &. &. L. L. L. &. &. &. Q. O. L. ",
"5* 6* 7* 8* 9* 0* a* b* c* d* e* f* g* o@ h* i* J& j* k* l* m* n* o* p* q* r* s* t* u* v* w* )% x* y* z* A* B* C* D* E* F* G* H* I* J* K* L* M* N* O* P* Q* R* S* T* U* V* W* X* Y* Z* `*  = ~+ .= += J. M. N. N. K. M. L. L. K. M. x+ N. M. x+ N. N. N. N. N. N. N. N. N. N. N. N. N. N. N. _% _% N. N. M. L# J. O. M. J. L. L. Z% Q. &. L. L. &. W. 9@ &. &. &. &. &. P. P. Q. &. &. Q. &. &. ",
"@= #= $= %= &= *= == -= ;= >= ,= '= )= != ~=  $ {= ]= ^= /= (= _= := <= [= }= |= 1= W@ 2= 3= 4= 5= 6= 6= 0$ 7= 8= 9= 0= a= b= c= d= e= f= g= h= i= j= k= l= m= X@ n= o= N% p= q= r= s= t= u= v= w= x= &. K. N. N. M. K. J. M. N. N. M. x+ K. J. N. N. x+ N. M. x+ N. k$ k$ k$ y= y= z= k$ A= :% _% _% _% N. N. N. N. x+ N. J. x+ J. &. K. L. &. L. J. 9@ O. 9@ &. y+ L. O. K. O. L. J. %. &. Q. ",
"B= $= C= D= E= F= G= H= I= J= K= L= M= N= != O= P= Q= R= S= T= U= V= W= X= Y= Z= `=  - .- +- @- #- $- %- x* &- *- =- -- ;- >- ,- '- [@ )- !- ~- {- a= ]- ^- /- /- (- _- :- <- V* [- }- |- 1- 2- 3- 4- L. x+ N. N. M. a@ N. N. N. N. N. k$ K. 0@ J. L. J. N. N. k$ l$ l$ l$ 5- 6- 5- y= A= y= k$ _% N. N. N. N. N. J. x+ x+ x+ N. J. &. K. K. K. K. L. L. K. L. O. P. y+ Q. O. &. K. L. &. &. J. ",
"7- 8- 9- 0- a- b- c- d- e- f- g- h- i- j- k- l- != m- n- o- p- q- r- s- t- u- v- w- x- y- z- A- B- C- D- E- F- G- H- I- J- K- L- M- N- O- P- Q- R- ;- ^- S- T- 3= U- V- W- X- Y- Z- `-  ; .; +; @; #; K. N. N. N. N. J. N. N. N. N. N. k$ x+ O. %. &. x+ y= l$ $; $; l$ l$ l$ l$ l$ k$ A= A= A= _% N. N. M. x+ O. &. Q. J. K. M. L. &. &. 9@ P. &. &. &. &. &. L. O. L. &. L. L. O. O. L. L. %; ",
"&; *; =; -; ;; >; ,; ,; '; ); !; ~; {; ]; ^; k- /; (; _; :; <; [; }; |; 1; 2; 3; 4; 5; 2= 6; 7; 8; 9; 0; a; b; c; d; e; O- f; g; O- [@  # h; ]- v. [@ X- i; U- j; k; l; m; n; o; p; q; r; s; t; u; v; J. N. N. N. N. x+ N. N. N. N. N. N. N. N. _% _% k$ A= A= k$ y= y= l$ y= A= l$ A= k$ k$ k$ N. N. N. K. L. %. T. &. O. L. L. P. P. &. &. J. L. I. &. &. P. P. O. L. L. J. L. &. P. &. J. M. ",
"&; *; w; x; y; z; A; B; C; D; E; F; G; H; I; J; K; L; M; N; O; P; W= Q; R; S; T; U; V; W; X; Y; Z; `;  > .> +> @> #> t. J- $> %> &> *>  # => ,- -> ;> >> ,> '> )> !> ~> {> ]> ^> /> (> _> :> <> [> v; M. N. N. _% N. N. N. N. N. N. N. x+ N. k$ l$ l$ l$ A= A= :% N. k$ k$ k$ N. k$ N. N. N. N. M. L. &. L. K. O. A+ A+ &. &. I. &. &. &. &. &. a@ L. y+ &. L. &. P. L. b@ &. &. A+ Q. &. L. &. ",
"}> |> 1> 2> 3> 4> 5> 6> 7> 8> 9> 0> a> b> c> d> e> [; f> g> h> i> Q; Q; j> k> U; l> m> n> o> p> q> r> j  s> t> u> v> w> x> y> z> J- A> B> L- O- O- i; '> C> j+ 7$ ;% o= D> E> F> G> H> I> J> K> L> M> N. N. k$ k$ N. N. N. N. N. N. N. _% N. N> O> l$ y= k$ k$ N. :% k$ k$ N. y= A= k$ N. k$ _% N. M. K. J. J. O. &. P. L. L. J. L. L. L. 9@ L. L. M. J. O. O. &. P. P. P. Q. %. #. &. O. b@ P> ",
"Q> R> S> T> U> V> W> X> Y> Z> `>  , ., +, @, #, $, %, &, *, =, Q; Q; Q; j> -, U; ;, >, ,, ', ), !, ~, {, ], ^, /, (, _, :, <, [, ;- >- >- ,- => }, |, u# 1, 2, 3, ,% ,% 4, 5, 6, 7, 8, 9, 0, a, b, M> N. N. _% N. _% N. N. N. N. N. _% k$ y= $; 5- y= _% M. M. N. _% k$ k$ y= l$ l$ l$ A= A= l$ k$ k$ z= N. M. x+ N. N. _% k$ c, y= k$ N. N. N. M. x+ M. 0@ O. &. &. &. Q. P. &. W. W. &. L. K. ",
"d, e, ,; f, g, h, i, j, k, l, m, n, o, p, q, r, s, t, u, v, w, x, y, z, A, B, C, D, E, >, v# F, G, H, I, J, K, L, M, N, O, P, ;> Q, u. l  ]- ]- ]- R, S, T, d$ U, V, W, X, Y, Z, `,  ' .' +' @' #' $' N. N. _% N. N. N. N. N. N. N. x+ _% k$ 5- 5- A= _% N. k$ A= A= l$ l$ 5- l$ N> N> l$ l$ z= k$ k$ k$ :% _% k$ k$ k$ N. N. k$ l$ A= _% _% _% N. M. M. M. J. &. &. O. y+ O. L. &. &. &. K. M. ",
"%' A; ,; ,; &' *' =' k, A; X> -' ;' >' ,' '' )' !' ~' {' ]' ^' /' (' _' :' <' [' }' |' 1' 5; 2' 3' 4' 5' 6' 7' 8' 9' 0' a' b' 5' c' R, d' e' f' S, g' =% h' i' j' k' l' m' n' o' p' q' r' s' t' u' v' N# N. _% N. _% N. N. N. k$ N. N. N. _% k$ _% N. A= k$ :% A= A= l$ l$ A= x+ A= l$ l$ l$ y= k$ <% k$ A= y= A= N. N. N. x+ _% A= N. N. M. N. M. K. x+ x+ M# K. &. L. M. K. O. Q. &. y+ L. x+ ",
"w' x' f, y' z' A' B' C' A; D' E' F' G' H' I' J' K' L' M' N' O' P' Q' R' S' T' U' V; V' W' 0' /, X' Y' Z' `' 7'  ) .) +) +) @) /@ #) $) U* H, %) &) *) =) -) ;) >) ,) ') L@ )) !) ~) {) ]) ^) /) () _) N. _% _% _% _% _% N. N. k$ N. N. N. k$ l$ l$ N. k$ A= A= l$ A= l$ l$ l$ k$ k$ :% :% :% A= k$ A= y= y= l$ l$ y= :% N. N. A= :) :% K. :% N. M. K. K. K. J. N. K. M. K. K. &. V. 9@ O. &. J. ",
"<) [) }) |) 1) 2) X> l, X> 3) 4) 4) 4) 5) j, 6) 7) 8) 9) 0) a) N' b) c) v* d) e) V; f) g) b' h) i) x> j) k) y- l) m) n) o) p) q) {> ;% r) s) t) u) v) w) x) y) z) A) B) C) D) E) F) G) H) I) J) K) L) N. z= k$ _% N. N. _% N. k$ _% k$ l$ l$ l$ _% N. N. :% _% _% A= y= l$ 5- l$ A= A= _% N. A= _% l$ l$ l$ y= y= M) :% N. N. A= y= 5- _% N. x+ x+ x+ L. L. L. N. M. L. P. P. V. %. Q. Q. X. G  ",
"N) O) P) Q) R) S) T) U) V) W) X) Y) Z) `) `)  ! .! +! @! #! $! %! &! *! =! l; x> -! ;! >! ,! 0' +) '! )! !! ~! {! ]! I, s% ^! ]> /! (! _! :! <! [! @* }! |! 1! F> 2! 3! 4! 5! 6! 7! 8! 9! 0! a! b! (% N. :% _% N. N. N. A= 5- l$ y= _% A= l$ A= N. N. N. N. N. N. A= A= A= l$ k$ A= l$ l$ l$ l$ l$ l$ N> N> N> :) :) A= A= l$ l$ k$ k$ k$ k$ N. N. N. _% N. N. N. x+ K. L. &. &. Z% J. &. Q. G  ",
"c! d! e! f! g! h! i! j! k! l! m! n! o! p! q! r! s! t! u! v! w! x! y! z! A! B! d) C! D! k> E! F! b' b' e) !! G! H! I! J! L% K! L! M! N! O! P! Q! R! S! T! U! V! k' :! W! X! Y! Z! `!  ~ .~ +~ @~ #~ $~ M. N. N. N. N. N. A= N> k$ y= N. k$ A= k$ _% k$ N. N. N. _% _% A= z= 5- :) :) 5- l$ l$ l$ l$ l$ 5- O> O> 5- 5- l$ l$ l$ 5- N> y= y= N> z= y= _% _% N. A= k$ N. k$ M. a@ a@ L. K. J. &. T  ",
"%~ &~ *~ =~ -~ ;~ >~ ,~ '~ )~ !~ ~~ {~ ]~ ^~ /~ (~ _~ :~ <~ [~ }~ |~ 1~ 2~ 3~ {! 9' 4~ 5~ 6~ 7~ b' 8~ 9~ 0~ a~ b~ c~ d~ e~ f~ g~ h~ i~ j~ k~ l~ m~ n~ o~ p~ q~ r~ s~ ## .> O$ t~ u~ v~ w~ x~ y~ z~ K# N. N. N. N. _% N. k$ k$ M. N. _% k$ k$ :) k$ N. k$ k$ A= l$ l$ A= 5- O> O> $; O> 5- 5- O> O> 5- 5- 5- O> $; O> $; 5- l$ 5- N> :) N> :) l$ y= y= k$ _% N. k$ :% k$ N. M# K. A~ _% x+ L. G  ",
"B~ C~ D~ E~ F~ G~ H~ I~ J~ K~ L~ M~ N~ O~ P~ Q~ R~ S~ T~ t! U~ V~ W~ X~ Y~ Z~ `~  { .{ +{ @{ #{ ${ %{ &{ *{ ={ -{ ;{ >{ ,{ '{ ){ 6+ !{ ~{ {{ ]{ ^{ /{ ({ _{ :{ <{ [{ $# }{ |{ 1{ 2{ 3{ 4{ 5{ 6{ 7{ L) _% N. N. k$ N. N. k$ k$ N. :% A= k$ k$ z= A= A= 5- l$ l$ l$ l$ A= 5- O> O> O> O> O> 5- 5- 5- l$ k$ y= 5- l$ 5- :) k$ k$ k$ k$ c, k$ k$ N. N. N. N. N. N. N. K. M# a@ 8{ O. y+ K. L. &. -# ",
"9{ 0{ a{ b{ c{ d{ e{ f{ g{ h{ i{ j{ k{ l{ m{ n{ o{ p{ q{ r{ s{ t{ u{ v{ w{ x{ y{ F! z{ 7~ `~ A{ B{ C{ D{ E{ F{ G{ H{ I{ J{ ,$ K{ L{ M{ N{ O{ P{ Q{ u~ R{ L{ S{ T{ I# U{ V{ W{ X{ Y{ Z{ `{  ] .] +] @] _% N. N. k$ :% N. l$ l$ A= k$ A= l$ l$ l$ l$ l$ 5- l$ l$ l$ 5- 5- 5- O> O> O> O> 5- l$ l$ l$ y= k$ k$ k$ A= y= k$ A= l$ k$ k$ N. N. N. N. N. _% k$ N. N. N. M. L. L. K. L. L. L. J. &. O  ",
"#] $] %] &] *] =] -] ;] >] ,] '] )] P~ !] ~] {] ]] ^] /] (] _] :] <] [] }] |] 1] 2] 3] 4] 5] 6] 7] 8] 9] 0] a] b] c] d] e] f] f] g] h] i] j] k] l] m] n] o] p] q] I# r] s] t] u] v] w] x] y] z] A] ;# N. N. _% A= A= A= A= 5- O> l$ N. y= l$ A= k$ k$ l$ k$ l$ 5- 5- l$ 5- O> O> O> 5- O> B] B] O> 5- A= A= l$ k$ A= k$ A= k$ N. _% N. N. N. N. N. N. N. K. K. N. M. K. K. L. M. x+ K. N. N. $. ",
"C] D] E] F] &] G] H] I] J] K] L] M] N] O] P] Q] R] G] S] T] U] O# V] W] X] Y] 1] Z] `]  ^ {! .^ +^ a] @^ #^ $^ %^ &^ c] *^ =^ -^ ;^ >^ ,^ '^ )^ !^ ~^ {^ ]^ ^^ /^ (^ D- _^ :^ <^ f$ [^ g~ }^ |^ A] 1^ M. N. _% A= l$ 5- 5- 5- 5- N> k$ k$ x+ x+ N. _% A= x+ k$ k$ A= k$ 5- O> O> O> O> 5- 5- 5- O> O> l$ l$ l$ l$ l$ A= k$ _% _% A= N. N. M. x+ N. N. M. J. M. N. K. K. x+ M. x+ x+ M. x+ K. X. ",
"2^ 3^ 4^ 5^ 6^ 7^ 8^ 9^ O] 0^ M] a^ b^ c^ d^ e^ H] s! f^ g^ h^ i^ j^ k^ l^ m^ n^ o^ p^ q^ +) r^ s^ a] b] c] t^ u^ c] b] v^ w^ x^ y^ z^ A^ B^ C^ D^ E^ F^ G^ H^ I^ J^ K^ L^ M^ N^ o. h$ O^ P^ Q^ R^ S^ A= k$ k$ l$ O> O> 5- l$ N> :) l$ l$ A= l$ 5- l$ l$ k$ :) y= k$ l$ 5- O> O> O> O> l$ z= l$ 5- y= A= _% y= y= A= k$ k$ N. N. N. N. N. x+ M. M. N. N. x+ M. N. K. K. M. M. N. J. M. K. &. O  ",
"T^ U^ V^ p{ W^ {] X^ Y^ Z^ `^ %] %] &] R] e^  / ./ +/ @/ #/ $/ %/ &/ */ =/ -/ ;/ >/ a] ,/ '/ )/ a] a] b] !/ ~/ {/ ]/ ^/ // (/ _/ :/ _/ </ [/ }/ |/ 1/ 2/ 3/ 4/ [^ 5/ 6/ 7/ 8/ 9/ 0/ a/ b/ c/ d/ e/ f/ g/ k$ y= l$ l$ A= l$ 5- 5- 5- O> O> l$ y= l$ y= y= l$ O> l$ 5- 5- O> 5- 5- O> O> y= k$ k$ A= A= k$ A= y= k$ N. _% k$ N. N. N. N. N. N. N. _% N. N. x+ N. N. N. N. K. J. K. L. M. J. &. C  ",
"h/ i/ j/ k/ l/ m/ n/ o/ b^ p/ q/ r/ G] s/ t/ u/ v/ w/ x/ y/ z/ A/ B/ C/ D/ E/ F/ b] b] o^ G/ H/ a] $^ I/ J/ K/ L/ w^ *^ M/ r  N/ O/ P/ Q/ R/ S/ T/ U/ V/ W/ X/ Y/ 1{ Z/ `/  ( .( +( @( #( $( %( &( _) Q. N. l$ l$ A= N. k$ 5- 5- 5- 5- O> 6- l$ k$ l$ l$ l$ l$ l$ O> O> O> l$ A= y= A= k$ k$ k$ k$ k$ k$ _% l$ A= N. N. _% M. x+ N. N. N. N. N. N. N. x+ N. N. N. M# K. L. K. K. L. L. O. O. *( ",
"=( -( ;( >( ,( V^ '( O] )( !( ~( {( ]( ^( /( (( _( :( <( [( }( |( 1( 2( 3( 4( 5( 6( 7( 8( 9( 0( a( a( b( c( d( e( f( g( h( i( j( k( l( m( n( o( p( q( r( T/ s( t( u( v( w( x( y( z( A( B( C( D( E( R  O. N. y= l$ k$ N. N. N. k$ l$ O> O> 5- l$ k$ A= A= 6- 5- 5- O> O> O> l$ A= A= N. N. N. N. _% k$ k$ _% A= k$ _% k$ N. x+ M. N. N. x+ N. N. x+ M. M. J. M. J. a@ J. K. J. J. L. L. L. b@ F( ",
"G( H( I( J( K( L( M( N( !( O( m{ P( Q( R( S( T( U( V( W( X( X( Y( Z( `(  _ ._ a( 0( +_ @_ +_ 0( #_ $_ %_ &_ *_ =_ -_ ;_ >_ _! ,_ +% '_ I{ )_ !_ n( ~_ {_ ]_ */ ^_ /_ (_ __ :_ <_ [_ }_ |_ 1_ 2_ 3_ 4_ 5_ _% l$ N> 5- l$ A= N. N. _% l$ 5- 5- O> l$ 5- 5- 6- O> 5- 5- O> O> $; N> l$ k$ N. k$ N. N. A= A= A= A= k$ N. k$ N. N. N. N. N. N. K. M. M. O. &. L. M. J. J. M. M. A~ M. N. N. N. N. X. ",
"6_ 7_ 8_ 9_ 0_ a_ b_ c_ d_ e_ f_ p/ g_ h_ i_ j_ k_ l_ m_ n_ o_ p_ q_ r_ s_ t_ u_ v_ w_ x_ y_ z_ A_ B_ C_ D_ E_ !% F_ V, G_ H_ I_ J_ 4/ K_ L_ 3. M_ N_ O_ P_ Q_ R_ S_ T_ U_ V_ W_ X_ Y_ Z_ `_  : .: +: @: #: b@ y= 5- O> l$ _% :% N. 5- 5- N> l$ l$ O> O> N> 5- O> O> O> O> $: %: O> O> 5- y= l$ A= y= A= y= y= N. _% k$ N. N. N. K. K. N. K. L. M# M. x+ K. M. K. L. L. &. y+ M. N. N. x+ N. X. ",
"&: *: =: -: ;: >: ,: ': ): !: ~: f_ {: ]: ^: /: (: _: W( :: <: [: }: |: 1: 2: 3: 4: 5: a( 6: 7: 8: 9: 0: a: b: !% c: d: e: f: g: h: i: j: k: l: m: n: o: p: q: r: s: t: u: v: w: x: y: z: A: B: C: D: E: F: G: H: _% y= l$ l$ N> y= 5- 5- k$ y= A= N> 5- 5- k$ l$ y= 5- O> O> O> O> O> O> y= y= k$ k$ k$ y= A= l$ k$ N. N. N. _% N. N. k$ z= :) :) k$ :% k$ N. N. N. N. O. J. x+ x+ K. K. K. G  ",
"I: J: K: L: M: N: O: P: Q: R: S: T: d^ U: V: W: X: Y: Y: Z: `:  < .< +< @< #< $< %< &< *< =< -< ;< >< ,< '< )< 6= !< ~< {< ]< O$ ~$ ^< /< (< _< :< .@ << [< }< |< 1< G^ 2< 3< 4< 5< 6< 7< 8< 9< 0< a< b< c< d< e< f< g< A= 5- O> O> l$ 5- 5- O> O> 5- 5- O> l$ k$ l$ l$ A= h< 5- O> O> O> 5- 5- A= A= k$ A= A= y= A= N. A= k$ A= _% N. :% A= l$ l$ l$ z= k$ k$ k$ :% N. N. _% _% x+ J. M. J. E  ",
"i< j< k< l< m< n< o< p< a_ Q: q< r< s< t< u< v< w< x< y< z< A< B< <: C< D< E< F< G< H< I< J< K< L< M< N< O< P< Q< R< S< Y! [{ T< U< V< W< X< Y< t' Z< L{ :{ `< n%  [ S/ .[ +[ @[ #[ $[ %[ &[ *[ =[ 0< -[ ;[ >[ ,[ '[ )[ ![ A= 5- 5- O> O> O> O> O> O> O> O> l$ A= A= A= l$ 5- O> O> O> O> 5- l$ 5- l$ l$ 5- A= k$ A= N> l$ l$ l$ l$ N> O> 5- O> 5- l$ l$ l$ A= A= :% N. _% N. k$ L# M. x+ K. K  ",
"J: ~[ {[ ][ ^[ /[ ([ p< _[ :[ <[ [[ }[ ^( |[ 1[ 1[ 2[ 3[ 4[ 5[ 6[ 4+ 7[ 8[ 9[ 0[ a[ R_ b[ c[ d[ e[ f[ g[ h[ i[ A) T< l: j[ k[ l[ m[ n[ o[ p[ q[ r[ s[ t[ u[ v[ w[ x[ y[ z[ A[ g_ B[ `/ C[ D[ E[ F[ G[ H[ I[ J[ K[ L[ M[ N[ O[ A= O> 5- 5- l$ N> l$ O> O> O> 5- A= N. A= A= l$ 5- O> O> O> 5- N> y= 5- l$ z= _% A= O> O> O> O> 5- 5- 6- O> O> $; 5- l$ A= k$ _% k$ k$ A= N. K. x+ N. N. K. M. G  ",
"6_ P[ Q[ R[ S[ T[ U[ P: V[ W[ !( X[ R( Y[ Z[ `[  } .} +} @} #} $} %} &} *} =} -} ;} >} ,} '} d[ '} e( )} !} ~} {} ]} ^} /} (} @' _} :} <} [} }} |} 1} 2} 3} 4} 5} 6} 7} 8} 9} 0} a} b} c} d} e} f} g} h} i} j} k} l} m} n} o} p} y= l$ l$ :) 5- O> O> O> x+ q} r} s} t} u} v} w} 5- 5- O> 5- O> O> 5- l$ A= 5- 5- $: O> O> O> O> O> O> O> O> $; $; l$ A= A= k$ k$ y= :% M. x+ x+ N. N. x+ M. J  ",
"x} y} z} A} B} C} D} E} F} G} H} =] I} `[ H} J} K} L} M} N} O} P} Q} R} S} T} U} V} W} '} ,} X} X} ^_ Y} Z} `}  | .| +| @| #| $| %| &| *| =| -| ;| >| +~ ,| '| /) )| !| ~| {| ]| ^| /| (| _| :| <| [| }| || 1| 2| 3| m} 4| 5| 6| 7| l$ l$ 5- l$ l$ 5- 8| 9| 0| a| b| c| d| e| f| g| A= :% l$ 5- O> 5- 5- l$ l$ 5- 6- O> O> O> O> $: %: O> O> 5- O> O> h< 5- A= :) z= A= k$ N. N. _% N. N. _% #. ",
"h| i| p< j| P: k| l| m| n| o| p| q| r| s| t| u| v| w| x| y| z| A| B| C| D| E| F| G| H| I| J| Q_ Y} K| L| M| N| O| P| Q| R| S| T| U| V| W| X| Y| Z| `|  1 .1 +1 @1 #1 $1 %1 &1 *1 =1 -1 K( ;1 >1 ,1 '1 )1 !1 ~1 {1 ]1 ^1 /1 (1 _1 :1 <1 l$ 5- O> 5- 5- [1 }1 |1 11 21 31 41 51 61 71 _% x+ A= O> O> O> O> $: 6- O> O> %: 81 81 O> O> 91 O> O> O> 5- l$ l$ N> y= k$ y= l$ A= k$ N. N. _% k$ N. F( ",
"01 a1 b1 c1 d1 e1 f1 g1 h1 i1 j1 k1 l1 m1 n1 o1 p1 q1 r1 s1 t1 u1 v1 w1 x1 V} y1 z1 A1 B1 C1 D1 E1 F1 G1 H1 I1 J1 K1 L1 M1 N1 O1 P1 Q1 R1 S1 X| +~ T1 U1 V1 W1 W1 X1 Y1 3} Z1 o' %@ `1  2 .2 +2 @2 #2 $2 L[ %2 &2 *2 =2 -2 ;2 >2 ,2 '2 l$ 5- O> l$ )2 u} !2 ~2 {2 ]2 ^2 /2 (2 _2 :2 <2 A= z= O> O> O> O> O> O> 5- O> $: $: $: O> O> 6- O> O> O> O> l$ y= 5- 5- y= y= k$ :% N. N. N. k$ N. K. [2 ",
"}2 |2 12 22 32 42 52 62 72 82 92 02 a2 b2 c2 K{ 3@ d2 4! e2 F> f2 g2 h2 i2 j2 k2 l2 m2 U& n2 o2 p2 q2 r2 s2 t2 u2 v2 w2 x2 y2 z2 A2 B2 C2 D2 E2 r[ F2 +1 G2 H2 I2 X1 J2 K2 L2 `, M2 N2 O2 P2 Q2 R2 S2 T2 U2 V2 W2 X2 Y2 Z2 `2  3 .3 +3 5- $; l$ A= @3 #3 $3 %3 &3 *3 =3 -3 ;3 >3 ,3 '3 A= k$ l$ 5- O> O> $: O> O> O> $: $: 91 5- 5- 5- l$ 5- 5- 5- 5- 5- O> O> 6- 5- l$ A= _% K. K. N. M# L. )3 ",
"!3 ~3 {3 ]3 ^3 /3 (3 _3 :3 <3 [3 }3 |3 +1 13 23 33 :{ 43 53 63 73 83 93 03 a3 b3 J{ c3 d3 e3 f3 g3 h3 i3 j3 k3 l3 m3 n3 o3 p3 q3 r3 s3 t3 u3 v3 w3 x3 y3 z3 A3 U1 B3 C3 D3 E3 F3 G3 H3 I3 J3 K3 L3 M3 2| N3 O3 P3 Q3 R3 S3 T3 U3 V3 W3 A= l$ A= _% X3 Y3 Z3 `3  4 .4 +4 @4 #4 $4 %4 &4 A= z= y= l$ 5- $: 81 $: $: %: $: O> O> 5- 5- 5- 5- 5- l$ l$ 6- N> O> O> $; 5- l$ y= M. N. N. z= :% x+ *4 ",
"!3 =4 -4 ;4 >4 ,4 '4 )4 !4 ~4 {4 ]4 ^4 /4 (4 _4 :4 <4 [4 }4 |4 14 24 34 R< 44 54 64 ^< 74 84 94 04 a4 b4 c4 d4 e4 f4 p2 g4 h4 i4 j4 k4 l4 m4 n4 o4 p4 q4 r4 s4 t4 u4 v4 w4 x4 y4 z4 A4 B4 C4 D4 E4 F4 G4 H4 I4 J4 K4 L4 ;2 M4 N4 O4 P4 Q4 A= l$ R4 S4 T4 U4 V4 W4 X4 Y4 Z4 `4  5 .5 +5 g/ k$ 5- 5- O> 81 81 $: $: 81 O> O> l$ 5- O> O> O> 5- O> 5- O> $; 5- l$ l$ l$ k$ z= A= y= :% N. N. k$ R. ",
"@5 #5 $5 %5 !4 &5 *5 =5 -5 ;5 >5 ,5 '5 )5 !5 ~5 {5 ]5 ^5 /5 (5 _5 :5 <5 [< [5 }5 |5 15 25 35 45 a, 55 65 75 85 95 05 A2 j4 a5 b5 c5 d5 e5 f5 g5 h5 i5 j5 k5 l5 m5 n5 o5 p5 q5 x4 r5 s5 t5 02 u5 v5 w5 x5 I4 y5 z5 A5 B5 C5 D5 E5 F5 G5 H5 N. I5 J5 K5 L5 M5 N5 O5 P5 Q5 R5 S5 T5 U5 V5 Q4 M. 5- 5- O> $: 6- O> O> $: O> 6- k$ y= $; N> :) N> l$ 5- 6- l$ l$ k$ k$ k$ l$ y= y= k$ :% k$ N. N. K  ",
"W5 X5 !4 Y5 Z5 `5  6 .6 +6 @6 #6 $6 %6 &6 *6 =6 -6 ;6 >6 ,6 '6 )6 !6 C@ ~6 {6 ]6 25 ^6 /6 /6 (6 _6 :{ f# :6 0# <6 1+ [6 }6 |6 16 26 36 46 56 66 76 86 96 06 a6 b6 c6 d6 e6 f6 g6 h6 y4 i6 j6 k6 l6 m6 n6 o6 p6 q6 r6 s6 t6 u6 E5 v6 w6 x6 <1 y6 z6 A6 B6 C6 D6 E6 F6 G6 H6 I6 J6 K6 L6 N. :% N> O> 6- y= A= :% z= :) 5- l$ A= l$ 5- N> 5- O> N> O> 5- k$ k$ A= A= A= l$ y= k$ N. N. N. N. M. G  ",
"M6 N6 O6 P6 Q6 R6 S6 T6 U6 V6 W6 X6 Y6 Z6 `6  7 .7 +7 @7 #7 $7 O{ X+ %7 &7 *7 15 15 8, =7 -7 G@ ;7 >7 +@ ,7 ;7 '7 )7 ^+ 95 !7 !7 !7 ~7 {7 ]7 ^7 P1 /7 (7 _7 :7 <7 [7 }7 |7 17 27 37 w4 `| 47 57 67 77 87 97 07 a7 b7 r6 c7 d7 e7 f7 g7 h7 i7 j7 k7 l7 m7 n7 o7 p7 q7 r7 s7 t7 u7 v7 w7 A= A= 5- O> _% N. M. M. _% k$ l$ y= 5- O> $: O> O> O> O> 5- y= A= k$ l$ l$ l$ k$ k$ N. M. N. _% N. M. A+ ",
"x7 y7 z7 A7 B7 C7 y3 w3 D7 E7 F7 G7 H7 I7 J7 K7 L7 M7 N7 ]| O7 i4 (7 P7 X+ Q7 u~ R7 S7 T7 U7 V7 W7 +@ X7 Y7 c# e# Z7 `7  8 .8 +8 @8 #8 $8 %8 &8 *8 =8 -8 ;8 >8 ,8 z7 '8 )8 !8 ~8 {8 V1 ;6  1 ]8 ^8 /8 (8 _8 :8 <8 [8 }8 |8 18 28 38 48 58 68 78 88 98 08 a8 b8 c8 d8 e8 f8 g8 h8 i8 A= O> $: %: 5- k$ N. k$ A= l$ 5- O> O> O> O> O> 6- 5- O> $: O> 5- N> z= l$ l$ l$ A= k$ N. M. x+ A= _% N. Q. ",
"j8 k8 l8 )| m8 n8 o8 :+ p8 q8 %1 r8 w3 s8 t8 u8 v8 w8 x8 s_ y8 z8 6} A8 B8 C8 D8 E8 F8 F8 T7 G8 H8 I8 ,7 J8 K8 L8 M8 N8 O8  8 P8 @8 Q8 R8 S8 T8 U8 V8 =6 ,8 W8 X8 Y8 Z8 `8  9 .9 +9 @9 #9 v~ $9 %9 &9 *9 =9 -9 ;9 [8 }8 >9 D5 ,9 '9 )9 !9 ~9 {9 ]9 ^9 /9 (9 _9 :9 <9 [9 }9 |9 19 29 O> %: %: $: $: O> l$ N> 5- O> O> O> O> $: $: $: 6- 5- N> O> O> 5- 5- l$ k$ k$ k$ y= A= l$ l$ k$ y= k$ x+ L) ",
"39 49 59 69 79 89 99 09 Y< a9 b9 c9 d9 e9 f9 g9 h9 i9 n3 j9 49 k9 l9 m9 n9 o9 k9 p9 q9 r9 s9 I8 X7 r9 t9 u9 E8 v9 w9 x9 y9 z9 C8 |6 A9 g4 q3 B9 C9 D9 E9 F9 A7 G9 H9 I9 37 J9 K9 L9 M9 N9 O9 Y8 P9 Q9 R9 S9 T9 U9 V9 W9 X9 Y9 Z9 ,9 `9  0 ,1 .0 +0 @0 #0 $0 %0 &0 *0 =0 -0 ;0 >0 8| O> O> O> O> O> O> O> O> $: 6- O> O> O> O> O> $: O> 5- N> O> 5- l$ l$ k$ k$ k$ A= l$ l$ 5- :) y= y= y= K. ;# ",
",0 '0 )0 !0 ~0 {0 ]0 ^0 /0 (0 _0 :0 <0 H@ [0 }0 |0 10 20 30 40 50 60 70 80 90 00 M7 a0 @@ '7 >7 b0 c0 @@ d0 |+ e0 f0 g0 h0 i0 j0 k0 l0 m0 1  n0 o0 .~ p0 q0 r0 s0 y4 t0 u0 u0 v0 w0 x0 y0 z0 A0 B0 C0 D0 E0 F0 G0 H0 )9 I0 J0 K0 ,9 L0 M0 N0 O0 P0 Q0 R0 S0 T0 U0 V0 W0 X0 Y0 Z0 5- 6- 6- O> 6- O> O> O> O> 5- l$ z= l$ N> 5- O> O> 5- 5- l$ N> N> l$ l$ A= l$ 5- 5- y= N> :) 5- N> :) z= K. Y. ",
"`0  a  a .a 6, +a $1 @a #a $a %a &a *a =a H8 -a ;a >a ,a 'a r2 )a !a ~a {a ]a ^a /a (a &7 g# _a L{ h# ') 6, !6 g0 :a <a [a }a |a e9 1a 2a x3 K2 E9 3a q0 4a 5a 6a 7a 8a 9a 0a aa ba ba ca da ea fa ga ha ia ja ka la ma na s6 oa pa pa qa ra sa ta ua va wa xa ya za Aa Ba Ca y+ l$ l$ N> O> $: O> O> 5- y= A= k$ _% A= A= N> l$ l$ l$ 5- 5- N> A= A= z= k$ _% z= l$ :% k$ N. N. k$ l$ l$ N. Q. ",
"Da Ea Fa Ga Ha Ia $a Ja Ka Ka La Ma Na Oa Pa Qa Ra Sa Ta Ua Va Wa Wa Xa Ya Za `a  b &1 s8  7 Z, .b +b @b #b $b ~| ;a %b &b %7 |a e9 1a *b =b @a -b ;b q5 >b ,b 'b )b Q6 !b !b ~b {b ]b ^b /b (b _b :b <b [b }b |b 1b 2b 3b 3b 4b 5b Z9 ,9 6b 7b 8b 9b 0b ab bb cb db eb fb gb L# _% l$ 5- O> O> O> 5- A= N. N. N. k$ k$ l$ k$ N. k$ l$ A= l$ l$ _% _% _% N. N. _% A= _% _% N. k$ N. y= 5- :% H  ",
"hb ib jb kb lb mb nb ob d6 pb qb (b rb sb #a tb ub vb wb xb yb S7 zb f3 K7 5. Ab Bb Cb x3 Db 3} Eb :} Fb Gb Hb Ib Jb Kb Lb Mb -8 Nb Ob Pb Qb Ja Rb Sb Tb Ub Vb Wb Xb Yb Zb ]b `b  c .c +c @c 17 #c E  $. $c %c &c *c =c -c X2 ;c >c ,c 'c )c !c ~c {c ]c ^c /c (c _c :c <c [c M. y= O> O> 5- A= l$ 5- l$ l$ z= l$ l$ 5- 5- l$ y= z= N> 5- l$ l$ A= k$ N. k$ k$ k$ _% A= k$ k$ _% k$ k$ y= 5- Q. ",
"}c |c 1c 2c 3c U6 4c qb 5c 6c 7c 8c 8c 9c 0c ac F9 l5 bc cc dc ec A@ fc gc )6 @b hc ic jc kc D2 lc mc nc oc pc qc rc =8 sc q8 tc uc vc wc xc yc zc zc Ac Ac Bc Cc Dc Ec Dc `b Fc Dc Gc Hc Ic Jc Kc *( *4 Lc Mc Nc Oc Pc Qc Rc Sc ;c Tc Uc Vc Wc Xc Yc Zc `c  d .d +d @d #d $d %d 5- $: O> l$ A= 5- 5- l$ 5- A= y= A= l$ O> O> O> O> 5- O> O> 5- 5- 5- l$ l$ A= N. A= l$ N. k$ _% z= l$ :) 5- &. ",
"&d *d >6 5c =d Tb Ic -d ;d >d ,d 'd )d 8c !d ~d {d 6c ]d ^d /d (d Y< Pb _d a9 :d <d [d Fb }d |d 1d 2d 2d rc 3d 4d 5d 6d 7d 8d @a 9d :0 0d [7 6c Ac ad bd cd R6 dd ed Dc fd gd hd Fc id jd Dc Fc kd ld T. $. md nd od pd qd >2 rd sd ;2 td ud -c vd W2 wd xd yd zd Ad Bd Cd Dd Ed 5- O> O> l$ 5- O> O> N> l$ l$ k$ k$ 5- O> $: %: $: 91 91 O> O> O> 5- 5- O> l$ k$ l$ l$ k$ l$ N. z= $; N> l$ Fd ",
"Gd Hd Id Jd Kd Ld Md Nd Od Pd O6 Qd w0 Rd Sd Td Ud Vd Wd Xd Yd Zd `d  e kc .e +e @e V| #e $e %e &e *e =e {| -e ;e >e ,e a! 'e z7 Ja )e =b !e 3c ~e Id {e !b ]e ^e /e ed (e _e :e <e Ec [e }e |e 1e 2e L. L. 3e 4e 5e 6e =c 7e 8e [8 Sc 9e 0e ae be ce de ee fe ge he ie je ke le A= O> O> 5- 5- O> O> 6- O> 5- l$ 5- O> O> O> %: $: 5- :) O> O> $: O> O> O> 5- 5- 5- 6- O> 5- z= y= y= $; A= *( ",
"me ne oe |e pe qe re se te  6 ue ve we ca ba xe )d Tb @c ye ze Ae Be Ce De Ee Fe Ge He Ie Hb p8 Je Ke Le Me Ne Oe A8 Ra Pe Qe Re &d Se Te K2 #1 +1 Ue Ve We Xe Ye Tb Ze `e id qe  f 4c .f )d +f @f 0@ x+ _% N. f/ #f $f %f &f *f =f -f ;f >f ,f 'f )f !f ee ~f {f ]f ^f /f (f _f :f _% 5- O> 5- O> O> O> $: 5- 5- <f l$ O> 5- O> 5- y= O> $: $: %: O> O> 5- 5- 5- O> O> $: N> c, A= _% M) N. C  ",
"[f }f |f 1f 2f 3f 4f 5f 6f 7f 8f 9f 0f !b ca ba af bf cf df Ae ef ff gf hf if jf kf lf Ib mf nf of p3 pf qf rf e4 sf f0 R7 tf uf vf wf xf yf hc :d zf vc C3 d6 0c Af Bf Cf Df Ac Rb y~ ^d G2 Ef Ff N. A= l$ _% G  Gf Hf If Jf Kf Lf Mf Nf Of Pf Qf Rf !f Sf ee Tf Uf Vf Wf Xf Yf Zf L. x+ l$ 5- O> 5- `f  g .g +g @g #g $g A= O> O> 5- y= 5- 6- 5- 5- O> O> l$ O> O> O> $: O> M) N> z= A= N. O  ",
"%g &g *g =g -g ;g >g e1 ,g 'g X5 >4 )g Z5 !g Qd 9a ,d T6 ~g {g ]g ^g /g (g _g :g <g %@ [g }g A9 |g y2 1g f4 2g 3g 4g 5g U8 6g 7g 8g 9g 0g Cb 2a I7 ag :} bg qb }3 cg dg Af eg fg ]5 gg +1 bg hg ig k$ 5- O> l$ x+ F( jg kg lg mg ng og pg qg a< rg sg tg tg ug vg wg xg yg zg Ag Bg `  Cg Dg Eg Fg Gg Hg Ig Jg Kg Lg Q9 Mg <1 O> O> k$ _% l$ 5- O> O> O> O> 5- O> O> O> $: O> O> 6- l$ k$ M. O  ",
"Ng Og Pg Qg 32 Rg Sg Tg Ug Vg Wg Xg Yg Zg `g  h .h +h @h #h $h %h &h 56 *h o4 =h 6g -h ;h >h ,h 'h Xa )h !h ~h {h ]h ^h /h (h o' _h :h <h [h }h |h 2a @e 1h 2h 3h 4h 5h X6 Rb 6h mb ,| W| 7h 8h 9h A= 6- $: 5- 5- K. %. 0h ah bh ch I4 I4 dh eh fh ^c gh ug hh ih jh kh lh mh nh oh ph qh rh sh th uh vh wh xh yh zh Ah Bh '2 l$ l$ A= :% k$ y= 5- O> $: $: 5- O> $: %: %: $: O> 5- l$ A= N. F( ",
"Ch Dh Eh Fh Gh Hh Ih Jh Kh Lh Mh Nh Oh Ph x4 Qh Rh Sh Th Uh Vh Wh Xh Yh Zh `h  i Y+ Ra .i m8 -e +i U8 @i #i #i $i #i %i &i *i =i -i 5d ;i 6g =8 |h >i #e `! ,i 'i )i !i !i n5 6h ~i {i ]i ^i /i (i 5- O> $: O> O> l$ _% V  _i :i <i [i }i |i 1i 2i 3i ug 4i 5i 6i 7i 8i 9i 0i ai bi ci di ei fi gi hi ii ji ji ki li mi ni oi A= A= k$ N. l$ O> O> O> O> 81 O> O> O> %: $: O> O> l$ l$ :) k$ Q. ",
"pi qi ri si ti ui vi wi xi yi zi Ai Bi -| Ci Di Ei Fi Gi Hi Ii Ji Ki Li Mi Ni _h Oi $@ %@ Pi Qi Le Ri Si Ti $i Li Ui #i #i Vi Wi Xi Yi Zi `i  ' I7 ]0 I7 l1  j .j +j @j o0 #j $j %j &j *j =j -j ;j l$ O> $; 5- O> 5- A= x+ 4* >j ,j 'j )j !j ~j {j ]j ^j /j (j 6i _j :j <j [j }j |j 1j 2j 3j 4j 5j 6j 7j 8j 9j 0j aj bj cj dj A= A= l$ y= O> 5- O> O> 5- $: O> O> O> O> O> O> O> 5- 5- z= k$ Q. ",
";4 Q: Eh Fh ti ej _[ fj gj hj ij jj kj lj 5a mj nj oj pj qj rj sj tj #i @i uj a5 vj wj z2 xj yj zj Aj Bj Cj Dj Ej Fj Gj Hj Hj Ij Jj Kj Lj Mj Nj Oj Pj Qj *b Bb >i Rj Sj Tj Uj Vj Wj Xj Yj Yj Zj *g 5- O> 5- O> O> O> l$ l$ %. `j  k .k +k @k #k $k hh %k &k *k (j =k -k ;k >k ,k 'k )k !k ~k {k ]k ^k /k (k _k :k <k [k }k W. l$ 5- 5- 5- O> O> O> O> O> $: $: $: O> O> O> O> 5- N> y= A= k$ A+ ",
"|k 32 32 ti 1k 2k 3k 4k 5k 6k b1 7k 8k 9k 0k ak bk ck dk ek fk gk hk ik Mi jk kk lf c4 lk mk =e nk ok pk qk rk sk tk tk uk vk wk xk yk zk Ak Bk Ck Dk Ek =6 n8 `a Fk }h Gk Hk Ik Jk Kk Lk Mk Nk Ok 5- 5- 6- O> O> O> 5- l$ Pk Qk Rk Sk Tk Uk Vk Wk )f Xk Yk Zk `k  l .l +l @l #l $l %l &l *l =l -l ;l >l ,l 'l )l !l ~l :b _% y= 5- 5- 5- O> O> $: O> %: $: {l %: O> O> 5- l$ A= N. _% k$ c, G  ",
" 6 ]l ^l a1 /l (l _l :l b1 ej ej <l [l }l |l 1l 2l 3l 4l 5l 6l 7l 8l 9l 0l al bl t3 cl dl el uj p_ fl gl hl il jl kl ll ml nl ol pl Bk Ak ql rl sl tl ul vl wl xl yl zl Cb n0 lc Al Bl Cl Dl ~i El 5- 5- :) 5- O> l$ y= l$ Fl Gl Hl Il Tk @k Jl Kl Ll Ml Nl Ol Sf Pl Ql Rl Sl Tl Ul Vl Wl Xl Yl Zl `l  m .m x= S. b@ L. N. l$ +m O> 5- 5- O> %: %: %: 81 81 81 O> O> 5- y= k$ k$ N. k$ :% N. G  ",
"@m #m $m 1k %m &m Gh |2 *m %m =m -m ;m >m ,m 'm )m t< !m ~m {m ]m ^m /m (m _m :m <m 7l [m }m |m ]m 1m 2m 3m 4m 5m Ak Bk 6m Ak Bk Bk 7m 8m 9m 0m 9m am bm cm dm em .e .e fm +e Al gm #j hm im jm km l$ 5- y= 5- O> 5- l$ lm mm nm de om pm qm rm sm tm um vm wm vg xm ym zm Am Bm Cm Dm Em Fm Gm Hm Im Jm Km #. b@ <1 k$ l$ O> O> O> %: 81 81 81 81 $: $: $: O> O> 5- y= k$ k$ N. N. N. N. N. G  ",
"Lm Mm {3 #5 a1 Nm Om Pm Qg Qm *g Rm Sm Tm Um Vm Wm Xm Ym 82 Zm `m  n .n +n @n #n $n %n &n *n =n -n ;n >n ,n 'n )n !n ~n 7m 9m 8m {n 7m sl 6m ]n ^n /n ]n (n _n :n %j <n [n }n A3 |n $j Ve 5c 1n 2n O> :) l$ O> 5- l$ l$ A= 3n 0b 4n 5n 6n 7n 8n 9n 0n an bn cn dn en fn bi gn hn in jn kn ln mn nn on pn T  A= 5- 5- O> %: 81 %: O> $: 81 81 81 81 $: O> O> O> 5- A= k$ N. N. N. N. N. M. L. A+ ",
"qn rn ;g sn tn un vn Kh wn xn yn zn An Bn Cn Dn En Fn Gn v4 X6 Hn In Jn Kn Ln Mn Nn On Fi Mk Pn Qn t! ;n Rn Sn Tn Un Vn Wn Xn /n 7m sl am ^n Xn bm Yn Xn Zn `n  o .o >6 +o #9 n5 ~i @o #o $o %o &o O> O> O> O> 5- l$ l$ l$ *o =o -o ;o >o ,o 'o )o !o ~o {o ]o ^o /o (o _o :o <o [o }o |o 1o 2o 3o _) _% 5- O> $: %: 81 81 %: %: O> $: 81 81 81 81 81 O> O> O> l$ N. _% N. x+ M. M. N. x+ K. Q. ",
"4o 5o 1k 6o 7o 8o 9o 0o ao bo co do eo fo go ho io jo ko lo mo no oo nl po qo ro Ce so to uo vo wo xo yo zo Ao Bo Co Do Eo Fo Go Ho Io /n Jo Ko Lo (n Mo }1 No Oo Po Qo 'e 6c U6 C3 d6 Ro So To Uo O> O> O> O> O> 5- l$ l$ Vo Wo Xo Yo Zo `o  p .p +p @p #p $p %p &p *p =p -p ;p >p ,p 'p )p !p <% 5- O> O> O> $: 81 81 81 81 81 %: %: 81 81 $: $: %: $: O> 5- l$ k$ l$ _% N. N. N. N. N. N. 0@ ",
"~p {p Qg ]p ^p |k /p (p _p :p <p [p }p |p 1p 2p 3p 4p 5p 6p 7p 8p pl ql 9p Ph ~g 0p ap 4h bp cp Fi dp ep Xj fp gp hp ip jp kp lp mp np op ;( pp qp rp /n sp tp up vp wp C3 X6 qb 6c xp yp So $o zp O> O> O> O> O> 5- l$ l$ _% Ap #l Bp Cp Dp Ep Fp Gp Hp Ip Jp Kp Lp Mp Np Op Pp Qp Rp Sp Tp k$ l$ l$ 5- O> O> 81 $: %: %: 81 81 81 %: %: $: O> O> O> 5- 5- l$ k$ l$ l$ l$ y= l$ A= y= k$ k$ Q4 ",
"~p Up Vp Wp Xp Yp Zp `p eo  q .q +q @q #q $q %q &q *q =q -q ;q pl >q Bk ,q 'q )q !q ~q {q ]q ff ^q /q Ei (q _q :q <q [q Fo }q |q 1q 2q 3q 4q 5q Fh 6q 7q 8q 9q 0q aq bq B3 ^d cq dq Ye eq =d #o fq O> O> O> O> O> O> O> l$ x+ gq hq iq jq Ol kq lq mq nq oq pq qq rq sq tq uq vq wq Z% N> $; 5- 5- O> O> %: 81 81 81 81 81 81 81 %: O> O> O> O> 5- 5- l$ y= A= N> 5- O> l$ 5- A= N. k$ N. N. L. ",
"xq yq $6 .6 zq Aq Bq Cq Dq Eq Fq Gq Hq Iq Jq Kq Lq Mq Nq Oq Pq No Qq 7m Rq Sq Tq Uq y4 Vq Wq Xq Yq Zq `q  r .r +r @r #r kp Yn $r %r &r xe *r =r -r ;r X5 >r ,r 2q 'r )r ~g qb cg /b !r Td ~r {r ]r 5- O> O> O> O> O> O> _% Fd ^r /r (r _r :r <r [r }r rg |r 1r 2r 3r 4r 5r 6r 7r _% :) 5- O> 5- l$ O> $: 81 81 81 81 81 81 81 O> O> O> O> O> 5- l$ N> l$ l$ l$ y= O> 5- l$ l$ A= N. N. _% N. P. ",
"8r 9r 0r ar br cr dr er fr gr hr Dq ir jr kr lr mr Nq nr or pr qr rr Fo sr tr ur vr wr  r xr y4 lj yr zr Ar Br Fo Cr Fo jp @r Dr Er Fr Gr Hr =r -r Ir Jr Kr Lr Mr Nr Or 8c Pr ad Qr `e ca Rr Sr Tr l$ l$ l$ l$ l$ 5- O> _% Ur Vr Wr Xr 0b Yr Zr `r  s .s +s @s #s $s %s 5r &s *s 5- O> O> %: O> N> 5- O> $: %: 81 %: 81 81 $: O> O> N> l$ l$ l$ y= l$ l$ 5- 5- l$ l$ l$ l$ l$ A= _% _% k$ k$ Q. ",
"=s -s ;s >s ,s 's )s !s ~s {s ]s ^s hr /s (s _s :s <s [s or or }s |s 8r kp 1s 2s 3s up }l 4s 5s 6s 7s 8s 9s 0s Fo Fo Fo Fo Eo as bs cs ds es fs *r gs hs is `e js ks ls ms ns bd os ps `e qs rs ss _% k$ A= A= A= y= :) z= @] ts us vs ws xs ys zs As Bs Cs Ds Es Fs Gs Hs Is Js O> O> 6- $: O> O> O> O> O> $: %: O> O> $: O> O> O> 5- 5- 5- l$ y= A= l$ l$ l$ l$ l$ l$ l$ l$ l$ A= k$ k$ A= &. ",
"Ks Ls Ms Ns Os Ps Qs Rs Ss Ts Us Vs 1p Ws Nq Xs Ys Zs `s  t [s .t Pq +t @t @r kp Cr #t kp $t %t &t *t =t -t Fo Fo kp kp @r ;t >t xe ,t 't 't ,t )t !t ~t {t ]t ^t /t ms js (t _t Kr ps :t <t [t }t |t 1t 2t 3t 4t z= A= k$ 5t 6t 7t 8t 9t 0t at bt ct dt et ft gt ht it jt kt lt mt 91 O> O> O> O> O> O> O> O> $: N> O> $: O> O> O> O> 5- 5- 5- l$ l$ l$ l$ l$ l$ l$ A= A= _% A= A= A= A= N. A+ ",
"nt ot pt qt rt st tt ut vt wt xt yt zt At Bt Ct Dt Et Ft Gt Ht It Jt Kt Lt Mt Fo Fo Mt Mt kp Nt }q $t $t 7m Xn Xn Xn am ;q 9s Ot Pt Qt Pt Rt 't js St Tt !b Ut Vt ba Sd ;r Wt >r Dc Xt Yt Zt `t  u .u +u @u #u $u A= k$ N. j$ %u &u *u =u -u ;u >u ,u 'u )u !u ~u {u ]u ^u /u (u _u $; 6- O> 5- 5- O> O> O> O> O> O> O> O> O> O> O> O> O> 5- 5- A= A= l$ l$ k$ A= l$ A= A= lm k$ k$ _% k$ N. Q. ",
":u <u [u }u |u 1u 2u 3u 4u 5u 6u 7u Dq 8u 9u 0u au bu cu du eu fu gu hu iu [q ju ju ku ju 8r 8r Cr 8r rl Qq lu mu nu ou pu qu ru xe ,t =r su Mr tu uu vu wu xu Fc yu yu >r zu Au Bu Cu Du Eu Fu Gu Hu Iu Ju Ku Lu Mu N. K. Nu Ou Pu Qu Ru Su Tu Uu Vu Wu Xu Yu Zu `u  v .v +v @v #v l$ 6- O> l$ 5- O> O> O> O> O> O> O> O> O> O> O> O> 5- A= 5- 5- 5- 5- 5- y= l$ l$ 5- A= z= A= :% k$ k$ N. y+ ",
"$v %v &v *v =v -v ;v >v ,v {s 'v )v !v ~v {v ]v ^v /v (v _v Et :v <v [v }v |v ju ku 1v ku #t Cr ju Cr Xn 2v 3v 4v 5v 6v 7v Pt su 8v 9v 0v Qt =r *r Sd av bv cv dv ev dv fv gv hv iv Bu Nd jv kv lv mv nv ov pv qv rv _% J. sv tv uv vv Wr /r wv 4b xv yv zv Av Bv Cv Dv Ev Fv Gv Hv N> O> 5- l$ 5- O> O> O> O> O> O> O> O> O> O> O> O> 5- 5- 5- O> O> O> O> l$ A= l$ l$ y= k$ k$ _% k$ k$ N. L. ",
"Iv Jv zm Kv rt Lv Mv Nv Ov >v Pv Qv Rv Sv Tv Uv Vv Wv Xv cu Yv Zv fu `v  w .w +w #t |s 1v ku ku ku Cr #r /n @w #w $w %w &w af !t qs *w =w -w ;w >w ,w 'w )w !w ~w {w ]w re ^w /w (w _w zu :w <w [w }w |w 1w 2w 3w 4w N. K. 5w 6w 7w 8w 9w 0w aw Y2 bw cw dw ew fw gw hw iw jw kw lw mw 5- O> O> O> O> O> O> O> O> O> O> 5- 5- O> O> O> O> O> 5- 5- O> O> O> 5- l$ A= A= A= _% N. N. N. k$ _% Z% ",
"nw ow Lv %l pw qw rw sw tw uw vw ww xw yw zw Aw Bw Cw Xv Dw Ew Et Fw Gw Hw Iw Jw Kw Lw 1v ju ku ku ku [q Mw Nw Ow Pw Qw Hr xe Rw Sw Tw ba Uw Vw Ww Xw Yw Zw `w  x (w .x _w .x +x @x hv {w fd #x $x %x &x *x =x -x ;x >x K. ,x 'x )x !x ~x {x ]x ^x /x (x _x :x <x [x }x |x 1x 2x 3x 4x 5- 5- O> O> O> O> O> O> $: O> O> O> O> O> %: $: O> O> O> O> 5- l$ l$ y= y= A= A= k$ A= N. N. N. N. _% $. ",
"5x 6x 7x 8x 9x 0x ax bx cx dx kr >v ex fx gx hx Nq ix jx Dw kx Dw /v lx mx nx ox px qx rx sx ku Lw tx ux vx 5v wx xx 'r xx yx =r ,t zx Ax Bx Cx Dx Ex ev Fx @x Gx Hx Ix Ix Gx Jx =g qn Kx :e Lx Mx Nx Ox Px Qx Rx Sx Tx <% Ux Vx  k Wx Xx Yx Zx `x  y .y +y @y #y $y %y &y *y =y -y ;y O> l$ O> O> 5- 5- 5- 5- O> O> O> O> O> O> $: O> O> O> O> O> O> 5- l$ y= _% k$ A= N. k$ N. _% N. N. N. F( ",
"dr >y Jv ,y 'y 5x )y !y ~y {y zt Eq ]y ^y /y (y _y :y Dw Et <y kx Et Gw [y `v }y |y 1y 2y 1v 1v 3y 4y yq 5y 6y 7y 8y 9y Fr 0y ay by cy dy dy ey dy fy gy hy @x Jx iy *g jy ky Ix ly =g my ny oy py qy ry sy qy ty uy vy wy xy 3p yy zy Ay By Cy Dy Ey Fy Gy Hy Iy Jy Ky Ly My Ny Oy Py 6- 5- O> O> :) O> 5- 5- O> O> O> O> l$ O> O> O> O> O> O> O> O> 5- l$ A= k$ A= :) A= k$ _% k$ k$ N. N. X. ",
"Qy Jv Jv Ry /o 5x Sy Ty Uy dx Vy ww Wy Xy Yy Zy `y  z .z <y +z @z #z Et $z Ew %z &z *z =z rx -z ;z sx ju >z ,z 'z )z tu Vw Cx Dx !z ~z 'w {z ]z ^z bv gy ev /z (z $m _z {z :z 32 <z {3 4f [z }z |z 1z 2z 3z 4z 5z 4z 6z 7z 8z 9z 0z az bz (j cz dz ez Ey fz gz hz iz jz kz lz mz nz oz k$ 5- O> 81 %: 5- pz 5- O> O> O> O> 5- N> 5- 5- O> O> O> O> O> O> l$ z= k$ k$ A= k$ N. N. N. A= c, N. X. ",
"qz ow rz /o ow Lv sz tz ex uz vz wz xz yz zz Az Bz Cz Dz Ez Fz Gz %z Hz Dw `v Iz Jz Kz Lz Mz 1v Nz ku ju Oz Pz Qz Rz Sd Sz *r Tz Uz Vz Wz gy Xz !g Yz gv Zz {w gv 4f `z  A .A Gh *m +A ^w @A #A $A %A &A *A =A 3z -A ;A >A ,A 'A )A !A ~A {A ]A ^A /A (A _A =k Yo :A <A [A }A |A 1A 2A 3A 5- O> %: 81 O> O> O> O> O> O> O> O> O> O> O> O> O> O> O> O> O> O> :) A= A= _% _% k$ k$ k$ k$ N. N. G  ",
"4A 5A 6A 7A 8A 9A 0A aA bA cA >v dA eA fA gA hA iA jA kA lA mA nA &z _v oA pA qA rA sA tA uA Lw sx ju Fo Fo kp vA wA xA yA ba fs af Uw zA >r uu fs tu Ug gv AA Ix BA BA CA %m 12 +A #m DA ev EA FA GA =A HA IA JA KA LA MA NA rm OA PA QA RA *k SA /x TA UA VA 3i WA XA YA ZA `A  B .B +B %: $: %: %: $: O> 5- k$ z= l$ 6- $: O> O> O> O> O> 5- 5- O> O> 6- 5- N> A= k$ A= k$ k$ N. _% _% N. T. ",
"@B #B $B %B &B *B =B -B ;B >B wz ,B 'B )B !B Bw Az ~B {B ]B mA ^B /B (B _B :B <B [B }B |B 1B 2B ku Cr kp Fo Fo Oz 3B 4B 5B ba ba fs Ax 6B O6 7B *r *r Sd av {w 8B 9B 0B aB =g aB Lm (w ~w bB cB dB eB fB gB hB iB jB kB lB mB nB oB pB qB rB Su 9w sB tB uB Zr VA qB vB wB xB yB zB AB BB 6- $: $: %: 81 O> O> $: 6- O> O> O> O> O> O> O> O> l$ l$ 5- O> 5- O> 5- y= k$ k$ A= k$ N. _% k$ N. I. ",
"CB DB cr EB FB GB Wl HB IB JB ex KB LB [s MB NB OB PB QB Ez RB SB TB UB VB WB XB YB ZB `B  C ku ju Lo .C Fo Fo Fo 0m +C np *r =r @C Vw Td #C ba 7B yA ba Ax $C {t %C cv  x  x 8B }2 `z 8o &C *C =C -C ;C >C /r ,C 'C )C !C ~C {C ]C ^C /C (C 5i Zk Zk _C :C <C =k [C }C ^C |C 1C 2C 3C 4C 5- O> $: $: 81 O> $: 81 81 81 O> O> O> O> O> O> O> l$ N> 5- O> l$ O> 5- l$ _% k$ l$ A= A= y= k$ N. Q. ",
"5C 6C 7A /o 7C 8C 9C 0C IB aC >B bC cC dC `y eC fC gC 9u hC iC jC kC lC mC nC oC pC qC rC sC #t Cr Fo Cr Fo tC Fo tC uC vC wC xC yC zC AC da =r bs fs aa ms Pt BC tu CC DC EC FC GC HC IC JC KC LC MC NC OC PC QC RC 9b SC TC UC pB VC WC XC YC Zk 'A ZC `C RA  D >k .D +D @D #D $D %D &D y= O> $: $: 81 O> $: 81 81 81 O> O> O> O> O> 5- O> 5- O> O> O> 6- $: O> N> k$ k$ l$ A= A= l$ l$ _% &. ",
"*D =D -D /o ;D >D Ry ,D 'D Hq )D 4u !D ~D {D ]D ^D /D (D _D :D <D [D }D |D 1D 2D 3D 4D 5D 6D 7D Mo kp Fo bm Lo Fo Fo {n 8D 9D 0D aD bD Rt ;d cD dD eD da fD gD gD hD cD iD jD kD lD mD w/ nD oD pD qD rD sD tD uD 9e O4 vD wD xD yD zD AD BD CD Wr DD ED FD GD HD ID JD KD P@ LD MD ND OD 0@ O> $: 81 81 81 81 81 81 81 81 %: 81 $: O> O> O> O> O> O> O> 5- O> O> l$ _% N. _% _% _% :% k$ N. W. ",
"lr PD QD DB RD SD nw TD UD VD 2p WD XD YD (y Nq ZD `D  E .E J+ +E @E #E $E %E &E *E =E -E ;E >E am ]n kp kp ,E 7m bm 'E )E !E ~E yi {E ]E ^E /E (E Ae _E :E <E [E }E |E 1E 2E 3E 4E 5E 6E 7E 8E 9E 0E rB  l aE bE cE Wu dE eE fE gE hE iE jE kE lE mE nE oE pE _o qE rE sE tE eb uE vE wE A= O> $: %: 81 81 81 81 81 81 81 81 %: $: $: $: O> O> O> O> 5- 5- O> O> y= N. N. N. k$ k$ A= k$ _% P. ",
"xE yE zE AE RD BE CE DE EE FE ~y GE ~D Nq [s or HE IE JE KE LE ME NE OE PE QE RE SE TE !9 UE VE WE XE YE ZE `E  F .F +F @F #F $F %F &F *F =F -F ;F >F ,F 'F )F !F ~F {F ]F ^F /F (F _F :F <F [F }F |F 1F rB 2F 3F rB 4F 5F 6F 7F 8F 9F 0F aF bF cF dF ym eF kz fF gF dn hF iF jF kF lF mF 5- O> O> O> $: 81 81 %: $: 81 81 81 $: $: 81 81 $: O> O> O> A= A= l$ l$ A= _% z= z= A= y= A= A= _% &. ",
"nF oF pF qF rF sF JB Jq tF ]v ,s uF vF ]D dC ^D wF xF Ap yF zF AF BF CF DF EF FF GF HF IF JF KF LF MF NF Nx OF PF QF RF SF TF UF VF WF XF YF ZF `F  G .G +G @G #G $G %G &G *G =G -G ;G >G ,G 'G )G !G ~G wd {G ]G ^G /G (G _G :G <G )x [G }G |G 1G 2G 3G 0x &l 4G 5G 6G 7G 8G 9G 0G aG bG N> 5- O> 5- 6- O> %: $: $: $: $: $: O> O> O> $: O> O> O> O> l$ y= O> 5- l$ k$ k$ k$ k$ k$ _% k$ _% &. ",
"cG dG eG fG gG hG iG jG kG lG mG nG oG pG qG MB rG sG tG uG vG wG xG yG zG AG BG CG DG EG FG GG HG IG JG KG LG MG NG OG PG QG RG SG TG UG VG WG XG YG ZG `G  H .H +H @H #H $H %H &H *H =H -H As ;H >H ,H 'H )H !H ~H {H ]H AD ^H FD ym /H 'A 0F (H _H :H <H 5G Yo [H }H |H 1H 2H 3H 4H y= l$ l$ N> 5- 5- O> O> $: $: %: $: $: O> O> O> O> O> O> O> 5- 5- y= 5- 5- l$ l$ l$ l$ l$ l$ l$ l$ _% &. ",
"5H 6H 7H 8H 9H 0H aH bH cH dH eH fH gH hH hH iH jH kH lH mH nH oH pH qH rH sH tH uH vH wH xH TG yH zH AH BH CH DH EH FH GH HH IH JH KH LH MH NH OH PH QH RH SH TH UH VH WH XH YH ZH `H  I .I +I @I #I $I %I &I yy *I =I Ql -I ;I >I ,I 'I )I !I ~I {I ]I ^I 5G /I (I _I :I <I [I }I |I A= 5- 5- O> O> O> O> O> 81 81 81 81 81 $: O> O> O> O> O> O> 5- l$ A= l$ l$ l$ l$ l$ l$ l$ A= k$ k$ N. %. ",
"1I 2I 3I 4I 5I 6I 7I 8I 9I 0I aI bI cI dI eI fI 2z 3z gI hI iI jI kI lI mI nI oI pI qI rI sI tI uI vI wI xI yI zI AI BI CI DI EI FI GI HI II JI KI LI MI NI OI PI QI RI SI TI UI VI WI XI YI ZI `I  J .J wm +J .k @J =I bE #J $J %J &J ^x *J =J -J ;J vm ]H >J ,J 'J )J !J ~J {J ]J y+ k$ 5- O> O> O> O> O> O> 81 81 81 81 81 O> O> O> O> O> 5- O> 5- 5- :) 5- 5- 5- 5- l$ A= A= k$ N. N. N. T. ",
"^J dI 8I /J (J _J dI :J :J eI dI %A <J %A eI :J 7I [J }J }J |J 1J 2J /J 3J 4J 5J 6J 7J 8J 9J 0J aJ bJ cJ dJ eJ fJ gJ hJ iJ jJ kJ lJ mJ nJ JI oJ pJ qJ MI rJ sJ tJ uJ vJ wJ xJ `x us yJ WA zJ AJ [G BJ Zk RA CJ wD DJ EJ FJ GJ HJ IJ JJ KJ LJ MJ NJ OJ PJ QJ RJ SJ TJ UJ VJ WJ XJ YJ J. N. l$ O> 5- O> O> O> O> $: %: 81 81 81 O> O> O> O> O> 5- O> O> O> O> O> B] 5- 5- z= A= k$ k$ k$ _% N. %. ",
"ZJ `J bI 2J  K .K dI +K @K :J :J #K :J #K $K %K &K =A *K =K -K ;K *K >K ,K 'K )K yI !K ~K {K gJ ]K ^K /K (K _K :K <K [K }K JI |K 1K 2K 3K 4K 5K 6K 7K 8K 9K 0K aK bK cK dK eK fK gK (j hK iK jK om 9t kK lK mK nK 4G oK TC pK qK rK sK tK uK vK wK F+ xK yK zK AK BK CK DK EK FK GK _% N. _% l$ l$ O> O> O> O> O> $: O> %: 81 O> $: $: %: O> O> O> O> O> O> 5- A= A= l$ A= A= _% _% _% N. _% I. ",
"+K HK +K %A IK #K dI JK IK %A KK =K LK -K MK NK sy OK PK QK RK SK TK UK VK WK XK YK ZK `K  L .L +L @L PH #L $L %L &L *L nJ =L -L UG ;L >L ,L 'L )L !L KI !L ~L {L ]L ^L /L /L (L _L |j :L <L [L }L |L 1L 2L 3L 4L 5L 6L 7L 8L 9L 0L aL bL cL dL eL fL gL hL iL jL kL lL mL nL oL k$ l$ k$ N. A= 5- O> O> O> O> $: O> $: 81 81 O> %: $: O> O> O> O> O> O> 5- y= _% _% l$ y= A= N. N. N. N. N. X. ",
"iH ZJ ZJ HK 8I #K pL qL rL sL tL uL vL wL xL yL zL AL BL CL DL EL XK FL GL HL IL JL KL LL ML NL OL PL QL RL SL TL UL VL jJ VL WL XL YL >L ZL `L  M .M +M UG @M #M $M %M (L &M *M =M -M bz ;M >M ,M 'M |u )M !M ~M {M ]M ^M /M ]f (M _M :M <M qE [M }M |M 1M 2M 3M 4M 5M 6M 7M 8M O> O> 5- 5- 5- O> O> O> O> O> O> $: 81 %: %: O> $: O> O> O> O> O> 5- l$ l$ A= _% k$ A= A= A= k$ N. N. N. N. H  ",
"9M iI 0M aM bM cM dM eM fM gM hM iM jM kM lM mM nM oM pM qM rM sM tM uM vM wM xM yM zM wM AM BM CM DM +M EM TL FM }K GM HM IM JM KM LM RL MM NM OM PM QM RM SM TM UM VM WM XM YM ZM )f ih (j :C `M  N .N +N @N #N $N %N &N *N =N -N ;N >N ,N 'N )N <A !N gn ~N {N ]N ^N /N 8{ 5- O> O> O> O> O> O> O> O> O> O> O> O> O> O> O> O> O> O> O> O> 5- 5- l$ A= A= k$ N. k$ k$ _% N. N. N. N. N. N. Q. ",
"(N _N :N <N [N }N |N @L 1N 2N 3N 4N 5N 6N 7N 8N 9N 0N aN bN cN dN eN fN gN hN iN jN SF vM kN lN mN +L FM QH nN oN HM pN qN rN rN jJ sN tN uN vN QL wN .M xN yN TL zN AN BN CN DN EN FN GN 2i HN IN JN KN LN MN NN ON PN QN RN SN TN UN VN WN XN YN ZN `N  O .O +O @O #O k$ l$ 5- 5- 5- O> O> O> 5- O> O> 5- O> 5- O> O> O> O> O> O> O> O> O> 5- 5- l$ A= A= :% k$ k$ k$ N. N. N. M. M. M. M. X. ",
"$O %O &O *O =O -O ;O >O ,O 'O )O !O ~O {O ]O ^O /O (O _O :O <O [O }O |O 1O 2O 3O 4O 5O 6O 7O 2N 8O 9O 0O aO bO cO JI dO eO fO gO qN hO 1N iO jO kO >L xH tN FM lO xH mO nO oO pO qO rO sO tO uO vO wO xO yO zO AO BO CO DO EO FO GO HO IO JO KO LO MO NO OO PO QO RO z= A= N. k$ l$ O> O> O> O> O> O> O> y= l$ O> 5- 5- :) 5- O> O> O> O> O> O> O> 5- l$ y= k$ N. _% _% _% N. N. N. x+ x+ M. &. ",
"SO TO UO VO WO XO YO ZO 1O `O  P .P +P @P #P $P %P &P *P =P -P |O ;P >P ,P 'P )P !P ~P {P ]P ^P /P (P oJ _P uM 1K :P <P [P }P |P fN !L 1P ~L ZL 2P QL CM QH xH 3P YL nN 4P 5P FM yN 6P FH 5P 7P TM 8P PM 9P YL 0P aP bP cP dP eP SM fP gP hP iP Q. A~ _% A= k$ y= l$ O> l$ y= y= 5- O> O> O> O> 5- l$ A= k$ 5- 5- A= k$ k$ A= A= y= l$ l$ l$ l$ l$ A= k$ k$ _% N. k$ N. N. N. N. N. N. N. M. P. ",
"jP kP lP mP nP oP pP qP rP sP tP uP vP wP xP yP zP AP BP CP DP EP FP GP HP IP JP KP LP MP NP OP PP QP RP SP TP .L UP VP WP XP YP ML ZP `P 8O  Q .Q +Q .Q 4K @Q @Q #Q $Q 1P %Q &Q *Q II nN FM =Q -Q WL =Q =Q aP QH SL -L SM SM ;Q >Q ,Q 'Q )Q !Q A= y= _% M. N. A= l$ O> l$ l$ k$ A= N> 6- O> O> O> A= N. N. :) 5- A= k$ N. N. N. A= l$ l$ l$ z= A= k$ k$ k$ N. N. N. N. N. N. N. N. N. N. M. &. ",
"~Q {Q ]Q ^Q /Q (Q _Q :Q <Q Nx [Q }Q |Q 1Q 2Q 3Q 4Q 5Q 6Q 7Q 8Q 9Q 0Q aQ bQ cQ dQ eQ fQ gQ hQ eQ iQ jQ kQ lQ mQ nQ oQ pQ  Q qQ rQ sQ tQ uQ vQ wQ xQ 4K yQ nQ zQ AQ BQ CQ DQ EQ FQ 7K GQ HQ IQ JQ lN KQ LQ MQ NQ OQ PQ QQ RQ SQ <P TQ UQ VQ WQ XQ _% A= A= N. A= l$ l$ 5- l$ k$ N. A= :) $; O> O> O> A= _% z= O> 5- k$ k$ A= y= A= l$ l$ A= A= k$ A= _% :% k$ A= N. N. N. N. N. N. N. N. N. x+ L. ",
"YQ ZQ `Q <P  R .R +R fP &L @R #R $R %R &R *R =R -R ;R >R ,R 'R )R !R ~R {R ]R ^R /R (R _R :R <R [R }R |R 1R 2R 3R 4R 5R 6R 7R 8R 9R 0R aR bR cR dR eR fR gR hR iR jR kR lR mR nR oR pR oR qR rR sR tR uR vR wR xR yR zR AR BR CR DR ER FR GR HR N. N. A= A= 5- 5- 5- O> l$ k$ A= A= l$ O> O> O> O> y= l$ l$ A= A= k$ k$ l$ A= y= k$ N. N. k$ _% k$ _% k$ l$ A= N. N. N. N. N. N. N. M. N. N. L. ",
"IR JR KR LR MR NR UL NR vN OR PR QR RR SR TR UR VR WR XR YR ZR `R  S .S +S @S #S $S %S %S &S *S =S -S ;S >S ,S 'S )S !S ~S {S ]S ^S /S (S _S :S <S [S }S |S 1S 2S 3S 4S 5S 6S 7S 8S 9S 0S aS bS cS dS eS fS gS hS iS jS kS lS mS nS mS oS pS qS N. x+ N. k$ 5- 5- 5- 5- k$ N. N. N. k$ l$ l$ h< 5- 5- O> l$ x+ N. N. N. _% N. N. _% N. M. M. x+ k$ _% N. A= l$ l$ k$ N. N. N. N. M. K. M. J. Z% ",
"rS sS tS *L uS vS MR wS xS yS zS AS BS CS DS ES FS GS HS IS JS ^R KS LS MS NS OS PS QS RS SS TS US VS WS XS YS ZS `S  T .T +T @T #T $T %T &T *T =T -T ;T >T ,T 'T )T !T ~T {T ]T ^T /T (T _T :T <T [T }T |T 1T 2T 3T 4T 5T 8S 6T 7T 8T 9T 0T aT c, N. N. 5- 5- 5- 5- 5- k$ N. N. N. N. k$ l$ l$ A= l$ O> l$ K. M. _% <% _% N. N. N. N. M. N. K. x+ N. M. l$ l$ y= l$ k$ N. N. M. K. K. M. J. H  ",
"bT cT dT *L eT fT eT MR wS LR gT hT iT jT kT lT mT nT oT pT qT rT sT tT uT vT wT xT yT zT AT BT CT DT ET FT GT HT IT JT KT LT MT NT OT PT QT RT ST TT UT VT WT XT YT ZT `T  U .U +U @U #U $U %U &U *U =U -U ;U >U ,U 'U )U !U ~U {U {U ]U ^U /U k$ N. N. 5- l$ l$ 5- 5- N. N. N. N. _% A= 5- l$ A= 5- O> y= N. N. N. x+ N. x+ #g N. M# K. M. Q4 A~ N. N. l$ A= N. N. N. N. M. K. K. K. M. J. W. ",
"(U _U :U EM <U MR vN MR [U }U |U 1U 2U 3U 4U 5U 6U 7U 8U 9U 0U aU bU cU dU eU fU gU hU iU jU kU lU mU nU oU pU qU qU rU sU tU uU vU wU xU yU zU AU BU CU CU DU EU FU ZT GU HU IU JU KU LU MU NU OU =U PU QU RU SU TU UU UU RU VU WU XU YU ZU `U k$ A= l$ 5- l$ l$ 5- O> k$ N. N. N. k$ A= l$ l$ l$ 5- l$ K. J. K.  V .V +V @V #V $V %V &V *V K. <% N. _% A= N. N. N. x+ N. M. M. N. M. M. M. Q. ",
"=V -V ;V NR >V [U NM WL RM ,V 'V )V !V ~V {V ]V ^V /V (V _V :V !R <V [V }V |V 1V 2V 3V 4V 4V 5V 6V 7V 8V 9V 0V aV bV cV dV eV RT fV gV hV iV jV kV lV mV nV oV pV qV rV sV tV uV PU vV wV xV yV zV AV BV @U CV DV EV FV GV HV HV WU IV JV KV LV _% y= 5- 5- l$ l$ 5- 5- A= N. N. N. k$ y= l$ l$ A= :% N. _% $g MV NV OV PV QV PV RV SV TV UV W. Q4 M. x+ VV y= M. M. <% N. 0@ A~ N. N. N. N. &. ",
">L WV NR XV NR JM KM RM YV ZV `V iT  W .W +W @W #W $W %W iT &W *W =W -W ;W >W ,W 'W )W !W ~W {W ]W <T ^W /W (W _W :W <W [W }W |W XT 1W 2W 3W 4W 5W 6W 7W 8W 9W 0W aW bW cW dW eW fW gW hW ~U iW jW kW lW mW nW oW pW qW rW sW tW uW vW wW xW yW k$ A= 5- 5- l$ l$ l$ l$ k$ N. k$ k$ A= _% A= l$ l$ A= N. N. K. %. zW AW BW CW DW EW EW FW GW T. X. &. L. A= _% M. K. K. N. M. x+ N. _% N. N. &. ",
"UL >V eT [U KM UL [U }K ,Q HW IW JW KW LW MW NW OW PW QW rR RW SW kT TW UW VW WW XW YW ZW `W  X .X +X @X #X $X %X &X *X ,T =X -X ;X >X ,X 'X )X !X ~X {X ]X ^X /X (X _X :X <X [X }X |X 1X 2X 3X 4X 5X /T 6X 7X 8X mW EV 9X 0X aX bX cX dX eX fX z= A= l$ 5- l$ l$ O> O> y= A= _% k$ k$ _% k$ l$ l$ A= _% M. M. W. gX hX CW iX CW jX EW kX lX I. I. L. N. k$ N. K. K. K. Q4 J. x+ N. N. N. N. &. ",
"mX nX eT MR KM KM NM +L ZL oX pX qX )X rX sX tX cR uX vX RW wX xX yX zX AX BX CX DX EX FX GX HX IX JX CU KX *X LX MX NX OX PX QX RX SX TX UX VX WX XX YX ZX `X  Y .Y +Y @Y #Y $Y %Y &Y *Y /W =Y -Y |X ;Y >Y dX ,Y -U nS SU 'Y 0X aX rW )Y !Y ~Y y= y= l$ :% x+ :% A= N> k$ A= y= k$ _% y= z= A= k$ y= A= x+ K. W. {Y QV EW DW ]Y ^Y EW /Y (Y Fd Fd b@ K. :% N. M. M. A~ M. x+ N. N. N. N. N. &. ",
"RM _Y NR :Y <Y nJ [Y `L }Y |Y pR 1Y 2Y 3Y 4Y 5Y 6Y 7Y 8Y 9Y 0Y aY bY cY dY eY fY gY hY iY jY kY lY mY nY oY pY 3W qY xU rY sY tY uY vY wY xY fW yY zY AY BY CY DY EY FY GY HY IY 1X BY JY KY LY MY NY >Y OY )U /T PY QY RY SY TY UY VY WY XY YY l$ l$ A= M. K. M. K. _% A= A= A= A= l$ l$ y= k$ N. k$ k$ N. x+ L. ZY PV `Y BW DW EW DW  Z .Z S. S. Fd K. _% N. N. N. A~ N. N. :% N. N. N. N. A+ ",
"+Z NR vN <Y EM VL EM @Z #Z $Z %Z &Z *Z =Z -Z ;Z >Z ,Z 'Z )Z +W !Z ~Z ]S {Z ]Z ^Z /Z (Z _Z :Z <Z [Z }Z |Z 1Z 2Z 3Z 4Z 5Z 6Z 6Z 9W 7Z 8Z 9Z 0Z aZ &U bZ cZ }T dZ bV eZ fZ gZ hZ iZ jZ kZ lZ mZ nZ oZ pZ qZ aV rZ -U wU sZ tZ uZ vZ wZ xZ yZ zZ ~Y l$ l$ l$ _% x+ M. M. N. k$ A= y= l$ 5- l$ A= k$ N. k$ _% N. N. &. AZ BZ `Y `Y DW CW CW CZ DZ S. Ur S. 0@ <% N. <2 EZ J. g/ M. N. N. N. N. M. H  ",
"FZ RM GZ HZ >Q  R EM VL mJ IZ JZ KZ LZ MZ NZ OZ PZ QZ 'Z RZ SZ TZ UZ VZ WZ YW XZ YZ ZZ `Z  ` .` +` @` #` $` dW %` &` *` =` -` ;` >` ,` '` )` !` ~` {` ]` ^` /` (` _` :` 8S <` -U [` }` |` eZ 1` 2` 3` 4` 5` 6` 7` 8` 9` ,U 8X pW JV ~U LU ^U 0` l$ l$ A= k$ N. x+ N. N. A= 5- 5- O> :) y= k$ _% N. A= N. M. M. Q. a` QV b` EW iX iX iX c` d` e` f` g` h` i` *V <1 Q4 L. g/ M. N. N. N. N. K. X. ",
"JM JM j` k` l` m` )L NM n` 3K o` p` q` r` s` t` u` v` w` x` y` z` A` B` C` D` E` F` G` H` I` J` K` L` M` N` O` P` Q` R` S` T` U` V` W` 6Z ~X X` Y` Z` 6` ``   .. .+ .{` =U bV @ .# .$ .kZ VX P` % .!T & .* .= .- .}` ; .> ., .' .pW ) .! .~ .{ .N. :% _% _% N. N. _% y= l$ 5- :) 5- 5- :) :% k$ x+ k$ N. K. ] .I. ^ ./ .DW CW iX CW iX ( ._ .: .< .[ .} .| .1 .2 .b@ b@ &. N. N. N. N. M. &. %. ",
"mX 3 .GZ FZ 4 .5 .6 .7 .8 .9 .0 .a .p` b .c .d .e .f .g .h .i .j .^S k .l .m .n .o .p .q .r .s .t .u .v .k .w .x .-T y .z .A .B .C .D .D .E .F .G .H .I .4` J .K .L .M .N .O .P .Q .@X R .S .T .U .V .W .X .Y .Z .` .,Y  .....+..'Y @..#..$..%..M. K. N. N. N. k$ y= 5- 5- 5- l$ N> O> l$ A= y= N. k$ M. K. K. Q. &..*..CW iX iX CW iX =..-..;..;..;..>..,..'..@g Fd &. &. <% N. N. M. K. &. %. ",
"KH JM )..VL >Q ;L !..6 .~../P {..]..^../..(.._..:..<..[..%T pS }..|..!W 1..2..L` 3..4..5..6..7..8..9..0..a..|W b..c..d..K .e..f..g..h..i..j..k..]` G .l..m..n..o..sY p..q..r..s..t..u..v..S .w..x..&U kZ y..6T z..z..A..B..C..D..%Y E..F..G..H..N. N. N. N. N. _% A= y= 5- O> O> O> O> l$ A= k$ N. x+ b@ W. X. %. I..J..iX iX EW `Y EW K..L..;..L..M..N..O..P..Q..W. Q. %. L. J. L. &. I. %. S. ",
"R..JM +M uN S..;L T..U..V..W..X..Y..Z..`.. +..+.++.@+.#+.$+.%+.&+.$` CU *+.=+.-+.;+.>+.,+.'+.)+.!+.~+.{+.]+.z .L .^+.~X  Y J ./+.(+._+.~X :+.<+.[+.}+.|+._+.1+.2+.3Z 3+.4+.5+.6+.7+.8+.9+.`X 0+.;U a+.b+.c+.d+.e+.f+.g+.h+.i+.j+.k+.MU l+.m+.n+.x+ M. N. N. N. N. k$ 5- l$ l$ l$ l$ l$ 5- l$ k$ _% A= N. N. L. &. o+.p+.q+.CW `Y r+.EW s+.t+.>..u+.v+.w+.x+.y+.z+.Ur H  T. Q. &. Q. Q. S. S. S. ",
"A+.B+.B+.xN +M QL a .$Q C+.D+.E+.F+.G+.H+.I+.J+.K+.L+.M+.N+.O+.0..P+.Q+.R+.S+.T+.U+.V+.W+.X+.Y+.Z+.`+. @.tV .@.+@.@@.#@.EU WX $@.%@.&@.*@.=@.-@.;@.>@.,@.  .'@.)@.!@.~@.I .{@.]@.^@.g../@.R .(@._@.:@.DV )Y <@.[@.}@.|@.1@.2@.3@.4@.5@.6@.{V 7@._% N. N. N. N. _% N. l$ y= 5- l$ 5- 5- l$ l$ A= k$ A= :% _% k$ L. 8@.9@.q+.0@.]Y a@.b@.c@.d@.M..e@.f@.g@.h@.i@.$. F( H  Ur H  Q. $. #. K  j@.5t ",
"8P k@.l@.m@.FZ 5 .QL n@.o@.p@.q@.r@.s@.t@.u@.v@.w@.x@.y@.z@.A@.B@.C@.D@.X+.E@.F@.G@.H@.I@.J@.K@.L@.M@.N@.O@.P@.Q@.R@.S@.T@.U@.V@.W@.X@.Y@.Z@.`@. #..#.+#.r..@#.##.$#.%#.&#.*#.=#.-#.;#.>#.,#.^` '#.)#.!#.%U ~#.{#.]#.^#./#.(#._#.:#.<#.[#.}#.|#.N. N. N. N. N. N. A= O> l$ l$ 5- O> 5- l$ A= k$ k$ A= k$ N. N. 0@ 1#.2#.3#.4#.5#.6#.7#.8#.>..9#.g@.g@.g@.0#.a#.F( *( *4 *( F( G  F  N  b#.c#.d#.",
"e#.f#.g#.h#.i#.j#.k#.l#.m#.n#.o#.p#.q#.r#.s#.t#.u#.v#.w#.x#.y#.z#.A#.B#.C#.y@.D#.E#.F#.G#.H#.I#.J#.K#.L#.M#.N#.O#.P#.Q#.sS R#.S#.T#.U#.V#.W#.X#.Y#.Z#.Q .`#. $..$.+$.@$.#$.$$.%$.&$.0..*$.=$.5+.-$.;$.>$.,$.'$.)$.!$.~$./#.{$.]$.^$./$.($._$.:$.M. N. N. k$ :% N. _% y= N. l$ O> 5- 5- l$ _% M. N. k$ N. N. N. Q4 <$.[$.}$.|$.1$.2$.a@.8#.>..t+.M..N..M..3$.4$.P> %. W. b@ L. L. W. *4 5$.K# 6$."};
