/* XPM */
static char * north_xpm[] = {
"256 256 33673 3",
"   	c #495772",
".  	c #54627B",
"+  	c #525E76",
"@  	c #5B667C",
"#  	c #566477",
"$  	c #455368",
"%  	c #3F4A5F",
"&  	c #45526B",
"*  	c #485776",
"=  	c #414C67",
"-  	c #5C6A83",
";  	c #4D5B75",
">  	c #516079",
",  	c #455370",
"'  	c #424E6C",
")  	c #4A5672",
"!  	c #48536E",
"~  	c #5A667E",
"{  	c #48546E",
"]  	c #424F69",
"^  	c #525F70",
"/  	c #384760",
"(  	c #1C2A4A",
"_  	c #2F394F",
":  	c #313A4D",
"<  	c #343E52",
"[  	c #2E3951",
"}  	c #3F4A5D",
"|  	c #232E47",
"1  	c #4E596C",
"2  	c #364458",
"3  	c #2C3850",
"4  	c #162241",
"5  	c #19223B",
"6  	c #434F64",
"7  	c #475165",
"8  	c #2A3B5A",
"9  	c #1C2E57",
"0  	c #1A2850",
"a  	c #3F4C6A",
"b  	c #263459",
"c  	c #3E4C66",
"d  	c #263353",
"e  	c #29344F",
"f  	c #313B50",
"g  	c #3A4862",
"h  	c #48546B",
"i  	c #465266",
"j  	c #485369",
"k  	c #424D62",
"l  	c #3C4960",
"m  	c #34415A",
"n  	c #2F3B55",
"o  	c #2F3E56",
"p  	c #31415C",
"q  	c #2C3E5D",
"r  	c #293A5E",
"s  	c #303F59",
"t  	c #364967",
"u  	c #2A3757",
"v  	c #243455",
"w  	c #213156",
"x  	c #243255",
"y  	c #212F52",
"z  	c #172749",
"A  	c #293B57",
"B  	c #182648",
"C  	c #182548",
"D  	c #233051",
"E  	c #1E2C4F",
"F  	c #263252",
"G  	c #1B284C",
"H  	c #192847",
"I  	c #202C4B",
"J  	c #33425B",
"K  	c #3C4C64",
"L  	c #283554",
"M  	c #202E4E",
"N  	c #22324F",
"O  	c #243754",
"P  	c #1D2D4E",
"Q  	c #1C2B4A",
"R  	c #283652",
"S  	c #39435E",
"T  	c #22304F",
"U  	c #1C2949",
"V  	c #1D2A4A",
"W  	c #1D2A4B",
"X  	c #323D55",
"Y  	c #22324B",
"Z  	c #182643",
"`  	c #1A2843",
" . 	c #1A2541",
".. 	c #202B45",
"+. 	c #1C2740",
"@. 	c #28344B",
"#. 	c #25304A",
"$. 	c #1C2642",
"%. 	c #232F49",
"&. 	c #2A3650",
"*. 	c #1A2745",
"=. 	c #1D2A49",
"-. 	c #1F2C49",
";. 	c #2A344B",
">. 	c #1A2744",
",. 	c #1C2945",
"'. 	c #323F59",
"). 	c #1D2E4A",
"!. 	c #182544",
"~. 	c #1A2948",
"{. 	c #414A5F",
"]. 	c #2B3650",
"^. 	c #293551",
"/. 	c #222F49",
"(. 	c #1B2942",
"_. 	c #1B2641",
":. 	c #2A3852",
"<. 	c #1A2643",
"[. 	c #202B47",
"}. 	c #253247",
"|. 	c #1F2E4B",
"1. 	c #1A2647",
"2. 	c #192545",
"3. 	c #162240",
"4. 	c #182440",
"5. 	c #192743",
"6. 	c #1E2A46",
"7. 	c #1D2945",
"8. 	c #1C2746",
"9. 	c #192543",
"0. 	c #1D2B48",
"a. 	c #1D2A44",
"b. 	c #1A2644",
"c. 	c #192544",
"d. 	c #1A2645",
"e. 	c #1A2847",
"f. 	c #1A2542",
"g. 	c #1A2442",
"h. 	c #192542",
"i. 	c #1B2745",
"j. 	c #28354F",
"k. 	c #212F4B",
"l. 	c #222E48",
"m. 	c #1C2844",
"n. 	c #1B2743",
"o. 	c #1E2943",
"p. 	c #2D394E",
"q. 	c #222C42",
"r. 	c #212E42",
"s. 	c #222B3F",
"t. 	c #222B41",
"u. 	c #282F3F",
"v. 	c #273042",
"w. 	c #2D3648",
"x. 	c #2B3443",
"y. 	c #2B3242",
"z. 	c #303A49",
"A. 	c #363C49",
"B. 	c #323A4A",
"C. 	c #363E4D",
"D. 	c #394150",
"E. 	c #373E4C",
"F. 	c #303948",
"G. 	c #323A49",
"H. 	c #303747",
"I. 	c #373F4D",
"J. 	c #373E4D",
"K. 	c #303746",
"L. 	c #323947",
"M. 	c #313949",
"N. 	c #2E3444",
"O. 	c #262B39",
"P. 	c #262D3D",
"Q. 	c #242838",
"R. 	c #262A3A",
"S. 	c #242837",
"T. 	c #272B38",
"U. 	c #202432",
"V. 	c #202331",
"W. 	c #202536",
"X. 	c #1C2233",
"Y. 	c #252B3B",
"Z. 	c #293443",
"`. 	c #282F40",
" + 	c #242C3F",
".+ 	c #272F40",
"++ 	c #222B3E",
"@+ 	c #222F4B",
"#+ 	c #1F3051",
"$+ 	c #203150",
"%+ 	c #223452",
"&+ 	c #233454",
"*+ 	c #273859",
"=+ 	c #223154",
"-+ 	c #293755",
";+ 	c #2B3B56",
">+ 	c #31435D",
",+ 	c #334762",
"'+ 	c #324761",
")+ 	c #2C3F5C",
"!+ 	c #31415B",
"~+ 	c #394B64",
"{+ 	c #32425C",
"]+ 	c #3D4F66",
"^+ 	c #415468",
"/+ 	c #43566A",
"(+ 	c #41546B",
"_+ 	c #3C5069",
":+ 	c #3F5369",
"<+ 	c #3A4C65",
"[+ 	c #3E4F63",
"}+ 	c #44556C",
"|+ 	c #405268",
"1+ 	c #435267",
"2+ 	c #415267",
"3+ 	c #435265",
"4+ 	c #394962",
"5+ 	c #394B65",
"6+ 	c #364761",
"7+ 	c #44536C",
"8+ 	c #37475C",
"9+ 	c #35475E",
"0+ 	c #3B4D63",
"a+ 	c #34465E",
"b+ 	c #44556B",
"c+ 	c #3F5067",
"d+ 	c #3B4B5F",
"e+ 	c #3B4E68",
"f+ 	c #3E5068",
"g+ 	c #465970",
"h+ 	c #4A5C73",
"i+ 	c #374961",
"j+ 	c #30435D",
"k+ 	c #2F435B",
"l+ 	c #334254",
"m+ 	c #324458",
"n+ 	c #3B495C",
"o+ 	c #3E4C5A",
"p+ 	c #384858",
"q+ 	c #2B3B4D",
"r+ 	c #2F3D4D",
"s+ 	c #384556",
"t+ 	c #404B57",
"u+ 	c #313E4E",
"v+ 	c #384756",
"w+ 	c #3B4551",
"x+ 	c #3F4952",
"y+ 	c #3E4853",
"z+ 	c #425262",
"A+ 	c #45525E",
"B+ 	c #405365",
"C+ 	c #374562",
"D+ 	c #293655",
"E+ 	c #2F3B54",
"F+ 	c #2D354D",
"G+ 	c #384051",
"H+ 	c #384153",
"I+ 	c #364055",
"J+ 	c #333E59",
"K+ 	c #434E66",
"L+ 	c #364260",
"M+ 	c #313D5D",
"N+ 	c #2E3856",
"O+ 	c #39435D",
"P+ 	c #202A4F",
"Q+ 	c #2C3859",
"R+ 	c #303C5F",
"S+ 	c #1D2850",
"T+ 	c #253356",
"U+ 	c #1E2A50",
"V+ 	c #273152",
"W+ 	c #2B3654",
"X+ 	c #1D2D4F",
"Y+ 	c #192342",
"Z+ 	c #212D48",
"`+ 	c #1F2A44",
" @ 	c #263047",
".@ 	c #222E4A",
"+@ 	c #252E45",
"@@ 	c #2B3245",
"#@ 	c #222A42",
"$@ 	c #252C45",
"%@ 	c #1C2640",
"&@ 	c #222D4B",
"*@ 	c #404962",
"=@ 	c #253559",
"-@ 	c #1A2C58",
";@ 	c #1B294C",
">@ 	c #1C2948",
",@ 	c #192647",
"'@ 	c #172244",
")@ 	c #192345",
"!@ 	c #1B2443",
"~@ 	c #303C57",
"{@ 	c #39475C",
"]@ 	c #28334E",
"^@ 	c #1E2942",
"/@ 	c #1C2847",
"(@ 	c #1B2A48",
"_@ 	c #1D294C",
":@ 	c #1E2A4D",
"<@ 	c #212C51",
"[@ 	c #222D4E",
"}@ 	c #232D4A",
"|@ 	c #222E4E",
"1@ 	c #212E4C",
"2@ 	c #1C2848",
"3@ 	c #1A284A",
"4@ 	c #1A284C",
"5@ 	c #1A2749",
"6@ 	c #192341",
"7@ 	c #182241",
"8@ 	c #18233E",
"9@ 	c #1B243F",
"0@ 	c #192441",
"a@ 	c #1B2543",
"b@ 	c #1A2544",
"c@ 	c #1C2544",
"d@ 	c #182441",
"e@ 	c #16233E",
"f@ 	c #1A243E",
"g@ 	c #1A2746",
"h@ 	c #192442",
"i@ 	c #182542",
"j@ 	c #1B2847",
"k@ 	c #1B2746",
"l@ 	c #1A2845",
"m@ 	c #182645",
"n@ 	c #172442",
"o@ 	c #182443",
"p@ 	c #1B2645",
"q@ 	c #1B2642",
"r@ 	c #1A2942",
"s@ 	c #1C283C",
"t@ 	c #1B233C",
"u@ 	c #1D253B",
"v@ 	c #1C243B",
"w@ 	c #1A233B",
"x@ 	c #1A233D",
"y@ 	c #1C2542",
"z@ 	c #1E2743",
"A@ 	c #172440",
"B@ 	c #1B2643",
"C@ 	c #1C2540",
"D@ 	c #1B263E",
"E@ 	c #1A2540",
"F@ 	c #1B2844",
"G@ 	c #1B2B49",
"H@ 	c #18233F",
"I@ 	c #172441",
"J@ 	c #1B243E",
"K@ 	c #1C233A",
"L@ 	c #1D253C",
"M@ 	c #1C2641",
"N@ 	c #1B2640",
"O@ 	c #1B243B",
"P@ 	c #212A44",
"Q@ 	c #19233D",
"R@ 	c #1C2339",
"S@ 	c #19243D",
"T@ 	c #1B2541",
"U@ 	c #1B2545",
"V@ 	c #18223F",
"W@ 	c #212B47",
"X@ 	c #1A2138",
"Y@ 	c #1A2238",
"Z@ 	c #1B233D",
"`@ 	c #19233F",
" # 	c #192744",
".# 	c #172643",
"+# 	c #192643",
"@# 	c #182540",
"## 	c #18253E",
"$# 	c #1C243E",
"%# 	c #1B243C",
"&# 	c #1B2842",
"*# 	c #1C263D",
"=# 	c #1A243C",
"-# 	c #1C2337",
";# 	c #1A2235",
"># 	c #1C2135",
",# 	c #1A2134",
"'# 	c #1B2135",
")# 	c #1E2336",
"!# 	c #1E2437",
"~# 	c #1F2436",
"{# 	c #222839",
"]# 	c #232B3C",
"^# 	c #232A3B",
"/# 	c #252B3C",
"(# 	c #222738",
"_# 	c #242A3B",
":# 	c #272B39",
"<# 	c #2A2E3D",
"[# 	c #242A3A",
"}# 	c #242B3C",
"|# 	c #212537",
"1# 	c #1D2234",
"2# 	c #1D2233",
"3# 	c #1E2130",
"4# 	c #1C1F2D",
"5# 	c #1A1F2E",
"6# 	c #1B1F2F",
"7# 	c #191E2D",
"8# 	c #1A2030",
"9# 	c #1A1F31",
"0# 	c #191E31",
"a# 	c #1A1F32",
"b# 	c #1B2033",
"c# 	c #1B2031",
"d# 	c #1A2031",
"e# 	c #1B202F",
"f# 	c #1B253A",
"g# 	c #172843",
"h# 	c #16253F",
"i# 	c #172743",
"j# 	c #1A2945",
"k# 	c #1E2B49",
"l# 	c #1F2A49",
"m# 	c #242F4F",
"n# 	c #24314D",
"o# 	c #273554",
"p# 	c #273854",
"q# 	c #2B3D54",
"r# 	c #293A55",
"s# 	c #2B3D55",
"t# 	c #2B3D59",
"u# 	c #2C3E56",
"v# 	c #2B3D57",
"w# 	c #3A4C64",
"x# 	c #42536A",
"y# 	c #2E425B",
"z# 	c #2F425B",
"A# 	c #2F435F",
"B# 	c #2F435C",
"C# 	c #2E4059",
"D# 	c #32445E",
"E# 	c #32455E",
"F# 	c #36485F",
"G# 	c #33465F",
"H# 	c #31425D",
"I# 	c #38485E",
"J# 	c #314359",
"K# 	c #34465B",
"L# 	c #31425B",
"M# 	c #314054",
"N# 	c #2D4058",
"O# 	c #30425C",
"P# 	c #2E415B",
"Q# 	c #30435E",
"R# 	c #314560",
"S# 	c #33465C",
"T# 	c #31445B",
"U# 	c #2E4055",
"V# 	c #2D3F53",
"W# 	c #2C3E55",
"X# 	c #2D3F54",
"Y# 	c #2B3A4D",
"Z# 	c #253549",
"`# 	c #273548",
" $ 	c #263547",
".$ 	c #253648",
"+$ 	c #263648",
"@$ 	c #28394B",
"#$ 	c #2B3D4F",
"$$ 	c #263748",
"%$ 	c #263445",
"&$ 	c #253142",
"*$ 	c #273546",
"=$ 	c #2F3C4C",
"-$ 	c #2F3F4E",
";$ 	c #293848",
">$ 	c #273749",
",$ 	c #2C3C4C",
"'$ 	c #2E3F4E",
")$ 	c #1E2B4F",
"!$ 	c #1C2648",
"~$ 	c #1E2B4B",
"{$ 	c #202D4E",
"]$ 	c #38445E",
"^$ 	c #232E4F",
"/$ 	c #434E65",
"($ 	c #242D4A",
"_$ 	c #2B3758",
":$ 	c #2F3A58",
"<$ 	c #1D2648",
"[$ 	c #283252",
"}$ 	c #1B2449",
"|$ 	c #192349",
"1$ 	c #182248",
"2$ 	c #1B254B",
"3$ 	c #182448",
"4$ 	c #1A264C",
"5$ 	c #1B264D",
"6$ 	c #19264B",
"7$ 	c #17274D",
"8$ 	c #192649",
"9$ 	c #1B2747",
"0$ 	c #1B2644",
"a$ 	c #1D2748",
"b$ 	c #1E253C",
"c$ 	c #1E253E",
"d$ 	c #1F2640",
"e$ 	c #1F2742",
"f$ 	c #1E253D",
"g$ 	c #1A2443",
"h$ 	c #1D2646",
"i$ 	c #1D2C56",
"j$ 	c #1C2C57",
"k$ 	c #1A315B",
"l$ 	c #1D3055",
"m$ 	c #1C2C4E",
"n$ 	c #1C2646",
"o$ 	c #1B2649",
"p$ 	c #1D264B",
"q$ 	c #1C2647",
"r$ 	c #1E294B",
"s$ 	c #24304E",
"t$ 	c #1C2645",
"u$ 	c #1F2B48",
"v$ 	c #1F2C4C",
"w$ 	c #1D2B4A",
"x$ 	c #1D2D52",
"y$ 	c #1F2C51",
"z$ 	c #1E284D",
"A$ 	c #212B51",
"B$ 	c #202A4D",
"C$ 	c #1F294A",
"D$ 	c #1E2745",
"E$ 	c #1E2746",
"F$ 	c #1D2949",
"G$ 	c #1C294D",
"H$ 	c #1E2A4E",
"I$ 	c #1C2649",
"J$ 	c #1C2543",
"K$ 	c #1D2540",
"L$ 	c #1D2642",
"M$ 	c #1F2747",
"N$ 	c #1E2946",
"O$ 	c #1D2643",
"P$ 	c #1D2848",
"Q$ 	c #1C2747",
"R$ 	c #1A2543",
"S$ 	c #1A2646",
"T$ 	c #1A2747",
"U$ 	c #1B2646",
"V$ 	c #192746",
"W$ 	c #1A2441",
"X$ 	c #1A2742",
"Y$ 	c #1B2442",
"Z$ 	c #1C2744",
"`$ 	c #1C2743",
" % 	c #1C2440",
".% 	c #1E263F",
"+% 	c #1E2744",
"@% 	c #1D2746",
"#% 	c #1D2B44",
"$% 	c #1C2541",
"%% 	c #1A253C",
"&% 	c #1A263E",
"*% 	c #1A2946",
"=% 	c #1B2947",
"-% 	c #1C2946",
";% 	c #1A2642",
">% 	c #1A253E",
",% 	c #1D2A45",
"'% 	c #1D2942",
")% 	c #1A2440",
"!% 	c #19223E",
"~% 	c #1A233F",
"{% 	c #262F44",
"]% 	c #1D2439",
"^% 	c #1C2235",
"/% 	c #1C2237",
"(% 	c #1C243C",
"_% 	c #1A233C",
":% 	c #1C243A",
"<% 	c #1C2741",
"[% 	c #1C2643",
"}% 	c #1D2741",
"|% 	c #1E273F",
"1% 	c #1B2338",
"2% 	c #1B2237",
"3% 	c #1D2337",
"4% 	c #1B253D",
"5% 	c #1D2A46",
"6% 	c #1A2436",
"7% 	c #1D243B",
"8% 	c #1D2336",
"9% 	c #1A2034",
"0% 	c #1C2133",
"a% 	c #1A2131",
"b% 	c #1B2133",
"c% 	c #1D2335",
"d% 	c #1E2335",
"e% 	c #1F2232",
"f% 	c #1F2334",
"g% 	c #1E2334",
"h% 	c #202433",
"i% 	c #202436",
"j% 	c #212535",
"k% 	c #202334",
"l% 	c #1D2131",
"m% 	c #1C2131",
"n% 	c #1A1E2E",
"o% 	c #1B2030",
"p% 	c #1B1F30",
"q% 	c #1A1F30",
"r% 	c #191F30",
"s% 	c #1A2032",
"t% 	c #191E2F",
"u% 	c #181E2E",
"v% 	c #191E2E",
"w% 	c #192236",
"x% 	c #18253F",
"y% 	c #19233A",
"z% 	c #18233B",
"A% 	c #1A2740",
"B% 	c #1F2A48",
"C% 	c #1F2946",
"D% 	c #232F4B",
"E% 	c #25324D",
"F% 	c #2E3A51",
"G% 	c #283750",
"H% 	c #293951",
"I% 	c #273755",
"J% 	c #2A3B55",
"K% 	c #293A58",
"L% 	c #2D405A",
"M% 	c #34465F",
"N% 	c #354660",
"O% 	c #32465D",
"P% 	c #31445C",
"Q% 	c #2F435A",
"R% 	c #2E425A",
"S% 	c #30445E",
"T% 	c #30445D",
"U% 	c #31435C",
"V% 	c #2F4158",
"W% 	c #374861",
"X% 	c #3A4A5E",
"Y% 	c #3A4B5F",
"Z% 	c #34465A",
"`% 	c #31445D",
" & 	c #37485A",
".& 	c #38485B",
"+& 	c #364759",
"@& 	c #36465B",
"#& 	c #334558",
"$& 	c #304259",
"%& 	c #2C3E52",
"&& 	c #2B3E50",
"*& 	c #2A3C50",
"=& 	c #2A3B4E",
"-& 	c #25364A",
";& 	c #223043",
">& 	c #223143",
",& 	c #232F41",
"'& 	c #212F41",
")& 	c #233245",
"!& 	c #29394A",
"~& 	c #28394A",
"{& 	c #27394B",
"]& 	c #243445",
"^& 	c #243344",
"/& 	c #253446",
"(& 	c #293B4D",
"_& 	c #2A3B4A",
":& 	c #233445",
"<& 	c #304252",
"[& 	c #2A3C4E",
"}& 	c #313E4C",
"|& 	c #1C2748",
"1& 	c #1F2949",
"2& 	c #1F2846",
"3& 	c #1D2A4E",
"4& 	c #1C294B",
"5& 	c #212E52",
"6& 	c #19244A",
"7& 	c #19244B",
"8& 	c #212A4D",
"9& 	c #1D284E",
"0& 	c #1B254C",
"a& 	c #1B2448",
"b& 	c #1A2449",
"c& 	c #1B2549",
"d& 	c #192549",
"e& 	c #1A244A",
"f& 	c #1B2A54",
"g& 	c #19294F",
"h& 	c #1A2546",
"i& 	c #1D2645",
"j& 	c #1C2644",
"k& 	c #1F2744",
"l& 	c #1E2644",
"m& 	c #1F2644",
"n& 	c #1F2746",
"o& 	c #1E2643",
"p& 	c #1E2749",
"q& 	c #1B274B",
"r& 	c #1C2B4F",
"s& 	c #1A294E",
"t& 	c #1C2A51",
"u& 	c #1B2A4B",
"v& 	c #1D2E51",
"w& 	c #1A294A",
"x& 	c #202B4E",
"y& 	c #1E274E",
"z& 	c #1E274B",
"A& 	c #1D264A",
"B& 	c #1E2748",
"C& 	c #212A48",
"D& 	c #222D4D",
"E& 	c #1F2848",
"F& 	c #1C294E",
"G& 	c #1E2B51",
"H& 	c #1D294E",
"I& 	c #1F2B4F",
"J& 	c #1F284B",
"K& 	c #1E2747",
"L& 	c #1E294A",
"M& 	c #1F2E55",
"N& 	c #1D2B4F",
"O& 	c #1D274A",
"P& 	c #1D2647",
"Q& 	c #1B294A",
"R& 	c #1E2848",
"S& 	c #1C2545",
"T& 	c #192747",
"U& 	c #1D2545",
"V& 	c #1D2747",
"W& 	c #1D2849",
"X& 	c #1A2848",
"Y& 	c #1A2849",
"Z& 	c #1A2545",
"`& 	c #1A2A48",
" * 	c #1B2B48",
".* 	c #1B2544",
"+* 	c #1E2642",
"@* 	c #1E2844",
"#* 	c #202740",
"$* 	c #1D2841",
"%* 	c #1E2A4A",
"&* 	c #1D2C4E",
"** 	c #1B2A4A",
"=* 	c #1B2B4A",
"-* 	c #182543",
";* 	c #1D2846",
">* 	c #1F2D49",
",* 	c #1D2A48",
"'* 	c #1D2947",
")* 	c #1B284A",
"!* 	c #1B2547",
"~* 	c #1C2444",
"{* 	c #1B233E",
"]* 	c #1A2241",
"^* 	c #1A2340",
"/* 	c #1D243C",
"(* 	c #1A2135",
"_* 	c #1B2238",
":* 	c #1B253B",
"<* 	c #1A2338",
"[* 	c #1E2438",
"}* 	c #1B2236",
"|* 	c #1C2234",
"1* 	c #1E253A",
"2* 	c #1B2134",
"3* 	c #1B2032",
"4* 	c #1A1F2F",
"5* 	c #1E2232",
"6* 	c #1C2032",
"7* 	c #1B1F2D",
"8* 	c #1A1E2B",
"9* 	c #1B1E2D",
"0* 	c #1C202E",
"a* 	c #1D202F",
"b* 	c #1D202E",
"c* 	c #1C202F",
"d* 	c #1D212F",
"e* 	c #1E212E",
"f* 	c #1B1F2E",
"g* 	c #1A1E2D",
"h* 	c #181E2F",
"i* 	c #171E34",
"j* 	c #182035",
"k* 	c #1A2237",
"l* 	c #1F2B46",
"m* 	c #253149",
"n* 	c #28354B",
"o* 	c #27354C",
"p* 	c #2A364F",
"q* 	c #28354C",
"r* 	c #2A3853",
"s* 	c #2A3A52",
"t* 	c #2B3C55",
"u* 	c #2E4159",
"v* 	c #324661",
"w* 	c #304561",
"x* 	c #2F415B",
"y* 	c #2D4059",
"z* 	c #2F425A",
"A* 	c #2D3F57",
"B* 	c #304059",
"C* 	c #30435A",
"D* 	c #2F4257",
"E* 	c #33455C",
"F* 	c #36485D",
"G* 	c #37495F",
"H* 	c #3A4A60",
"I* 	c #394A62",
"J* 	c #35465C",
"K* 	c #35475B",
"L* 	c #364760",
"M* 	c #304155",
"N* 	c #2D3C4F",
"O* 	c #2A3A51",
"P* 	c #2E3F52",
"Q* 	c #2C3F51",
"R* 	c #283B4D",
"S* 	c #283648",
"T* 	c #253345",
"U* 	c #213041",
"V* 	c #273849",
"W* 	c #283849",
"X* 	c #273848",
"Y* 	c #253546",
"Z* 	c #213042",
"`* 	c #243345",
" = 	c #334251",
".= 	c #233446",
"+= 	c #263647",
"@= 	c #293A4B",
"#= 	c #253749",
"$= 	c #2A3C4D",
"%= 	c #253344",
"&= 	c #242E4D",
"*= 	c #1F2943",
"== 	c #1C2947",
"-= 	c #222E4F",
";= 	c #243154",
">= 	c #1B264E",
",= 	c #1A264F",
"'= 	c #1A254D",
")= 	c #1A244B",
"!= 	c #1B254A",
"~= 	c #1C254A",
"{= 	c #1A2347",
"]= 	c #1A2448",
"^= 	c #192347",
"/= 	c #182449",
"(= 	c #1B274E",
"_= 	c #1A274C",
":= 	c #1C2548",
"<= 	c #1D2749",
"[= 	c #1D284A",
"}= 	c #1D2543",
"|= 	c #1C2547",
"1= 	c #1D2A52",
"2= 	c #1D2C52",
"3= 	c #1D2C51",
"4= 	c #202E51",
"5= 	c #222C4F",
"6= 	c #202A4E",
"7= 	c #1E294F",
"8= 	c #1E2A51",
"9= 	c #1C2445",
"0= 	c #1D274D",
"a= 	c #1C274B",
"b= 	c #1D294D",
"c= 	c #1E274A",
"d= 	c #1E284A",
"e= 	c #202C50",
"f= 	c #1B294B",
"g= 	c #1C2A4B",
"h= 	c #1D294A",
"i= 	c #1E284B",
"j= 	c #1C2546",
"k= 	c #1C294A",
"l= 	c #1B2749",
"m= 	c #1B2B4D",
"n= 	c #1A2B4C",
"o= 	c #192A4A",
"p= 	c #1A2D4E",
"q= 	c #192B4C",
"r= 	c #192B4A",
"s= 	c #1A2947",
"t= 	c #1E2742",
"u= 	c #1C2846",
"v= 	c #1D2847",
"w= 	c #1C2849",
"x= 	c #1B2542",
"y= 	c #182442",
"z= 	c #1B2C48",
"A= 	c #192949",
"B= 	c #1C2A4E",
"C= 	c #1C2B51",
"D= 	c #192749",
"E= 	c #1C2745",
"F= 	c #1E2949",
"G= 	c #182747",
"H= 	c #182547",
"I= 	c #1A2342",
"J= 	c #1A223F",
"K= 	c #19213A",
"L= 	c #1B2339",
"M= 	c #1A223A",
"N= 	c #1C253D",
"O= 	c #1B2336",
"P= 	c #1C2335",
"Q= 	c #1C2336",
"R= 	c #192033",
"S= 	c #1C2236",
"T= 	c #1C2031",
"U= 	c #1C2132",
"V= 	c #1B2132",
"W= 	c #1C2030",
"X= 	c #1D2232",
"Y= 	c #1A1F2D",
"Z= 	c #1B1E2C",
"`= 	c #1A1E2C",
" - 	c #1D202C",
".- 	c #1D202D",
"+- 	c #191D2B",
"@- 	c #191E2B",
"#- 	c #191D29",
"$- 	c #1A1F2C",
"%- 	c #181F2D",
"&- 	c #191F2E",
"*- 	c #191F31",
"=- 	c #171D2E",
"-- 	c #181D2E",
";- 	c #171E31",
">- 	c #172139",
",- 	c #18233A",
"'- 	c #1B233A",
")- 	c #1F2944",
"!- 	c #232E49",
"~- 	c #253248",
"{- 	c #263549",
"]- 	c #2B364A",
"^- 	c #2C3749",
"/- 	c #2E394B",
"(- 	c #29384A",
"_- 	c #314157",
":- 	c #35465D",
"<- 	c #344760",
"[- 	c #2F435D",
"}- 	c #32445B",
"|- 	c #32455D",
"1- 	c #384B65",
"2- 	c #334761",
"3- 	c #3D4D63",
"4- 	c #30435B",
"5- 	c #32445C",
"6- 	c #384A63",
"7- 	c #364964",
"8- 	c #344660",
"9- 	c #354761",
"0- 	c #2F425C",
"a- 	c #39495E",
"b- 	c #394A60",
"c- 	c #31435B",
"d- 	c #2D3F55",
"e- 	c #2D3F52",
"f- 	c #2B3D51",
"g- 	c #2F4154",
"h- 	c #2F3E4E",
"i- 	c #293A4C",
"j- 	c #283A4B",
"k- 	c #283749",
"l- 	c #263546",
"m- 	c #27384A",
"n- 	c #273648",
"o- 	c #293849",
"p- 	c #243143",
"q- 	c #2A3B4C",
"r- 	c #293C4F",
"s- 	c #26394A",
"t- 	c #273B4D",
"u- 	c #2D4154",
"v- 	c #2B4055",
"w- 	c #253A50",
"x- 	c #182347",
"y- 	c #1B2647",
"z- 	c #1B2748",
"A- 	c #1C264B",
"B- 	c #1C284F",
"C- 	c #19254E",
"D- 	c #1A2752",
"E- 	c #19254F",
"F- 	c #182653",
"G- 	c #192651",
"H- 	c #1C2852",
"I- 	c #1B274F",
"J- 	c #1A254B",
"K- 	c #1E274C",
"L- 	c #1B264C",
"M- 	c #19274D",
"N- 	c #19264A",
"O- 	c #1B284E",
"P- 	c #1A284B",
"Q- 	c #1C264A",
"R- 	c #1A2649",
"S- 	c #1D2A4F",
"T- 	c #1B274D",
"U- 	c #1A2548",
"V- 	c #1D2B51",
"W- 	c #1C284D",
"X- 	c #1E294E",
"Y- 	c #1C264D",
"Z- 	c #243050",
"`- 	c #1C284E",
" ; 	c #212A4B",
".; 	c #1E284C",
"+; 	c #1D274C",
"@; 	c #1D284D",
"#; 	c #1C284B",
"$; 	c #1E2646",
"%; 	c #1F2849",
"&; 	c #1C2C4F",
"*; 	c #1C2D54",
"=; 	c #1B2B54",
"-; 	c #1B2C50",
";; 	c #1A2B4B",
">; 	c #1B2D4F",
",; 	c #1A2B4A",
"'; 	c #192440",
"); 	c #1D2C50",
"!; 	c #1C2D51",
"~; 	c #192A4D",
"{; 	c #1A294C",
"]; 	c #1A2748",
"^; 	c #1A2445",
"/; 	c #1C284A",
"(; 	c #1D2D50",
"_; 	c #1A294B",
":; 	c #1A2A4A",
"<; 	c #1B2C4D",
"[; 	c #1C2A4C",
"}; 	c #19274A",
"|; 	c #1A2343",
"1; 	c #1C2442",
"2; 	c #1C2239",
"3; 	c #1B2239",
"4; 	c #1A223B",
"5; 	c #1B233B",
"6; 	c #1B253F",
"7; 	c #1C273D",
"8; 	c #1D263F",
"9; 	c #1B243D",
"0; 	c #1D243A",
"a; 	c #1F2437",
"b; 	c #1B2335",
"c; 	c #1D2132",
"d; 	c #1E2331",
"e; 	c #1D2231",
"f; 	c #1C1F2E",
"g; 	c #1A1D2A",
"h; 	c #1B202C",
"i; 	c #1B202D",
"j; 	c #191D2A",
"k; 	c #181D2A",
"l; 	c #191D2D",
"m; 	c #171D2F",
"n; 	c #171D31",
"o; 	c #182037",
"p; 	c #182139",
"q; 	c #1A233A",
"r; 	c #1F2845",
"s; 	c #232E48",
"t; 	c #273248",
"u; 	c #293348",
"v; 	c #293448",
"w; 	c #283649",
"x; 	c #2A3749",
"y; 	c #2B374A",
"z; 	c #27364F",
"A; 	c #2E3D50",
"B; 	c #32445A",
"C; 	c #2E425D",
"D; 	c #30425B",
"E; 	c #314561",
"F; 	c #324560",
"G; 	c #304460",
"H; 	c #3B4B63",
"I; 	c #33455F",
"J; 	c #324359",
"K; 	c #33445C",
"L; 	c #31435A",
"M; 	c #2E4053",
"N; 	c #2E4052",
"O; 	c #2B3C50",
"P; 	c #2A394B",
"Q; 	c #28384A",
"R; 	c #283748",
"S; 	c #273A4C",
"T; 	c #243749",
"U; 	c #29394B",
"V; 	c #273647",
"W; 	c #213142",
"X; 	c #243346",
"Y; 	c #263749",
"Z; 	c #2C3F50",
"`; 	c #2A3D4F",
" > 	c #25394B",
".> 	c #293D4E",
"+> 	c #293E51",
"@> 	c #283B4E",
"#> 	c #263545",
"$> 	c #243253",
"%> 	c #243156",
"&> 	c #1B2750",
"*> 	c #1C2750",
"=> 	c #19244C",
"-> 	c #192652",
";> 	c #182551",
">> 	c #1B2754",
",> 	c #1B2752",
"'> 	c #1A2650",
")> 	c #1A2348",
"!> 	c #1C2549",
"~> 	c #1A2549",
"{> 	c #1C284C",
"]> 	c #1C274E",
"^> 	c #1C264E",
"/> 	c #1F294F",
"(> 	c #1F2A50",
"_> 	c #1F2950",
":> 	c #1C264C",
"<> 	c #1A2346",
"[> 	c #1F284A",
"}> 	c #1E294C",
"|> 	c #202847",
"1> 	c #1B2848",
"2> 	c #1E2A4B",
"3> 	c #1D294B",
"4> 	c #1B2849",
"5> 	c #1B2949",
"6> 	c #1F2A4A",
"7> 	c #1E2B4D",
"8> 	c #1D2A4C",
"9> 	c #1B2B50",
"0> 	c #1B2A4E",
"a> 	c #1B294D",
"b> 	c #19294B",
"c> 	c #1B2B4C",
"d> 	c #1B2C51",
"e> 	c #1B2B4B",
"f> 	c #182746",
"g> 	c #172848",
"h> 	c #182647",
"i> 	c #1A274A",
"j> 	c #1C2446",
"k> 	c #1B2A4F",
"l> 	c #1C2A4D",
"m> 	c #192240",
"n> 	c #182749",
"o> 	c #1A2648",
"p> 	c #1A2447",
"q> 	c #1B2447",
"r> 	c #19223D",
"s> 	c #1A223D",
"t> 	c #1D2944",
"u> 	c #1E2A41",
"v> 	c #1E273D",
"w> 	c #1B243A",
"x> 	c #1C2436",
"y> 	c #21283B",
"z> 	c #1D2334",
"A> 	c #202537",
"B> 	c #1B212E",
"C> 	c #1C1F2C",
"D> 	c #1B1E2B",
"E> 	c #1B202E",
"F> 	c #191E2C",
"G> 	c #1A1D2C",
"H> 	c #191D2F",
"I> 	c #171E30",
"J> 	c #19233C",
"K> 	c #192439",
"L> 	c #1F2743",
"M> 	c #242F48",
"N> 	c #273349",
"O> 	c #293649",
"P> 	c #2B3549",
"Q> 	c #2A364A",
"R> 	c #30394B",
"S> 	c #2D3A4B",
"T> 	c #2E3A4C",
"U> 	c #2E3E54",
"V> 	c #2F4359",
"W> 	c #31455F",
"X> 	c #314661",
"Y> 	c #34455C",
"Z> 	c #354558",
"`> 	c #35455C",
" , 	c #2F4157",
"., 	c #2F4159",
"+, 	c #354559",
"@, 	c #314153",
"#, 	c #2D3E50",
"$, 	c #2C3B4D",
"%, 	c #293748",
"&, 	c #2B3C4D",
"*, 	c #2B3A4B",
"=, 	c #293D4F",
"-, 	c #273949",
";, 	c #233345",
">, 	c #263447",
",, 	c #253547",
"', 	c #253748",
"), 	c #24394B",
"!, 	c #2B3C4C",
"~, 	c #213346",
"{, 	c #263A4C",
"], 	c #213245",
"^, 	c #1F2C53",
"/, 	c #1D2952",
"(, 	c #18234C",
"_, 	c #19244D",
":, 	c #1A2753",
"<, 	c #1B2855",
"[, 	c #192551",
"}, 	c #1B2650",
"|, 	c #1A264E",
"1, 	c #1B264B",
"2, 	c #1A264A",
"3, 	c #1C274C",
"4, 	c #1B2548",
"5, 	c #1E2951",
"6, 	c #1E274D",
"7, 	c #202A4C",
"8, 	c #1F294E",
"9, 	c #1F284D",
"0, 	c #20294C",
"a, 	c #20294D",
"b, 	c #1F2847",
"c, 	c #1E2849",
"d, 	c #1F2D50",
"e, 	c #1E2847",
"f, 	c #1D2A4D",
"g, 	c #192849",
"h, 	c #1B284B",
"i, 	c #192848",
"j, 	c #1B2A4C",
"k, 	c #1B2950",
"l, 	c #1C2951",
"m, 	c #1A264B",
"n, 	c #1B2446",
"o, 	c #1A274B",
"p, 	c #182649",
"q, 	c #19284A",
"r, 	c #1A2A4D",
"s, 	c #1A294D",
"t, 	c #1B2340",
"u, 	c #192648",
"v, 	c #18213D",
"w, 	c #1A233E",
"x, 	c #1B223A",
"y, 	c #19223C",
"z, 	c #1C263E",
"A, 	c #1C2334",
"B, 	c #1B1F31",
"C, 	c #20242F",
"D, 	c #202638",
"E, 	c #1C2134",
"F, 	c #1D2130",
"G, 	c #1B2131",
"H, 	c #1C212F",
"I, 	c #1F212E",
"J, 	c #1B1F2B",
"K, 	c #1B202A",
"L, 	c #1E1F2A",
"M, 	c #1A1E2A",
"N, 	c #1C212C",
"O, 	c #1C2130",
"P, 	c #191F2C",
"Q, 	c #181D2C",
"R, 	c #191D2C",
"S, 	c #181C29",
"T, 	c #181C2A",
"U, 	c #171C28",
"V, 	c #181F33",
"W, 	c #19223A",
"X, 	c #19253B",
"Y, 	c #1F293F",
"Z, 	c #232F47",
"`, 	c #26314A",
" ' 	c #26334C",
".' 	c #293549",
"+' 	c #2D374A",
"@' 	c #2E384A",
"#' 	c #2D384A",
"$' 	c #30384A",
"%' 	c #2F394A",
"&' 	c #2F3E54",
"*' 	c #2F405A",
"=' 	c #2D3F59",
"-' 	c #35475D",
";' 	c #394859",
">' 	c #39485A",
",' 	c #39475A",
"'' 	c #354356",
")' 	c #37465B",
"!' 	c #324154",
"~' 	c #304358",
"{' 	c #2B3D53",
"]' 	c #2C3B4E",
"^' 	c #2B3B4C",
"/' 	c #2C3D4E",
"(' 	c #2A3A4C",
"_' 	c #2C3A4D",
":' 	c #2A3A4B",
"<' 	c #2A394A",
"[' 	c #253548",
"}' 	c #283A4C",
"|' 	c #2D3D4E",
"1' 	c #273A4D",
"2' 	c #253647",
"3' 	c #223445",
"4' 	c #293B4C",
"5' 	c #1C2A52",
"6' 	c #202C53",
"7' 	c #1E2B56",
"8' 	c #1A2856",
"9' 	c #192753",
"0' 	c #182655",
"a' 	c #18254F",
"b' 	c #1B244A",
"c' 	c #1D2649",
"d' 	c #1C274D",
"e' 	c #1E284E",
"f' 	c #1D2950",
"g' 	c #1A264D",
"h' 	c #1D2951",
"i' 	c #1D284F",
"j' 	c #1F2B50",
"k' 	c #20284B",
"l' 	c #1E284F",
"m' 	c #20294F",
"n' 	c #1E2A4F",
"o' 	c #1E2B4E",
"p' 	c #1E2C50",
"q' 	c #1F2F54",
"r' 	c #1F3052",
"s' 	c #1F2D52",
"t' 	c #202849",
"u' 	c #1A2949",
"v' 	c #1C294C",
"w' 	c #192748",
"x' 	c #1C2B4C",
"y' 	c #1D2B50",
"z' 	c #1A274E",
"A' 	c #1A2851",
"B' 	c #192246",
"C' 	c #1B2345",
"D' 	c #1B294F",
"E' 	c #1B284F",
"F' 	c #192446",
"G' 	c #192346",
"H' 	c #1A2341",
"I' 	c #18203D",
"J' 	c #1A2139",
"K' 	c #1C253F",
"L' 	c #19243C",
"M' 	c #1E253B",
"N' 	c #1D2438",
"O' 	c #1B2136",
"P' 	c #202130",
"Q' 	c #1D2031",
"R' 	c #1E2436",
"S' 	c #1F2435",
"T' 	c #1E2230",
"U' 	c #21212F",
"V' 	c #1E2333",
"W' 	c #1A1E2F",
"X' 	c #20222D",
"Y' 	c #1D202B",
"Z' 	c #1D1F28",
"`' 	c #1F1F25",
" ) 	c #1C1F29",
".) 	c #1E202B",
"+) 	c #1B1F28",
"@) 	c #1B1D26",
"#) 	c #181E27",
"$) 	c #181D2B",
"%) 	c #1A1C25",
"&) 	c #171B26",
"*) 	c #161B27",
"=) 	c #181D2F",
"-) 	c #181E30",
";) 	c #181F34",
">) 	c #182138",
",) 	c #19243E",
"') 	c #1F2A45",
")) 	c #263048",
"!) 	c #29344D",
"~) 	c #2C374A",
"{) 	c #2C384B",
"]) 	c #313A4B",
"^) 	c #303A4B",
"/) 	c #31394B",
"() 	c #313F55",
"_) 	c #2E3D55",
":) 	c #2F3D53",
"<) 	c #344054",
"[) 	c #303E51",
"}) 	c #2F4056",
"|) 	c #304056",
"1) 	c #344458",
"2) 	c #364659",
"3) 	c #2F3D50",
"4) 	c #2D3F50",
"5) 	c #2B3A51",
"6) 	c #223346",
"7) 	c #243446",
"8) 	c #273446",
"9) 	c #293C4D",
"0) 	c #2A3B4D",
"a) 	c #213345",
"b) 	c #1F3144",
"c) 	c #233548",
"d) 	c #243547",
"e) 	c #243546",
"f) 	c #344353",
"g) 	c #233547",
"h) 	c #233144",
"i) 	c #16234B",
"j) 	c #19244E",
"k) 	c #1A254E",
"l) 	c #192550",
"m) 	c #18244D",
"n) 	c #182349",
"o) 	c #1A234A",
"p) 	c #1D274B",
"q) 	c #1D274E",
"r) 	c #1B2954",
"s) 	c #1D2A56",
"t) 	c #1D2A54",
"u) 	c #1E2C53",
"v) 	c #1B294E",
"w) 	c #20284A",
"x) 	c #1E2952",
"y) 	c #1F2A51",
"z) 	c #1F2B53",
"A) 	c #1F2B55",
"B) 	c #1D2B53",
"C) 	c #1F2A4C",
"D) 	c #202A50",
"E) 	c #1F335A",
"F) 	c #1F2F55",
"G) 	c #21325C",
"H) 	c #1F3158",
"I) 	c #1E2D51",
"J) 	c #1F294C",
"K) 	c #202948",
"L) 	c #192646",
"M) 	c #1B2546",
"N) 	c #1A284D",
"O) 	c #1A2345",
"P) 	c #1A2344",
"Q) 	c #1B2444",
"R) 	c #192548",
"S) 	c #19264D",
"T) 	c #1B2344",
"U) 	c #192243",
"V) 	c #182143",
"W) 	c #182141",
"X) 	c #1B2341",
"Y) 	c #19203A",
"Z) 	c #19213B",
"`) 	c #1E2640",
" ! 	c #1A243D",
".! 	c #1E2841",
"+! 	c #1C253C",
"@! 	c #1B253C",
"#! 	c #1C2439",
"$! 	c #1C2238",
"%! 	c #1C2338",
"&! 	c #1E2236",
"*! 	c #1F2335",
"=! 	c #1F2333",
"-! 	c #20202D",
";! 	c #1F212D",
">! 	c #1C1E2D",
",! 	c #1E1F2C",
"'! 	c #1E2028",
")! 	c #20212B",
"!! 	c #20212E",
"~! 	c #1C1E29",
"{! 	c #1C1F28",
"]! 	c #1A1E27",
"^! 	c #191E29",
"/! 	c #181D28",
"(! 	c #191C28",
"_! 	c #1A1C24",
":! 	c #151A25",
"<! 	c #171B28",
"[! 	c #161C2E",
"}! 	c #171D30",
"|! 	c #181E32",
"1! 	c #181F36",
"2! 	c #212E49",
"3! 	c #273549",
"4! 	c #2D3851",
"5! 	c #2C364A",
"6! 	c #2C374C",
"7! 	c #2F394D",
"8! 	c #2B3649",
"9! 	c #2C3648",
"0! 	c #313B4E",
"a! 	c #2F3D56",
"b! 	c #303D51",
"c! 	c #2F3C52",
"d! 	c #303C4F",
"e! 	c #313D4E",
"f! 	c #313F50",
"g! 	c #324254",
"h! 	c #303F50",
"i! 	c #2D3E55",
"j! 	c #304153",
"k! 	c #2E3E51",
"l! 	c #2C3E50",
"m! 	c #2A3A4D",
"n! 	c #2B3C4E",
"o! 	c #263849",
"p! 	c #2E3D4D",
"q! 	c #26384A",
"r! 	c #293647",
"s! 	c #243244",
"t! 	c #263244",
"u! 	c #2A3E51",
"v! 	c #2E4050",
"w! 	c #273445",
"x! 	c #17254F",
"y! 	c #1A2855",
"z! 	c #182147",
"A! 	c #1A254C",
"B! 	c #1F2748",
"C! 	c #1E2850",
"D! 	c #1C2950",
"E! 	c #1E2C59",
"F! 	c #1D2A55",
"G! 	c #1D2B56",
"H! 	c #1B2956",
"I! 	c #1E2B55",
"J! 	c #1F2D53",
"K! 	c #1F2B4E",
"L! 	c #202B51",
"M! 	c #1F2C54",
"N! 	c #1E2C55",
"O! 	c #1F2C55",
"P! 	c #1E2C52",
"Q! 	c #1F2D51",
"R! 	c #1E2A4C",
"S! 	c #1E2B50",
"T! 	c #1F2B54",
"U! 	c #203056",
"V! 	c #1E2B53",
"W! 	c #203156",
"X! 	c #1E2C54",
"Y! 	c #202F57",
"Z! 	c #202E56",
"`! 	c #1E2D53",
" ~ 	c #1E2C4E",
".~ 	c #1E294D",
"+~ 	c #1A2A4B",
"@~ 	c #1B2441",
"#~ 	c #192241",
"$~ 	c #1B2445",
"%~ 	c #1A2547",
"&~ 	c #192547",
"*~ 	c #192449",
"=~ 	c #182042",
"-~ 	c #182140",
";~ 	c #192036",
">~ 	c #1E263C",
",~ 	c #1D2539",
"'~ 	c #1A253A",
")~ 	c #1C253B",
"!~ 	c #1A2035",
"~~ 	c #1D2133",
"{~ 	c #1F253A",
"]~ 	c #20263B",
"^~ 	c #1D2235",
"/~ 	c #1C1E2E",
"(~ 	c #1E202F",
"_~ 	c #1F2130",
":~ 	c #1F2331",
"<~ 	c #312C37",
"[~ 	c #652D29",
"}~ 	c #5D2B2C",
"|~ 	c #61342C",
"1~ 	c #612F2B",
"2~ 	c #5C2E2A",
"3~ 	c #58292A",
"4~ 	c #422A2D",
"5~ 	c #1D1F2B",
"6~ 	c #1C1E2C",
"7~ 	c #1D1F2A",
"8~ 	c #181B27",
"9~ 	c #181C27",
"0~ 	c #181B25",
"a~ 	c #191C29",
"b~ 	c #171C29",
"c~ 	c #181C2B",
"d~ 	c #191F33",
"e~ 	c #18233C",
"f~ 	c #253250",
"g~ 	c #273450",
"h~ 	c #2A354B",
"i~ 	c #2A364E",
"j~ 	c #2B374C",
"k~ 	c #293548",
"l~ 	c #293446",
"m~ 	c #2D3548",
"n~ 	c #2A3648",
"o~ 	c #2A384A",
"p~ 	c #2E3A4B",
"q~ 	c #313C4D",
"r~ 	c #303C50",
"s~ 	c #2F3C4D",
"t~ 	c #2D3C4D",
"u~ 	c #2B3C4F",
"v~ 	c #2C3B4F",
"w~ 	c #293B4F",
"x~ 	c #2A3D4E",
"y~ 	c #2B3A4A",
"z~ 	c #273A4E",
"A~ 	c #263446",
"B~ 	c #283547",
"C~ 	c #233344",
"D~ 	c #243647",
"E~ 	c #243748",
"F~ 	c #243649",
"G~ 	c #25374A",
"H~ 	c #253346",
"I~ 	c #243548",
"J~ 	c #293546",
"K~ 	c #142349",
"L~ 	c #1A2349",
"M~ 	c #172148",
"N~ 	c #182146",
"O~ 	c #182149",
"P~ 	c #19234B",
"Q~ 	c #19254D",
"R~ 	c #1F2A52",
"S~ 	c #1D2953",
"T~ 	c #1D2954",
"U~ 	c #1E2C56",
"V~ 	c #1F2D5B",
"W~ 	c #202D58",
"X~ 	c #1E2B58",
"Y~ 	c #1F2B56",
"Z~ 	c #202C56",
"`~ 	c #1F294D",
" { 	c #20294B",
".{ 	c #1E2C51",
"+{ 	c #1F2D54",
"@{ 	c #1F2A4E",
"#{ 	c #1E2B52",
"${ 	c #1D2C54",
"%{ 	c #1F2D56",
"&{ 	c #1F2A4F",
"*{ 	c #202B4C",
"={ 	c #1B2648",
"-{ 	c #1D2644",
";{ 	c #1D2546",
">{ 	c #1A2444",
",{ 	c #172342",
"'{ 	c #192443",
"){ 	c #1C274A",
"!{ 	c #182144",
"~{ 	c #192244",
"{{ 	c #17213F",
"]{ 	c #1B2440",
"^{ 	c #1D2338",
"/{ 	c #1A2339",
"({ 	c #1A2033",
"_{ 	c #202231",
":{ 	c #1F1F2A",
"<{ 	c #1C202D",
"[{ 	c #1F202E",
"}{ 	c #20202E",
"|{ 	c #212536",
"1{ 	c #1F2332",
"2{ 	c #221F28",
"3{ 	c #211F29",
"4{ 	c #5A3130",
"5{ 	c #CD2009",
"6{ 	c #DD1A06",
"7{ 	c #DC1E07",
"8{ 	c #DF1F07",
"9{ 	c #DA1E07",
"0{ 	c #D41D07",
"a{ 	c #BB2912",
"b{ 	c #251F26",
"c{ 	c #191C27",
"d{ 	c #1A1C28",
"e{ 	c #1B1C27",
"f{ 	c #1B1D29",
"g{ 	c #181B26",
"h{ 	c #171B29",
"i{ 	c #161D30",
"j{ 	c #171F33",
"k{ 	c #17233D",
"l{ 	c #22304A",
"m{ 	c #2A334D",
"n{ 	c #293552",
"o{ 	c #283550",
"p{ 	c #29344B",
"q{ 	c #293447",
"r{ 	c #2B3648",
"s{ 	c #2B384A",
"t{ 	c #2B394B",
"u{ 	c #2D3B4C",
"v{ 	c #2D3A4C",
"w{ 	c #23374A",
"x{ 	c #273748",
"y{ 	c #28374A",
"z{ 	c #293749",
"A{ 	c #233243",
"B{ 	c #253445",
"C{ 	c #212E3E",
"D{ 	c #19254B",
"E{ 	c #1B284D",
"F{ 	c #18254C",
"G{ 	c #192247",
"H{ 	c #172045",
"I{ 	c #182145",
"J{ 	c #172046",
"K{ 	c #172047",
"L{ 	c #192249",
"M{ 	c #182249",
"N{ 	c #1E2953",
"O{ 	c #202E5C",
"P{ 	c #1C2B58",
"Q{ 	c #212D59",
"R{ 	c #1E2A54",
"S{ 	c #1F2B57",
"T{ 	c #202D55",
"U{ 	c #212C50",
"V{ 	c #212C54",
"W{ 	c #202D52",
"X{ 	c #1F2B4D",
"Y{ 	c #1D2B4D",
"Z{ 	c #202D54",
"`{ 	c #1C2A53",
" ] 	c #1E2B54",
".] 	c #202A53",
"+] 	c #202C51",
"@] 	c #1F2C4F",
"#] 	c #212B4D",
"$] 	c #202B4D",
"%] 	c #202A49",
"&] 	c #202848",
"*] 	c #1D284C",
"=] 	c #1B264A",
"-] 	c #172445",
";] 	c #172546",
">] 	c #192340",
",] 	c #1A253D",
"'] 	c #191E32",
")] 	c #1F202D",
"!] 	c #1F2231",
"~] 	c #1D1F2E",
"{] 	c #212333",
"]] 	c #1F2537",
"^] 	c #202333",
"/] 	c #211D28",
"(] 	c #6B2520",
"_] 	c #D21C06",
":] 	c #DA1805",
"<] 	c #D81A05",
"[] 	c #D71A05",
"}] 	c #DA1C06",
"|] 	c #DF1A05",
"1] 	c #C52611",
"2] 	c #282228",
"3] 	c #1E1F28",
"4] 	c #1B1C25",
"5] 	c #1C1D2A",
"6] 	c #1A1C27",
"7] 	c #191B24",
"8] 	c #181C28",
"9] 	c #171B2C",
"0] 	c #171E33",
"a] 	c #17223B",
"b] 	c #172645",
"c] 	c #1D2D4D",
"d] 	c #233050",
"e] 	c #263351",
"f] 	c #242F4B",
"g] 	c #27344D",
"h] 	c #2A354D",
"i] 	c #283448",
"j] 	c #2A3446",
"k] 	c #293648",
"l] 	c #2B3A4C",
"m] 	c #213548",
"n] 	c #243648",
"o] 	c #283B4B",
"p] 	c #273A4B",
"q] 	c #223243",
"r] 	c #283647",
"s] 	c #1F2D3E",
"t] 	c #222D3E",
"u] 	c #223040",
"v] 	c #223142",
"w] 	c #243243",
"x] 	c #1E2D3F",
"y] 	c #27394A",
"z] 	c #1A274F",
"A] 	c #17234B",
"B] 	c #162447",
"C] 	c #192348",
"D] 	c #192248",
"E] 	c #182148",
"F] 	c #172149",
"G] 	c #1A244C",
"H] 	c #1D2548",
"I] 	c #1F2749",
"J] 	c #212A51",
"K] 	c #1F2C58",
"L] 	c #1F2A54",
"M] 	c #1D2A53",
"N] 	c #202B54",
"O] 	c #212C53",
"P] 	c #20294A",
"Q] 	c #222F56",
"R] 	c #212C4E",
"S] 	c #202A4B",
"T] 	c #202C52",
"U] 	c #1C2A54",
"V] 	c #212E55",
"W] 	c #202C4F",
"X] 	c #1F2948",
"Y] 	c #212D4D",
"Z] 	c #1C2B4E",
"`] 	c #1C2A4F",
" ^ 	c #172644",
".^ 	c #172446",
"+^ 	c #182245",
"@^ 	c #1F2F4D",
"#^ 	c #182340",
"$^ 	c #1E2233",
"%^ 	c #1D2134",
"&^ 	c #1B1D2B",
"*^ 	c #212839",
"=^ 	c #202434",
"-^ 	c #222127",
";^ 	c #241E26",
">^ 	c #84231C",
",^ 	c #D61F08",
"'^ 	c #DD1E07",
")^ 	c #E22108",
"!^ 	c #DD1D06",
"~^ 	c #DC1805",
"{^ 	c #DE1905",
"]^ 	c #C92210",
"^^ 	c #28242B",
"/^ 	c #1F2029",
"(^ 	c #1C1D27",
"_^ 	c #1B1C28",
":^ 	c #1A1B26",
"<^ 	c #1C1D28",
"[^ 	c #1A1C29",
"}^ 	c #161A26",
"|^ 	c #161B2E",
"1^ 	c #16213A",
"2^ 	c #172544",
"3^ 	c #222F51",
"4^ 	c #242F4A",
"5^ 	c #273149",
"6^ 	c #29354A",
"7^ 	c #293346",
"8^ 	c #283446",
"9^ 	c #283445",
"0^ 	c #212E3F",
"a^ 	c #253144",
"b^ 	c #1F3042",
"c^ 	c #263344",
"d^ 	c #233546",
"e^ 	c #223244",
"f^ 	c #203041",
"g^ 	c #212E40",
"h^ 	c #232F40",
"i^ 	c #243041",
"j^ 	c #202E40",
"k^ 	c #283546",
"l^ 	c #202F40",
"m^ 	c #222C41",
"n^ 	c #2B384B",
"o^ 	c #142145",
"p^ 	c #192448",
"q^ 	c #1D264C",
"r^ 	c #202B50",
"s^ 	c #1C2851",
"t^ 	c #1D294F",
"u^ 	c #1E2A56",
"v^ 	c #1E2A53",
"w^ 	c #202A52",
"x^ 	c #202B55",
"y^ 	c #21294A",
"z^ 	c #202A51",
"A^ 	c #202E52",
"B^ 	c #212949",
"C^ 	c #222A48",
"D^ 	c #202A4A",
"E^ 	c #202B4F",
"F^ 	c #202D56",
"G^ 	c #1F305C",
"H^ 	c #1E2E5D",
"I^ 	c #20335F",
"J^ 	c #1E2E5A",
"K^ 	c #1D2D59",
"L^ 	c #1E2D58",
"M^ 	c #1F2E57",
"N^ 	c #1F2B51",
"O^ 	c #20294E",
"P^ 	c #1A2446",
"Q^ 	c #1B2A51",
"R^ 	c #1C2749",
"S^ 	c #1A2245",
"T^ 	c #192242",
"U^ 	c #192843",
"V^ 	c #1B263C",
"W^ 	c #1A243A",
"X^ 	c #1F2538",
"Y^ 	c #242B3B",
"Z^ 	c #1F2638",
"`^ 	c #1F2738",
" / 	c #21283D",
"./ 	c #1F2639",
"+/ 	c #21273A",
"@/ 	c #20232E",
"#/ 	c #251E27",
"$/ 	c #7D2620",
"%/ 	c #E21F07",
"&/ 	c #DF1C06",
"*/ 	c #E01A05",
"=/ 	c #DD1A05",
"-/ 	c #C62310",
";/ 	c #292228",
">/ 	c #1C1F26",
",/ 	c #1B1D25",
"'/ 	c #1A1C26",
")/ 	c #191C26",
"!/ 	c #1A1D29",
"~/ 	c #181C2C",
"{/ 	c #171C2E",
"]/ 	c #191F32",
"^/ 	c #172543",
"// 	c #223050",
"(/ 	c #252F4C",
"_/ 	c #273049",
":/ 	c #283249",
"</ 	c #29354C",
"[/ 	c #26314C",
"}/ 	c #233248",
"|/ 	c #263448",
"1/ 	c #273449",
"2/ 	c #25344A",
"3/ 	c #263548",
"4/ 	c #273245",
"5/ 	c #2A3647",
"6/ 	c #2A3544",
"7/ 	c #233142",
"8/ 	c #27384D",
"9/ 	c #233549",
"0/ 	c #213143",
"a/ 	c #223447",
"b/ 	c #1F3041",
"c/ 	c #263747",
"d/ 	c #223345",
"e/ 	c #243343",
"f/ 	c #1F2E3E",
"g/ 	c #233041",
"h/ 	c #223042",
"i/ 	c #1D2A3B",
"j/ 	c #212D3E",
"k/ 	c #222B3D",
"l/ 	c #273444",
"m/ 	c #19264C",
"n/ 	c #192A4E",
"o/ 	c #1A254A",
"p/ 	c #19234A",
"q/ 	c #17224B",
"r/ 	c #1C254B",
"s/ 	c #1C2853",
"t/ 	c #1F2953",
"u/ 	c #1F2A55",
"v/ 	c #1E2A55",
"w/ 	c #212A50",
"x/ 	c #222C53",
"y/ 	c #202A54",
"z/ 	c #1F2A53",
"A/ 	c #213057",
"B/ 	c #212D52",
"C/ 	c #1F2E5B",
"D/ 	c #1F2E5A",
"E/ 	c #1E2C57",
"F/ 	c #1C2D59",
"G/ 	c #202F5F",
"H/ 	c #1E2E5E",
"I/ 	c #202E5F",
"J/ 	c #1F2A4B",
"K/ 	c #1B274C",
"L/ 	c #1D274F",
"M/ 	c #1F2E54",
"N/ 	c #1B2B4F",
"O/ 	c #1B2A4D",
"P/ 	c #1F2E4D",
"Q/ 	c #1D2845",
"R/ 	c #1C2742",
"S/ 	c #192541",
"T/ 	c #192842",
"U/ 	c #1A273F",
"V/ 	c #1D2740",
"W/ 	c #1B2439",
"X/ 	c #1E2231",
"Y/ 	c #1E2538",
"Z/ 	c #20283A",
"`/ 	c #1F2736",
" ( 	c #212434",
".( 	c #252027",
"+( 	c #87251B",
"@( 	c #D01E08",
"#( 	c #DE1C06",
"$( 	c #DD1B06",
"%( 	c #E11905",
"&( 	c #E01905",
"*( 	c #CA1F0A",
"=( 	c #2E242D",
"-( 	c #1D212A",
";( 	c #1D1F29",
">( 	c #1B1D27",
",( 	c #1A1B25",
"'( 	c #181B23",
")( 	c #191B25",
"!( 	c #181A25",
"~( 	c #191B23",
"{( 	c #191C2A",
"]( 	c #151B2C",
"^( 	c #181E34",
"/( 	c #172039",
"(( 	c #162341",
"_( 	c #182846",
":( 	c #202C4C",
"<( 	c #232D4C",
"[( 	c #253148",
"}( 	c #222E47",
"|( 	c #25314A",
"1( 	c #2A344C",
"2( 	c #25314B",
"3( 	c #28354A",
"4( 	c #223146",
"5( 	c #202F43",
"6( 	c #233143",
"7( 	c #223141",
"8( 	c #213248",
"9( 	c #24384B",
"0( 	c #21364A",
"a( 	c #22364B",
"b( 	c #213244",
"c( 	c #202D40",
"d( 	c #212C3E",
"e( 	c #20273A",
"f( 	c #20293D",
"g( 	c #222C40",
"h( 	c #132447",
"i( 	c #1B274A",
"j( 	c #19254A",
"k( 	c #1E2851",
"l( 	c #1B2751",
"m( 	c #1C2952",
"n( 	c #1F2954",
"o( 	c #212A52",
"p( 	c #212B55",
"q( 	c #202B56",
"r( 	c #1F2A56",
"s( 	c #222F57",
"t( 	c #202C54",
"u( 	c #222C52",
"v( 	c #212B50",
"w( 	c #21305B",
"x( 	c #1F305B",
"y( 	c #20315A",
"z( 	c #1F325B",
"A( 	c #1E3056",
"B( 	c #1F2E58",
"C( 	c #1E2E5C",
"D( 	c #1E2E58",
"E( 	c #1D2A51",
"F( 	c #1F2C57",
"G( 	c #1C2C4C",
"H( 	c #1D2D4C",
"I( 	c #1C2E4C",
"J( 	c #1D304F",
"K( 	c #1F314F",
"L( 	c #18233D",
"M( 	c #1B2948",
"N( 	c #1A243F",
"O( 	c #1B2540",
"P( 	c #192339",
"Q( 	c #192338",
"R( 	c #192135",
"S( 	c #1C253A",
"T( 	c #1D273F",
"U( 	c #1D263D",
"V( 	c #1B283C",
"W( 	c #1C293D",
"X( 	c #1D273A",
"Y( 	c #1D2437",
"Z( 	c #1A2133",
"`( 	c #1E2030",
" _ 	c #1C1F30",
"._ 	c #1C1F2F",
"+_ 	c #212738",
"@_ 	c #222636",
"#_ 	c #26232C",
"$_ 	c #81241A",
"%_ 	c #D11D07",
"&_ 	c #E01C06",
"*_ 	c #E11805",
"=_ 	c #E11704",
"-_ 	c #DD1905",
";_ 	c #CB1F0B",
">_ 	c #2B2630",
",_ 	c #1B232D",
"'_ 	c #161B28",
")_ 	c #1C1F2A",
"!_ 	c #1C1D26",
"~_ 	c #181B24",
"{_ 	c #151B26",
"]_ 	c #181D31",
"^_ 	c #181F35",
"/_ 	c #16233F",
"(_ 	c #172745",
"__ 	c #202B49",
":_ 	c #263248",
"<_ 	c #263348",
"[_ 	c #243048",
"}_ 	c #213046",
"|_ 	c #202C43",
"1_ 	c #202D41",
"2_ 	c #203145",
"3_ 	c #1F3043",
"4_ 	c #233447",
"5_ 	c #222F42",
"6_ 	c #1C2A3B",
"7_ 	c #202F42",
"8_ 	c #1D2E40",
"9_ 	c #223547",
"0_ 	c #223446",
"a_ 	c #203244",
"b_ 	c #233244",
"c_ 	c #253141",
"d_ 	c #213043",
"e_ 	c #26384B",
"f_ 	c #223144",
"g_ 	c #24374A",
"h_ 	c #26394B",
"i_ 	c #213347",
"j_ 	c #203142",
"k_ 	c #1F3244",
"l_ 	c #203246",
"m_ 	c #1E2C3D",
"n_ 	c #212A3D",
"o_ 	c #182546",
"p_ 	c #182646",
"q_ 	c #1C274F",
"r_ 	c #1C2850",
"s_ 	c #1F2951",
"t_ 	c #222C56",
"u_ 	c #202C57",
"v_ 	c #212D57",
"w_ 	c #212B4F",
"x_ 	c #212B52",
"y_ 	c #202D53",
"z_ 	c #202F54",
"A_ 	c #1D2E55",
"B_ 	c #1F2F5B",
"C_ 	c #1E2D56",
"D_ 	c #1F2F59",
"E_ 	c #1E2E59",
"F_ 	c #1F2D5A",
"G_ 	c #1E2B57",
"H_ 	c #202E54",
"I_ 	c #1D2C57",
"J_ 	c #1D2D58",
"K_ 	c #1B2853",
"L_ 	c #1B2852",
"M_ 	c #162645",
"N_ 	c #192846",
"O_ 	c #1B2A47",
"P_ 	c #1A2A46",
"Q_ 	c #1B2C4A",
"R_ 	c #21304D",
"S_ 	c #1F2D4A",
"T_ 	c #1C2943",
"U_ 	c #1A2137",
"V_ 	c #1E2A3F",
"W_ 	c #1D283A",
"X_ 	c #1C1F31",
"Y_ 	c #1E2133",
"Z_ 	c #1A1E30",
"`_ 	c #191E30",
" : 	c #202435",
".: 	c #212638",
"+: 	c #252D41",
"@: 	c #2A3042",
"#: 	c #262E3F",
"$: 	c #272E3F",
"%: 	c #292E3C",
"&: 	c #272330",
"*: 	c #8A2417",
"=: 	c #DD2108",
"-: 	c #E02208",
";: 	c #DF1B05",
">: 	c #E61A05",
",: 	c #E21A05",
"': 	c #C3200E",
"): 	c #2A242D",
"!: 	c #1C242C",
"~: 	c #1A202A",
"{: 	c #1C1F2B",
"]: 	c #181D29",
"^: 	c #171C27",
"/: 	c #171A28",
"(: 	c #161B2D",
"_: 	c #151B2F",
":: 	c #161D33",
"<: 	c #152240",
"[: 	c #172746",
"}: 	c #1E2D49",
"|: 	c #263049",
"1: 	c #253048",
"2: 	c #202C45",
"3: 	c #1E2A3C",
"4: 	c #202F44",
"5: 	c #1F3044",
"6: 	c #213449",
"7: 	c #213243",
"8: 	c #232F3F",
"9: 	c #202C3D",
"0: 	c #1E2B3C",
"a: 	c #1D2B3C",
"b: 	c #202F41",
"c: 	c #202D3F",
"d: 	c #1F2B3D",
"e: 	c #1E2E40",
"f: 	c #1F2F42",
"g: 	c #1F2B3C",
"h: 	c #203042",
"i: 	c #1F2D3F",
"j: 	c #26394D",
"k: 	c #203346",
"l: 	c #263B4F",
"m: 	c #25394D",
"n: 	c #25384A",
"o: 	c #203044",
"p: 	c #213447",
"q: 	c #212D3F",
"r: 	c #223548",
"s: 	c #20364A",
"t: 	c #203549",
"u: 	c #24364C",
"v: 	c #1C3046",
"w: 	c #1F3249",
"x: 	c #1A293E",
"y: 	c #1D2739",
"z: 	c #1D2538",
"A: 	c #253143",
"B: 	c #1A2751",
"C: 	c #1A2651",
"D: 	c #1F284E",
"E: 	c #1D2750",
"F: 	c #1D2851",
"G: 	c #1E2A52",
"H: 	c #1E2954",
"I: 	c #212C55",
"J: 	c #212C57",
"K: 	c #1F2C59",
"L: 	c #202D59",
"M: 	c #1F2C56",
"N: 	c #202C55",
"O: 	c #222D50",
"P: 	c #212E54",
"Q: 	c #1F2F57",
"R: 	c #233259",
"S: 	c #1D2C59",
"T: 	c #1B2953",
"U: 	c #1F2C50",
"V: 	c #1D2A50",
"W: 	c #1C2B57",
"X: 	c #1D2E59",
"Y: 	c #1C2A55",
"Z: 	c #1A2853",
"`: 	c #1C294F",
" < 	c #1B2E52",
".< 	c #1C2E4E",
"+< 	c #1B2A49",
"@< 	c #1D2C4B",
"#< 	c #1A2844",
"$< 	c #1B2845",
"%< 	c #1E2E49",
"&< 	c #1D2B47",
"*< 	c #1C2B46",
"=< 	c #1B2846",
"-< 	c #1C243F",
";< 	c #1C253E",
">< 	c #1C263A",
",< 	c #1C2438",
"'< 	c #1E2235",
")< 	c #1E1F2D",
"!< 	c #1E2234",
"~< 	c #22202C",
"{< 	c #582527",
"]< 	c #762927",
"^< 	c #792A26",
"/< 	c #762C27",
"(< 	c #812E2B",
"_< 	c #8A3A35",
":< 	c #8D2A1F",
"<< 	c #C64F1C",
"[< 	c #E98B12",
"}< 	c #E6951B",
"|< 	c #E69615",
"1< 	c #E49B1D",
"2< 	c #E59C1F",
"3< 	c #E38C15",
"4< 	c #D48A30",
"5< 	c #322C31",
"6< 	c #1F2531",
"7< 	c #1C232D",
"8< 	c #1A1F2A",
"9< 	c #1B1F2C",
"0< 	c #171D2C",
"a< 	c #171B2A",
"b< 	c #171C2B",
"c< 	c #181C2F",
"d< 	c #181D30",
"e< 	c #181E35",
"f< 	c #14213F",
"g< 	c #162644",
"h< 	c #1F2E4A",
"i< 	c #25324B",
"j< 	c #232E45",
"k< 	c #242E43",
"l< 	c #1F273A",
"m< 	c #1C2839",
"n< 	c #1B2537",
"o< 	c #1C2739",
"p< 	c #1C2A3D",
"q< 	c #1F2D45",
"r< 	c #233649",
"s< 	c #202E3F",
"t< 	c #1C2736",
"u< 	c #1D2839",
"v< 	c #1F2A3C",
"w< 	c #1F2C3D",
"x< 	c #1E2C3E",
"y< 	c #1F2737",
"z< 	c #212C3D",
"A< 	c #1E2E43",
"B< 	c #1F2F45",
"C< 	c #1E2C43",
"D< 	c #1C2D40",
"E< 	c #23374D",
"F< 	c #203348",
"G< 	c #23364C",
"H< 	c #25374E",
"I< 	c #24384D",
"J< 	c #24394E",
"K< 	c #1E3249",
"L< 	c #1E2F44",
"M< 	c #1E3045",
"N< 	c #1F2A3D",
"O< 	c #21354B",
"P< 	c #1D3147",
"Q< 	c #1B3046",
"R< 	c #182E46",
"S< 	c #1A2C45",
"T< 	c #1D2F47",
"U< 	c #20314A",
"V< 	c #1D2D42",
"W< 	c #1D263C",
"X< 	c #1D293C",
"Y< 	c #202A3B",
"Z< 	c #1C2955",
"`< 	c #1C2854",
" [ 	c #1B2851",
".[ 	c #202D57",
"+[ 	c #1F2B58",
"@[ 	c #202B57",
"#[ 	c #1E2C5A",
"$[ 	c #212E57",
"%[ 	c #222C51",
"&[ 	c #20315D",
"*[ 	c #202E5A",
"=[ 	c #1F2E59",
"-[ 	c #1D2C58",
";[ 	c #1B2850",
">[ 	c #182545",
",[ 	c #192742",
"'[ 	c #1A2944",
")[ 	c #21304A",
"![ 	c #1D2C47",
"~[ 	c #1C2845",
"{[ 	c #1D2032",
"][ 	c #1C2033",
"^[ 	c #1F2030",
"/[ 	c #26202D",
"([ 	c #B82612",
"_[ 	c #D01F08",
":[ 	c #D11E07",
"<[ 	c #D31F08",
"[[ 	c #D42008",
"}[ 	c #D52008",
"|[ 	c #E78119",
"1[ 	c #F3D805",
"2[ 	c #F6E103",
"3[ 	c #F7E203",
"4[ 	c #F8E403",
"5[ 	c #ECD921",
"6[ 	c #363831",
"7[ 	c #1F2631",
"8[ 	c #1B212C",
"9[ 	c #1C202C",
"0[ 	c #181E2D",
"a[ 	c #191B27",
"b[ 	c #161A27",
"c[ 	c #191C2B",
"d[ 	c #181D2D",
"e[ 	c #171F38",
"f[ 	c #151F3D",
"g[ 	c #1E2A43",
"h[ 	c #212C45",
"i[ 	c #212E43",
"j[ 	c #202639",
"k[ 	c #1C2738",
"l[ 	c #1D273B",
"m[ 	c #1B2539",
"n[ 	c #1F293D",
"o[ 	c #1F2739",
"p[ 	c #1E2537",
"q[ 	c #233040",
"r[ 	c #1B2739",
"s[ 	c #1E2A3D",
"t[ 	c #1E283A",
"u[ 	c #1B2738",
"v[ 	c #1D3046",
"w[ 	c #1C2D42",
"x[ 	c #213044",
"y[ 	c #23364D",
"z[ 	c #1F3145",
"A[ 	c #203349",
"B[ 	c #22354B",
"C[ 	c #203049",
"D[ 	c #1E304A",
"E[ 	c #23374E",
"F[ 	c #20334C",
"G[ 	c #20344C",
"H[ 	c #223246",
"I[ 	c #233347",
"J[ 	c #232F45",
"K[ 	c #202D42",
"L[ 	c #1E2C40",
"M[ 	c #22354C",
"N[ 	c #203147",
"O[ 	c #1F324B",
"P[ 	c #1D2E49",
"Q[ 	c #1F314A",
"R[ 	c #202F48",
"S[ 	c #1E2D41",
"T[ 	c #1E2941",
"U[ 	c #1B2843",
"V[ 	c #1C2A3F",
"W[ 	c #1F2C4E",
"X[ 	c #1E2647",
"Y[ 	c #1C2953",
"Z[ 	c #1D2852",
"`[ 	c #222D57",
" } 	c #222D5A",
".} 	c #212D5A",
"+} 	c #202C59",
"@} 	c #212D5B",
"#} 	c #212D5D",
"$} 	c #1D2A58",
"%} 	c #1F2C5A",
"&} 	c #202D5B",
"*} 	c #212D58",
"=} 	c #212D55",
"-} 	c #212B54",
";} 	c #202B53",
">} 	c #212A4E",
",} 	c #1E2D54",
"'} 	c #1E2E56",
")} 	c #1F2D55",
"!} 	c #1F2D58",
"~} 	c #1E2E57",
"{} 	c #1D2B58",
"]} 	c #1E2A57",
"^} 	c #1F2D59",
"/} 	c #1D2B55",
"(} 	c #1C2A50",
"_} 	c #1D2842",
":} 	c #1B253E",
"<} 	c #1F2942",
"[} 	c #1D2A3E",
"}} 	c #1B273C",
"|} 	c #1B2235",
"1} 	c #1A1E31",
"2} 	c #222431",
"3} 	c #2A2327",
"4} 	c #BA2311",
"5} 	c #D41F08",
"6} 	c #D21E07",
"7} 	c #D31E07",
"8} 	c #D61F07",
"9} 	c #D81E06",
"0} 	c #E77D16",
"a} 	c #F5DC04",
"b} 	c #F8E503",
"c} 	c #EBDE3B",
"d} 	c #363C35",
"e} 	c #1D242F",
"f} 	c #1B222E",
"g} 	c #1C212E",
"h} 	c #181E2B",
"i} 	c #1A202D",
"j} 	c #171D2B",
"k} 	c #191D2E",
"l} 	c #171C2F",
"m} 	c #161D32",
"n} 	c #171D33",
"o} 	c #162039",
"p} 	c #161F3A",
"q} 	c #151F3A",
"r} 	c #1B273E",
"s} 	c #1F263C",
"t} 	c #1F263A",
"u} 	c #1D2536",
"v} 	c #1E2536",
"w} 	c #1B2639",
"x} 	c #192538",
"y} 	c #1C2538",
"z} 	c #1C2637",
"A} 	c #1B293B",
"B} 	c #253347",
"C} 	c #1B293C",
"D} 	c #1A263A",
"E} 	c #1A253B",
"F} 	c #1A2A42",
"G} 	c #1D2F49",
"H} 	c #1A2E48",
"I} 	c #1C2F47",
"J} 	c #1F3248",
"K} 	c #1D2D44",
"L} 	c #1F3046",
"M} 	c #1E314A",
"N} 	c #1C2D45",
"O} 	c #223249",
"P} 	c #1E3049",
"Q} 	c #21324A",
"R} 	c #21334B",
"S} 	c #1E3046",
"T} 	c #24354B",
"U} 	c #243449",
"V} 	c #1E3148",
"W} 	c #233246",
"X} 	c #203045",
"Y} 	c #233448",
"Z} 	c #1E2E44",
"`} 	c #212F44",
" | 	c #1D2C43",
".| 	c #1C2C43",
"+| 	c #1C2D43",
"@| 	c #1F2F4B",
"#| 	c #1E2F46",
"$| 	c #1E2D47",
"%| 	c #1C2B3F",
"&| 	c #18283E",
"*| 	c #172344",
"=| 	c #1D284B",
"-| 	c #222C58",
";| 	c #222C57",
">| 	c #212F5F",
",| 	c #212F60",
"'| 	c #212D5C",
")| 	c #1F2E5F",
"!| 	c #1F2F5D",
"~| 	c #202D5A",
"{| 	c #212E5A",
"]| 	c #212C56",
"^| 	c #1D2B54",
"/| 	c #182444",
"(| 	c #182748",
"_| 	c #1E2948",
":| 	c #29283E",
"<| 	c #432A30",
"[| 	c #3F2834",
"}| 	c #402B36",
"|| 	c #3F2C34",
"1| 	c #3C232C",
"2| 	c #2D262F",
"3| 	c #202533",
"4| 	c #1E2641",
"5| 	c #1B1F32",
"6| 	c #1D2030",
"7| 	c #23212B",
"8| 	c #292127",
"9| 	c #BB2512",
"0| 	c #DA1D07",
"a| 	c #D52209",
"b| 	c #D51E07",
"c| 	c #D91F08",
"d| 	c #E47F22",
"e| 	c #F5DF03",
"f| 	c #F7E304",
"g| 	c #EFE03C",
"h| 	c #3A402E",
"i| 	c #1F2533",
"j| 	c #1A202F",
"k| 	c #161C2C",
"l| 	c #181C2D",
"m| 	c #171E36",
"n| 	c #161E38",
"o| 	c #172038",
"p| 	c #192137",
"q| 	c #161F35",
"r| 	c #192139",
"s| 	c #1A2239",
"t| 	c #192035",
"u| 	c #1A2236",
"v| 	c #182135",
"w| 	c #192238",
"x| 	c #1A243B",
"y| 	c #172239",
"z| 	c #17243B",
"A| 	c #1A2940",
"B| 	c #192940",
"C| 	c #19283F",
"D| 	c #192841",
"E| 	c #182740",
"F| 	c #1B2C46",
"G| 	c #1A2D48",
"H| 	c #162847",
"I| 	c #132744",
"J| 	c #192A44",
"K| 	c #1D2F48",
"L| 	c #16263F",
"M| 	c #1C2D47",
"N| 	c #1B2E4B",
"O| 	c #1F3149",
"P| 	c #1E2F49",
"Q| 	c #1F304A",
"R| 	c #21334C",
"S| 	c #22344C",
"T| 	c #22334A",
"U| 	c #20324D",
"V| 	c #1A2842",
"W| 	c #1B2E44",
"X| 	c #1D2F44",
"Y| 	c #1C2E48",
"Z| 	c #1C2C46",
"`| 	c #1A2B44",
" 1 	c #1D2D49",
".1 	c #182941",
"+1 	c #182C47",
"@1 	c #1C2D48",
"#1 	c #253249",
"$1 	c #1C2B41",
"%1 	c #1C2841",
"&1 	c #1B2A41",
"*1 	c #1E2B3F",
"=1 	c #1B254D",
"-1 	c #1E2950",
";1 	c #202B58",
">1 	c #212C5B",
",1 	c #1F2C5B",
"'1 	c #202E5D",
")1 	c #212F61",
"!1 	c #202D5E",
"~1 	c #222F61",
"{1 	c #223062",
"]1 	c #223063",
"^1 	c #202E60",
"/1 	c #213162",
"(1 	c #20305C",
"_1 	c #222F5B",
":1 	c #222E5B",
"<1 	c #202D5C",
"[1 	c #222F5C",
"}1 	c #212E5E",
"|1 	c #212E5C",
"11 	c #202C58",
"21 	c #222E56",
"31 	c #212F5A",
"41 	c #202E58",
"51 	c #212F58",
"61 	c #202E59",
"71 	c #1D2F5B",
"81 	c #1C2E5D",
"91 	c #1E2C58",
"01 	c #1B2A50",
"a1 	c #1A2750",
"b1 	c #21345E",
"c1 	c #1C2F58",
"d1 	c #46344A",
"e1 	c #BF2810",
"f1 	c #C6270D",
"g1 	c #C5290F",
"h1 	c #C3260D",
"i1 	c #C2270F",
"j1 	c #A32714",
"k1 	c #3B2D39",
"l1 	c #1D253E",
"m1 	c #1D243E",
"n1 	c #1B2034",
"o1 	c #282127",
"p1 	c #BF2B13",
"q1 	c #DB2108",
"r1 	c #D61D06",
"s1 	c #DA2108",
"t1 	c #E11B06",
"u1 	c #DC1F07",
"v1 	c #E57715",
"w1 	c #F4DC04",
"x1 	c #EFDF40",
"y1 	c #393F38",
"z1 	c #1E2433",
"A1 	c #1B212D",
"B1 	c #171C2A",
"C1 	c #171D2D",
"D1 	c #161B2C",
"E1 	c #151B2D",
"F1 	c #161C31",
"G1 	c #171D32",
"H1 	c #181E33",
"I1 	c #161C30",
"J1 	c #171F36",
"K1 	c #15203B",
"L1 	c #14203D",
"M1 	c #141F3A",
"N1 	c #171E35",
"O1 	c #171F37",
"P1 	c #161F36",
"Q1 	c #17213E",
"R1 	c #14203A",
"S1 	c #17223D",
"T1 	c #16213C",
"U1 	c #13203C",
"V1 	c #12203C",
"W1 	c #12213C",
"X1 	c #14233F",
"Y1 	c #1F2D48",
"Z1 	c #21304C",
"`1 	c #142544",
" 2 	c #132544",
".2 	c #102240",
"+2 	c #132443",
"@2 	c #122341",
"#2 	c #172A47",
"$2 	c #0F2545",
"%2 	c #132444",
"&2 	c #112546",
"*2 	c #152644",
"=2 	c #162744",
"-2 	c #172A46",
";2 	c #182946",
">2 	c #1A2D4B",
",2 	c #142948",
"'2 	c #1A2B48",
")2 	c #152A45",
"!2 	c #182A43",
"~2 	c #162845",
"{2 	c #132543",
"]2 	c #162844",
"^2 	c #172A45",
"/2 	c #1A304F",
"(2 	c #172947",
"_2 	c #192B48",
":2 	c #13223F",
"<2 	c #172341",
"[2 	c #1A253F",
"}2 	c #192741",
"|2 	c #1C2751",
"12 	c #1C2954",
"22 	c #1D2853",
"32 	c #1D2955",
"42 	c #222D5B",
"52 	c #1E2C5D",
"62 	c #1F2D5F",
"72 	c #222E60",
"82 	c #222F62",
"92 	c #223061",
"02 	c #203063",
"a2 	c #1D2F61",
"b2 	c #203064",
"c2 	c #21305E",
"d2 	c #212F5E",
"e2 	c #22305F",
"f2 	c #222E5E",
"g2 	c #222E5F",
"h2 	c #233062",
"i2 	c #222F5F",
"j2 	c #212E5F",
"k2 	c #1F2D5E",
"l2 	c #1F2D5D",
"m2 	c #212F5D",
"n2 	c #1F2F5A",
"o2 	c #1E2E5B",
"p2 	c #1D2B57",
"q2 	c #1F2952",
"r2 	c #1B2957",
"s2 	c #1D2C5B",
"t2 	c #1E2D57",
"u2 	c #1D2F54",
"v2 	c #483048",
"w2 	c #C1270E",
"x2 	c #D0240B",
"y2 	c #D0240A",
"z2 	c #D0250B",
"A2 	c #C8260D",
"B2 	c #482830",
"C2 	c #1E2339",
"D2 	c #1D263E",
"E2 	c #1D2640",
"F2 	c #1C233B",
"G2 	c #1B2337",
"H2 	c #1D2236",
"I2 	c #21212B",
"J2 	c #29232E",
"K2 	c #C0311D",
"L2 	c #DE1E06",
"M2 	c #E01D06",
"N2 	c #E01B05",
"O2 	c #DF1804",
"P2 	c #DD1F07",
"Q2 	c #E77715",
"R2 	c #F4DA06",
"S2 	c #F7E303",
"T2 	c #EBDB40",
"U2 	c #394035",
"V2 	c #1E2531",
"W2 	c #1A202E",
"X2 	c #191F2F",
"Y2 	c #181F2B",
"Z2 	c #19202F",
"`2 	c #151A29",
" 3 	c #161C2F",
".3 	c #151B2E",
"+3 	c #151C31",
"@3 	c #141D35",
"#3 	c #141F39",
"$3 	c #151C34",
"%3 	c #161C32",
"&3 	c #151B30",
"*3 	c #151C32",
"=3 	c #141C31",
"-3 	c #151D34",
";3 	c #161E34",
">3 	c #141E38",
",3 	c #151F37",
"'3 	c #142039",
")3 	c #121D38",
"!3 	c #111F3C",
"~3 	c #13223E",
"{3 	c #13203D",
"]3 	c #14213E",
"^3 	c #11213E",
"/3 	c #10213E",
"(3 	c #12213F",
"_3 	c #152544",
":3 	c #112342",
"<3 	c #12223F",
"[3 	c #122443",
"}3 	c #14203F",
"|3 	c #192945",
"13 	c #142645",
"23 	c #132442",
"33 	c #0E2342",
"43 	c #11213F",
"53 	c #132342",
"63 	c #112240",
"73 	c #152543",
"83 	c #0F2240",
"93 	c #132340",
"03 	c #132644",
"a3 	c #142242",
"b3 	c #122140",
"c3 	c #112140",
"d3 	c #13203E",
"e3 	c #141E39",
"f3 	c #17213D",
"g3 	c #192650",
"h3 	c #1F2B52",
"i3 	c #1E2B59",
"j3 	c #1C2956",
"k3 	c #1D2A57",
"l3 	c #212C58",
"m3 	c #1E2B5A",
"n3 	c #212E60",
"o3 	c #1E2D5F",
"p3 	c #1C2C5F",
"q3 	c #223363",
"r3 	c #22325E",
"s3 	c #212F5C",
"t3 	c #222E5A",
"u3 	c #222E5C",
"v3 	c #222E5D",
"w3 	c #213062",
"x3 	c #1E2F63",
"y3 	c #1C2A56",
"z3 	c #1F2F56",
"A3 	c #1D2E5D",
"B3 	c #1E2D5C",
"C3 	c #1C2B56",
"D3 	c #1A2A56",
"E3 	c #1A274D",
"F3 	c #1E2D52",
"G3 	c #4D3348",
"H3 	c #B8270E",
"I3 	c #D0220A",
"J3 	c #D0230A",
"K3 	c #D1260B",
"L3 	c #3F2630",
"M3 	c #1E243A",
"N3 	c #1D2542",
"O3 	c #1B1E2E",
"P3 	c #1D1F2F",
"Q3 	c #2B242C",
"R3 	c #C6321D",
"S3 	c #E21B05",
"T3 	c #E51A05",
"U3 	c #E41804",
"V3 	c #E41E07",
"W3 	c #E77822",
"X3 	c #F3D909",
"Y3 	c #F6E002",
"Z3 	c #F5E20C",
"`3 	c #F1DF24",
" 4 	c #F6DF03",
".4 	c #ECDC40",
"+4 	c #434A37",
"@4 	c #1C2330",
"#4 	c #1B212F",
"$4 	c #191F2D",
"%4 	c #171B2B",
"&4 	c #151A2C",
"*4 	c #151C30",
"=4 	c #161E35",
"-4 	c #181F38",
";4 	c #141B2F",
">4 	c #161D31",
",4 	c #151E36",
"'4 	c #121A30",
")4 	c #121E3B",
"!4 	c #141F3B",
"~4 	c #13203B",
"{4 	c #141D39",
"]4 	c #121D37",
"^4 	c #111E3A",
"/4 	c #101E3A",
"(4 	c #141F3C",
"_4 	c #121F3B",
":4 	c #0E1D3A",
"<4 	c #12213E",
"[4 	c #162442",
"}4 	c #14203E",
"|4 	c #14223F",
"14 	c #122240",
"24 	c #142240",
"34 	c #132242",
"44 	c #121F3D",
"54 	c #111F3B",
"64 	c #131E3B",
"74 	c #131F3B",
"84 	c #15213E",
"94 	c #12203E",
"04 	c #172241",
"a4 	c #161F3B",
"b4 	c #141C36",
"c4 	c #15203D",
"d4 	c #162650",
"e4 	c #1A2854",
"f4 	c #1E2C5C",
"g4 	c #1D2B59",
"h4 	c #212F62",
"i4 	c #1F2D60",
"j4 	c #223161",
"k4 	c #233762",
"l4 	c #22305E",
"m4 	c #222F5D",
"n4 	c #202E5B",
"o4 	c #223060",
"p4 	c #1E2F61",
"q4 	c #233160",
"r4 	c #1E2C5B",
"s4 	c #202E55",
"t4 	c #1C2D57",
"u4 	c #1E2F55",
"v4 	c #202F55",
"w4 	c #1E2D4F",
"x4 	c #212E50",
"y4 	c #61333A",
"z4 	c #C5260D",
"A4 	c #D02209",
"B4 	c #D0260B",
"C4 	c #50252B",
"D4 	c #192034",
"E4 	c #1A1D2B",
"F4 	c #292737",
"G4 	c #DA4B1F",
"H4 	c #F44204",
"I4 	c #F24003",
"J4 	c #F24004",
"K4 	c #F03C06",
"L4 	c #F34004",
"M4 	c #EA7614",
"N4 	c #F2D507",
"O4 	c #F6E003",
"P4 	c #F4DC02",
"Q4 	c #EEDD37",
"R4 	c #585C3E",
"S4 	c #1C242F",
"T4 	c #1A202C",
"U4 	c #1E2435",
"V4 	c #191F2B",
"W4 	c #171C2D",
"X4 	c #171C2C",
"Y4 	c #151A2D",
"Z4 	c #141A2E",
"`4 	c #151E34",
" 5 	c #151C2F",
".5 	c #141A30",
"+5 	c #141B2E",
"@5 	c #141C34",
"#5 	c #131E39",
"$5 	c #141E3A",
"%5 	c #131F3C",
"&5 	c #121E3A",
"*5 	c #12203B",
"=5 	c #11213D",
"-5 	c #13213C",
";5 	c #142341",
">5 	c #14223E",
",5 	c #121F3C",
"'5 	c #121E39",
")5 	c #121D39",
"!5 	c #131C37",
"~5 	c #121B35",
"{5 	c #131B34",
"]5 	c #131C36",
"^5 	c #151E3A",
"/5 	c #111D38",
"(5 	c #111C37",
"_5 	c #121B36",
":5 	c #141C37",
"<5 	c #17203B",
"[5 	c #162550",
"}5 	c #1F284F",
"|5 	c #1C2752",
"15 	c #1C2C60",
"25 	c #1C2C5C",
"35 	c #1E2E5F",
"45 	c #1F305E",
"55 	c #1D2D5A",
"65 	c #212C5A",
"75 	c #213261",
"85 	c #22315F",
"95 	c #1F2C5C",
"05 	c #212E59",
"a5 	c #22305C",
"b5 	c #222F60",
"c5 	c #212E5D",
"d5 	c #1F2E60",
"e5 	c #222F5E",
"f5 	c #222F59",
"g5 	c #1D2D5E",
"h5 	c #1D2D57",
"i5 	c #1C2C55",
"j5 	c #1D2D56",
"k5 	c #1E2F57",
"l5 	c #21305C",
"m5 	c #1F2F58",
"n5 	c #1B2B4E",
"o5 	c #1C2E54",
"p5 	c #1B2E51",
"q5 	c #223156",
"r5 	c #28304D",
"s5 	c #6D2A26",
"t5 	c #C2260D",
"u5 	c #D1230A",
"v5 	c #D2240A",
"w5 	c #C7260C",
"x5 	c #5D272A",
"y5 	c #1C243D",
"z5 	c #1D2744",
"A5 	c #1B2036",
"B5 	c #212637",
"C5 	c #2A2937",
"D5 	c #DA450E",
"E5 	c #F94B01",
"F5 	c #F74803",
"G5 	c #F74902",
"H5 	c #F17D0E",
"I5 	c #F3D904",
"J5 	c #EEDD34",
"K5 	c #616741",
"L5 	c #1C2331",
"M5 	c #19212E",
"N5 	c #1B2233",
"O5 	c #181F31",
"P5 	c #192032",
"Q5 	c #161C2D",
"R5 	c #181F32",
"S5 	c #141A2D",
"T5 	c #151E39",
"U5 	c #14213D",
"V5 	c #131D39",
"W5 	c #132341",
"X5 	c #14203B",
"Y5 	c #152440",
"Z5 	c #142442",
"`5 	c #132241",
" 6 	c #12203D",
".6 	c #13213E",
"+6 	c #141F3D",
"@6 	c #111D3A",
"#6 	c #131F39",
"$6 	c #0E1C39",
"%6 	c #111B36",
"&6 	c #111B35",
"*6 	c #151F3B",
"=6 	c #0F1A35",
"-6 	c #151D38",
";6 	c #101C38",
">6 	c #111D39",
",6 	c #16213D",
"'6 	c #151F3C",
")6 	c #17203C",
"!6 	c #18213E",
"~6 	c #1C2A58",
"{6 	c #1E2D5E",
"]6 	c #1B2D60",
"^6 	c #1D2F62",
"/6 	c #1D305F",
"(6 	c #1D2E60",
"_6 	c #1E2D5B",
":6 	c #1C2B5A",
"<6 	c #202C5B",
"[6 	c #1C2E60",
"}6 	c #1F3465",
"|6 	c #213665",
"16 	c #213463",
"26 	c #22305D",
"36 	c #213061",
"46 	c #202E5E",
"56 	c #1F2D5C",
"66 	c #1C2A57",
"76 	c #273357",
"86 	c #253051",
"96 	c #2A324F",
"06 	c #2D324B",
"a6 	c #383848",
"b6 	c #78382C",
"c6 	c #D62A0C",
"d6 	c #E1300C",
"e6 	c #DC2D0C",
"f6 	c #DC2B0C",
"g6 	c #D92C0C",
"h6 	c #D2270A",
"i6 	c #782727",
"j6 	c #1C223A",
"k6 	c #1A1F33",
"l6 	c #2C2934",
"m6 	c #E34D0E",
"n6 	c #F27E0E",
"o6 	c #EFD711",
"p6 	c #F6DF02",
"q6 	c #F4DF0E",
"r6 	c #EFDF37",
"s6 	c #616940",
"t6 	c #1B242F",
"u6 	c #1B2231",
"v6 	c #1A2537",
"w6 	c #192233",
"x6 	c #1B2334",
"y6 	c #151A2B",
"z6 	c #161D2F",
"A6 	c #13192B",
"B6 	c #14192C",
"C6 	c #141A2C",
"D6 	c #131A2D",
"E6 	c #151E37",
"F6 	c #131E3A",
"G6 	c #11203C",
"H6 	c #15203A",
"I6 	c #132440",
"J6 	c #122340",
"K6 	c #14213C",
"L6 	c #152442",
"M6 	c #172444",
"N6 	c #132240",
"O6 	c #10203C",
"P6 	c #14203C",
"Q6 	c #17223E",
"R6 	c #16223F",
"S6 	c #172654",
"T6 	c #1A2754",
"U6 	c #1C2B5B",
"V6 	c #1B2A59",
"W6 	c #1D2C5A",
"X6 	c #1C2C5D",
"Y6 	c #1C2F63",
"Z6 	c #1C2D5F",
"`6 	c #1C2A59",
" 7 	c #1F2C5D",
".7 	c #1F3366",
"+7 	c #1D3063",
"@7 	c #1E3267",
"#7 	c #202C5A",
"$7 	c #23315F",
"%7 	c #202D5D",
"&7 	c #203062",
"*7 	c #213160",
"=7 	c #222F5A",
"-7 	c #212E5B",
";7 	c #21305D",
">7 	c #20305D",
",7 	c #1C2E59",
"'7 	c #1D2F5A",
")7 	c #1D2D5B",
"!7 	c #1F3058",
"~7 	c #1B2951",
"{7 	c #1D2B52",
"]7 	c #4F2A39",
"^7 	c #7E2C24",
"/7 	c #9F291C",
"(7 	c #9C2A1D",
"_7 	c #AB2F1E",
":7 	c #B5301A",
"<7 	c #BC4411",
"[7 	c #EA9E12",
"}7 	c #EF9E0E",
"|7 	c #EDA90E",
"17 	c #EDA40D",
"27 	c #ED9C0D",
"37 	c #EDA10F",
"47 	c #926726",
"57 	c #1E2539",
"67 	c #192038",
"77 	c #1B2137",
"87 	c #202635",
"97 	c #1D2434",
"07 	c #1E2337",
"a7 	c #222232",
"b7 	c #26212E",
"c7 	c #DB4910",
"d7 	c #EF7D28",
"e7 	c #EBD737",
"f7 	c #F5DF02",
"g7 	c #F7E103",
"h7 	c #F4E31D",
"i7 	c #F2DF21",
"j7 	c #EADC3F",
"k7 	c #606744",
"l7 	c #1D2531",
"m7 	c #19212F",
"n7 	c #1A2638",
"o7 	c #192234",
"p7 	c #1A2233",
"q7 	c #192335",
"r7 	c #161D2E",
"s7 	c #161B2A",
"t7 	c #151A2A",
"u7 	c #141A2B",
"v7 	c #141B2D",
"w7 	c #151B2B",
"x7 	c #13192D",
"y7 	c #151D35",
"z7 	c #132140",
"A7 	c #121F3A",
"B7 	c #11223D",
"C7 	c #102340",
"D7 	c #162543",
"E7 	c #11213C",
"F7 	c #131D38",
"G7 	c #131F3A",
"H7 	c #11203D",
"I7 	c #131F3D",
"J7 	c #11223F",
"K7 	c #121F3E",
"L7 	c #17223F",
"M7 	c #172747",
"N7 	c #162553",
"O7 	c #1D2B5A",
"P7 	c #1B2854",
"Q7 	c #1A2955",
"R7 	c #182552",
"S7 	c #1B2856",
"T7 	c #1A2857",
"U7 	c #1A2A59",
"V7 	c #192857",
"W7 	c #1C2B5C",
"X7 	c #1D2C5D",
"Y7 	c #1A2B5D",
"Z7 	c #1B2D61",
"`7 	c #1C2C5E",
" 8 	c #1F3062",
".8 	c #1E3064",
"+8 	c #1D2D60",
"@8 	c #1F3266",
"#8 	c #1C2E61",
"$8 	c #203265",
"%8 	c #203467",
"&8 	c #223669",
"*8 	c #213365",
"=8 	c #223164",
"-8 	c #203164",
";8 	c #233362",
">8 	c #213163",
",8 	c #202F61",
"'8 	c #202E61",
")8 	c #223163",
"!8 	c #1F315F",
"~8 	c #23315D",
"{8 	c #23315E",
"]8 	c #23325F",
"^8 	c #22315E",
"/8 	c #1B2B5D",
"(8 	c #1C305F",
"_8 	c #1D2E5F",
":8 	c #1E2D5D",
"<8 	c #20305E",
"[8 	c #1D2E5E",
"}8 	c #742C32",
"|8 	c #D3240A",
"18 	c #D2230A",
"28 	c #D6490C",
"38 	c #F3D706",
"48 	c #F5DC02",
"58 	c #F5DD02",
"68 	c #F5DE02",
"78 	c #F5E006",
"88 	c #96832F",
"98 	c #1D2339",
"08 	c #1B1F33",
"a8 	c #1A1E32",
"b8 	c #1F2336",
"c8 	c #212032",
"d8 	c #1B1E2F",
"e8 	c #202232",
"f8 	c #25222E",
"g8 	c #D5440B",
"h8 	c #F94C01",
"i8 	c #F94D01",
"j8 	c #F2871F",
"k8 	c #F2DB1B",
"l8 	c #F6DE02",
"m8 	c #F5E003",
"n8 	c #F6E314",
"o8 	c #F2E22D",
"p8 	c #E9DC42",
"q8 	c #5B6243",
"r8 	c #1E2432",
"s8 	c #182131",
"t8 	c #182236",
"u8 	c #182034",
"v8 	c #13192C",
"w8 	c #14192A",
"x8 	c #122141",
"y8 	c #132039",
"z8 	c #14223D",
"A8 	c #11223E",
"B8 	c #0F1E3B",
"C8 	c #0F1D39",
"D8 	c #15203C",
"E8 	c #0F1D3A",
"F8 	c #142340",
"G8 	c #111F3D",
"H8 	c #16203A",
"I8 	c #172541",
"J8 	c #182755",
"K8 	c #1B295A",
"L8 	c #1C2957",
"M8 	c #1B2958",
"N8 	c #192756",
"O8 	c #192754",
"P8 	c #1B2857",
"Q8 	c #192858",
"R8 	c #1C2B5E",
"S8 	c #1E2E61",
"T8 	c #1D2C5F",
"U8 	c #1C2B5D",
"V8 	c #1C2D60",
"W8 	c #1A2D63",
"X8 	c #1B2E64",
"Y8 	c #1B2E63",
"Z8 	c #1E3166",
"`8 	c #1F3267",
" 9 	c #1F3166",
".9 	c #1E3065",
"+9 	c #213266",
"@9 	c #1F3063",
"#9 	c #213368",
"$9 	c #1F336B",
"%9 	c #1F3165",
"&9 	c #213165",
"*9 	c #203368",
"=9 	c #223468",
"-9 	c #223366",
";9 	c #233466",
">9 	c #223365",
",9 	c #223265",
"'9 	c #213367",
")9 	c #263C69",
"!9 	c #223264",
"~9 	c #243260",
"{9 	c #233260",
"]9 	c #23325D",
"^9 	c #22325F",
"/9 	c #20325E",
"(9 	c #1E2E60",
"_9 	c #1D2E61",
":9 	c #1B2C5E",
"<9 	c #1C2E5E",
"[9 	c #1D2C5C",
"}9 	c #203267",
"|9 	c #1D2D61",
"19 	c #1C2B59",
"29 	c #663340",
"39 	c #C4270D",
"49 	c #D4260B",
"59 	c #D12209",
"69 	c #D5260B",
"79 	c #DA280C",
"89 	c #DC4F0E",
"99 	c #F5DD05",
"09 	c #F6E104",
"a9 	c #958835",
"b9 	c #212739",
"c9 	c #1D253D",
"d9 	c #1E2439",
"e9 	c #1B2035",
"f9 	c #202539",
"g9 	c #3F262C",
"h9 	c #88382D",
"i9 	c #912E26",
"j9 	c #90352A",
"k9 	c #8D362D",
"l9 	c #8A392C",
"m9 	c #7D3D31",
"n9 	c #703632",
"o9 	c #642C29",
"p9 	c #2A2635",
"q9 	c #29252E",
"r9 	c #C84312",
"s9 	c #F84F01",
"t9 	c #F1891E",
"u9 	c #F1DA1C",
"v9 	c #F5DF09",
"w9 	c #F5DE0B",
"x9 	c #E9DC3B",
"y9 	c #616843",
"z9 	c #171E2F",
"A9 	c #192539",
"B9 	c #18253D",
"C9 	c #18223A",
"D9 	c #161B2B",
"E9 	c #131A2C",
"F9 	c #152038",
"G9 	c #122343",
"H9 	c #152341",
"I9 	c #15213C",
"J9 	c #101F3C",
"K9 	c #12213D",
"L9 	c #11203E",
"M9 	c #101D39",
"N9 	c #111E3B",
"O9 	c #101F3D",
"P9 	c #152342",
"Q9 	c #132441",
"R9 	c #15213D",
"S9 	c #172A4D",
"T9 	c #172552",
"U9 	c #1A2755",
"V9 	c #192859",
"W9 	c #19295D",
"X9 	c #1A2A5D",
"Y9 	c #18295C",
"Z9 	c #1C2D63",
"`9 	c #1C2A5C",
" 0 	c #1A2B5F",
".0 	c #1C2D61",
"+0 	c #1A2D62",
"@0 	c #1D3064",
"#0 	c #192C61",
"$0 	c #1A2D61",
"%0 	c #1B2F66",
"&0 	c #1B2F63",
"*0 	c #1B2F65",
"=0 	c #1F3369",
"-0 	c #1E2F64",
";0 	c #1F3064",
">0 	c #213469",
",0 	c #1F336A",
"'0 	c #1E346B",
")0 	c #21346A",
"!0 	c #1E3269",
"~0 	c #1E3268",
"{0 	c #213366",
"]0 	c #223467",
"^0 	c #213468",
"/0 	c #233467",
"(0 	c #1D3065",
"_0 	c #21356A",
":0 	c #213568",
"<0 	c #223162",
"[0 	c #232F5F",
"}0 	c #233060",
"|0 	c #21305F",
"10 	c #22315D",
"20 	c #1E2F5E",
"30 	c #1A2C5F",
"40 	c #1B2C5D",
"50 	c #1C2F5C",
"60 	c #1C2C5B",
"70 	c #1F2F61",
"80 	c #1C2C58",
"90 	c #1B2B5A",
"00 	c #1B2A57",
"a0 	c #1C2E5F",
"b0 	c #1B2D5C",
"c0 	c #1F3061",
"d0 	c #5E3244",
"e0 	c #D1250B",
"f0 	c #D7260B",
"g0 	c #D9280C",
"h0 	c #D5470D",
"i0 	c #F2D705",
"j0 	c #978A30",
"k0 	c #212639",
"l0 	c #1C263F",
"m0 	c #1B2438",
"n0 	c #692420",
"o0 	c #CE2109",
"p0 	c #D12008",
"q0 	c #D02008",
"r0 	c #D01D07",
"s0 	c #D11F08",
"t0 	c #C9210A",
"u0 	c #B6250F",
"v0 	c #382531",
"w0 	c #20273F",
"x0 	c #222945",
"y0 	c #29242E",
"z0 	c #BE3E0E",
"A0 	c #F85001",
"B0 	c #F38624",
"C0 	c #EFD824",
"D0 	c #F2DF17",
"E0 	c #F4DB03",
"F0 	c #EBDC3A",
"G0 	c #5B633A",
"H0 	c #1C2434",
"I0 	c #182234",
"J0 	c #182235",
"K0 	c #182336",
"L0 	c #181F30",
"M0 	c #192136",
"N0 	c #131A2F",
"O0 	c #15223F",
"P0 	c #15223C",
"Q0 	c #10203E",
"R0 	c #0E1F3C",
"S0 	c #101E3B",
"T0 	c #101D3C",
"U0 	c #101C3A",
"V0 	c #142241",
"W0 	c #142140",
"X0 	c #101E3C",
"Y0 	c #111F3E",
"Z0 	c #11203F",
"`0 	c #16203C",
" a 	c #142848",
".a 	c #192853",
"+a 	c #1A2852",
"@a 	c #1B2955",
"#a 	c #1A2858",
"$a 	c #19295B",
"%a 	c #192A5E",
"&a 	c #1A2B61",
"*a 	c #182A5F",
"=a 	c #1B2C61",
"-a 	c #192B60",
";a 	c #1C2F65",
">a 	c #1C2E62",
",a 	c #192E65",
"'a 	c #182B60",
")a 	c #192E66",
"!a 	c #192D64",
"~a 	c #182C64",
"{a 	c #1C3067",
"]a 	c #1B3067",
"^a 	c #1B326A",
"/a 	c #1D346B",
"(a 	c #20356D",
"_a 	c #1D2E64",
":a 	c #21356B",
"<a 	c #1E346C",
"[a 	c #20356E",
"}a 	c #20356B",
"|a 	c #1F346C",
"1a 	c #21386F",
"2a 	c #253C70",
"3a 	c #22386F",
"4a 	c #213671",
"5a 	c #21356C",
"6a 	c #20366F",
"7a 	c #21356D",
"8a 	c #20346C",
"9a 	c #1F346E",
"0a 	c #20346B",
"aa 	c #233569",
"ba 	c #203266",
"ca 	c #233468",
"da 	c #203366",
"ea 	c #233162",
"fa 	c #232F60",
"ga 	c #233164",
"ha 	c #213264",
"ia 	c #1F2E5E",
"ja 	c #1E3061",
"ka 	c #1E2F62",
"la 	c #1B2D63",
"ma 	c #1C2E5B",
"na 	c #192A5C",
"oa 	c #192959",
"pa 	c #1B2F60",
"qa 	c #1C2F64",
"ra 	c #663143",
"sa 	c #D7250A",
"ta 	c #D62309",
"ua 	c #D4230A",
"va 	c #D8260A",
"wa 	c #DC4B0D",
"xa 	c #F1D705",
"ya 	c #9E8E3A",
"za 	c #22293E",
"Aa 	c #1F2438",
"Ba 	c #1E253F",
"Ca 	c #1E263E",
"Da 	c #1C233C",
"Ea 	c #1C2137",
"Fa 	c #662526",
"Ga 	c #CF2009",
"Ha 	c #D01C07",
"Ia 	c #D01A06",
"Ja 	c #D21F08",
"Ka 	c #BF260D",
"La 	c #3B242D",
"Ma 	c #242231",
"Na 	c #B83F14",
"Oa 	c #F94E01",
"Pa 	c #F85302",
"Qa 	c #F48516",
"Ra 	c #F2DA15",
"Sa 	c #EFDC2D",
"Ta 	c #F1DA09",
"Ua 	c #EADC35",
"Va 	c #5A5C35",
"Wa 	c #1C2535",
"Xa 	c #182033",
"Ya 	c #1A2335",
"Za 	c #192437",
"`a 	c #182338",
" b 	c #182339",
".b 	c #17243C",
"+b 	c #172037",
"@b 	c #151C2E",
"#b 	c #171E32",
"$b 	c #13213D",
"%b 	c #12223E",
"&b 	c #0F1E3C",
"*b 	c #0E1D3B",
"=b 	c #0C1D3B",
"-b 	c #101E3E",
";b 	c #111E3C",
">b 	c #0F1D3C",
",b 	c #111D3C",
"'b 	c #121F40",
")b 	c #101D3B",
"!b 	c #141D3B",
"~b 	c #121F3F",
"{b 	c #132343",
"]b 	c #0F1E3D",
"^b 	c #101F3F",
"/b 	c #102041",
"(b 	c #102140",
"_b 	c #112040",
":b 	c #132141",
"<b 	c #172141",
"[b 	c #152950",
"}b 	c #162758",
"|b 	c #1A284F",
"1b 	c #1F2A58",
"2b 	c #1B2B5C",
"3b 	c #1B2A5B",
"4b 	c #1C2C61",
"5b 	c #1A2C61",
"6b 	c #192C63",
"7b 	c #1A2C63",
"8b 	c #192B61",
"9b 	c #1B2E65",
"0b 	c #1B3068",
"ab 	c #1D3269",
"bb 	c #1C316A",
"cb 	c #1C326D",
"db 	c #1B336A",
"eb 	c #1C326B",
"fb 	c #1E336A",
"gb 	c #1D3167",
"hb 	c #1F356D",
"ib 	c #21366D",
"jb 	c #20366D",
"kb 	c #1F356F",
"lb 	c #213670",
"mb 	c #223873",
"nb 	c #1F3772",
"ob 	c #1F3971",
"pb 	c #203772",
"qb 	c #21366F",
"rb 	c #213876",
"sb 	c #213978",
"tb 	c #1F3976",
"ub 	c #203775",
"vb 	c #1F3572",
"wb 	c #1E3572",
"xb 	c #203570",
"yb 	c #22366E",
"zb 	c #21346C",
"Ab 	c #223469",
"Bb 	c #223568",
"Cb 	c #233163",
"Db 	c #203163",
"Eb 	c #202F60",
"Fb 	c #1E2D62",
"Gb 	c #1A2E64",
"Hb 	c #1D2F63",
"Ib 	c #1D2E5B",
"Jb 	c #202E57",
"Kb 	c #5F2E40",
"Lb 	c #DD2B0B",
"Mb 	c #DC280B",
"Nb 	c #DB2309",
"Ob 	c #D5240A",
"Pb 	c #D94A0C",
"Qb 	c #F2D806",
"Rb 	c #A39437",
"Sb 	c #1D233A",
"Tb 	c #1B223B",
"Ub 	c #1A2036",
"Vb 	c #1E243B",
"Wb 	c #1F273F",
"Xb 	c #1F2439",
"Yb 	c #6B2A30",
"Zb 	c #D02109",
"`b 	c #D01E07",
" c 	c #D22309",
".c 	c #D32108",
"+c 	c #D22008",
"@c 	c #B6260E",
"#c 	c #3E232B",
"$c 	c #1E263A",
"%c 	c #22202F",
"&c 	c #B83D14",
"*c 	c #F85202",
"=c 	c #F85102",
"-c 	c #F3851D",
";c 	c #F1DA14",
">c 	c #E7DB3E",
",c 	c #515C32",
"'c 	c #1C2433",
")c 	c #182132",
"!c 	c #192638",
"~c 	c #192337",
"{c 	c #182137",
"]c 	c #182036",
"^c 	c #181E31",
"/c 	c #131929",
"(c 	c #171C31",
"_c 	c #151E33",
":c 	c #161D34",
"<c 	c #151D37",
"[c 	c #141E37",
"}c 	c #111E39",
"|c 	c #141E3B",
"1c 	c #12203F",
"2c 	c #101F3E",
"3c 	c #101D3A",
"4c 	c #0F1E3F",
"5c 	c #101D3D",
"6c 	c #16203F",
"7c 	c #10203D",
"8c 	c #132040",
"9c 	c #0F1F3E",
"0c 	c #122042",
"ac 	c #142444",
"bc 	c #102243",
"cc 	c #112444",
"dc 	c #0E1F3E",
"ec 	c #16284B",
"fc 	c #142556",
"gc 	c #1A284E",
"hc 	c #1E2A58",
"ic 	c #1B2B5F",
"jc 	c #182A5D",
"kc 	c #192D63",
"lc 	c #192C64",
"mc 	c #1A2D64",
"nc 	c #1A2F67",
"oc 	c #182D65",
"pc 	c #192D66",
"qc 	c #1B3069",
"rc 	c #1D326A",
"sc 	c #1B316A",
"tc 	c #20386E",
"uc 	c #203C6E",
"vc 	c #1E376B",
"wc 	c #1E346D",
"xc 	c #20356F",
"yc 	c #213772",
"zc 	c #1E376F",
"Ac 	c #203874",
"Bc 	c #213873",
"Cc 	c #213974",
"Dc 	c #203773",
"Ec 	c #203876",
"Fc 	c #1F3776",
"Gc 	c #203977",
"Hc 	c #203776",
"Ic 	c #1C3571",
"Jc 	c #1F3673",
"Kc 	c #1F346D",
"Lc 	c #1E336B",
"Mc 	c #20346A",
"Nc 	c #23366B",
"Oc 	c #223569",
"Pc 	c #243668",
"Qc 	c #233366",
"Rc 	c #1E2D60",
"Sc 	c #1D3066",
"Tc 	c #192E67",
"Uc 	c #1C3066",
"Vc 	c #1B2C5F",
"Wc 	c #1F2C5E",
"Xc 	c #212F5B",
"Yc 	c #723C3B",
"Zc 	c #F75C05",
"`c 	c #F96102",
" d 	c #FB6102",
".d 	c #F95F03",
"+d 	c #F95D03",
"@d 	c #F36A07",
"#d 	c #F4D905",
"$d 	c #F4DB02",
"%d 	c #A8993D",
"&d 	c #242D40",
"*d 	c #191F34",
"=d 	c #1B2138",
"-d 	c #1F243A",
";d 	c #692B2F",
">d 	c #CE220A",
",d 	c #D42209",
"'d 	c #D32109",
")d 	c #C7250C",
"!d 	c #4F2428",
"~d 	c #20263C",
"{d 	c #21202E",
"]d 	c #C13C14",
"^d 	c #F85502",
"/d 	c #F38717",
"(d 	c #F2D910",
"_d 	c #F3DB05",
":d 	c #F1DC19",
"<d 	c #DED245",
"[d 	c #404934",
"}d 	c #192535",
"|d 	c #182237",
"1d 	c #18243A",
"2d 	c #192232",
"3d 	c #171F31",
"4d 	c #182136",
"5d 	c #141A2A",
"6d 	c #131A2E",
"7d 	c #161E33",
"8d 	c #111F3F",
"9d 	c #111F40",
"0d 	c #102040",
"ad 	c #13203F",
"bd 	c #112141",
"cd 	c #0B2040",
"dd 	c #0E2243",
"ed 	c #142344",
"fd 	c #0E2242",
"gd 	c #0D1F3F",
"hd 	c #0E2041",
"id 	c #172343",
"jd 	c #15284D",
"kd 	c #132455",
"ld 	c #19274B",
"md 	c #192852",
"nd 	c #182857",
"od 	c #1A2B5E",
"pd 	c #1B2D62",
"qd 	c #172B60",
"rd 	c #182C63",
"sd 	c #172D66",
"td 	c #1A306A",
"ud 	c #1B316B",
"vd 	c #1C346E",
"wd 	c #1C336B",
"xd 	c #1D336D",
"yd 	c #1F356E",
"zd 	c #213771",
"Ad 	c #1E3570",
"Bd 	c #203670",
"Cd 	c #203571",
"Dd 	c #203873",
"Ed 	c #203872",
"Fd 	c #1F3670",
"Gd 	c #1E3573",
"Hd 	c #1D3470",
"Id 	c #1D3472",
"Jd 	c #1C3675",
"Kd 	c #1E3675",
"Ld 	c #203774",
"Md 	c #23356A",
"Nd 	c #1C3065",
"Od 	c #1F3268",
"Pd 	c #203469",
"Qd 	c #1E3165",
"Rd 	c #1C2E63",
"Sd 	c #1F3164",
"Td 	c #1E3063",
"Ud 	c #1A2E67",
"Vd 	c #182D66",
"Wd 	c #1A2F66",
"Xd 	c #1A2C62",
"Yd 	c #1B2B5E",
"Zd 	c #212E58",
"`d 	c #703536",
" e 	c #FA6404",
".e 	c #FC6502",
"+e 	c #F87107",
"@e 	c #F4D903",
"#e 	c #F5DB02",
"$e 	c #9D9636",
"%e 	c #22283B",
"&e 	c #20253A",
"*e 	c #1C2136",
"=e 	c #6B4240",
"-e 	c #C6220B",
";e 	c #D01B06",
">e 	c #D11B06",
",e 	c #C9250C",
"'e 	c #46242B",
")e 	c #221E2A",
"!e 	c #C84216",
"~e 	c #F85101",
"{e 	c #F75402",
"]e 	c #F48713",
"^e 	c #F2DA10",
"/e 	c #F3DC03",
"(e 	c #F2DD13",
"_e 	c #EBD936",
":e 	c #CFC94D",
"<e 	c #3F4839",
"[e 	c #1D283C",
"}e 	c #1A2336",
"|e 	c #182032",
"1e 	c #131C35",
"2e 	c #161F37",
"3e 	c #141D33",
"4e 	c #152039",
"5e 	c #17213A",
"6e 	c #141E34",
"7e 	c #141B30",
"8e 	c #141B31",
"9e 	c #141B32",
"0e 	c #131D34",
"ae 	c #12203A",
"be 	c #0F2141",
"ce 	c #132143",
"de 	c #0F2142",
"ee 	c #0E203E",
"fe 	c #122040",
"ge 	c #132142",
"he 	c #0E2140",
"ie 	c #101F40",
"je 	c #0B1F3F",
"ke 	c #0D2141",
"le 	c #142343",
"me 	c #0F2343",
"ne 	c #132545",
"oe 	c #162443",
"pe 	c #10274E",
"qe 	c #172756",
"re 	c #182856",
"se 	c #1A2957",
"te 	c #182756",
"ue 	c #182A5C",
"ve 	c #1A2E65",
"we 	c #1A3068",
"xe 	c #192D65",
"ye 	c #182E67",
"ze 	c #192E68",
"Ae 	c #172D65",
"Be 	c #1A2F68",
"Ce 	c #1A3069",
"De 	c #192F6A",
"Ee 	c #182F6A",
"Fe 	c #19306B",
"Ge 	c #1A306B",
"He 	c #1C316B",
"Ie 	c #1E346E",
"Je 	c #223874",
"Ke 	c #213872",
"Le 	c #1E346F",
"Me 	c #223973",
"Ne 	c #1E3674",
"Oe 	c #1E3774",
"Pe 	c #213874",
"Qe 	c #1F3775",
"Re 	c #1D3471",
"Se 	c #1F3570",
"Te 	c #23366C",
"Ue 	c #22356A",
"Ve 	c #23356B",
"We 	c #1F3368",
"Xe 	c #20336A",
"Ye 	c #203367",
"Ze 	c #1C2F66",
"`e 	c #1B2C60",
" f 	c #212E61",
".f 	c #202C5D",
"+f 	c #1B2B58",
"@f 	c #20305F",
"#f 	c #713638",
"$f 	c #FA6504",
"%f 	c #F86E06",
"&f 	c #F3D804",
"*f 	c #F4DA02",
"=f 	c #F3DA02",
"-f 	c #9F993B",
";f 	c #212539",
">f 	c #682929",
",f 	c #C7210A",
"'f 	c #4D2226",
")f 	c #21273B",
"!f 	c #222739",
"~f 	c #202538",
"{f 	c #231F2D",
"]f 	c #C9451A",
"^f 	c #F95302",
"/f 	c #F38613",
"(f 	c #F2D80F",
"_f 	c #F5E005",
":f 	c #EEDC28",
"<f 	c #E8D743",
"[f 	c #CAC34C",
"}f 	c #343D39",
"|f 	c #1B2436",
"1f 	c #182334",
"2f 	c #192134",
"3f 	c #182134",
"4f 	c #172137",
"5f 	c #182133",
"6f 	c #121D36",
"7f 	c #121F36",
"8f 	c #14233B",
"9f 	c #141E36",
"0f 	c #14223C",
"af 	c #131C32",
"bf 	c #12182B",
"cf 	c #151B31",
"df 	c #121C35",
"ef 	c #141E3C",
"ff 	c #101B36",
"gf 	c #0D1E3F",
"hf 	c #112041",
"if 	c #132243",
"jf 	c #122143",
"kf 	c #0C2041",
"lf 	c #102242",
"mf 	c #0E2244",
"nf 	c #112343",
"of 	c #122446",
"pf 	c #102546",
"qf 	c #112345",
"rf 	c #152545",
"sf 	c #14264F",
"tf 	c #162655",
"uf 	c #192755",
"vf 	c #172758",
"wf 	c #17285A",
"xf 	c #182858",
"yf 	c #192B5E",
"zf 	c #192B5F",
"Af 	c #182D64",
"Bf 	c #192F69",
"Cf 	c #1A316B",
"Df 	c #1A3372",
"Ef 	c #1A316D",
"Ff 	c #1C346D",
"Gf 	c #1D346E",
"Hf 	c #1D336E",
"If 	c #1E336C",
"Jf 	c #203671",
"Kf 	c #1F3571",
"Lf 	c #203672",
"Mf 	c #21366E",
"Nf 	c #1F3672",
"Of 	c #1F3675",
"Pf 	c #1D3574",
"Qf 	c #1E3676",
"Rf 	c #1F3671",
"Sf 	c #1E336D",
"Tf 	c #1D336C",
"Uf 	c #1C3169",
"Vf 	c #1D3166",
"Wf 	c #1A2B60",
"Xf 	c #1A2C60",
"Yf 	c #1F2E61",
"Zf 	c #1D2C5E",
"`f 	c #723634",
" g 	c #FA6304",
".g 	c #F77206",
"+g 	c #F3D803",
"@g 	c #F4DC03",
"#g 	c #A7A03E",
"$g 	c #242C3E",
"%g 	c #1D253A",
"&g 	c #20273C",
"*g 	c #20283D",
"=g 	c #1E2031",
"-g 	c #1F2233",
";g 	c #1F2133",
">g 	c #252B40",
",g 	c #262C42",
"'g 	c #6B292B",
")g 	c #CC1E08",
"!g 	c #CB230B",
"~g 	c #542125",
"{g 	c #20263A",
"]g 	c #252633",
"^g 	c #B84A26",
"/g 	c #F85602",
"(g 	c #F3800F",
"_g 	c #F2DB13",
":g 	c #F6E105",
"<g 	c #F0DD23",
"[g 	c #F0DF2F",
"}g 	c #EAD83A",
"|g 	c #D7CD44",
"1g 	c #37423B",
"2g 	c #1D2D40",
"3g 	c #1C263C",
"4g 	c #192639",
"5g 	c #182537",
"6g 	c #172134",
"7g 	c #171F35",
"8g 	c #172138",
"9g 	c #151E35",
"0g 	c #11203B",
"ag 	c #162137",
"bg 	c #152036",
"cg 	c #161F32",
"dg 	c #131B2F",
"eg 	c #151C33",
"fg 	c #13192F",
"gg 	c #121B33",
"hg 	c #122444",
"ig 	c #122241",
"jg 	c #15213F",
"kg 	c #13213F",
"lg 	c #0C1C3A",
"mg 	c #0F1F3D",
"ng 	c #112042",
"og 	c #0D1F42",
"pg 	c #0D1E41",
"qg 	c #0B2144",
"rg 	c #0E2045",
"sg 	c #112143",
"tg 	c #0D1F40",
"ug 	c #0C2345",
"vg 	c #0B2246",
"wg 	c #0B2345",
"xg 	c #0E2344",
"yg 	c #132445",
"zg 	c #142647",
"Ag 	c #132648",
"Bg 	c #152747",
"Cg 	c #162444",
"Dg 	c #15264B",
"Eg 	c #172858",
"Fg 	c #1A2958",
"Gg 	c #1A2A5C",
"Hg 	c #18295B",
"Ig 	c #16285B",
"Jg 	c #16285A",
"Kg 	c #162D68",
"Lg 	c #1A316C",
"Mg 	c #192F68",
"Ng 	c #1C326C",
"Og 	c #1B3371",
"Pg 	c #1B316C",
"Qg 	c #1C336F",
"Rg 	c #1E3571",
"Sg 	c #1B3676",
"Tg 	c #1D3777",
"Ug 	c #1C3575",
"Vg 	c #1D3573",
"Wg 	c #1D326B",
"Xg 	c #1D2E63",
"Yg 	c #1D2D5F",
"Zg 	c #1B2A58",
"`g 	c #1F2D57",
" h 	c #7E3930",
".h 	c #FC6402",
"+h 	c #F5840A",
"@h 	c #F4DA03",
"#h 	c #F5DD03",
"$h 	c #9F9946",
"%h 	c #242B3F",
"&h 	c #212236",
"*h 	c #6E2F2B",
"=h 	c #7E2621",
"-h 	c #762B25",
";h 	c #722722",
">h 	c #712623",
",h 	c #712925",
"'h 	c #7F3B32",
")h 	c #7F3131",
"!h 	c #B2583F",
"~h 	c #D0300D",
"{h 	c #D0280A",
"]h 	c #D0320B",
"^h 	c #CF2F0B",
"/h 	c #D22809",
"(h 	c #D23309",
"_h 	c #D33E10",
":h 	c #CB3F12",
"<h 	c #562722",
"[h 	c #1F2536",
"}h 	c #24293B",
"|h 	c #B84724",
"1h 	c #F75302",
"2h 	c #F75502",
"3h 	c #F3790C",
"4h 	c #F1D60E",
"5h 	c #F5DF07",
"6h 	c #F4DD0A",
"7h 	c #F2E128",
"8h 	c #F2E12C",
"9h 	c #F0DF2E",
"0h 	c #C4BE49",
"ah 	c #323536",
"bh 	c #1F283A",
"ch 	c #1F2841",
"dh 	c #1B2538",
"eh 	c #18243D",
"fh 	c #182233",
"gh 	c #14223B",
"hh 	c #0F213D",
"ih 	c #12223D",
"jh 	c #162034",
"kh 	c #161E32",
"lh 	c #12213B",
"mh 	c #111E38",
"nh 	c #121E37",
"oh 	c #141B33",
"ph 	c #131A31",
"qh 	c #131F3E",
"rh 	c #0E1E3C",
"sh 	c #101F41",
"th 	c #0A1F43",
"uh 	c #081D40",
"vh 	c #0A2043",
"wh 	c #0B2042",
"xh 	c #112243",
"yh 	c #0D2041",
"zh 	c #102343",
"Ah 	c #0B2243",
"Bh 	c #0A2245",
"Ch 	c #0F2445",
"Dh 	c #142545",
"Eh 	c #14254A",
"Fh 	c #132557",
"Gh 	c #172750",
"Hh 	c #182757",
"Ih 	c #172859",
"Jh 	c #16285C",
"Kh 	c #16295E",
"Lh 	c #16295D",
"Mh 	c #152A61",
"Nh 	c #172B64",
"Oh 	c #172D67",
"Ph 	c #182E68",
"Qh 	c #182F6B",
"Rh 	c #18306D",
"Sh 	c #19316F",
"Th 	c #19316E",
"Uh 	c #1B3372",
"Vh 	c #1D336F",
"Wh 	c #1E356F",
"Xh 	c #1E3471",
"Yh 	c #1F3674",
"Zh 	c #1E3673",
"`h 	c #1B3576",
" i 	c #1B3474",
".i 	c #1B3473",
"+i 	c #1B3575",
"@i 	c #1C3473",
"#i 	c #1E3470",
"$i 	c #203673",
"%i 	c #1D3168",
"&i 	c #1C3068",
"*i 	c #1B3066",
"=i 	c #1A2E66",
"-i 	c #192C62",
";i 	c #1A2D65",
">i 	c #1D2B5B",
",i 	c #22325A",
"'i 	c #91422E",
")i 	c #FB6402",
"!i 	c #FC6202",
"~i 	c #F68509",
"{i 	c #F5DF05",
"]i 	c #9F9848",
"^i 	c #232A3E",
"/i 	c #1C223B",
"(i 	c #2A2438",
"_i 	c #B22714",
":i 	c #C6250C",
"<i 	c #C4240C",
"[i 	c #CA220A",
"}i 	c #CE240B",
"|i 	c #DF8D1E",
"1i 	c #ECCE23",
"2i 	c #EDC410",
"3i 	c #F0D511",
"4i 	c #F2D60E",
"5i 	c #F3D206",
"6i 	c #F2D60B",
"7i 	c #F2DA17",
"8i 	c #F0CF12",
"9i 	c #695A26",
"0i 	c #1F2539",
"ai 	c #262F3D",
"bi 	c #C89834",
"ci 	c #F0B01D",
"di 	c #F1B310",
"ei 	c #F1AE1C",
"fi 	c #F1AF1E",
"gi 	c #F1AE1D",
"hi 	c #F1AA0F",
"ii 	c #F1B117",
"ji 	c #E9D96F",
"ki 	c #EBE086",
"li 	c #ECE18B",
"mi 	c #EEE49B",
"ni 	c #EDE295",
"oi 	c #EADF85",
"pi 	c #DFD27C",
"qi 	c #AD4B20",
"ri 	c #964025",
"si 	c #8B4437",
"ti 	c #91503D",
"ui 	c #874840",
"vi 	c #763C35",
"wi 	c #66332C",
"xi 	c #372B30",
"yi 	c #192740",
"zi 	c #1A2841",
"Ai 	c #192540",
"Bi 	c #192640",
"Ci 	c #1A2234",
"Di 	c #1A202B",
"Ei 	c #171F34",
"Fi 	c #13203A",
"Gi 	c #11203A",
"Hi 	c #111F38",
"Ii 	c #132138",
"Ji 	c #15223A",
"Ki 	c #15223D",
"Li 	c #101F3B",
"Mi 	c #141D36",
"Ni 	c #0F1F3F",
"Oi 	c #0F2041",
"Pi 	c #122041",
"Qi 	c #0F1E3E",
"Ri 	c #0D1D3D",
"Si 	c #0F203E",
"Ti 	c #0E1E3D",
"Ui 	c #112044",
"Vi 	c #0E2044",
"Wi 	c #0A1F42",
"Xi 	c #0E2447",
"Yi 	c #0D2143",
"Zi 	c #0E1E3F",
"`i 	c #0F2242",
" j 	c #0C2042",
".j 	c #0D2445",
"+j 	c #112545",
"@j 	c #102344",
"#j 	c #132547",
"$j 	c #102444",
"%j 	c #17274A",
"&j 	c #1A2956",
"*j 	c #19295A",
"=j 	c #17295D",
"-j 	c #162A60",
";j 	c #17295C",
">j 	c #182A5E",
",j 	c #172B63",
"'j 	c #162D67",
")j 	c #1B306A",
"!j 	c #19306C",
"~j 	c #1C326E",
"{j 	c #1A316E",
"]j 	c #1D326C",
"^j 	c #203875",
"/j 	c #1C3676",
"(j 	c #1D3778",
"_j 	c #1C3778",
":j 	c #1F3777",
"<j 	c #1D3776",
"[j 	c #1D346F",
"}j 	c #192F67",
"|j 	c #182C65",
"1j 	c #1B2A5A",
"2j 	c #1F3159",
"3j 	c #23335D",
"4j 	c #A64E2D",
"5j 	c #F6790A",
"6j 	c #F4D803",
"7j 	c #F0DD02",
"8j 	c #F2DD04",
"9j 	c #999347",
"0j 	c #22293C",
"aj 	c #282334",
"bj 	c #B32713",
"cj 	c #E0900B",
"dj 	c #F4E002",
"ej 	c #F4DE03",
"fj 	c #F4DF15",
"gj 	c #5F5A2B",
"hj 	c #1F253C",
"ij 	c #242E3C",
"jj 	c #D1C637",
"kj 	c #F6E40A",
"lj 	c #F7E405",
"mj 	c #F6E30B",
"nj 	c #F6E30A",
"oj 	c #F6E107",
"pj 	c #F6E312",
"qj 	c #EDE4A4",
"rj 	c #F5EED1",
"sj 	c #F6F0D5",
"tj 	c #F6F1D6",
"uj 	c #F6F1D7",
"vj 	c #F5EFD3",
"wj 	c #EFDDC1",
"xj 	c #F65306",
"yj 	c #F84F02",
"zj 	c #F75002",
"Aj 	c #F84E02",
"Bj 	c #F85002",
"Cj 	c #F55205",
"Dj 	c #964C3C",
"Ej 	c #16213B",
"Fj 	c #192840",
"Gj 	c #18273F",
"Hj 	c #1D2E45",
"Ij 	c #1D2D45",
"Jj 	c #22334B",
"Kj 	c #543135",
"Lj 	c #A53422",
"Mj 	c #AA2C20",
"Nj 	c #A9231B",
"Oj 	c #992522",
"Pj 	c #9F251E",
"Qj 	c #9C2521",
"Rj 	c #94241F",
"Sj 	c #96241F",
"Tj 	c #8B2826",
"Uj 	c #78272C",
"Vj 	c #6A2B29",
"Wj 	c #262436",
"Xj 	c #15243A",
"Yj 	c #142239",
"Zj 	c #12223C",
"`j 	c #14243B",
" k 	c #13223C",
".k 	c #0F1E3A",
"+k 	c #101C3B",
"@k 	c #0D1D3E",
"#k 	c #0C2344",
"$k 	c #0F2144",
"%k 	c #0E2143",
"&k 	c #0F2246",
"*k 	c #132244",
"=k 	c #0E2446",
"-k 	c #0E2343",
";k 	c #0E2141",
">k 	c #0D203F",
",k 	c #0A2141",
"'k 	c #0C203F",
")k 	c #16264A",
"!k 	c #182446",
"~k 	c #17254A",
"{k 	c #17295A",
"]k 	c #192855",
"^k 	c #1A2A5A",
"/k 	c #18285A",
"(k 	c #18295D",
"_k 	c #172A5E",
":k 	c #182B5F",
"<k 	c #18295E",
"[k 	c #162B62",
"}k 	c #172C65",
"|k 	c #162C66",
"1k 	c #1A306C",
"2k 	c #1A2F69",
"3k 	c #1C336E",
"4k 	c #1B326E",
"5k 	c #193271",
"6k 	c #1B336F",
"7k 	c #1B3169",
"8k 	c #203978",
"9k 	c #1E3776",
"0k 	c #1C3777",
"ak 	c #1F3878",
"bk 	c #1D3572",
"ck 	c #1B326F",
"dk 	c #1D3268",
"ek 	c #172C64",
"fk 	c #1B2C5C",
"gk 	c #1D2C55",
"hk 	c #22315B",
"ik 	c #B2512A",
"jk 	c #FB6502",
"kk 	c #F67B0C",
"lk 	c #F3DC02",
"mk 	c #F1DA05",
"nk 	c #9D9547",
"ok 	c #23293D",
"pk 	c #1C233D",
"qk 	c #272233",
"rk 	c #B32613",
"sk 	c #DE810A",
"tk 	c #F2DC12",
"uk 	c #5F5C2C",
"vk 	c #222536",
"wk 	c #272F3A",
"xk 	c #D3C838",
"yk 	c #F6E519",
"zk 	c #EAE1A1",
"Ak 	c #F5EFD5",
"Bk 	c #F5F0D8",
"Ck 	c #F6F1DB",
"Dk 	c #F6F0D6",
"Ek 	c #EFDBC2",
"Fk 	c #F75005",
"Gk 	c #F95301",
"Hk 	c #9A4326",
"Ik 	c #1A2136",
"Jk 	c #1B2941",
"Kk 	c #1B2B45",
"Lk 	c #1B2B44",
"Mk 	c #802C2E",
"Nk 	c #E11F07",
"Ok 	c #E51B05",
"Pk 	c #E71904",
"Qk 	c #E71905",
"Rk 	c #E71C05",
"Sk 	c #E71D06",
"Tk 	c #E61804",
"Uk 	c #E71B05",
"Vk 	c #D82611",
"Wk 	c #3E2E3C",
"Xk 	c #17243E",
"Yk 	c #17263D",
"Zk 	c #13223B",
"`k 	c #13233D",
" l 	c #10233F",
".l 	c #0F213E",
"+l 	c #0E1D3C",
"@l 	c #0D1E3D",
"#l 	c #0E1F40",
"$l 	c #0E2142",
"%l 	c #0B2347",
"&l 	c #072043",
"*l 	c #0F2349",
"=l 	c #0F2346",
"-l 	c #0F2344",
";l 	c #0B2043",
">l 	c #092143",
",l 	c #0D2043",
"'l 	c #122242",
")l 	c #142548",
"!l 	c #0D2040",
"~l 	c #132346",
"{l 	c #152444",
"]l 	c #172857",
"^l 	c #15295E",
"/l 	c #142960",
"(l 	c #13285E",
"_l 	c #182C62",
":l 	c #142A62",
"<l 	c #152A62",
"[l 	c #142A63",
"}l 	c #162C65",
"|l 	c #122A66",
"1l 	c #152C68",
"2l 	c #172E6A",
"3l 	c #19306D",
"4l 	c #162E6B",
"5l 	c #1B2F68",
"6l 	c #1D3675",
"7l 	c #223976",
"8l 	c #213A7A",
"9l 	c #203979",
"0l 	c #1E3878",
"al 	c #203878",
"bl 	c #1C3574",
"cl 	c #1C3472",
"dl 	c #1C3471",
"el 	c #1B3370",
"fl 	c #1C2A5A",
"gl 	c #B4552A",
"hl 	c #FB6302",
"il 	c #FC6302",
"jl 	c #F77006",
"kl 	c #F2D70C",
"ll 	c #EFDA02",
"ml 	c #F2DB03",
"nl 	c #A29B48",
"ol 	c #21293C",
"pl 	c #20293E",
"ql 	c #AC2714",
"rl 	c #CF240A",
"sl 	c #DD911B",
"tl 	c #F2DA02",
"ul 	c #F2DE0F",
"vl 	c #4B462A",
"wl 	c #252E3F",
"xl 	c #CAC248",
"yl 	c #F5E108",
"zl 	c #F8E504",
"Al 	c #F3E32E",
"Bl 	c #ECE4AD",
"Cl 	c #F5EFD8",
"Dl 	c #F5F1DD",
"El 	c #F6F0D8",
"Fl 	c #EFDEC4",
"Gl 	c #9D4126",
"Hl 	c #16223C",
"Il 	c #1A2D46",
"Jl 	c #1F2E42",
"Kl 	c #822D2E",
"Ll 	c #E11E07",
"Ml 	c #E71804",
"Nl 	c #E61704",
"Ol 	c #E71704",
"Pl 	c #E51C06",
"Ql 	c #E41905",
"Rl 	c #4E2C3A",
"Sl 	c #172036",
"Tl 	c #15243E",
"Ul 	c #14253E",
"Vl 	c #11233E",
"Wl 	c #0E2240",
"Xl 	c #0F213F",
"Yl 	c #102549",
"Zl 	c #0D2243",
"`l 	c #121E3C",
" m 	c #0F1F40",
".m 	c #0E1D3E",
"+m 	c #082042",
"@m 	c #0E2144",
"#m 	c #0D2144",
"$m 	c #102143",
"%m 	c #0F2043",
"&m 	c #102241",
"*m 	c #102144",
"=m 	c #122545",
"-m 	c #102245",
";m 	c #0D2242",
">m 	c #131F43",
",m 	c #142243",
"'m 	c #142142",
")m 	c #162242",
"!m 	c #162858",
"~m 	c #15285E",
"{m 	c #132960",
"]m 	c #152B63",
"^m 	c #152B64",
"/m 	c #162D69",
"(m 	c #172F6D",
"_m 	c #193170",
":m 	c #18316E",
"<m 	c #18306C",
"[m 	c #172F6B",
"}m 	c #152F6E",
"|m 	c #163071",
"1m 	c #1A326F",
"2m 	c #1B326D",
"3m 	c #1E3574",
"4m 	c #1F3573",
"5m 	c #1F3979",
"6m 	c #20397A",
"7m 	c #1E3877",
"8m 	c #1C3677",
"9m 	c #1B3677",
"0m 	c #1D3676",
"am 	c #1A3474",
"bm 	c #193373",
"cm 	c #1A316A",
"dm 	c #1C3168",
"em 	c #1A2C5D",
"fm 	c #1C2D5C",
"gm 	c #22315A",
"hm 	c #B3512A",
"im 	c #FC6002",
"jm 	c #F67A0A",
"km 	c #F1D50E",
"lm 	c #F0D902",
"mm 	c #AAA348",
"nm 	c #232335",
"om 	c #AB2715",
"pm 	c #CE240A",
"qm 	c #D1240A",
"rm 	c #D78F36",
"sm 	c #F1DA0A",
"tm 	c #EFD903",
"um 	c #F1D902",
"vm 	c #EED929",
"wm 	c #3C3634",
"xm 	c #212231",
"ym 	c #212939",
"zm 	c #C3BD4D",
"Am 	c #F4E31B",
"Bm 	c #F7E404",
"Cm 	c #F0E23C",
"Dm 	c #EFE8BD",
"Em 	c #F5EFD6",
"Fm 	c #F4EFD7",
"Gm 	c #F5F1DF",
"Hm 	c #F4EED5",
"Im 	c #EFDFC5",
"Jm 	c #F65004",
"Km 	c #FA5902",
"Lm 	c #F84E01",
"Mm 	c #9C4126",
"Nm 	c #16223A",
"Om 	c #1B2A42",
"Pm 	c #1B2A45",
"Qm 	c #7E272B",
"Rm 	c #422B39",
"Sm 	c #15233D",
"Tm 	c #152541",
"Um 	c #15213A",
"Vm 	c #0C2446",
"Wm 	c #0A1E41",
"Xm 	c #102141",
"Ym 	c #101E40",
"Zm 	c #0E2247",
"`m 	c #0D2145",
" n 	c #0E2043",
".n 	c #112144",
"+n 	c #132041",
"@n 	c #112242",
"#n 	c #112344",
"$n 	c #0F2244",
"%n 	c #0C1E3E",
"&n 	c #0F2241",
"*n 	c #121E3F",
"=n 	c #182345",
"-n 	c #162546",
";n 	c #172958",
">n 	c #18295A",
",n 	c #182959",
"'n 	c #15275A",
")n 	c #14285E",
"!n 	c #12285D",
"~n 	c #162B64",
"{n 	c #182E69",
"]n 	c #162C68",
"^n 	c #182F6C",
"/n 	c #142E6D",
"(n 	c #132C6C",
"_n 	c #152D6B",
":n 	c #172F6C",
"<n 	c #1A3473",
"[n 	c #153070",
"}n 	c #173272",
"|n 	c #183373",
"1n 	c #193473",
"2n 	c #1A3573",
"3n 	c #1D3370",
"4n 	c #1E3777",
"5n 	c #1D3878",
"6n 	c #1B3778",
"7n 	c #1D3677",
"8n 	c #1A3475",
"9n 	c #1C3576",
"0n 	c #1A3677",
"an 	c #193577",
"bn 	c #1A3576",
"cn 	c #193576",
"dn 	c #173374",
"en 	c #183273",
"fn 	c #183170",
"gn 	c #1A3270",
"hn 	c #1E3062",
"in 	c #202F5C",
"jn 	c #BB5625",
"kn 	c #F4811F",
"ln 	c #F1DA12",
"mn 	c #F1DA02",
"nn 	c #F0DA02",
"on 	c #EDD904",
"pn 	c #A29D4B",
"qn 	c #242F3F",
"rn 	c #21263A",
"sn 	c #222535",
"tn 	c #202337",
"un 	c #982617",
"vn 	c #CE270C",
"wn 	c #CD2109",
"xn 	c #DC8A1C",
"yn 	c #EDD803",
"zn 	c #F0D903",
"An 	c #F1D903",
"Bn 	c #EBD92D",
"Cn 	c #3D423A",
"Dn 	c #232E3D",
"En 	c #CDC447",
"Fn 	c #F6E40E",
"Gn 	c #F7E403",
"Hn 	c #F7E408",
"In 	c #EFE13E",
"Jn 	c #F1EAC2",
"Kn 	c #F4EFD5",
"Ln 	c #F4EED8",
"Mn 	c #F5F0DA",
"Nn 	c #F4F0DC",
"On 	c #F1E4CB",
"Pn 	c #F6530B",
"Qn 	c #A54D2E",
"Rn 	c #192642",
"Sn 	c #192A42",
"Tn 	c #1B2943",
"Un 	c #7E2524",
"Vn 	c #E51C05",
"Wn 	c #E61905",
"Xn 	c #E71E06",
"Yn 	c #E01D07",
"Zn 	c #552934",
"`n 	c #14213B",
" o 	c #15233C",
".o 	c #13223D",
"+o 	c #141F38",
"@o 	c #0F1E39",
"#o 	c #0E1F3D",
"$o 	c #0A2244",
"%o 	c #0F1E40",
"&o 	c #0E1E3E",
"*o 	c #142445",
"=o 	c #101E3F",
"-o 	c #132347",
";o 	c #0D1E40",
">o 	c #0A2042",
",o 	c #102346",
"'o 	c #112142",
")o 	c #122142",
"!o 	c #102244",
"~o 	c #152142",
"{o 	c #172647",
"]o 	c #192A5B",
"^o 	c #192A5D",
"/o 	c #162A61",
"(o 	c #182D67",
"_o 	c #142962",
":o 	c #182E6A",
"<o 	c #17306E",
"[o 	c #16306F",
"}o 	c #153071",
"|o 	c #173171",
"1o 	c #163275",
"2o 	c #173579",
"3o 	c #173577",
"4o 	c #163476",
"5o 	c #193678",
"6o 	c #183576",
"7o 	c #183473",
"8o 	c #1A3471",
"9o 	c #1C336D",
"0o 	c #19316D",
"ao 	c #1F3676",
"bo 	c #203877",
"co 	c #1E3879",
"do 	c #1D387A",
"eo 	c #1C3678",
"fo 	c #1B3678",
"go 	c #1A3676",
"ho 	c #1A3575",
"io 	c #1B3574",
"jo 	c #173274",
"ko 	c #183577",
"lo 	c #1A3577",
"mo 	c #163274",
"no 	c #173273",
"oo 	c #193372",
"po 	c #173070",
"qo 	c #1E2D5A",
"ro 	c #1F2E5C",
"so 	c #21305A",
"to 	c #253054",
"uo 	c #BC5C25",
"vo 	c #F86804",
"wo 	c #E88A4B",
"xo 	c #F0DA31",
"yo 	c #EFD904",
"zo 	c #ADA146",
"Ao 	c #3A343D",
"Bo 	c #2A293A",
"Co 	c #282637",
"Do 	c #252534",
"Eo 	c #272737",
"Fo 	c #212031",
"Go 	c #A22716",
"Ho 	c #CB260C",
"Io 	c #D02009",
"Jo 	c #DE910A",
"Ko 	c #F0D803",
"Lo 	c #EFDA19",
"Mo 	c #50523F",
"No 	c #222637",
"Oo 	c #2E3D4F",
"Po 	c #CCC43C",
"Qo 	c #F6E205",
"Ro 	c #F7E305",
"So 	c #F1E235",
"To 	c #F4EED6",
"Uo 	c #F4F1DE",
"Vo 	c #F4F0DD",
"Wo 	c #F5EED7",
"Xo 	c #F1E6CF",
"Yo 	c #F45712",
"Zo 	c #F85503",
"`o 	c #A84E33",
" p 	c #1B2D42",
".p 	c #19273D",
"+p 	c #7C2423",
"@p 	c #E31905",
"#p 	c #E51704",
"$p 	c #E71C06",
"%p 	c #E02409",
"&p 	c #45252E",
"*p 	c #15223B",
"=p 	c #16243D",
"-p 	c #142342",
";p 	c #132042",
">p 	c #0F2140",
",p 	c #0E1E42",
"'p 	c #0D2042",
")p 	c #0D2348",
"!p 	c #0E2346",
"~p 	c #122243",
"{p 	c #0E1D3F",
"]p 	c #0D1F3E",
"^p 	c #152546",
"/p 	c #122344",
"(p 	c #192A4C",
"_p 	c #182C5E",
":p 	c #1A2959",
"<p 	c #172A5F",
"[p 	c #132A66",
"}p 	c #142A64",
"|p 	c #112864",
"1p 	c #152B66",
"2p 	c #132B67",
"3p 	c #142B67",
"4p 	c #132F70",
"5p 	c #143070",
"6p 	c #163171",
"7p 	c #153274",
"8p 	c #153174",
"9p 	c #143073",
"0p 	c #173679",
"ap 	c #153377",
"bp 	c #153275",
"cp 	c #163375",
"dp 	c #183474",
"ep 	c #173172",
"fp 	c #193574",
"gp 	c #1B326C",
"hp 	c #1A3373",
"ip 	c #223B7A",
"jp 	c #1D3879",
"kp 	c #1E397B",
"lp 	c #1A377A",
"mp 	c #1A3779",
"np 	c #173375",
"op 	c #193578",
"pp 	c #1C387A",
"qp 	c #183375",
"rp 	c #1A3476",
"sp 	c #1B3577",
"tp 	c #173477",
"up 	c #173373",
"vp 	c #193374",
"wp 	c #1D2F65",
"xp 	c #21315C",
"yp 	c #20305A",
"zp 	c #253556",
"Ap 	c #B5933D",
"Bp 	c #EEAE0E",
"Cp 	c #F2AE09",
"Dp 	c #F4A509",
"Ep 	c #F3AD0A",
"Fp 	c #EFB60E",
"Gp 	c #E8C460",
"Hp 	c #ECE191",
"Ip 	c #EADE88",
"Jp 	c #E9DD83",
"Kp 	c #ECDE89",
"Lp 	c #EBDE8D",
"Mp 	c #ECDF85",
"Np 	c #EB922D",
"Op 	c #E86927",
"Pp 	c #DC6323",
"Qp 	c #DA5B13",
"Rp 	c #E05E0F",
"Sp 	c #DB6920",
"Tp 	c #6B513F",
"Up 	c #1F253B",
"Vp 	c #212436",
"Wp 	c #A62719",
"Xp 	c #D02B0B",
"Yp 	c #D62E0A",
"Zp 	c #D42C08",
"`p 	c #DA3408",
" q 	c #D72E07",
".q 	c #D52D09",
"+q 	c #D42A08",
"@q 	c #E28D0D",
"#q 	c #EED903",
"$q 	c #EED803",
"%q 	c #EED81D",
"&q 	c #42483E",
"*q 	c #232A3C",
"=q 	c #272E42",
"-q 	c #2C364B",
";q 	c #303B52",
">q 	c #27293C",
",q 	c #2C2432",
"'q 	c #42313C",
")q 	c #2F222C",
"!q 	c #2F2734",
"~q 	c #414A59",
"{q 	c #3D4755",
"]q 	c #D0C641",
"^q 	c #F5E105",
"/q 	c #F7E506",
"(q 	c #F4E425",
"_q 	c #F0E8BC",
":q 	c #F5F0D6",
"<q 	c #F3EDD8",
"[q 	c #F3EFDD",
"}q 	c #F3EFDE",
"|q 	c #F4EFDA",
"1q 	c #F1E9CE",
"2q 	c #ED9A2D",
"3q 	c #F49C07",
"4q 	c #F59A07",
"5q 	c #F49708",
"6q 	c #F39709",
"7q 	c #F38107",
"8q 	c #EF8410",
"9q 	c #AE7B35",
"0q 	c #19273F",
"aq 	c #1B2437",
"bq 	c #7C221F",
"cq 	c #E71A05",
"dq 	c #E42307",
"eq 	c #5A3232",
"fq 	c #171F30",
"gq 	c #162239",
"hq 	c #102342",
"iq 	c #0E1F41",
"jq 	c #0F2040",
"kq 	c #0F2044",
"lq 	c #0A2145",
"mq 	c #0C234B",
"nq 	c #10254F",
"oq 	c #0E254C",
"pq 	c #0B2145",
"qq 	c #0B2143",
"rq 	c #10203F",
"sq 	c #0E2040",
"tq 	c #142447",
"uq 	c #122345",
"vq 	c #162A5D",
"wq 	c #162B61",
"xq 	c #172C66",
"yq 	c #172B61",
"zq 	c #132965",
"Aq 	c #132D6C",
"Bq 	c #112C6A",
"Cq 	c #0E2B6C",
"Dq 	c #133072",
"Eq 	c #143173",
"Fq 	c #112E70",
"Gq 	c #143174",
"Hq 	c #133073",
"Iq 	c #143072",
"Jq 	c #153375",
"Kq 	c #173475",
"Lq 	c #173476",
"Mq 	c #193575",
"Nq 	c #183374",
"Oq 	c #1B3270",
"Pq 	c #1F397A",
"Qq 	c #1F3977",
"Rq 	c #1D3877",
"Sq 	c #1F3A7B",
"Tq 	c #1F3879",
"Uq 	c #1E3979",
"Vq 	c #1D397B",
"Wq 	c #1C397C",
"Xq 	c #1B3779",
"Yq 	c #1D397D",
"Zq 	c #1A387B",
"`q 	c #1C3A80",
" r 	c #1C3A7E",
".r 	c #193679",
"+r 	c #18367A",
"@r 	c #19387B",
"#r 	c #193474",
"$r 	c #1A3374",
"%r 	c #223056",
"&r 	c #213560",
"*r 	c #25395E",
"=r 	c #BAB048",
"-r 	c #F5DE04",
";r 	c #EDDB51",
">r 	c #F1EBCA",
",r 	c #EFE8C1",
"'r 	c #EDE7BD",
")r 	c #F1EAC6",
"!r 	c #F0E9C3",
"~r 	c #F27833",
"{r 	c #F86704",
"]r 	c #7C402C",
"^r 	c #BA5019",
"/r 	c #F35602",
"(r 	c #FB6002",
"_r 	c #F59308",
":r 	c #EFD902",
"<r 	c #EFD922",
"[r 	c #404644",
"}r 	c #293247",
"|r 	c #232D43",
"1r 	c #273654",
"2r 	c #29354F",
"3r 	c #965949",
"4r 	c #E15D12",
"5r 	c #ED5C0E",
"6r 	c #E15B15",
"7r 	c #E2580E",
"8r 	c #D75210",
"9r 	c #D75614",
"0r 	c #E9D12E",
"ar 	c #F6E204",
"br 	c #F7E515",
"cr 	c #F2EFE0",
"dr 	c #F4EFDD",
"er 	c #F3E23B",
"fr 	c #ADA335",
"gr 	c #7F2423",
"hr 	c #E32A0A",
"ir 	c #582B32",
"jr 	c #171F32",
"kr 	c #15213B",
"lr 	c #121F39",
"mr 	c #0F223F",
"nr 	c #0A1E3F",
"or 	c #0E1F3F",
"pr 	c #0F1F43",
"qr 	c #0F1F42",
"rr 	c #102145",
"sr 	c #0A234D",
"tr 	c #0A244F",
"ur 	c #0C2349",
"vr 	c #11264A",
"wr 	c #0A2143",
"xr 	c #0C2245",
"yr 	c #0C2040",
"zr 	c #162646",
"Ar 	c #0D2344",
"Br 	c #0C2246",
"Cr 	c #152447",
"Dr 	c #1C2C4D",
"Er 	c #202D4F",
"Fr 	c #162B5A",
"Gr 	c #162C64",
"Hr 	c #142C68",
"Ir 	c #172D69",
"Jr 	c #122B68",
"Kr 	c #132A65",
"Lr 	c #122B69",
"Mr 	c #112C6D",
"Nr 	c #122F71",
"Or 	c #122F72",
"Pr 	c #173578",
"Qr 	c #133173",
"Rr 	c #153173",
"Sr 	c #153376",
"Tr 	c #163273",
"Ur 	c #1B3472",
"Vr 	c #1A3574",
"Wr 	c #1B3675",
"Xr 	c #1A387A",
"Yr 	c #1E3B78",
"Zr 	c #1C3877",
"`r 	c #1E3978",
" s 	c #203A7C",
".s 	c #213C7E",
"+s 	c #1F3A79",
"@s 	c #1C3878",
"#s 	c #1D397A",
"$s 	c #1C387B",
"%s 	c #1B387B",
"&s 	c #1C397E",
"*s 	c #1A3A81",
"=s 	c #1A3A80",
"-s 	c #19397E",
";s 	c #18387D",
">s 	c #18377C",
",s 	c #1A397E",
"'s 	c #1A3678",
")s 	c #183475",
"!s 	c #1A2954",
"~s 	c #202F59",
"{s 	c #223462",
"]s 	c #253C65",
"^s 	c #B0AC47",
"/s 	c #F5E103",
"(s 	c #F5DC03",
"_s 	c #F1DE3F",
":s 	c #EFE8C5",
"<s 	c #F2ECCC",
"[s 	c #F0EAC5",
"}s 	c #EFE8C6",
"|s 	c #F0E9C5",
"1s 	c #F2EAC9",
"2s 	c #EF8649",
"3s 	c #F86807",
"4s 	c #764B34",
"5s 	c #22273D",
"6s 	c #B74D1C",
"7s 	c #F75D02",
"8s 	c #FB5F02",
"9s 	c #FC6102",
"0s 	c #F68707",
"as 	c #EAD62B",
"bs 	c #404B53",
"cs 	c #304054",
"ds 	c #354963",
"es 	c #2E425F",
"fs 	c #935B52",
"gs 	c #FA5B02",
"hs 	c #FC5B02",
"is 	c #FB5B02",
"js 	c #F95902",
"ks 	c #F1D01E",
"ls 	c #F7E514",
"ms 	c #F0E8B4",
"ns 	c #F6F1D9",
"os 	c #F5F1DE",
"ps 	c #F3F1E4",
"qs 	c #F3F1E2",
"rs 	c #F2ECD5",
"ss 	c #F3E24A",
"ts 	c #F6E203",
"us 	c #A9A039",
"vs 	c #7C231E",
"ws 	c #E32F11",
"xs 	c #512D38",
"ys 	c #14233D",
"zs 	c #0D1E3C",
"As 	c #0E2445",
"Bs 	c #0B264C",
"Cs 	c #092346",
"Ds 	c #0F2143",
"Es 	c #071D42",
"Fs 	c #13254B",
"Gs 	c #112446",
"Hs 	c #0A2351",
"Is 	c #0B234C",
"Js 	c #112348",
"Ks 	c #102547",
"Ls 	c #0B1F41",
"Ms 	c #092244",
"Ns 	c #18284A",
"Os 	c #1E2B4A",
"Ps 	c #202E4D",
"Qs 	c #162B5B",
"Rs 	c #1A2B5C",
"Ss 	c #162A5F",
"Ts 	c #142B66",
"Us 	c #112A68",
"Vs 	c #0F2B6B",
"Ws 	c #0D2768",
"Xs 	c #122D6D",
"Ys 	c #143071",
"Zs 	c #122F70",
"`s 	c #133174",
" t 	c #132F71",
".t 	c #123072",
"+t 	c #143275",
"@t 	c #163173",
"#t 	c #1B3775",
"$t 	c #193573",
"%t 	c #1A3675",
"&t 	c #1B3777",
"*t 	c #1C3A77",
"=t 	c #1A3778",
"-t 	c #1D3A78",
";t 	c #1D3B78",
">t 	c #1C3977",
",t 	c #1B3878",
"'t 	c #1E397A",
")t 	c #1E3A7A",
"!t 	c #1D3A7B",
"~t 	c #1E3B7C",
"{t 	c #1F3B7D",
"]t 	c #1D3A7E",
"^t 	c #19397F",
"/t 	c #1A397F",
"(t 	c #19387D",
"_t 	c #1A387C",
":t 	c #1A377B",
"<t 	c #183579",
"[t 	c #1A3371",
"}t 	c #1D2A59",
"|t 	c #203460",
"1t 	c #233861",
"2t 	c #A4A342",
"3t 	c #F0DD03",
"4t 	c #F1DE41",
"5t 	c #F1EAC8",
"6t 	c #F2ECD1",
"7t 	c #F3ECCC",
"8t 	c #F3ECCB",
"9t 	c #EEE6C1",
"0t 	c #F08346",
"at 	c #F66504",
"bt 	c #6A3D2C",
"ct 	c #22283D",
"dt 	c #22293D",
"et 	c #242737",
"ft 	c #B54F1E",
"gt 	c #F55E02",
"ht 	c #FC5D02",
"it 	c #F67F07",
"jt 	c #ECD704",
"kt 	c #EFD803",
"lt 	c #ECD903",
"mt 	c #EDD92D",
"nt 	c #5C666D",
"ot 	c #4A5D6E",
"pt 	c #435771",
"qt 	c #526479",
"rt 	c #4A6079",
"st 	c #5C728E",
"tt 	c #AD7B76",
"ut 	c #FB5A02",
"vt 	c #FA5702",
"wt 	c #F0C41E",
"xt 	c #F7E507",
"yt 	c #F7E510",
"zt 	c #F0E7A7",
"At 	c #F3F0DF",
"Bt 	c #F3EED4",
"Ct 	c #F3E246",
"Dt 	c #F3DD04",
"Et 	c #A9A12E",
"Ft 	c #232C42",
"Gt 	c #192235",
"Ht 	c #8B2725",
"It 	c #E51804",
"Jt 	c #E12F0D",
"Kt 	c #5A2C37",
"Lt 	c #192037",
"Mt 	c #14233E",
"Nt 	c #13213B",
"Ot 	c #12233E",
"Pt 	c #0F2447",
"Qt 	c #0D2146",
"Rt 	c #0C2347",
"St 	c #0C2143",
"Tt 	c #0D2245",
"Ut 	c #0A224F",
"Vt 	c #0C2147",
"Wt 	c #0F2345",
"Xt 	c #0A2243",
"Yt 	c #0D2142",
"Zt 	c #122646",
"`t 	c #202E4F",
" u 	c #23304E",
".u 	c #22304E",
"+u 	c #15285A",
"@u 	c #162B63",
"#u 	c #132B66",
"$u 	c #132A67",
"%u 	c #142C69",
"&u 	c #142A66",
"*u 	c #0F2967",
"=u 	c #0F2B6C",
"-u 	c #0F2C6E",
";u 	c #122E70",
">u 	c #102D6F",
",u 	c #123073",
"'u 	c #112D6E",
")u 	c #143274",
"!u 	c #163578",
"~u 	c #183476",
"{u 	c #1B3877",
"]u 	c #1B3978",
"^u 	c #1A3878",
"/u 	c #193779",
"(u 	c #1C3879",
"_u 	c #1C3979",
":u 	c #1C397A",
"<u 	c #1C3A7B",
"[u 	c #1B397B",
"}u 	c #1E3D7E",
"|u 	c #1C3A7C",
"1u 	c #1D3A7D",
"2u 	c #1B3A80",
"3u 	c #17377D",
"4u 	c #1A387D",
"5u 	c #17357A",
"6u 	c #17367A",
"7u 	c #183578",
"8u 	c #193475",
"9u 	c #183171",
"0u 	c #1D3473",
"au 	c #172E68",
"bu 	c #20325C",
"cu 	c #24385D",
"du 	c #A19C4A",
"eu 	c #EFDB03",
"fu 	c #F3DB02",
"gu 	c #F1DB38",
"hu 	c #F1EBC8",
"iu 	c #F0EACE",
"ju 	c #F2EBCE",
"ku 	c #F1EACB",
"lu 	c #F0E7C4",
"mu 	c #EF712F",
"nu 	c #FB5C02",
"ou 	c #FB5E02",
"pu 	c #F05C03",
"qu 	c #683829",
"ru 	c #20273D",
"su 	c #21293E",
"tu 	c #1F263E",
"uu 	c #24283C",
"vu 	c #AC4B1A",
"wu 	c #FB6202",
"xu 	c #FC5E02",
"yu 	c #FC5F02",
"zu 	c #EBD704",
"Au 	c #F0DB3C",
"Bu 	c #C2BFA6",
"Cu 	c #B3B6AA",
"Du 	c #B5B7AA",
"Eu 	c #B9B9AA",
"Fu 	c #BABBAE",
"Gu 	c #B0B3AA",
"Hu 	c #CCA38D",
"Iu 	c #DD490A",
"Ju 	c #E14308",
"Ku 	c #E14008",
"Lu 	c #E14007",
"Mu 	c #EC4D04",
"Nu 	c #F85402",
"Ou 	c #EFB71F",
"Pu 	c #F5E004",
"Qu 	c #EEE38F",
"Ru 	c #F1EDDA",
"Su 	c #F2F0E1",
"Tu 	c #F2EFDD",
"Uu 	c #F4EED3",
"Vu 	c #F3E249",
"Wu 	c #F4E003",
"Xu 	c #EFDB10",
"Yu 	c #B0A72E",
"Zu 	c #2A374B",
"`u 	c #1F283C",
" v 	c #1B2234",
".v 	c #A12922",
"+v 	c #E31805",
"@v 	c #E22F0C",
"#v 	c #5A282E",
"$v 	c #13213A",
"%v 	c #14243D",
"&v 	c #0C2142",
"*v 	c #0C2343",
"=v 	c #092141",
"-v 	c #0E2345",
";v 	c #0C2244",
">v 	c #0C2149",
",v 	c #0E234B",
"'v 	c #0B204A",
")v 	c #0C1E42",
"!v 	c #0C2043",
"~v 	c #0F2749",
"{v 	c #0F2347",
"]v 	c #10254C",
"^v 	c #112447",
"/v 	c #15274A",
"(v 	c #102548",
"_v 	c #132449",
":v 	c #132748",
"<v 	c #162849",
"[v 	c #192C4D",
"}v 	c #1A2C4D",
"|v 	c #1E2C4B",
"1v 	c #212D4A",
"2v 	c #13275B",
"3v 	c #17285C",
"4v 	c #152A60",
"5v 	c #122963",
"6v 	c #0E2865",
"7v 	c #0F2A6A",
"8v 	c #122D6E",
"9v 	c #112D6D",
"0v 	c #112B6B",
"av 	c #102967",
"bv 	c #0E2A6C",
"cv 	c #112D6F",
"dv 	c #102C6E",
"ev 	c #102C6D",
"fv 	c #163478",
"gv 	c #163477",
"hv 	c #183679",
"iv 	c #1A3977",
"jv 	c #1C3B77",
"kv 	c #1E3D7D",
"lv 	c #1B387A",
"mv 	c #1C3B7D",
"nv 	c #1E3C7D",
"ov 	c #1F3E80",
"pv 	c #1C3D80",
"qv 	c #1D3B7D",
"rv 	c #1D3B7A",
"sv 	c #1C397B",
"tv 	c #1B397C",
"uv 	c #19377A",
"vv 	c #1B3A7F",
"wv 	c #1B3A81",
"xv 	c #1C3C82",
"yv 	c #19387E",
"zv 	c #193980",
"Av 	c #17367B",
"Bv 	c #1A3271",
"Cv 	c #162C67",
"Dv 	c #1B336D",
"Ev 	c #1E3059",
"Fv 	c #1E2E55",
"Gv 	c #21345D",
"Hv 	c #203157",
"Iv 	c #223158",
"Jv 	c #263958",
"Kv 	c #99974B",
"Lv 	c #F1DC03",
"Mv 	c #F4DD02",
"Nv 	c #EFDC4D",
"Ov 	c #F3EDD2",
"Pv 	c #F1EBCF",
"Qv 	c #EDE8D3",
"Rv 	c #F2EBD3",
"Sv 	c #F0E8C9",
"Tv 	c #F17E41",
"Uv 	c #FC5C02",
"Vv 	c #F35D04",
"Wv 	c #64362D",
"Xv 	c #20273E",
"Yv 	c #1F2741",
"Zv 	c #202741",
"`v 	c #212A46",
" w 	c #222A45",
".w 	c #212945",
"+w 	c #A54B21",
"@w 	c #F2D902",
"#w 	c #EFDB4A",
"$w 	c #D4CEB1",
"%w 	c #C9C7B1",
"&w 	c #C7C7B4",
"*w 	c #C9C9B7",
"=w 	c #C8C7B4",
"-w 	c #C6C5B2",
";w 	c #CCB193",
">w 	c #CE3E0A",
",w 	c #D24209",
"'w 	c #D23E0A",
")w 	c #DD4307",
"!w 	c #F0B11A",
"~w 	c #EEE179",
"{w 	c #F2EED8",
"]w 	c #F2F0E3",
"^w 	c #F2EFDF",
"/w 	c #F2EEDB",
"(w 	c #F4EFD9",
"_w 	c #F1ECD6",
":w 	c #F2E35B",
"<w 	c #EDDC28",
"[w 	c #B5AD44",
"}w 	c #344454",
"|w 	c #374351",
"1w 	c #30394A",
"2w 	c #414448",
"3w 	c #515250",
"4w 	c #B24F36",
"5w 	c #E72207",
"6w 	c #E82408",
"7w 	c #E72107",
"8w 	c #E72007",
"9w 	c #E42007",
"0w 	c #E32308",
"aw 	c #E12207",
"bw 	c #E62308",
"cw 	c #E31E06",
"dw 	c #E52107",
"ew 	c #E33710",
"fw 	c #5D2A31",
"gw 	c #162136",
"hw 	c #112341",
"iw 	c #0E2148",
"jw 	c #102146",
"kw 	c #0A2149",
"lw 	c #0F2448",
"mw 	c #122748",
"nw 	c #0F2546",
"ow 	c #0B2344",
"pw 	c #0B2245",
"qw 	c #0C2145",
"rw 	c #112245",
"sw 	c #0E274A",
"tw 	c #14284A",
"uw 	c #132A4D",
"vw 	c #10254A",
"ww 	c #122546",
"xw 	c #182D4F",
"yw 	c #172C4C",
"zw 	c #1F3253",
"Aw 	c #1B2E4E",
"Bw 	c #202E50",
"Cw 	c #1F2B4C",
"Dw 	c #1F2D4C",
"Ew 	c #202D4B",
"Fw 	c #13275E",
"Gw 	c #16295F",
"Hw 	c #13285F",
"Iw 	c #152A63",
"Jw 	c #132A63",
"Kw 	c #132E6A",
"Lw 	c #102D6E",
"Mw 	c #0E2968",
"Nw 	c #102B6C",
"Ow 	c #0E296A",
"Pw 	c #132C6B",
"Qw 	c #132D6D",
"Rw 	c #112C6E",
"Sw 	c #122E6F",
"Tw 	c #112E71",
"Uw 	c #143276",
"Vw 	c #183677",
"Ww 	c #193675",
"Xw 	c #1B3879",
"Yw 	c #1C3C80",
"Zw 	c #1B3979",
"`w 	c #1A3879",
" x 	c #1F3D7D",
".x 	c #1D3D7A",
"+x 	c #1F3F7D",
"@x 	c #1E3C7C",
"#x 	c #1E3B7B",
"$x 	c #1F3E7C",
"%x 	c #1F3B7B",
"&x 	c #1C3B7C",
"*x 	c #1C3A7D",
"=x 	c #1B3B82",
"-x 	c #1C3C83",
";x 	c #1C3B81",
">x 	c #1B3B83",
",x 	c #193A81",
"'x 	c #183981",
")x 	c #18377B",
"!x 	c #1C326A",
"~x 	c #17316D",
"{x 	c #2E3756",
"]x 	c #2D3452",
"^x 	c #2B314F",
"/x 	c #2D3756",
"(x 	c #323950",
"_x 	c #A19A45",
":x 	c #F1DB02",
"<x 	c #F2DB02",
"[x 	c #EEDB4C",
"}x 	c #EFE9C6",
"|x 	c #EFEAD5",
"1x 	c #F2EDD6",
"2x 	c #F0EAD0",
"3x 	c #EBAE69",
"4x 	c #F57809",
"5x 	c #F17609",
"6x 	c #F1740A",
"7x 	c #F27F0B",
"8x 	c #EA7512",
"9x 	c #634837",
"0x 	c #212840",
"ax 	c #222C46",
"bx 	c #242D47",
"cx 	c #212A45",
"dx 	c #212944",
"ex 	c #22273A",
"fx 	c #A44B20",
"gx 	c #ECD705",
"hx 	c #EDD704",
"ix 	c #F2DC36",
"jx 	c #D0CCB0",
"kx 	c #D3D3C6",
"lx 	c #D1D4CB",
"mx 	c #CFD3CC",
"nx 	c #D0D2CA",
"ox 	c #CDCBB8",
"px 	c #D5BC9D",
"qx 	c #CB3C0B",
"rx 	c #D23C0A",
"sx 	c #D13B0A",
"tx 	c #DD4008",
"ux 	c #EFB91C",
"vx 	c #F7E406",
"wx 	c #F8E505",
"xx 	c #EEE164",
"yx 	c #F3EFD9",
"zx 	c #F2F0E2",
"Ax 	c #F2EFE1",
"Bx 	c #F2EFDE",
"Cx 	c #F0ECD9",
"Dx 	c #F2E263",
"Ex 	c #F4DF07",
"Fx 	c #EBAC0F",
"Gx 	c #E49D20",
"Hx 	c #E4991F",
"Ix 	c #CE8643",
"Jx 	c #AC3D31",
"Kx 	c #AB3128",
"Lx 	c #AE4036",
"Mx 	c #AE2B21",
"Nx 	c #AD2B1E",
"Ox 	c #B74631",
"Px 	c #C8624A",
"Qx 	c #E3C26B",
"Rx 	c #F0CC24",
"Sx 	c #F1C71B",
"Tx 	c #F1C21F",
"Ux 	c #EBC335",
"Vx 	c #EDC724",
"Wx 	c #EBC624",
"Xx 	c #EDC81B",
"Yx 	c #EFCC1C",
"Zx 	c #ECCB25",
"`x 	c #E9C51E",
" y 	c #DFB13E",
".y 	c #5A4738",
"+y 	c #162037",
"@y 	c #12233F",
"#y 	c #112241",
"$y 	c #0F2045",
"%y 	c #0C1F44",
"&y 	c #0B2044",
"*y 	c #092247",
"=y 	c #0F2848",
"-y 	c #132849",
";y 	c #122849",
">y 	c #0F2748",
",y 	c #132747",
"'y 	c #0F2341",
")y 	c #0F2444",
"!y 	c #132646",
"~y 	c #112B4E",
"{y 	c #132949",
"]y 	c #12284B",
"^y 	c #0F2849",
"/y 	c #14284B",
"(y 	c #192B4E",
"_y 	c #1E3154",
":y 	c #1E3052",
"<y 	c #203151",
"[y 	c #1E2F4E",
"}y 	c #222D4C",
"|y 	c #10265B",
"1y 	c #142961",
"2y 	c #122961",
"3y 	c #0F2A68",
"4y 	c #102B6A",
"5y 	c #0E2A6B",
"6y 	c #112A69",
"7y 	c #122A67",
"8y 	c #112A6B",
"9y 	c #132B6A",
"0y 	c #102B6D",
"ay 	c #17397F",
"by 	c #193777",
"cy 	c #1A397D",
"dy 	c #1D3C7F",
"ey 	c #1D3C7C",
"fy 	c #1E3D7A",
"gy 	c #1D3C7A",
"hy 	c #1E3B7D",
"iy 	c #203E7F",
"jy 	c #203F82",
"ky 	c #204082",
"ly 	c #234286",
"my 	c #203F80",
"ny 	c #1D3C7E",
"oy 	c #1F3E81",
"py 	c #1E3E80",
"qy 	c #1C3B7F",
"ry 	c #1A3A7F",
"sy 	c #1C3B82",
"ty 	c #1A3A82",
"uy 	c #173A82",
"vy 	c #153880",
"wy 	c #17377C",
"xy 	c #193476",
"yy 	c #1C3474",
"zy 	c #172E69",
"Ay 	c #19306A",
"By 	c #764A4F",
"Cy 	c #D95412",
"Dy 	c #D55110",
"Ey 	c #D75B11",
"Fy 	c #C95716",
"Gy 	c #CE5916",
"Hy 	c #DDA213",
"Iy 	c #F1DB03",
"Jy 	c #EFDB02",
"Ky 	c #F0DB02",
"Ly 	c #F1DA03",
"My 	c #EED922",
"Ny 	c #EEE6BF",
"Oy 	c #F4EED7",
"Py 	c #F3EDD6",
"Qy 	c #EFEBD5",
"Ry 	c #EBDC6B",
"Sy 	c #EBD506",
"Ty 	c #E6D10A",
"Uy 	c #E8D009",
"Vy 	c #E8D407",
"Wy 	c #EAD713",
"Xy 	c #817C40",
"Yy 	c #1E2842",
"Zy 	c #202945",
"`y 	c #202A44",
" z 	c #232D45",
".z 	c #212A42",
"+z 	c #212941",
"@z 	c #21293F",
"#z 	c #AF5A31",
"$z 	c #F67F08",
"%z 	c #F2DB1A",
"&z 	c #DAD4B3",
"*z 	c #D5D7CB",
"=z 	c #D6D9CF",
"-z 	c #D2D6CD",
";z 	c #CED1C9",
">z 	c #C9C7B3",
",z 	c #D7C1A3",
"'z 	c #C1521D",
")z 	c #C04F14",
"!z 	c #BE4813",
"~z 	c #BF4C15",
"{z 	c #D34C0C",
"]z 	c #F17D0D",
"^z 	c #EBBF2A",
"/z 	c #F1DF22",
"(z 	c #F2E125",
"_z 	c #F1E127",
":z 	c #F2E32B",
"<z 	c #F3E32B",
"[z 	c #F2E330",
"}z 	c #F3E329",
"|z 	c #EDE296",
"1z 	c #F2EFDB",
"2z 	c #F3F0E0",
"3z 	c #F1EDDB",
"4z 	c #F1ECD8",
"5z 	c #F1E26F",
"6z 	c #F3DB15",
"7z 	c #E24810",
"8z 	c #E9B520",
"9z 	c #F6E50B",
"0z 	c #F6E508",
"az 	c #F4E40F",
"bz 	c #F7E504",
"cz 	c #ECDC2D",
"dz 	c #5C6043",
"ez 	c #182238",
"fz 	c #142441",
"gz 	c #0A1E3E",
"hz 	c #0F1F45",
"iz 	c #111F45",
"jz 	c #0D264C",
"kz 	c #0C2448",
"lz 	c #0D2545",
"mz 	c #112543",
"nz 	c #152746",
"oz 	c #142644",
"pz 	c #152744",
"qz 	c #192E4D",
"rz 	c #142A49",
"sz 	c #152B4A",
"tz 	c #152947",
"uz 	c #142B4C",
"vz 	c #182B4C",
"wz 	c #12294C",
"xz 	c #13284A",
"yz 	c #182D51",
"zz 	c #1A2C4F",
"Az 	c #1D3354",
"Bz 	c #1D2F4F",
"Cz 	c #213151",
"Dz 	c #1E2E4E",
"Ez 	c #1F2D4D",
"Fz 	c #222F4D",
"Gz 	c #212C48",
"Hz 	c #0E255C",
"Iz 	c #112963",
"Jz 	c #122A64",
"Kz 	c #0F2965",
"Lz 	c #0D2866",
"Mz 	c #0E2969",
"Nz 	c #102A6A",
"Oz 	c #0C2868",
"Pz 	c #0E2A6A",
"Qz 	c #122C6C",
"Rz 	c #152D6A",
"Sz 	c #142F70",
"Tz 	c #143175",
"Uz 	c #1B3B7F",
"Vz 	c #1D3D83",
"Wz 	c #1B3B80",
"Xz 	c #1D3D81",
"Yz 	c #1E3D80",
"Zz 	c #1F3D80",
"`z 	c #214082",
" A 	c #213F80",
".A 	c #214083",
"+A 	c #1E3E82",
"@A 	c #204083",
"#A 	c #224286",
"$A 	c #224182",
"%A 	c #224083",
"&A 	c #214184",
"*A 	c #234386",
"=A 	c #224386",
"-A 	c #224388",
";A 	c #224184",
">A 	c #204185",
",A 	c #214388",
"'A 	c #1C3D82",
")A 	c #1E3F85",
"!A 	c #1A3B83",
"~A 	c #1B3B81",
"{A 	c #1B3C84",
"]A 	c #193A83",
"^A 	c #163A83",
"/A 	c #16377F",
"(A 	c #18387F",
"_A 	c #1D2F64",
":A 	c #913E2F",
"<A 	c #FB5D02",
"[A 	c #F29F0C",
"}A 	c #EFD91E",
"|A 	c #EDE5BC",
"1A 	c #F3EDD5",
"2A 	c #F5EFD7",
"3A 	c #EEE9D3",
"4A 	c #E8D96B",
"5A 	c #E7D30A",
"6A 	c #E1CF0F",
"7A 	c #E9D607",
"8A 	c #EAD903",
"9A 	c #ECDC11",
"0A 	c #777748",
"aA 	c #212435",
"bA 	c #223049",
"cA 	c #243049",
"dA 	c #1F2B4A",
"eA 	c #2D3850",
"fA 	c #BD7750",
"gA 	c #F77909",
"hA 	c #EDD605",
"iA 	c #F3DB0D",
"jA 	c #D9D3AD",
"kA 	c #D7D9CD",
"lA 	c #D5D8CD",
"mA 	c #CCD0C8",
"nA 	c #CDCBB6",
"oA 	c #D1C7A3",
"pA 	c #9F9A41",
"qA 	c #98862D",
"rA 	c #998329",
"sA 	c #9A8B29",
"tA 	c #B88F1F",
"uA 	c #EFD31D",
"vA 	c #E8D95F",
"wA 	c #EEE6BA",
"xA 	c #EEE6B5",
"yA 	c #F0E9C0",
"zA 	c #F1E9C6",
"AA 	c #F2EBCA",
"BA 	c #F1EBD3",
"CA 	c #F0EDDD",
"DA 	c #F1EEDC",
"EA 	c #EFE06F",
"FA 	c #F1D20E",
"GA 	c #E14415",
"HA 	c #E6AC25",
"IA 	c #F4E416",
"JA 	c #F6E509",
"KA 	c #F7E505",
"LA 	c #E9D93A",
"MA 	c #5C6341",
"NA 	c #1A283B",
"OA 	c #16233B",
"PA 	c #13223A",
"QA 	c #132540",
"RA 	c #102644",
"SA 	c #142642",
"TA 	c #102443",
"UA 	c #0C1E3F",
"VA 	c #091E3E",
"WA 	c #0B1E44",
"XA 	c #0A1E43",
"YA 	c #112747",
"ZA 	c #122A48",
"`A 	c #162945",
" B 	c #172846",
".B 	c #172A49",
"+B 	c #172A48",
"@B 	c #172B4A",
"#B 	c #162B4D",
"$B 	c #192D50",
"%B 	c #1A2D4F",
"&B 	c #152B4C",
"*B 	c #172B4D",
"=B 	c #1D3052",
"-B 	c #1D3352",
";B 	c #1C304E",
">B 	c #203252",
",B 	c #203250",
"'B 	c #20304F",
")B 	c #202D4D",
"!B 	c #11275F",
"~B 	c #132963",
"{B 	c #112863",
"]B 	c #0E2867",
"^B 	c #0F2A6B",
"/B 	c #0C2769",
"(B 	c #142E6C",
"_B 	c #102866",
":B 	c #122A68",
"<B 	c #112B6A",
"[B 	c #112B6C",
"}B 	c #102B6B",
"|B 	c #132D6E",
"1B 	c #163376",
"2B 	c #1D3C7D",
"3B 	c #1D3B7F",
"4B 	c #1B3A7D",
"5B 	c #1D3C81",
"6B 	c #1E3C82",
"7B 	c #204085",
"8B 	c #1F4085",
"9B 	c #214185",
"0B 	c #204084",
"aB 	c #204186",
"bB 	c #204289",
"cB 	c #224389",
"dB 	c #224488",
"eB 	c #224287",
"fB 	c #244587",
"gB 	c #24458A",
"hB 	c #24468A",
"iB 	c #25458A",
"jB 	c #26488D",
"kB 	c #24468C",
"lB 	c #234488",
"mB 	c #214288",
"nB 	c #214287",
"oB 	c #224387",
"pB 	c #214389",
"qB 	c #214289",
"rB 	c #1D3E86",
"sB 	c #1B3C83",
"tB 	c #1C3D85",
"uB 	c #193C85",
"vB 	c #183C85",
"wB 	c #173C87",
"xB 	c #173B85",
"yB 	c #153984",
"zB 	c #163881",
"AB 	c #173376",
"BB 	c #193677",
"CB 	c #1B3373",
"DB 	c #193272",
"EB 	c #18306F",
"FB 	c #954532",
"GB 	c #F1AA0B",
"HB 	c #EFD90B",
"IB 	c #ECE3AD",
"JB 	c #F3EDD4",
"KB 	c #F4F0DA",
"LB 	c #F4EFDB",
"MB 	c #EDE9D3",
"NB 	c #E9DB69",
"OB 	c #E8D704",
"PB 	c #E8D606",
"QB 	c #ECDC04",
"RB 	c #EADB03",
"SB 	c #EADD18",
"TB 	c #686843",
"UB 	c #202943",
"VB 	c #232E4A",
"WB 	c #2D384F",
"XB 	c #49586D",
"YB 	c #61758B",
"ZB 	c #C08167",
"`B 	c #E9D506",
" C 	c #F2DA08",
".C 	c #DDD6AB",
"+C 	c #DBDDD1",
"@C 	c #D7D9CE",
"#C 	c #D1D5CC",
"$C 	c #CACDC4",
"%C 	c #C4C4B3",
"&C 	c #B6B499",
"*C 	c #9A974F",
"=C 	c #928B33",
"-C 	c #948634",
";C 	c #958A33",
">C 	c #ACA122",
",C 	c #F1DB17",
"'C 	c #EEDE5B",
")C 	c #EFE9CC",
"!C 	c #EEEBD9",
"~C 	c #F0ECDA",
"{C 	c #F2EEDE",
"]C 	c #F2EDDB",
"^C 	c #F1EDDC",
"/C 	c #F1F0E3",
"(C 	c #F2EED9",
"_C 	c #F0E16B",
":C 	c #EBCA22",
"<C 	c #DE4524",
"[C 	c #E39E29",
"}C 	c #F4E419",
"|C 	c #F5E518",
"1C 	c #F4E412",
"2C 	c #E5DA39",
"3C 	c #606642",
"4C 	c #18263C",
"5C 	c #121D34",
"6C 	c #152139",
"7C 	c #14223A",
"8C 	c #122039",
"9C 	c #13233E",
"0C 	c #112745",
"aC 	c #192844",
"bC 	c #14233C",
"cC 	c #0D1F41",
"dC 	c #091E41",
"eC 	c #092044",
"fC 	c #0C2144",
"gC 	c #0F2847",
"hC 	c #122848",
"iC 	c #152745",
"jC 	c #162544",
"kC 	c #1C2E4D",
"lC 	c #1D304E",
"mC 	c #1A2E4B",
"nC 	c #1A2F50",
"oC 	c #1B2F54",
"pC 	c #1B3054",
"qC 	c #192E4F",
"rC 	c #1A2E51",
"sC 	c #193154",
"tC 	c #162D4D",
"uC 	c #283B5C",
"vC 	c #213455",
"wC 	c #1E3050",
"xC 	c #1F304E",
"yC 	c #212F4F",
"zC 	c #11265F",
"AC 	c #15285D",
"BC 	c #122861",
"CC 	c #122964",
"DC 	c #102966",
"EC 	c #0F2966",
"FC 	c #0F2969",
"GC 	c #0E2767",
"HC 	c #0F2866",
"IC 	c #112866",
"JC 	c #0E2869",
"KC 	c #132E70",
"LC 	c #142E6F",
"MC 	c #132E6F",
"NC 	c #1D3C80",
"OC 	c #1E3D83",
"PC 	c #1E3E83",
"QC 	c #234589",
"RC 	c #234489",
"SC 	c #21438A",
"TC 	c #23458A",
"UC 	c #25468C",
"VC 	c #264991",
"WC 	c #274991",
"XC 	c #264990",
"YC 	c #274A91",
"ZC 	c #2C519A",
"`C 	c #2D539D",
" D 	c #2B5099",
".D 	c #2A4E98",
"+D 	c #2A4F98",
"@D 	c #274A92",
"#D 	c #294C96",
"$D 	c #274992",
"%D 	c #284B93",
"&D 	c #20448C",
"*D 	c #1D418A",
"=D 	c #183D87",
"-D 	c #173C86",
";D 	c #153A85",
">D 	c #153B85",
",D 	c #143A85",
"'D 	c #15367D",
")D 	c #18306E",
"!D 	c #18316F",
"~D 	c #172F6E",
"{D 	c #934838",
"]D 	c #F1B109",
"^D 	c #EDD819",
"/D 	c #ECE4B6",
"(D 	c #F1EAD2",
"_D 	c #F2ECD6",
":D 	c #F1EDD8",
"<D 	c #EBE7D5",
"[D 	c #E7D97D",
"}D 	c #E9D803",
"|D 	c #EBDB03",
"1D 	c #EDDD02",
"2D 	c #EBDD17",
"3D 	c #646540",
"4D 	c #212D45",
"5D 	c #222E4D",
"6D 	c #3F4E61",
"7D 	c #637589",
"8D 	c #788AA0",
"9D 	c #959FA7",
"0D 	c #CA9379",
"aD 	c #F67C08",
"bD 	c #EAD506",
"cD 	c #EAD704",
"dD 	c #F3DA0A",
"eD 	c #DBD6B1",
"fD 	c #D3D6CD",
"gD 	c #D0D4CB",
"hD 	c #C8CBC1",
"iD 	c #A5A99C",
"jD 	c #A6A895",
"kD 	c #9A955A",
"lD 	c #928143",
"mD 	c #918A36",
"nD 	c #938E37",
"oD 	c #A99C27",
"pD 	c #F1D513",
"qD 	c #F1E266",
"rD 	c #EFEAD2",
"sD 	c #EEEAD7",
"tD 	c #EEEBDA",
"uD 	c #F0ECDB",
"vD 	c #F0EBD9",
"wD 	c #EFEBDA",
"xD 	c #EEEBDB",
"yD 	c #F1EEDE",
"zD 	c #EFEBDB",
"AD 	c #F0EDDC",
"BD 	c #EEEAD8",
"CD 	c #F0EBD7",
"DD 	c #F0E26B",
"ED 	c #E3C434",
"FD 	c #DC4428",
"GD 	c #E59D28",
"HD 	c #F4E314",
"ID 	c #F7E508",
"JD 	c #F4E52B",
"KD 	c #F6E51A",
"LD 	c #F6E404",
"MD 	c #E4D936",
"ND 	c #5E633E",
"OD 	c #12243F",
"PD 	c #0F2746",
"QD 	c #13233C",
"RD 	c #16233D",
"SD 	c #122144",
"TD 	c #092043",
"UD 	c #092142",
"VD 	c #152849",
"WD 	c #102746",
"XD 	c #142A46",
"YD 	c #152B48",
"ZD 	c #162745",
"`D 	c #1D2F4B",
" E 	c #1B2D4D",
".E 	c #1D3153",
"+E 	c #1C3253",
"@E 	c #1B3254",
"#E 	c #1D3456",
"$E 	c #1C3051",
"%E 	c #1D3355",
"&E 	c #182E4F",
"*E 	c #182D4D",
"=E 	c #192D51",
"-E 	c #1C375A",
";E 	c #192D4F",
">E 	c #1E3053",
",E 	c #1D3051",
"'E 	c #1C2F4D",
")E 	c #22304C",
"!E 	c #25344F",
"~E 	c #10265F",
"{E 	c #15285B",
"]E 	c #11265C",
"^E 	c #122863",
"/E 	c #112865",
"(E 	c #0F2766",
"_E 	c #0F2968",
":E 	c #0E2563",
"<E 	c #0F2865",
"[E 	c #112968",
"}E 	c #0D2665",
"|E 	c #142F6F",
"1E 	c #153172",
"2E 	c #153273",
"3E 	c #163172",
"4E 	c #163374",
"5E 	c #18367B",
"6E 	c #1F3F84",
"7E 	c #26488E",
"8E 	c #274C93",
"9E 	c #244790",
"0E 	c #22458F",
"aE 	c #2B4F94",
"bE 	c #2D5196",
"cE 	c #315699",
"dE 	c #315598",
"eE 	c #33569A",
"fE 	c #31559A",
"gE 	c #32579D",
"hE 	c #34599E",
"iE 	c #375DA1",
"jE 	c #3F65A6",
"kE 	c #3D64A6",
"lE 	c #3D63A5",
"mE 	c #3F65A7",
"nE 	c #4369A9",
"oE 	c #436BAD",
"pE 	c #4870B0",
"qE 	c #567DB8",
"rE 	c #5E82B9",
"sE 	c #5478B3",
"tE 	c #4D74B2",
"uE 	c #4269AB",
"vE 	c #3157A0",
"wE 	c #234690",
"xE 	c #20448E",
"yE 	c #1B408B",
"zE 	c #183D88",
"AE 	c #163B86",
"BE 	c #173B86",
"CE 	c #163B87",
"DE 	c #16377E",
"EE 	c #19387C",
"FE 	c #163070",
"GE 	c #17306D",
"HE 	c #1B326B",
"IE 	c #182E66",
"JE 	c #1F2F62",
"KE 	c #854745",
"LE 	c #F2A308",
"ME 	c #EDD81F",
"NE 	c #EDE7C8",
"OE 	c #EEE9D2",
"PE 	c #EFEAD6",
"QE 	c #EFEBD7",
"RE 	c #EDE8D4",
"SE 	c #E5DD88",
"TE 	c #E7D607",
"UE 	c #EBDB10",
"VE 	c #747B4A",
"WE 	c #212A3F",
"XE 	c #24324C",
"YE 	c #2F3E58",
"ZE 	c #556575",
"`E 	c #83909D",
" F 	c #9BA3A9",
".F 	c #A6ACAB",
"+F 	c #B3B6AB",
"@F 	c #DBA481",
"#F 	c #FA5A02",
"$F 	c #F67B09",
"%F 	c #EBD507",
"&F 	c #EED704",
"*F 	c #F0D91F",
"=F 	c #DBD5B5",
"-F 	c #CFD3CB",
";F 	c #C7CAC0",
">F 	c #B2B5AA",
",F 	c #9CA092",
"'F 	c #989E94",
")F 	c #979B8F",
"!F 	c #969882",
"~F 	c #949574",
"{F 	c #999160",
"]F 	c #A29F48",
"^F 	c #E7D13B",
"/F 	c #EDDF5F",
"(F 	c #EFE9D0",
"_F 	c #EBE7D6",
":F 	c #ECE8D7",
"<F 	c #ECE8D6",
"[F 	c #EDEAD9",
"}F 	c #EDE9D8",
"|F 	c #ECE9D8",
"1F 	c #EFEBD9",
"2F 	c #EDE9D7",
"3F 	c #F0EBD3",
"4F 	c #EFE16C",
"5F 	c #E3C539",
"6F 	c #DB4625",
"7F 	c #E49E1F",
"8F 	c #F5E410",
"9F 	c #F5E623",
"0F 	c #F7E50E",
"aF 	c #F6E405",
"bF 	c #F3E308",
"cF 	c #E8DC39",
"dF 	c #5B6342",
"eF 	c #192239",
"fF 	c #16233C",
"gF 	c #13243D",
"hF 	c #102747",
"iF 	c #0E2644",
"jF 	c #0F2342",
"kF 	c #102446",
"lF 	c #102345",
"mF 	c #122A49",
"nF 	c #152B4B",
"oF 	c #142847",
"pF 	c #162846",
"qF 	c #182E4B",
"rF 	c #172C4B",
"sF 	c #1F3150",
"tF 	c #1E3153",
"uF 	c #1D3254",
"vF 	c #1C2D4F",
"wF 	c #1D2D51",
"xF 	c #1F3053",
"yF 	c #1C3456",
"zF 	c #172B4C",
"AF 	c #152C4C",
"BF 	c #1B2F53",
"CF 	c #1C3154",
"DF 	c #1C3054",
"EF 	c #1C2E50",
"FF 	c #203254",
"GF 	c #1C2E4F",
"HF 	c #233451",
"IF 	c #22324E",
"JF 	c #253252",
"KF 	c #152B65",
"LF 	c #132962",
"MF 	c #112966",
"NF 	c #152A64",
"OF 	c #122966",
"PF 	c #132D6B",
"QF 	c #152F70",
"RF 	c #122E6E",
"SF 	c #152F6F",
"TF 	c #142D6D",
"UF 	c #162F6F",
"VF 	c #1C3573",
"WF 	c #19377B",
"XF 	c #1C3B7E",
"YF 	c #1F3E82",
"ZF 	c #375C9D",
"`F 	c #426AAB",
" G 	c #4872B3",
".G 	c #4B75B5",
"+G 	c #446DAD",
"@G 	c #466FAE",
"#G 	c #4169AB",
"$G 	c #5A7BB0",
"%G 	c #89A9CD",
"&G 	c #9BB8D4",
"*G 	c #A9C0D4",
"=G 	c #A1BFDB",
"-G 	c #92B2D5",
";G 	c #8CACD3",
">G 	c #8BACD3",
",G 	c #8EAFD4",
"'G 	c #A4C0DB",
")G 	c #AFC9DE",
"!G 	c #ADC6DD",
"~G 	c #ADC8DE",
"{G 	c #AFCADF",
"]G 	c #B2CBDF",
"^G 	c #ADC9DF",
"/G 	c #AECAE0",
"(G 	c #B5CDE0",
"_G 	c #B6D0E2",
":G 	c #AECCE1",
"<G 	c #A5C5DD",
"[G 	c #658DC3",
"}G 	c #395FA2",
"|G 	c #254893",
"1G 	c #234791",
"2G 	c #1F448D",
"3G 	c #1D428B",
"4G 	c #1C418A",
"5G 	c #183B85",
"6G 	c #183B84",
"7G 	c #163A84",
"8G 	c #162F6D",
"9G 	c #1F2B59",
"0G 	c #7F4F4D",
"aG 	c #F29F09",
"bG 	c #ECDB02",
"cG 	c #EEDA02",
"dG 	c #EEDB02",
"eG 	c #F1DC1F",
"fG 	c #ECE6C7",
"gG 	c #EDE8D5",
"hG 	c #EDE9D6",
"iG 	c #E6DC93",
"jG 	c #E8D609",
"kG 	c #EDDC03",
"lG 	c #F1DE02",
"mG 	c #EEDE02",
"nG 	c #EDDE07",
"oG 	c #8C8C4E",
"pG 	c #26334B",
"qG 	c #455567",
"rG 	c #596B7D",
"sG 	c #8392A0",
"tG 	c #A5ABA9",
"uG 	c #B9BCB0",
"vG 	c #BFC2B3",
"wG 	c #C5C5B2",
"xG 	c #E1A179",
"yG 	c #F87307",
"zG 	c #ECCE0B",
"AG 	c #E9D604",
"BG 	c #EDD703",
"CG 	c #EED923",
"DG 	c #C9C5A5",
"EG 	c #B8BBB0",
"FG 	c #B7BAAF",
"GG 	c #B4B7AD",
"HG 	c #A5A89B",
"IG 	c #9FA49A",
"JG 	c #989E93",
"KG 	c #959D98",
"LG 	c #99A094",
"MG 	c #9A9F91",
"NG 	c #A5A58F",
"OG 	c #D5CD98",
"PG 	c #E4D9A2",
"QG 	c #E2DCC3",
"RG 	c #E8E3CD",
"SG 	c #E9E6D4",
"TG 	c #EAE7D6",
"UG 	c #EBE8D7",
"VG 	c #EEEAD6",
"WG 	c #ECE8D4",
"XG 	c #EDEAD7",
"YG 	c #EBDD6F",
"ZG 	c #F3DF0A",
"`G 	c #E4C340",
" H 	c #DA4729",
".H 	c #E61B05",
"+H 	c #E61904",
"@H 	c #E4971C",
"#H 	c #F3E319",
"$H 	c #F4E518",
"%H 	c #F6E515",
"&H 	c #F2E00E",
"*H 	c #F6E407",
"=H 	c #F6E403",
"-H 	c #EBDC35",
";H 	c #5D6343",
">H 	c #192537",
",H 	c #17233B",
"'H 	c #18263D",
")H 	c #142640",
"!H 	c #0F2543",
"~H 	c #112847",
"{H 	c #112340",
"]H 	c #142542",
"^H 	c #0E2443",
"/H 	c #0F2243",
"(H 	c #102142",
"_H 	c #102442",
":H 	c #122441",
"<H 	c #122645",
"[H 	c #142C4A",
"}H 	c #142A48",
"|H 	c #182A48",
"1H 	c #1D3253",
"2H 	c #1A3354",
"3H 	c #1A3254",
"4H 	c #1F3356",
"5H 	c #1E3557",
"6H 	c #1E3355",
"7H 	c #1C2F51",
"8H 	c #223657",
"9H 	c #1C3052",
"0H 	c #1E3054",
"aH 	c #1A2B4D",
"bH 	c #192F51",
"cH 	c #1D2F53",
"dH 	c #1F3153",
"eH 	c #233556",
"fH 	c #203154",
"gH 	c #1D2E4B",
"hH 	c #1B2C4B",
"iH 	c #24324E",
"jH 	c #102862",
"kH 	c #112761",
"lH 	c #102660",
"mH 	c #172D68",
"nH 	c #152B67",
"oH 	c #162D6B",
"pH 	c #142E6E",
"qH 	c #1E3B7F",
"rH 	c #213D81",
"sH 	c #204188",
"tH 	c #4E78B5",
"uH 	c #5D88C1",
"vH 	c #5A85C1",
"wH 	c #4B74B1",
"xH 	c #4A72AF",
"yH 	c #4970AD",
"zH 	c #7190BC",
"AH 	c #C8D9E5",
"BH 	c #CAD9E5",
"CH 	c #BAD2E2",
"DH 	c #A1C0DA",
"EH 	c #9BB9D8",
"FH 	c #9AB8D8",
"GH 	c #A5C2DC",
"HH 	c #CBDAE5",
"IH 	c #CEDCE6",
"JH 	c #D2E0E7",
"KH 	c #D5E2E8",
"LH 	c #D2DFE7",
"MH 	c #D3E0E8",
"NH 	c #D1DFE7",
"OH 	c #D0DEE7",
"PH 	c #C9DAE6",
"QH 	c #82A6D0",
"RH 	c #345BA1",
"SH 	c #254993",
"TH 	c #254892",
"UH 	c #244791",
"VH 	c #1E438D",
"WH 	c #1C418B",
"XH 	c #193B84",
"YH 	c #183A82",
"ZH 	c #193270",
"`H 	c #7C5F54",
" I 	c #F1981B",
".I 	c #F4860D",
"+I 	c #F18911",
"@I 	c #F4880C",
"#I 	c #F2810D",
"$I 	c #EBAF3D",
"%I 	c #EAD93E",
"&I 	c #E9D63D",
"*I 	c #E9D83D",
"=I 	c #EDDA40",
"-I 	c #EBDA5A",
";I 	c #ECDB57",
">I 	c #ECE4B3",
",I 	c #EEE8CF",
"'I 	c #EEE8D0",
")I 	c #ECE8D5",
"!I 	c #EBE8D6",
"~I 	c #E8E5D1",
"{I 	c #E7DE98",
"]I 	c #E9D704",
"^I 	c #EBDC02",
"/I 	c #EADA03",
"(I 	c #ECDD08",
"_I 	c #8E8E58",
":I 	c #5F6A73",
"<I 	c #7D8A95",
"[I 	c #97A0A6",
"}I 	c #AAAFAB",
"|I 	c #BCC0B3",
"1I 	c #C4C8BB",
"2I 	c #C3C4B2",
"3I 	c #CFC8AF",
"4I 	c #E07953",
"5I 	c #F86A05",
"6I 	c #ECCE0A",
"7I 	c #EBD605",
"8I 	c #EBD604",
"9I 	c #B2B092",
"0I 	c #9CA093",
"aI 	c #999E91",
"bI 	c #999F93",
"cI 	c #9BA193",
"dI 	c #949B96",
"eI 	c #979D95",
"fI 	c #99A098",
"gI 	c #959A91",
"hI 	c #BEBEAB",
"iI 	c #D3CEB4",
"jI 	c #DDD7BA",
"kI 	c #DBD6B9",
"lI 	c #DDD8BE",
"mI 	c #DDD8C0",
"nI 	c #E2DDC2",
"oI 	c #E1DDC4",
"pI 	c #E4E0C9",
"qI 	c #E9E5D0",
"rI 	c #E7E2CB",
"sI 	c #E7E3CE",
"tI 	c #EBE7D4",
"uI 	c #EAE6D3",
"vI 	c #EEE9D4",
"wI 	c #EDE7CF",
"xI 	c #EBDD71",
"yI 	c #EDDB37",
"zI 	c #EBD827",
"AI 	c #E6C53D",
"BI 	c #DE4729",
"CI 	c #E29923",
"DI 	c #F2E11F",
"EI 	c #F5E515",
"FI 	c #F5E510",
"GI 	c #F5E40B",
"HI 	c #F6E408",
"II 	c #EADC3C",
"JI 	c #61674B",
"KI 	c #1A2A3E",
"LI 	c #18263E",
"MI 	c #182641",
"NI 	c #142541",
"OI 	c #112946",
"PI 	c #122744",
"QI 	c #132645",
"RI 	c #112445",
"SI 	c #11213B",
"TI 	c #15253D",
"UI 	c #12243E",
"VI 	c #142746",
"WI 	c #132947",
"XI 	c #112B4A",
"YI 	c #142D4A",
"ZI 	c #1A3151",
"`I 	c #1D3557",
" J 	c #1A3253",
".J 	c #1F3758",
"+J 	c #233859",
"@J 	c #1B3253",
"#J 	c #1F3050",
"$J 	c #1E2F50",
"%J 	c #213255",
"&J 	c #223455",
"*J 	c #1D2F50",
"=J 	c #1F3354",
"-J 	c #1B3052",
";J 	c #192C4E",
">J 	c #1E3151",
",J 	c #1F3151",
"'J 	c #1D2C4C",
")J 	c #1D2C48",
"!J 	c #162B65",
"~J 	c #152C67",
"{J 	c #102969",
"]J 	c #152E6D",
"^J 	c #122C6D",
"/J 	c #162F6E",
"(J 	c #17306F",
"_J 	c #1D3A7C",
":J 	c #203C7F",
"<J 	c #1E3A7B",
"[J 	c #213D80",
"}J 	c #203B80",
"|J 	c #21438C",
"1J 	c #4D78B9",
"2J 	c #618CC5",
"3J 	c #608CC4",
"4J 	c #5D87C0",
"5J 	c #4A72AE",
"6J 	c #466EAD",
"7J 	c #486FAD",
"8J 	c #6E8EBC",
"9J 	c #AFC8DE",
"0J 	c #C6D6E4",
"aJ 	c #CADAE5",
"bJ 	c #B8D1E2",
"cJ 	c #9CBAD8",
"dJ 	c #9BBAD8",
"eJ 	c #AAC6DD",
"fJ 	c #D4E1E8",
"gJ 	c #D7E3E9",
"hJ 	c #D8E3E9",
"iJ 	c #DBE5E8",
"jJ 	c #DDE6E8",
"kJ 	c #D9E4E8",
"lJ 	c #D6E3E9",
"mJ 	c #D6E2E9",
"nJ 	c #8CAFD4",
"oJ 	c #355CA4",
"pJ 	c #274A94",
"qJ 	c #1F438D",
"rJ 	c #1E428C",
"sJ 	c #183B86",
"tJ 	c #193A84",
"uJ 	c #193981",
"vJ 	c #1B3980",
"wJ 	c #183678",
"xJ 	c #1B2F67",
"yJ 	c #707260",
"zJ 	c #F4E119",
"AJ 	c #F5E007",
"BJ 	c #F5E30E",
"CJ 	c #F4E10C",
"DJ 	c #F2DB0F",
"EJ 	c #EBE09F",
"FJ 	c #EBE4C3",
"GJ 	c #ECE5C0",
"HJ 	c #EDE6C4",
"IJ 	c #EBE5C5",
"JJ 	c #ECE6CD",
"KJ 	c #EEE8CB",
"LJ 	c #EEE8C8",
"MJ 	c #EDE7CB",
"NJ 	c #EFE9CE",
"OJ 	c #EAE6D1",
"PJ 	c #E7E5D3",
"QJ 	c #E5DD97",
"RJ 	c #EAD904",
"SJ 	c #E8DC24",
"TJ 	c #969B82",
"UJ 	c #9DA3A2",
"VJ 	c #A8ACA6",
"WJ 	c #B4B6A9",
"XJ 	c #C1C3B6",
"YJ 	c #C2C5BA",
"ZJ 	c #C8CBBF",
"`J 	c #CCCAB6",
" K 	c #DCD2B1",
".K 	c #DE7D57",
"+K 	c #F77207",
"@K 	c #EECF09",
"#K 	c #EBD703",
"$K 	c #EED823",
"%K 	c #A6A68D",
"&K 	c #93998E",
"*K 	c #91978E",
"=K 	c #959B8F",
"-K 	c #959B8E",
";K 	c #94998F",
">K 	c #90968D",
",K 	c #949A8F",
"'K 	c #949A93",
")K 	c #AFB09D",
"!K 	c #D4CEB3",
"~K 	c #E2DCC1",
"{K 	c #E9E4CB",
"]K 	c #E4E0C5",
"^K 	c #E4E0C8",
"/K 	c #E2DDC7",
"(K 	c #E4DFC4",
"_K 	c #DDD8BC",
":K 	c #DCD6B8",
"<K 	c #E1DBBE",
"[K 	c #DEDAC0",
"}K 	c #E0DBC2",
"|K 	c #E3DEC5",
"1K 	c #E7E3CD",
"2K 	c #E8DFB8",
"3K 	c #E7DEB1",
"4K 	c #E8DC97",
"5K 	c #E7D064",
"6K 	c #E4D04D",
"7K 	c #E8CF3A",
"8K 	c #E7BA32",
"9K 	c #DF4221",
"0K 	c #E79D20",
"aK 	c #F1DF18",
"bK 	c #F5E50C",
"cK 	c #F5E309",
"dK 	c #F5E303",
"eK 	c #F6E303",
"fK 	c #F3E21A",
"gK 	c #E9DD3D",
"hK 	c #60664C",
"iK 	c #1B2B3F",
"jK 	c #15233E",
"kK 	c #0E2545",
"lK 	c #142849",
"mK 	c #152642",
"nK 	c #112440",
"oK 	c #132946",
"pK 	c #142A47",
"qK 	c #132E4C",
"rK 	c #0F2F4C",
"sK 	c #1C304F",
"tK 	c #1A2C4E",
"uK 	c #1D3457",
"vK 	c #1F3355",
"wK 	c #203354",
"xK 	c #1F3556",
"yK 	c #203456",
"zK 	c #1D3050",
"AK 	c #243658",
"BK 	c #1E2F51",
"CK 	c #203255",
"DK 	c #1B2F50",
"EK 	c #1C3153",
"FK 	c #25375A",
"GK 	c #213450",
"HK 	c #1C2D4D",
"IK 	c #1D2D4A",
"JK 	c #202F4C",
"KK 	c #142A65",
"LK 	c #142D6C",
"MK 	c #1F3A7C",
"NK 	c #213D82",
"OK 	c #1F3C81",
"PK 	c #1C3B80",
"QK 	c #203F85",
"RK 	c #264992",
"SK 	c #537EBE",
"TK 	c #608CC6",
"UK 	c #5B86C2",
"VK 	c #5783C0",
"WK 	c #4D73AD",
"XK 	c #4A6DA7",
"YK 	c #4B6EA8",
"ZK 	c #7191BF",
"`K 	c #BBD3E3",
" L 	c #D1DEE7",
".L 	c #BED4E2",
"+L 	c #A1C1DA",
"@L 	c #9AB9D8",
"#L 	c #E7EBE7",
"$L 	c #E4EAE7",
"%L 	c #DEE6E8",
"&L 	c #D7E2E8",
"*L 	c #CCDCE6",
"=L 	c #8CAFD3",
"-L 	c #355BA2",
";L 	c #22468F",
">L 	c #1D428C",
",L 	c #1B3E87",
"'L 	c #1D3B81",
")L 	c #686D5D",
"!L 	c #F2E118",
"~L 	c #F7E50C",
"{L 	c #E8DFA5",
"]L 	c #E8E3C7",
"^L 	c #ECE6C9",
"/L 	c #ECE7D1",
"(L 	c #EEE8CD",
"_L 	c #EDE7CA",
":L 	c #EFE9CB",
"<L 	c #EDE8CA",
"[L 	c #ECE6CB",
"}L 	c #E8E4CF",
"|L 	c #E1E0CE",
"1L 	c #E0D9A0",
"2L 	c #E6D408",
"3L 	c #E6D505",
"4L 	c #E8DA21",
"5L 	c #CEC875",
"6L 	c #BEBCA3",
"7L 	c #C1C1AE",
"8L 	c #C1C4B5",
"9L 	c #C5C7BB",
"0L 	c #C3C6B9",
"aL 	c #C6C9BE",
"bL 	c #CBCDC3",
"cL 	c #D4CFB7",
"dL 	c #DBD3B3",
"eL 	c #E08E60",
"fL 	c #F57B0A",
"gL 	c #EDCF09",
"hL 	c #EAD607",
"iL 	c #EAD604",
"jL 	c #ECD72A",
"kL 	c #ADAC94",
"lL 	c #979C90",
"mL 	c #91978C",
"nL 	c #92978D",
"oL 	c #90958C",
"pL 	c #879090",
"qL 	c #949A90",
"rL 	c #9AA092",
"sL 	c #A2A595",
"tL 	c #CAC6AC",
"uL 	c #E7E1C9",
"vL 	c #EAE5CB",
"wL 	c #E7E3C9",
"xL 	c #E6E1C9",
"yL 	c #E6E1CA",
"zL 	c #E6E1C7",
"AL 	c #E5E0C1",
"BL 	c #E5DFC3",
"CL 	c #E2DEC7",
"DL 	c #DEDBC7",
"EL 	c #DFD9BE",
"FL 	c #E1D79D",
"GL 	c #F0E02A",
"HL 	c #F2E025",
"IL 	c #F3DE16",
"JL 	c #F3890C",
"KL 	c #F76904",
"LL 	c #FA6703",
"ML 	c #F86605",
"NL 	c #E92E09",
"OL 	c #E31704",
"PL 	c #E5971D",
"QL 	c #F0DC14",
"RL 	c #F5E204",
"SL 	c #F4E103",
"TL 	c #F3E105",
"UL 	c #EDE030",
"VL 	c #5C6348",
"WL 	c #18293F",
"XL 	c #152339",
"YL 	c #14213A",
"ZL 	c #11223C",
"`L 	c #0F2646",
" M 	c #112443",
".M 	c #0F223E",
"+M 	c #112845",
"@M 	c #102643",
"#M 	c #112948",
"$M 	c #142F4D",
"%M 	c #102C49",
"&M 	c #132F4E",
"*M 	c #162B4B",
"=M 	c #203353",
"-M 	c #1B3152",
";M 	c #1C2F50",
">M 	c #213355",
",M 	c #1B2D4C",
"'M 	c #203355",
")M 	c #213253",
"!M 	c #1E3455",
"~M 	c #1C2F53",
"{M 	c #1A2E4F",
"]M 	c #1D2F4E",
"^M 	c #192A48",
"/M 	c #182945",
"(M 	c #1F304B",
"_M 	c #1D2F4A",
":M 	c #11275D",
"<M 	c #132B69",
"[M 	c #0D2969",
"}M 	c #24468F",
"|M 	c #4E7ABB",
"1M 	c #5F8BC5",
"2M 	c #5E8AC4",
"3M 	c #5783C1",
"4M 	c #4A6CA6",
"5M 	c #4A6EA9",
"6M 	c #7798C4",
"7M 	c #BBD2E3",
"8M 	c #CDDCE6",
"9M 	c #D3E0E7",
"0M 	c #9FBED9",
"aM 	c #98B7D7",
"bM 	c #ADC8DD",
"cM 	c #E9ECE6",
"dM 	c #DFE7E8",
"eM 	c #D6E2E8",
"fM 	c #D0DEE6",
"gM 	c #C7DAE6",
"hM 	c #C0D6E4",
"iM 	c #C6D6E2",
"jM 	c #89ABD2",
"kM 	c #2E559E",
"lM 	c #274B95",
"mM 	c #244792",
"nM 	c #23468F",
"oM 	c #20438C",
"pM 	c #1C4089",
"qM 	c #1B3C85",
"rM 	c #1B3B84",
"sM 	c #16357B",
"tM 	c #1C3371",
"uM 	c #1B3168",
"vM 	c #596263",
"wM 	c #EEDC1E",
"xM 	c #F6E517",
"yM 	c #F3E323",
"zM 	c #EFE025",
"AM 	c #E7DFA8",
"BM 	c #E9E3C8",
"CM 	c #EEE8C9",
"DM 	c #ECE6CC",
"EM 	c #EAE5C9",
"FM 	c #EBE5CA",
"GM 	c #E7E3CB",
"HM 	c #E2E0CD",
"IM 	c #E1DBA6",
"JM 	c #E7D704",
"KM 	c #E2D62F",
"LM 	c #CBC673",
"MM 	c #C8C3A0",
"NM 	c #C8C6AF",
"OM 	c #CFD2CA",
"PM 	c #CDD0C7",
"QM 	c #CED1C8",
"RM 	c #CDCEC1",
"SM 	c #D7D5C3",
"TM 	c #DDD8BD",
"UM 	c #DDD4B2",
"VM 	c #E4955A",
"WM 	c #FA6603",
"XM 	c #F5790A",
"YM 	c #EBCE0B",
"ZM 	c #E9D606",
"`M 	c #E9D605",
" N 	c #E8D604",
".N 	c #EED804",
"+N 	c #EDD83C",
"@N 	c #ABAA94",
"#N 	c #8D928B",
"$N 	c #8C928C",
"%N 	c #868F8E",
"&N 	c #8E938A",
"*N 	c #8F9389",
"=N 	c #8F948B",
"-N 	c #91968D",
";N 	c #989D90",
">N 	c #BBBAA4",
",N 	c #EBE7D2",
"'N 	c #ECE7D3",
")N 	c #ECE7D0",
"!N 	c #EBE6CE",
"~N 	c #E9E4CA",
"{N 	c #E8E2C5",
"]N 	c #E6E0C3",
"^N 	c #E1DCC1",
"/N 	c #E5E0C8",
"(N 	c #E6E3CE",
"_N 	c #E3DEC3",
":N 	c #E3DA9C",
"<N 	c #E8DA59",
"[N 	c #EFDE23",
"}N 	c #F28F11",
"|N 	c #ED3605",
"1N 	c #E92305",
"2N 	c #E82306",
"3N 	c #EA2706",
"4N 	c #EB2C05",
"5N 	c #E92607",
"6N 	c #EA2906",
"7N 	c #EB2B05",
"8N 	c #E92C05",
"9N 	c #EA2B05",
"0N 	c #E58719",
"aN 	c #EEDB1C",
"bN 	c #F6E409",
"cN 	c #F5E203",
"dN 	c #E7DA43",
"eN 	c #5E634A",
"fN 	c #152337",
"gN 	c #152742",
"hN 	c #152844",
"iN 	c #122544",
"jN 	c #142546",
"kN 	c #102C4A",
"lN 	c #0D2A47",
"mN 	c #112945",
"nN 	c #182F4C",
"oN 	c #122F4D",
"pN 	c #152A4A",
"qN 	c #1B2E50",
"rN 	c #213457",
"sN 	c #233251",
"tN 	c #213254",
"uN 	c #213353",
"vN 	c #1D3152",
"wN 	c #1B3051",
"xN 	c #1A2B4E",
"yN 	c #182A4A",
"zN 	c #182B4A",
"AN 	c #182A49",
"BN 	c #142947",
"CN 	c #1A2E4D",
"DN 	c #1C2F4C",
"EN 	c #102760",
"FN 	c #11275E",
"GN 	c #112965",
"HN 	c #122965",
"IN 	c #132964",
"JN 	c #0F2867",
"KN 	c #0E2868",
"LN 	c #132E6E",
"MN 	c #173372",
"NN 	c #1E3672",
"ON 	c #264B95",
"PN 	c #4976BC",
"QN 	c #5B86C0",
"RN 	c #5C88C2",
"SN 	c #5E89C4",
"TN 	c #527AB5",
"UN 	c #507AB6",
"VN 	c #537DB8",
"WN 	c #7D9FC9",
"XN 	c #BDD4E3",
"YN 	c #CDDBE6",
"ZN 	c #CFDDE6",
"`N 	c #C1D7E4",
" O 	c #B7CFE0",
".O 	c #B4CDE0",
"+O 	c #B6CDE0",
"@O 	c #C5D6E4",
"#O 	c #D6E1E7",
"$O 	c #C9DAE5",
"%O 	c #B3D0E2",
"&O 	c #A9C9DD",
"*O 	c #A7C7DC",
"=O 	c #B8D0E1",
"-O 	c #D1DEE6",
";O 	c #C5D7E5",
">O 	c #81A5CF",
",O 	c #375EA4",
"'O 	c #274A95",
")O 	c #1C3F88",
"!O 	c #1B3D85",
"~O 	c #1A3B84",
"{O 	c #193A82",
"]O 	c #1A3980",
"^O 	c #1A397C",
"/O 	c #1A326E",
"(O 	c #616958",
"_O 	c #E5D72B",
":O 	c #F1E01E",
"<O 	c #EBDB2D",
"[O 	c #E2D635",
"}O 	c #E7DFAC",
"|O 	c #E8E3CB",
"1O 	c #EEE8CA",
"2O 	c #EDE7C7",
"3O 	c #E8E3C3",
"4O 	c #EAE4C4",
"5O 	c #E9E4C8",
"6O 	c #E8E2BE",
"7O 	c #EAE5C2",
"8O 	c #EBE5C2",
"9O 	c #E6E2CA",
"0O 	c #E2DC9F",
"aO 	c #E7D606",
"bO 	c #DED434",
"cO 	c #C6C579",
"dO 	c #BFBEA4",
"eO 	c #CACBBB",
"fO 	c #D5D0B8",
"gO 	c #CFD0C4",
"hO 	c #D0D3CC",
"iO 	c #D3D3C4",
"jO 	c #D5D5C8",
"kO 	c #D5D2BC",
"lO 	c #E0DBC0",
"mO 	c #DED8BC",
"nO 	c #DFD5AB",
"oO 	c #DDAD72",
"pO 	c #E76E1A",
"qO 	c #F46906",
"rO 	c #F66E06",
"sO 	c #F46908",
"tO 	c #F26B08",
"uO 	c #F07009",
"vO 	c #EF720C",
"wO 	c #EE8822",
"xO 	c #EACD12",
"yO 	c #EAD60A",
"zO 	c #EDD705",
"AO 	c #EAD508",
"BO 	c #EBD60F",
"CO 	c #F0D90B",
"DO 	c #F1D80F",
"EO 	c #E9D647",
"FO 	c #B1AC92",
"GO 	c #97998B",
"HO 	c #95978A",
"IO 	c #959789",
"JO 	c #929486",
"KO 	c #9A9886",
"LO 	c #9C9784",
"MO 	c #9D9B84",
"NO 	c #B6B5A0",
"OO 	c #DEDAC5",
"PO 	c #EAE5D0",
"QO 	c #EDE9D5",
"RO 	c #EAE6D2",
"SO 	c #EBE7CF",
"TO 	c #EDE7CC",
"UO 	c #EBE6CA",
"VO 	c #EFE9CD",
"WO 	c #EDE8CE",
"XO 	c #EBE6CB",
"YO 	c #E8E1C2",
"ZO 	c #E9E4C9",
"`O 	c #E8E3CA",
" P 	c #E6E2CC",
".P 	c #E4DEC4",
"+P 	c #DFD7B6",
"@P 	c #E3D884",
"#P 	c #F37D17",
"$P 	c #F95402",
"%P 	c #FA5502",
"&P 	c #F95201",
"*P 	c #F84A01",
"=P 	c #EF790E",
"-P 	c #EEDA1B",
";P 	c #F6E306",
">P 	c #F4E007",
",P 	c #F3E104",
"'P 	c #E5D943",
")P 	c #58604A",
"!P 	c #152842",
"~P 	c #102843",
"{P 	c #122B48",
"]P 	c #132A45",
"^P 	c #142443",
"/P 	c #10213D",
"(P 	c #0D2546",
"_P 	c #0E2F4D",
":P 	c #0F2B48",
"<P 	c #142742",
"[P 	c #162A46",
"}P 	c #122C4C",
"|P 	c #112748",
"1P 	c #162949",
"2P 	c #213356",
"3P 	c #233658",
"4P 	c #243553",
"5P 	c #1A2D4D",
"6P 	c #192C4A",
"7P 	c #1B3050",
"8P 	c #1A2E50",
"9P 	c #152D4D",
"0P 	c #192E4E",
"aP 	c #172A4A",
"bP 	c #182B4B",
"cP 	c #112A49",
"dP 	c #182D4C",
"eP 	c #0E245D",
"fP 	c #112762",
"gP 	c #112862",
"hP 	c #0F2B6D",
"iP 	c #18387E",
"jP 	c #203E85",
"kP 	c #23468E",
"lP 	c #4B78BB",
"mP 	c #618DC6",
"nP 	c #5D89C5",
"oP 	c #6490C8",
"pP 	c #84A7CF",
"qP 	c #BCD5E4",
"rP 	c #D9E4E9",
"sP 	c #C0D7E6",
"tP 	c #C6D9E5",
"uP 	c #AECEE1",
"vP 	c #A4C3DB",
"wP 	c #B5CFE0",
"xP 	c #D0DDE5",
"yP 	c #C2D6E4",
"zP 	c #89ABD1",
"AP 	c #3860A7",
"BP 	c #21448D",
"CP 	c #20428A",
"DP 	c #1B3E86",
"EP 	c #1A3C86",
"FP 	c #16367C",
"GP 	c #1B2E62",
"HP 	c #676752",
"IP 	c #E3C92C",
"JP 	c #E5CA27",
"KP 	c #E9D228",
"LP 	c #E9D02A",
"MP 	c #E2CD3B",
"NP 	c #E6DAA5",
"OP 	c #E5DBB2",
"PP 	c #E8DDA6",
"QP 	c #E8DEA4",
"RP 	c #E8DE9A",
"SP 	c #E9E0A7",
"TP 	c #E9E0AE",
"UP 	c #E8E0AD",
"VP 	c #E9E29D",
"WP 	c #E9DF9A",
"XP 	c #EADFA0",
"YP 	c #E5DBA0",
"ZP 	c #E2DBB2",
"`P 	c #E2D98D",
" Q 	c #DCD23D",
".Q 	c #CFC97F",
"+Q 	c #C4C0A2",
"@Q 	c #C7CABE",
"#Q 	c #D0CFBF",
"$Q 	c #D9D3B9",
"%Q 	c #D7D6C5",
"&Q 	c #D8D9CC",
"*Q 	c #DDD9C4",
"=Q 	c #E1DECC",
"-Q 	c #E0DAC1",
";Q 	c #E5DEC3",
">Q 	c #DED7B7",
",Q 	c #DDD4A4",
"'Q 	c #E1CE63",
")Q 	c #EAD42A",
"!Q 	c #EBCE1C",
"~Q 	c #EDD015",
"{Q 	c #EBCB26",
"]Q 	c #F0D314",
"^Q 	c #F0D20A",
"/Q 	c #F0D20C",
"(Q 	c #ECD946",
"_Q 	c #EBE1A6",
":Q 	c #EDE4B5",
"<Q 	c #ECE3B0",
"[Q 	c #ECE5B8",
"}Q 	c #EDE6BC",
"|Q 	c #EEE7C1",
"1Q 	c #ECE5C5",
"2Q 	c #E9D9B6",
"3Q 	c #E17B49",
"4Q 	c #E37D47",
"5Q 	c #EC7540",
"6Q 	c #EC712E",
"7Q 	c #ED752D",
"8Q 	c #F06725",
"9Q 	c #F27927",
"0Q 	c #ED882E",
"aQ 	c #E4D2AC",
"bQ 	c #EAE6D5",
"cQ 	c #EAE6D0",
"dQ 	c #E9E5CD",
"eQ 	c #E6E1C8",
"fQ 	c #EAE4CA",
"gQ 	c #EBE7D3",
"hQ 	c #EDE9D4",
"iQ 	c #E2DBBE",
"jQ 	c #E2DBBC",
"kQ 	c #DED7B9",
"lQ 	c #DFD7B7",
"mQ 	c #E5C388",
"nQ 	c #F27C2B",
"oQ 	c #F96703",
"pQ 	c #F95702",
"qQ 	c #F85702",
"rQ 	c #F17B0E",
"sQ 	c #F0D80F",
"tQ 	c #E7DA39",
"uQ 	c #4B5A49",
"vQ 	c #162E47",
"wQ 	c #133350",
"xQ 	c #112E4A",
"yQ 	c #122846",
"zQ 	c #122A45",
"AQ 	c #0F2A47",
"BQ 	c #112441",
"CQ 	c #0E223E",
"DQ 	c #10213F",
"EQ 	c #0E2746",
"FQ 	c #0D2F4D",
"GQ 	c #0B2E4F",
"HQ 	c #122542",
"IQ 	c #142643",
"JQ 	c #112645",
"KQ 	c #17294A",
"LQ 	c #233557",
"MQ 	c #213456",
"NQ 	c #1D2E50",
"OQ 	c #162C4C",
"PQ 	c #172A4B",
"QQ 	c #132A4A",
"RQ 	c #142A4B",
"SQ 	c #1C3351",
"TQ 	c #122746",
"UQ 	c #0F255D",
"VQ 	c #0F2761",
"WQ 	c #112967",
"XQ 	c #112E6F",
"YQ 	c #0D296A",
"ZQ 	c #0C2869",
"`Q 	c #0F2C6D",
" R 	c #142F71",
".R 	c #203F86",
"+R 	c #5F8AC3",
"@R 	c #5D89C3",
"#R 	c #5E8AC5",
"$R 	c #608CC7",
"%R 	c #83A6D0",
"&R 	c #DAE5E9",
"*R 	c #E6EAE7",
"=R 	c #BFD7E6",
"-R 	c #C7D9E5",
";R 	c #AAC9DF",
">R 	c #9EBDD9",
",R 	c #A3C3DB",
"'R 	c #B0CBDF",
")R 	c #CDDBE4",
"!R 	c #C9D9E5",
"~R 	c #8AACD1",
"{R 	c #385FA5",
"]R 	c #264993",
"^R 	c #20448D",
"/R 	c #1C3F89",
"(R 	c #1A3D87",
"_R 	c #1A3C84",
":R 	c #1C346F",
"<R 	c #202B52",
"[R 	c #704F42",
"}R 	c #F56A05",
"|R 	c #F76703",
"1R 	c #F76804",
"2R 	c #F96503",
"3R 	c #F96604",
"4R 	c #ECB83D",
"5R 	c #F4E325",
"6R 	c #F7E50D",
"7R 	c #F7E50A",
"8R 	c #F7E50F",
"9R 	c #F5E411",
"0R 	c #F1E10F",
"aR 	c #E6D82D",
"bR 	c #D2CC69",
"cR 	c #C4C190",
"dR 	c #CCC6A0",
"eR 	c #C8C4A4",
"fR 	c #CCCEC4",
"gR 	c #CECBB4",
"hR 	c #D9D5BF",
"iR 	c #D4D3C1",
"jR 	c #D5D3C2",
"kR 	c #E9E3C7",
"lR 	c #DED7B6",
"mR 	c #E4D886",
"nR 	c #E9D823",
"oR 	c #ECDB03",
"pR 	c #F1DD03",
"qR 	c #F3E004",
"rR 	c #F1DE06",
"sR 	c #EDDE4D",
"tR 	c #EEE7C5",
"uR 	c #EFECDA",
"vR 	c #EFEDDE",
"wR 	c #EAD5B8",
"xR 	c #FA6107",
"yR 	c #F6751E",
"zR 	c #EEDFC3",
"AR 	c #EEECDE",
"BR 	c #F1EEE0",
"CR 	c #E8E3CC",
"DR 	c #E2DFCA",
"ER 	c #E7E2C8",
"FR 	c #E5DFC4",
"GR 	c #EAE4CB",
"HR 	c #E7E4CF",
"IR 	c #F0EAD2",
"JR 	c #F1EBCE",
"KR 	c #E5DEC0",
"LR 	c #E3DCBD",
"MR 	c #E2DCBF",
"NR 	c #DDD7B9",
"OR 	c #D9D2B5",
"PR 	c #DEC098",
"QR 	c #F28429",
"RR 	c #F96803",
"SR 	c #FA5D02",
"TR 	c #F95602",
"UR 	c #F95001",
"VR 	c #F95802",
"WR 	c #F38D15",
"XR 	c #F0DB1F",
"YR 	c #F2E003",
"ZR 	c #F3E203",
"`R 	c #F1E006",
" S 	c #DFD442",
".S 	c #4F5D4F",
"+S 	c #1A344C",
"@S 	c #0E324E",
"#S 	c #0F314C",
"$S 	c #11314E",
"%S 	c #152A47",
"&S 	c #122945",
"*S 	c #0E2745",
"=S 	c #122642",
"-S 	c #0F2443",
";S 	c #0E2241",
">S 	c #102341",
",S 	c #0C304D",
"'S 	c #0C2C4D",
")S 	c #142543",
"!S 	c #182A47",
"~S 	c #152845",
"{S 	c #172949",
"]S 	c #1F3254",
"^S 	c #142949",
"/S 	c #122D4C",
"(S 	c #193454",
"_S 	c #193252",
":S 	c #182F4F",
"<S 	c #162848",
"[S 	c #172B4B",
"}S 	c #142B4B",
"|S 	c #0F2949",
"1S 	c #102543",
"2S 	c #0B2240",
"3S 	c #122864",
"4S 	c #0E2966",
"5S 	c #102C6C",
"6S 	c #132F72",
"7S 	c #1C397F",
"8S 	c #1D3D84",
"9S 	c #244892",
"0S 	c #517EC1",
"aS 	c #5D8AC6",
"bS 	c #5D8AC7",
"cS 	c #638FC8",
"dS 	c #6490C9",
"eS 	c #8DAFD3",
"fS 	c #C6D7E4",
"gS 	c #D5E1E8",
"hS 	c #E4E9E7",
"iS 	c #D4E1E7",
"jS 	c #C7D9E6",
"kS 	c #A8C8DE",
"lS 	c #9FBEDA",
"mS 	c #ACC9DF",
"nS 	c #CCDAE5",
"oS 	c #97B2D2",
"pS 	c #375FA6",
"qS 	c #264994",
"rS 	c #22458E",
"sS 	c #21448E",
"tS 	c #1D418B",
"uS 	c #1C4088",
"vS 	c #1B3D86",
"wS 	c #1A3B82",
"xS 	c #1C3069",
"yS 	c #212D54",
"zS 	c #613230",
"AS 	c #F96202",
"BS 	c #F2B10B",
"CS 	c #F1E003",
"DS 	c #E6D717",
"ES 	c #CAC665",
"FS 	c #C5C19D",
"GS 	c #CDC8A5",
"HS 	c #D0CAAA",
"IS 	c #C9C6AE",
"JS 	c #C8C8B7",
"KS 	c #CFCCB7",
"LS 	c #D9D6C2",
"MS 	c #DDDAC6",
"NS 	c #E6E2CB",
"OS 	c #E7E1C8",
"PS 	c #E6E0C4",
"QS 	c #E2DBBD",
"RS 	c #DCD5B4",
"SS 	c #E5DA7F",
"TS 	c #E8DB20",
"US 	c #ECDC07",
"VS 	c #F1DF14",
"WS 	c #F1DF04",
"XS 	c #EEDC03",
"YS 	c #EBDD44",
"ZS 	c #EEE9D5",
"`S 	c #EEE9D6",
" T 	c #F0EAD6",
".T 	c #F0EBD8",
"+T 	c #EAD3B3",
"@T 	c #FA6006",
"#T 	c #F57620",
"$T 	c #EEE0C4",
"%T 	c #F3F1E1",
"&T 	c #EBE6D2",
"*T 	c #E2DDC5",
"=T 	c #E4DFC7",
"-T 	c #E1DDC6",
";T 	c #E2DEC8",
">T 	c #E8E4CE",
",T 	c #E9E5D1",
"'T 	c #E9E5D2",
")T 	c #EDE8D0",
"!T 	c #EBE5C9",
"~T 	c #E6DFC1",
"{T 	c #E6E0C2",
"]T 	c #DBD5B8",
"^T 	c #D3CEB3",
"/T 	c #D4CEB2",
"(T 	c #E0CDA1",
"_T 	c #EC9A44",
":T 	c #F47D0D",
"<T 	c #EFD914",
"[T 	c #EFDF08",
"}T 	c #DDD34A",
"|T 	c #45584F",
"1T 	c #16344F",
"2T 	c #10304D",
"3T 	c #0F314D",
"4T 	c #0E2F4C",
"5T 	c #112E4C",
"6T 	c #102944",
"7T 	c #0F2642",
"8T 	c #102844",
"9T 	c #0D2341",
"0T 	c #0D203E",
"aT 	c #0E2B4A",
"bT 	c #0D2A4A",
"cT 	c #122543",
"dT 	c #122440",
"eT 	c #0F233F",
"fT 	c #132847",
"gT 	c #182C4D",
"hT 	c #192D4D",
"iT 	c #1A2F51",
"jT 	c #193050",
"kT 	c #172F4F",
"lT 	c #163050",
"mT 	c #142D4C",
"nT 	c #162C4D",
"oT 	c #102646",
"pT 	c #132A4B",
"qT 	c #132D4C",
"rT 	c #102C4B",
"sT 	c #102849",
"tT 	c #122948",
"uT 	c #0C2442",
"vT 	c #0C213F",
"wT 	c #182944",
"xT 	c #112A66",
"yT 	c #0D2867",
"zT 	c #183271",
"AT 	c #163272",
"BT 	c #1D3775",
"CT 	c #1E3D84",
"DT 	c #204087",
"ET 	c #294E96",
"FT 	c #507DC1",
"GT 	c #5C89C7",
"HT 	c #628EC8",
"IT 	c #618DC7",
"JT 	c #6591C9",
"KT 	c #6E97CB",
"LT 	c #6F97CB",
"MT 	c #97B8D7",
"NT 	c #BDD6E5",
"OT 	c #B9D5E6",
"PT 	c #BED6E6",
"QT 	c #DCE5E8",
"RT 	c #D4E0E7",
"ST 	c #B2D3E6",
"TT 	c #ABCCE1",
"UT 	c #A1C1DB",
"VT 	c #A2C2DB",
"WT 	c #AECBDE",
"XT 	c #CDDAE2",
"YT 	c #D0DCE2",
"ZT 	c #98B4D3",
"`T 	c #365EA6",
" U 	c #284C97",
".U 	c #204288",
"+U 	c #1B397D",
"@U 	c #1D3978",
"#U 	c #1A2E63",
"$U 	c #1D2D5D",
"%U 	c #63353B",
"&U 	c #FA6203",
"*U 	c #F0B80D",
"=U 	c #EEDE03",
"-U 	c #E5D619",
";U 	c #D6CD5A",
">U 	c #CBC59B",
",U 	c #C7C3A4",
"'U 	c #CBC7AB",
")U 	c #D8D2BA",
"!U 	c #CDCAB5",
"~U 	c #CDCCB8",
"{U 	c #D1CFBB",
"]U 	c #D6D4C1",
"^U 	c #DAD7C2",
"/U 	c #DDD9C2",
"(U 	c #E2DDC3",
"_U 	c #E6E0C6",
":U 	c #E6DFC3",
"<U 	c #E5DFC2",
"[U 	c #E1DAB9",
"}U 	c #E3D778",
"|U 	c #E8D719",
"1U 	c #EDDD06",
"2U 	c #F2E210",
"3U 	c #F4E203",
"4U 	c #EFDE05",
"5U 	c #F1E00B",
"6U 	c #EFE047",
"7U 	c #EAE2C1",
"8U 	c #F0EBD6",
"9U 	c #EDEBDC",
"0U 	c #E9DDBE",
"aU 	c #F8640F",
"bU 	c #F66509",
"cU 	c #ECDEC3",
"dU 	c #F1ECD7",
"eU 	c #DFDBC2",
"fU 	c #E1DDC7",
"gU 	c #E6E2CE",
"hU 	c #ECE7CF",
"iU 	c #ECE6CA",
"jU 	c #E8E2C3",
"kU 	c #E5DEBF",
"lU 	c #DAD4B6",
"mU 	c #D6D0B3",
"nU 	c #CEC9AE",
"oU 	c #D7D0B5",
"pU 	c #D7D2B8",
"qU 	c #DACDAB",
"rU 	c #ED8758",
"sU 	c #F48810",
"tU 	c #EFDD21",
"uU 	c #F3DF03",
"vU 	c #F3E204",
"wU 	c #D6CE3E",
"xU 	c #41544E",
"yU 	c #223C55",
"zU 	c #13314A",
"AU 	c #11304B",
"BU 	c #0F2E4C",
"CU 	c #0E2E4C",
"DU 	c #112A48",
"EU 	c #102542",
"FU 	c #162F4B",
"GU 	c #112B49",
"HU 	c #102948",
"IU 	c #0D2745",
"JU 	c #0C2444",
"KU 	c #112C4B",
"LU 	c #122747",
"MU 	c #142745",
"NU 	c #132643",
"OU 	c #172B47",
"PU 	c #1A304D",
"QU 	c #13304F",
"RU 	c #1D3455",
"SU 	c #182D4E",
"TU 	c #112949",
"UU 	c #13294A",
"VU 	c #0D2343",
"WU 	c #0D2948",
"XU 	c #0C2C4A",
"YU 	c #0E2A49",
"ZU 	c #102949",
"`U 	c #0B2440",
" V 	c #0C2341",
".V 	c #142B61",
"+V 	c #142B64",
"@V 	c #0F2863",
"#V 	c #122C6B",
"$V 	c #132C6A",
"%V 	c #1B377A",
"&V 	c #1F3E84",
"*V 	c #294E98",
"=V 	c #5480C1",
"-V 	c #5583C4",
";V 	c #5280C2",
">V 	c #5A87C5",
",V 	c #6692C9",
"'V 	c #799ECE",
")V 	c #9BBAD9",
"!V 	c #B5D3E6",
"~V 	c #B4D3E6",
"{V 	c #AED0E4",
"]V 	c #D8E4E9",
"^V 	c #E3E9E7",
"/V 	c #CCDCE7",
"(V 	c #C2D8E6",
"_V 	c #B1D3E6",
":V 	c #AACCE1",
"<V 	c #9DBCD9",
"[V 	c #ABC8DD",
"}V 	c #CDDBE5",
"|V 	c #CFDADF",
"1V 	c #98B3D2",
"2V 	c #284C96",
"3V 	c #254891",
"4V 	c #1E4087",
"5V 	c #1D3C83",
"6V 	c #1C3776",
"7V 	c #183272",
"8V 	c #1C3673",
"9V 	c #523242",
"0V 	c #F76304",
"aV 	c #F0BD0D",
"bV 	c #EFDE03",
"cV 	c #E6D520",
"dV 	c #CFC764",
"eV 	c #C6C297",
"fV 	c #C6C1A1",
"gV 	c #C8C5AB",
"hV 	c #D0CCB5",
"iV 	c #D1CEB9",
"jV 	c #C9C6B3",
"kV 	c #CDCBB7",
"lV 	c #D0CCB6",
"mV 	c #CFCCB8",
"nV 	c #DDDAC5",
"oV 	c #E0DCC5",
"pV 	c #DED9C0",
"qV 	c #E5E0C7",
"rV 	c #E8E2C8",
"sV 	c #E5DFC7",
"tV 	c #E2DABD",
"uV 	c #E5D870",
"vV 	c #EBDA0D",
"wV 	c #ECDB07",
"xV 	c #F3E31A",
"yV 	c #F1E20B",
"zV 	c #F1E005",
"AV 	c #F4E516",
"BV 	c #EFE144",
"CV 	c #EAE3C3",
"DV 	c #EFEAD8",
"EV 	c #F1EBD6",
"FV 	c #EBD7BD",
"GV 	c #F75E07",
"HV 	c #EBDEBE",
"IV 	c #F1EBD7",
"JV 	c #ECE6CF",
"KV 	c #E5E1CB",
"LV 	c #E4E0CA",
"MV 	c #E3E0C9",
"NV 	c #E4E1CD",
"OV 	c #E8E5D0",
"PV 	c #E8E1C0",
"QV 	c #DDD6B4",
"RV 	c #D8D1B2",
"SV 	c #D9D2B4",
"TV 	c #D8D1B5",
"UV 	c #D8D2B4",
"VV 	c #DAD3B4",
"WV 	c #EF8E58",
"XV 	c #F75602",
"YV 	c #F4880E",
"ZV 	c #EFDA18",
"`V 	c #F3E103",
" W 	c #D9D053",
".W 	c #3F4F59",
"+W 	c #233A52",
"@W 	c #18334B",
"#W 	c #14304A",
"$W 	c #10314E",
"%W 	c #0E2846",
"&W 	c #132C47",
"*W 	c #112F4E",
"=W 	c #0F2948",
"-W 	c #0C2643",
";W 	c #0E213E",
">W 	c #182A45",
",W 	c #182C49",
"'W 	c #1B3150",
")W 	c #1B2F4E",
"!W 	c #152A48",
"~W 	c #132F4D",
"{W 	c #142D4D",
"]W 	c #102748",
"^W 	c #102545",
"/W 	c #0F2747",
"(W 	c #0C2544",
"_W 	c #0B2442",
":W 	c #0E2B49",
"<W 	c #0A2444",
"[W 	c #0F2544",
"}W 	c #0B2342",
"|W 	c #0C2746",
"1W 	c #0D2643",
"2W 	c #0C2441",
"3W 	c #0F2340",
"4W 	c #152944",
"5W 	c #11275B",
"6W 	c #102863",
"7W 	c #102864",
"8W 	c #112A67",
"9W 	c #112C6C",
"0W 	c #1C3D86",
"aW 	c #1F3F86",
"bW 	c #264A94",
"cW 	c #5C88C4",
"dW 	c #5986C6",
"eW 	c #5885C4",
"fW 	c #6793CA",
"gW 	c #6893CA",
"hW 	c #9EBCD9",
"iW 	c #AFD2E6",
"jW 	c #ADCFE3",
"kW 	c #B5D4E6",
"lW 	c #CFDEE7",
"mW 	c #CBDBE6",
"nW 	c #BBD5E6",
"oW 	c #B6D4E6",
"pW 	c #ADCDE1",
"qW 	c #A0C0DA",
"rW 	c #B2CDE0",
"sW 	c #CEDAE2",
"tW 	c #CDD7DB",
"uW 	c #99B5D5",
"vW 	c #3962A9",
"wW 	c #2A4E99",
"xW 	c #234790",
"yW 	c #20438B",
"zW 	c #1F428B",
"AW 	c #1E4188",
"BW 	c #1D3F86",
"CW 	c #1E3A77",
"DW 	c #1D3876",
"EW 	c #1D3976",
"FW 	c #1E326A",
"GW 	c #3C3141",
"HW 	c #F26508",
"IW 	c #F1BD0C",
"JW 	c #F2E103",
"KW 	c #E4D522",
"LW 	c #C9C47D",
"MW 	c #C3C2A9",
"NW 	c #C1C0AA",
"OW 	c #C0BFA9",
"PW 	c #C4C6B6",
"QW 	c #CCCCBC",
"RW 	c #C8C9B9",
"SW 	c #CFCFBF",
"TW 	c #CFCDBA",
"UW 	c #D8D3BB",
"VW 	c #D9D7C3",
"WW 	c #DAD8C4",
"XW 	c #E3E0CC",
"YW 	c #E1DDC8",
"ZW 	c #E3DEC7",
"`W 	c #E4DFC8",
" X 	c #E4DEC8",
".X 	c #E5E0C5",
"+X 	c #E6D96F",
"@X 	c #EFDF0D",
"#X 	c #F2E117",
"$X 	c #F1E108",
"%X 	c #F1E10B",
"&X 	c #F4E51A",
"*X 	c #F1E233",
"=X 	c #F1EBD5",
"-X 	c #EBDAC1",
";X 	c #FA5B05",
">X 	c #F55907",
",X 	c #E7D7B5",
"'X 	c #EBE4C9",
")X 	c #EEE8D1",
"!X 	c #EFE9D1",
"~X 	c #EEE8D2",
"{X 	c #E7E2CD",
"]X 	c #E4E0CC",
"^X 	c #E3E0CB",
"/X 	c #E1DFCB",
"(X 	c #E5E2CF",
"_X 	c #E3DFCB",
":X 	c #E0DBC3",
"<X 	c #E3DEC2",
"[X 	c #DCD7BA",
"}X 	c #DAD4B4",
"|X 	c #DAD3AE",
"1X 	c #D7D0B1",
"2X 	c #D7D1B6",
"3X 	c #D7D2B7",
"4X 	c #D9D1B5",
"5X 	c #EF8C55",
"6X 	c #F4820E",
"7X 	c #F3DE13",
"8X 	c #F3E002",
"9X 	c #EFDF03",
"0X 	c #D2CB49",
"aX 	c #5E665E",
"bX 	c #384C5C",
"cX 	c #2D4051",
"dX 	c #1C344A",
"eX 	c #15324D",
"fX 	c #102B49",
"gX 	c #11304E",
"hX 	c #122F4B",
"iX 	c #0D2D4A",
"jX 	c #0B2545",
"kX 	c #0B2241",
"lX 	c #102745",
"mX 	c #152846",
"nX 	c #182947",
"oX 	c #132542",
"pX 	c #0D203D",
"qX 	c #092241",
"rX 	c #0C1F3F",
"sX 	c #0B2343",
"tX 	c #0B2645",
"uX 	c #0C2848",
"vX 	c #0D2746",
"wX 	c #0B2341",
"xX 	c #0C2443",
"yX 	c #0D2645",
"zX 	c #0A223F",
"AX 	c #0F2659",
"BX 	c #10285F",
"CX 	c #0B2661",
"DX 	c #0F2763",
"EX 	c #0E2967",
"FX 	c #1A336F",
"GX 	c #1B397F",
"HX 	c #17387E",
"IX 	c #193B85",
"JX 	c #5985C2",
"KX 	c #5886C5",
"LX 	c #5985C3",
"MX 	c #608CC8",
"NX 	c #6792C9",
"OX 	c #98B9D8",
"PX 	c #B4D3E5",
"QX 	c #BED5E4",
"RX 	c #B5D0E2",
"SX 	c #AFCFE2",
"TX 	c #A3C2DB",
"UX 	c #BAD1E1",
"VX 	c #D3DFE3",
"WX 	c #D5DFE2",
"XX 	c #D4DEE0",
"YX 	c #A5BBD4",
"ZX 	c #3C64AA",
"`X 	c #22458D",
" Y 	c #1F4189",
".Y 	c #1C3E87",
"+Y 	c #1D3B7C",
"@Y 	c #1F3C7D",
"#Y 	c #1F3B7A",
"$Y 	c #1C3775",
"%Y 	c #1F3065",
"&Y 	c #3E3241",
"*Y 	c #ED5F07",
"=Y 	c #EEB310",
"-Y 	c #F0DF02",
";Y 	c #E6D616",
">Y 	c #CBC670",
",Y 	c #C2C3B0",
"'Y 	c #BFBFAC",
")Y 	c #BDBDAC",
"!Y 	c #BDBDAB",
"~Y 	c #C8C9C7",
"{Y 	c #CCCFC7",
"]Y 	c #CDD0C8",
"^Y 	c #CECEBF",
"/Y 	c #D5D3C0",
"(Y 	c #D7D3BE",
"_Y 	c #DAD5BF",
":Y 	c #DDD9C3",
"<Y 	c #D8D6C2",
"[Y 	c #DDDAC7",
"}Y 	c #E4E0CB",
"|Y 	c #E3DFCA",
"1Y 	c #E5DEC7",
"2Y 	c #E4DDC0",
"3Y 	c #E3DCBF",
"4Y 	c #EEDD05",
"5Y 	c #F1DF03",
"6Y 	c #F2E20E",
"7Y 	c #F2E213",
"8Y 	c #F4E521",
"9Y 	c #F1E124",
"0Y 	c #F0EAD7",
"aY 	c #F3EDD7",
"bY 	c #ECE9D9",
"cY 	c #E7D4B7",
"dY 	c #F85804",
"eY 	c #F35909",
"fY 	c #C8B99F",
"gY 	c #BFBFB0",
"hY 	c #BFC0B3",
"iY 	c #C8C8BD",
"jY 	c #C9CABD",
"kY 	c #D7D5C5",
"lY 	c #EAE4C9",
"mY 	c #E8E4CD",
"nY 	c #DDDBC7",
"oY 	c #E1DEC8",
"pY 	c #E2DDC4",
"qY 	c #E1DBC0",
"rY 	c #DBD5B9",
"sY 	c #DCD7BC",
"tY 	c #D8D1AE",
"uY 	c #D8D2B6",
"vY 	c #D4D0B7",
"wY 	c #D6D0B7",
"xY 	c #D8D2B7",
"yY 	c #EB8D5D",
"zY 	c #F28310",
"AY 	c #F2DF1D",
"BY 	c #F3E005",
"CY 	c #F3DF02",
"DY 	c #F0DF04",
"EY 	c #D8D04A",
"FY 	c #858B7E",
"GY 	c #586A74",
"HY 	c #354959",
"IY 	c #273D50",
"JY 	c #172F4A",
"KY 	c #162F4C",
"LY 	c #102848",
"MY 	c #0E2947",
"NY 	c #152B49",
"OY 	c #0F2645",
"PY 	c #0E2442",
"QY 	c #0C213E",
"RY 	c #0E2542",
"SY 	c #10243F",
"TY 	c #142C49",
"UY 	c #0B2643",
"VY 	c #0C213C",
"WY 	c #0D213E",
"XY 	c #0B213D",
"YY 	c #0E1F3B",
"ZY 	c #0C1D39",
"`Y 	c #0D2C4A",
" Z 	c #0C2B4A",
".Z 	c #0C2A48",
"+Z 	c #0D2C49",
"@Z 	c #0D2A48",
"#Z 	c #172945",
"$Z 	c #12275E",
"%Z 	c #0F2864",
"&Z 	c #0C2662",
"*Z 	c #0D2664",
"=Z 	c #0D2767",
"-Z 	c #112C6B",
";Z 	c #1D3F87",
">Z 	c #4D79BD",
",Z 	c #4975B9",
"'Z 	c #4C76B5",
")Z 	c #5B85BF",
"!Z 	c #5A85BE",
"~Z 	c #5C86BE",
"{Z 	c #91B2D2",
"]Z 	c #C7D7E4",
"^Z 	c #B3D3E6",
"/Z 	c #ADCFE4",
"(Z 	c #A7C7DF",
"_Z 	c #B0D2E6",
":Z 	c #AFD0E4",
"<Z 	c #AACBE1",
"[Z 	c #ABCDE1",
"}Z 	c #C4D9E5",
"|Z 	c #D7E1E5",
"1Z 	c #D7E1E4",
"2Z 	c #D9E0DD",
"3Z 	c #B3C4D5",
"4Z 	c #3D67AD",
"5Z 	c #21458E",
"6Z 	c #1A3E87",
"7Z 	c #1A3D86",
"8Z 	c #1C3C81",
"9Z 	c #1D3A7A",
"0Z 	c #38272D",
"aZ 	c #DE5C0F",
"bZ 	c #F36306",
"cZ 	c #F16007",
"dZ 	c #F55F03",
"eZ 	c #F56406",
"fZ 	c #E9A414",
"gZ 	c #E9D711",
"hZ 	c #EBD911",
"iZ 	c #E9DB11",
"jZ 	c #E4D60A",
"kZ 	c #DCCF1A",
"lZ 	c #D9CF29",
"mZ 	c #CEC85E",
"nZ 	c #B7B59C",
"oZ 	c #B9BAAB",
"pZ 	c #B7B7A6",
"qZ 	c #BABDB0",
"rZ 	c #C8CAC1",
"sZ 	c #CED2C9",
"tZ 	c #CFD2C8",
"uZ 	c #DAD8C5",
"vZ 	c #DEDAC4",
"wZ 	c #DBD7C1",
"xZ 	c #D9D2B1",
"yZ 	c #DBD3B1",
"zZ 	c #DFD5B3",
"AZ 	c #E0DABF",
"BZ 	c #E5DDC0",
"CZ 	c #E0D7B5",
"DZ 	c #E3D5AE",
"EZ 	c #E8D95A",
"FZ 	c #EFDC04",
"GZ 	c #EDD903",
"HZ 	c #EEDC06",
"IZ 	c #F2E108",
"JZ 	c #F4E51B",
"KZ 	c #F3E328",
"LZ 	c #EDE5B8",
"MZ 	c #F2EEDC",
"NZ 	c #EFEAD7",
"OZ 	c #ECE7D5",
"PZ 	c #ECEADB",
"QZ 	c #ECD8BB",
"RZ 	c #F95804",
"SZ 	c #F85802",
"TZ 	c #F3641B",
"UZ 	c #B3AF99",
"VZ 	c #AAAEAA",
"WZ 	c #B0B3AC",
"XZ 	c #B6B8B3",
"YZ 	c #B2B5AC",
"ZZ 	c #D0D0C0",
"`Z 	c #EEE8CC",
" ` 	c #DEDBC5",
".` 	c #E3DFC9",
"+` 	c #E1DCC3",
"@` 	c #DFD9BB",
"#` 	c #DFD9BC",
"$` 	c #D9D4BA",
"%` 	c #DDD7BC",
"&` 	c #DAD4B9",
"*` 	c #D8D3B7",
"=` 	c #D8D0B2",
"-` 	c #EA9060",
";` 	c #F2810F",
">` 	c #F4E115",
",` 	c #F3E20A",
"'` 	c #DACF55",
")` 	c #9EA08D",
"!` 	c #888D82",
"~` 	c #64737B",
"{` 	c #395067",
"]` 	c #203A58",
"^` 	c #0F2E49",
"/` 	c #142B48",
"(` 	c #162946",
"_` 	c #0C2342",
":` 	c #0B213F",
"<` 	c #0E2645",
"[` 	c #0C2948",
"}` 	c #0D2847",
"|` 	c #0E223F",
"1` 	c #0F2846",
"2` 	c #0E203D",
"3` 	c #0C1F3B",
"4` 	c #0E203C",
"5` 	c #0C1E39",
"6` 	c #0D1D3C",
"7` 	c #0E1E3A",
"8` 	c #0D2444",
"9` 	c #102544",
"0` 	c #0C2545",
"a` 	c #0C2542",
"b` 	c #0A2545",
"c` 	c #0A2343",
"d` 	c #09203F",
"e` 	c #0A2140",
"f` 	c #142440",
"g` 	c #0C255B",
"h` 	c #0F265D",
"i` 	c #0F2760",
"j` 	c #0D2663",
"k` 	c #122860",
"l` 	c #507AB7",
"m` 	c #446DAE",
"n` 	c #436CAD",
"o` 	c #466CAB",
"p` 	c #4770AF",
"q` 	c #85A4C7",
"r` 	c #C9D8E4",
"s` 	c #AFD0E3",
"t` 	c #ADD0E4",
"u` 	c #A9CBE0",
"v` 	c #A4C4DC",
"w` 	c #A9CAE1",
"x` 	c #B7D4E6",
"y` 	c #B8D4E6",
"z` 	c #C8DCE7",
"A` 	c #DBE4E5",
"B` 	c #E0E4DC",
"C` 	c #BECBD5",
"D` 	c #416AAF",
"E` 	c #294C97",
"F` 	c #1E428B",
"G` 	c #1B3F88",
"H` 	c #1D3E84",
"I` 	c #1A3A7E",
"J` 	c #1C2D5D",
"K` 	c #1F2B49",
"L` 	c #382E3C",
"M` 	c #4D3637",
"N` 	c #5E3C37",
"O` 	c #503533",
"P` 	c #4E3436",
"Q` 	c #4F4A3A",
"R` 	c #586042",
"S` 	c #656C46",
"T` 	c #5D6841",
"U` 	c #596652",
"V` 	c #899182",
"W` 	c #A6A99E",
"X` 	c #ADAFA4",
"Y` 	c #B0B2A9",
"Z` 	c #B8BAAD",
"`` 	c #B0B2A4",
"  .	c #BABCB1",
". .	c #CACDC3",
"+ .	c #D4D6CB",
"@ .	c #E0DECB",
"# .	c #E2DCC6",
"$ .	c #D8D1BA",
"% .	c #E0AD8A",
"& .	c #E3A27A",
"* .	c #E7A37A",
"= .	c #E99B6B",
"- .	c #E9A079",
"; .	c #E89C72",
"> .	c #E99F73",
", .	c #EAA778",
"' .	c #ECC24C",
") .	c #EBDA03",
"! .	c #F3E20F",
"~ .	c #F5E513",
"{ .	c #F5E622",
"] .	c #F4E51C",
"^ .	c #F5E418",
"/ .	c #EDE5B6",
"( .	c #EDEADB",
"_ .	c #EEECDD",
": .	c #EAE3C4",
"< .	c #F0BF30",
"[ .	c #F3BC1D",
"} .	c #F2BE1F",
"| .	c #F3C019",
"1 .	c #F3BD1E",
"2 .	c #F1BC21",
"3 .	c #EEB721",
"4 .	c #EAB92E",
"5 .	c #ADA98E",
"6 .	c #A3A9AB",
"7 .	c #ADB0AB",
"8 .	c #B3B6AE",
"9 .	c #B5B8B1",
"0 .	c #D9D7C7",
"a .	c #F1EACE",
"b .	c #EDE7C4",
"c .	c #E7E0BB",
"d .	c #DFDAC1",
"e .	c #DCD7BE",
"f .	c #DAD4BA",
"g .	c #D7D1B7",
"h .	c #D6D1B5",
"i .	c #DAD5B9",
"j .	c #D9D3B7",
"k .	c #EA9368",
"l .	c #F28810",
"m .	c #F2E00F",
"n .	c #F5E104",
"o .	c #F4DF03",
"p .	c #F0DE03",
"q .	c #D4CB49",
"r .	c #9C9C89",
"s .	c #9D9E8A",
"t .	c #949786",
"u .	c #748084",
"v .	c #415973",
"w .	c #223B5A",
"x .	c #192E48",
"y .	c #132B46",
"z .	c #122541",
"A .	c #0B2441",
"B .	c #0F2C4A",
"C .	c #0E2847",
"D .	c #172F4C",
"E .	c #10223F",
"F .	c #0D213F",
"G .	c #122442",
"H .	c #0F203C",
"I .	c #0D1C38",
"J .	c #0F1C38",
"K .	c #0D1B37",
"L .	c #0B1B36",
"M .	c #0E1D39",
"N .	c #0A1A36",
"O .	c #0D1A35",
"P .	c #0E1E3B",
"Q .	c #0C1E3C",
"R .	c #091C3A",
"S .	c #0A213F",
"T .	c #0B1F3E",
"U .	c #172340",
"V .	c #122960",
"W .	c #112B69",
"X .	c #142964",
"Y .	c #1C3674",
"Z .	c #173982",
"` .	c #1B3D87",
" ..	c #507AB8",
"...	c #3E68AC",
"+..	c #3862A9",
"@..	c #3E67AB",
"#..	c #3F68AC",
"$..	c #3F67AB",
"%..	c #456CAB",
"&..	c #96B0CA",
"*..	c #C9D9E4",
"=..	c #B5D3E5",
"-..	c #99B8D7",
";..	c #9CBBD8",
">..	c #ADCDE2",
",..	c #BED6E5",
"'..	c #BDD6E6",
")..	c #C7DAE7",
"!..	c #D7E1E3",
"~..	c #D8E0E0",
"{..	c #C7D0D8",
"]..	c #294D98",
"^..	c #193C84",
"/..	c #193B83",
"(..	c #1B3C82",
"_..	c #182A54",
":..	c #182A56",
"<..	c #212D50",
"[..	c #233150",
"}..	c #5F6C7D",
"|..	c #9DA4A5",
"1..	c #A7ABA3",
"2..	c #B0B2AC",
"3..	c #B1B4AB",
"4..	c #AEB1AA",
"5..	c #B5B8AE",
"6..	c #BEBFB1",
"7..	c #CDD0C6",
"8..	c #D2D5CC",
"9..	c #DADBCD",
"0..	c #E0DDCB",
"a..	c #E0DCC6",
"b..	c #DED9C4",
"c..	c #E0D2B6",
"d..	c #EE6422",
"e..	c #F3A607",
"f..	c #F0DB03",
"g..	c #ECDB04",
"h..	c #F4E415",
"i..	c #F6E50E",
"j..	c #F5E621",
"k..	c #F4E417",
"l..	c #ECE4B0",
"m..	c #F3EED8",
"n..	c #EEE7C4",
"o..	c #F1E24A",
"p..	c #F7E40A",
"q..	c #F5E51D",
"r..	c #EEE049",
"s..	c #ACAB8A",
"t..	c #A8ADAB",
"u..	c #B0B3AB",
"v..	c #B3B6AC",
"w..	c #DAD7C0",
"x..	c #DBD6BE",
"y..	c #DFD9BF",
"z..	c #DDD8BF",
"A..	c #E2DEC5",
"B..	c #DBD6BA",
"C..	c #D9D3B8",
"D..	c #D3CCAD",
"E..	c #E78655",
"F..	c #F18B15",
"G..	c #F1E017",
"H..	c #D6C945",
"I..	c #9C9B84",
"J..	c #9B9E8B",
"K..	c #9B9D8B",
"L..	c #949788",
"M..	c #7A8587",
"N..	c #445669",
"O..	c #1E3853",
"P..	c #172F48",
"Q..	c #122844",
"R..	c #152C47",
"S..	c #112742",
"T..	c #122B49",
"U..	c #122A47",
"V..	c #172C47",
"W..	c #152841",
"X..	c #11233D",
"Y..	c #0E213F",
"Z..	c #11233F",
"`..	c #10203B",
" +.	c #0F1F3C",
".+.	c #0E1C37",
"++.	c #0C1E3A",
"@+.	c #0D1E39",
"#+.	c #0C1C39",
"$+.	c #0F1D37",
"%+.	c #0E182D",
"&+.	c #0D1A36",
"*+.	c #101B35",
"=+.	c #0F1A34",
"-+.	c #101C37",
";+.	c #0C1F3E",
">+.	c #0E203F",
",+.	c #0D1E3B",
"'+.	c #18223E",
")+.	c #0D255C",
"!+.	c #10265D",
"~+.	c #10275F",
"{+.	c #132A64",
"]+.	c #0D2766",
"^+.	c #0F2868",
"/+.	c #142B68",
"(+.	c #172C67",
"_+.	c #162C69",
":+.	c #1C3E85",
"<+.	c #1A3C85",
"[+.	c #1F4188",
"}+.	c #527CB8",
"|+.	c #426AAC",
"1+.	c #3C65AA",
"2+.	c #3B64AA",
"3+.	c #3F67AA",
"4+.	c #A1B8CE",
"5+.	c #C9D8E2",
"6+.	c #C7D7E2",
"7+.	c #C8D9E4",
"8+.	c #ACCDE1",
"9+.	c #ACCEE2",
"0+.	c #A8C9DF",
"a+.	c #98B6D7",
"b+.	c #99B7D7",
"c+.	c #A9C9E1",
"d+.	c #BCD5E6",
"e+.	c #C4D9E6",
"f+.	c #D5E0E5",
"g+.	c #D1DDE3",
"h+.	c #D1DBDE",
"i+.	c #C2CDD3",
"j+.	c #4169AA",
"k+.	c #21458F",
"l+.	c #1A3F89",
"m+.	c #1C3D84",
"n+.	c #1F3876",
"o+.	c #1F3774",
"p+.	c #192750",
"q+.	c #212A4A",
"r+.	c #232E4E",
"s+.	c #222D45",
"t+.	c #303E50",
"u+.	c #8A939B",
"v+.	c #ABAFAB",
"w+.	c #ADB0AA",
"x+.	c #B8BBB1",
"y+.	c #BFC2B6",
"z+.	c #D3D2C2",
"A+.	c #CED2C8",
"B+.	c #DFDED0",
"C+.	c #E1DFCD",
"D+.	c #E0DCCA",
"E+.	c #E1DDCA",
"F+.	c #E3D9BD",
"G+.	c #F25D0E",
"H+.	c #F2A408",
"I+.	c #F4DE02",
"J+.	c #EEDD0C",
"K+.	c #F4E51F",
"L+.	c #F4E519",
"M+.	c #EEE394",
"N+.	c #F3EED9",
"O+.	c #F3E336",
"P+.	c #F7E503",
"Q+.	c #F3E531",
"R+.	c #B0B086",
"S+.	c #B8B9AE",
"T+.	c #E7E2C6",
"U+.	c #F1EBCD",
"V+.	c #EEE7C8",
"W+.	c #E6E1C6",
"X+.	c #E0DAC3",
"Y+.	c #E3DDC1",
"Z+.	c #DED8BB",
"`+.	c #DDD9C0",
" @.	c #DED9BE",
".@.	c #D9D3B6",
"+@.	c #D4CFB6",
"@@.	c #D1CCB2",
"#@.	c #E7925D",
"$@.	c #FA5802",
"%@.	c #F84D01",
"&@.	c #F18511",
"*@.	c #F2E018",
"=@.	c #F2DE03",
"-@.	c #D1C648",
";@.	c #9A9A82",
">@.	c #9A9D89",
",@.	c #999C89",
"'@.	c #9B9C87",
")@.	c #959A8C",
"!@.	c #707F8B",
"~@.	c #3B4F64",
"{@.	c #19344F",
"]@.	c #192E47",
"^@.	c #142A45",
"/@.	c #132642",
"(@.	c #132845",
"_@.	c #132640",
":@.	c #10223C",
"<@.	c #10233D",
"[@.	c #0D2240",
"}@.	c #0B2644",
"|@.	c #0D1F3D",
"1@.	c #0F1B37",
"2@.	c #0E1B38",
"3@.	c #0B1A37",
"4@.	c #0B1D3B",
"5@.	c #0D1D3B",
"6@.	c #0C1A38",
"7@.	c #0D255B",
"8@.	c #112860",
"9@.	c #1D3575",
"0@.	c #1A3679",
"a@.	c #4770B1",
"b@.	c #466FAF",
"c@.	c #4972AF",
"d@.	c #4871AF",
"e@.	c #4B73B0",
"f@.	c #4C74B1",
"g@.	c #A2BDD3",
"h@.	c #BFD5E2",
"i@.	c #B6D2E3",
"j@.	c #B1D1E4",
"k@.	c #AACCE0",
"l@.	c #A9C9DF",
"m@.	c #ADCCE2",
"n@.	c #B2D2E5",
"o@.	c #B1D2E6",
"p@.	c #B8D4E5",
"q@.	c #C0D7E5",
"r@.	c #C8DAE6",
"s@.	c #CEDCE4",
"t@.	c #CAD7E2",
"u@.	c #CBDAE4",
"v@.	c #C6D2D9",
"w@.	c #456AA9",
"x@.	c #2E549E",
"y@.	c #1C3F87",
"z@.	c #193A7F",
"A@.	c #1B3C81",
"B@.	c #1F3265",
"C@.	c #202F62",
"D@.	c #19274E",
"E@.	c #202A48",
"F@.	c #283450",
"G@.	c #586776",
"H@.	c #A2A9AA",
"I@.	c #B2B4AC",
"J@.	c #AFB2AB",
"K@.	c #B3B6AD",
"L@.	c #B5B8AD",
"M@.	c #BCBFB2",
"N@.	c #C5C8BD",
"O@.	c #D5D4C4",
"P@.	c #D6D8CC",
"Q@.	c #D8DACC",
"R@.	c #E3E1CF",
"S@.	c #E3E0CF",
"T@.	c #E5E2D0",
"U@.	c #E7E3D1",
"V@.	c #E5DCC3",
"W@.	c #F16217",
"X@.	c #F95502",
"Y@.	c #F1A508",
"Z@.	c #ECDA03",
"`@.	c #F0DE06",
" #.	c #F3E31C",
".#.	c #F3E416",
"+#.	c #F4E51E",
"@#.	c #F5E529",
"##.	c #F5E50F",
"$#.	c #EEE282",
"%#.	c #EDEAD8",
"&#.	c #EFECDC",
"*#.	c #EDEBDD",
"=#.	c #F1ECD9",
"-#.	c #F1EBCB",
";#.	c #EEE048",
">#.	c #F6E50D",
",#.	c #F7E509",
"'#.	c #F1E230",
")#.	c #ABAB8C",
"!#.	c #A7ACAB",
"~#.	c #B8BAB0",
"{#.	c #CAC8B7",
"]#.	c #EDE7C9",
"^#.	c #F2ECCE",
"/#.	c #F0EACC",
"(#.	c #E5DEC1",
"_#.	c #E3DEC4",
":#.	c #DFDABF",
"<#.	c #D9D3B5",
"[#.	c #D8D3B6",
"}#.	c #D2CCAE",
"|#.	c #D4CDB2",
"1#.	c #D2CDB6",
"2#.	c #CECAB4",
"3#.	c #E39869",
"4#.	c #F0860E",
"5#.	c #F4E110",
"6#.	c #EEDB04",
"7#.	c #D6CC58",
"8#.	c #9D9E88",
"9#.	c #9FA18D",
"0#.	c #9C9E8A",
"a#.	c #9DA08D",
"b#.	c #9CA08F",
"c#.	c #8A938F",
"d#.	c #6C7C87",
"e#.	c #32485B",
"f#.	c #21374F",
"g#.	c #162B48",
"h#.	c #132A44",
"i#.	c #112843",
"j#.	c #122842",
"k#.	c #142942",
"l#.	c #112542",
"m#.	c #0C2945",
"n#.	c #102540",
"o#.	c #0F233E",
"p#.	c #0A2745",
"q#.	c #0C2947",
"r#.	c #0C2644",
"s#.	c #0D2340",
"t#.	c #0D233F",
"u#.	c #0E2340",
"v#.	c #0C1F3D",
"w#.	c #0C1E3B",
"x#.	c #0A1A38",
"y#.	c #0B2041",
"z#.	c #0B203F",
"A#.	c #0B1C3A",
"B#.	c #142A61",
"C#.	c #132961",
"D#.	c #142963",
"E#.	c #1F3877",
"F#.	c #1F3A7A",
"G#.	c #1C387C",
"H#.	c #1A3D85",
"I#.	c #1D4089",
"J#.	c #1F428C",
"K#.	c #4972B1",
"L#.	c #4F78B5",
"M#.	c #4E77B3",
"N#.	c #4F78B4",
"O#.	c #527BB5",
"P#.	c #5981B9",
"Q#.	c #9BBAD7",
"R#.	c #A6C6DD",
"S#.	c #AACBE0",
"T#.	c #ACCDE2",
"U#.	c #ABCDE2",
"V#.	c #ABCCE0",
"W#.	c #A8C8DF",
"X#.	c #B1CEE2",
"Y#.	c #C8DBE7",
"Z#.	c #C9DBE6",
"`#.	c #C6D9E6",
" $.	c #C8DBE6",
".$.	c #C2D8E5",
"+$.	c #ABCADF",
"@$.	c #A4C2DC",
"#$.	c #A2BFD9",
"$$.	c #486FAC",
"%$.	c #2F56A1",
"&$.	c #1D418C",
"*$.	c #1C3F86",
"=$.	c #1F2F63",
"-$.	c #182650",
";$.	c #1B2952",
">$.	c #212B4A",
",$.	c #252E4C",
"'$.	c #3D4A5C",
")$.	c #87939F",
"!$.	c #ACB0AB",
"~$.	c #B1B3AB",
"{$.	c #B0B3AE",
"]$.	c #C0C3B7",
"^$.	c #C1C4B9",
"/$.	c #D0D1C3",
"($.	c #DBDACB",
"_$.	c #E1E1D0",
":$.	c #E8E4D2",
"<$.	c #E8E4D3",
"[$.	c #E9E5D3",
"}$.	c #E6E2D0",
"|$.	c #E7DCC5",
"1$.	c #F36522",
"2$.	c #F65405",
"3$.	c #F29F08",
"4$.	c #EEDB03",
"5$.	c #EDDB03",
"6$.	c #F2E223",
"7$.	c #F4E41D",
"8$.	c #F4E529",
"9$.	c #EEE28D",
"0$.	c #F0EEE1",
"a$.	c #EDEBDB",
"b$.	c #EFE152",
"c$.	c #EDDE3F",
"d$.	c #ABAC93",
"e$.	c #A9AEAB",
"f$.	c #D0CDB8",
"g$.	c #EDE7CD",
"h$.	c #F3ECCE",
"i$.	c #F0EACD",
"j$.	c #EFE8CC",
"k$.	c #E7E1C0",
"l$.	c #E8E1C3",
"m$.	c #E7E2C7",
"n$.	c #E1DABE",
"o$.	c #E3DDBF",
"p$.	c #DBD5B7",
"q$.	c #DFD9BA",
"r$.	c #D6D1B3",
"s$.	c #D0CAAC",
"t$.	c #CFCBB3",
"u$.	c #E29764",
"v$.	c #F75702",
"w$.	c #F18B0A",
"x$.	c #F2DD02",
"y$.	c #F2DD03",
"z$.	c #D6CC57",
"A$.	c #A8A68C",
"B$.	c #A1A18A",
"C$.	c #A2A18A",
"D$.	c #9DA190",
"E$.	c #9A9E8E",
"F$.	c #999D8E",
"G$.	c #818F96",
"H$.	c #5D7083",
"I$.	c #293D57",
"J$.	c #152C46",
"K$.	c #142E47",
"L$.	c #102840",
"M$.	c #122741",
"N$.	c #13253F",
"O$.	c #10223B",
"P$.	c #11233C",
"Q$.	c #0F213C",
"R$.	c #0D2543",
"S$.	c #092442",
"T$.	c #0C2744",
"U$.	c #122745",
"V$.	c #0E2546",
"W$.	c #0E1C3A",
"X$.	c #0C1D3A",
"Y$.	c #0E1C38",
"Z$.	c #0A1A37",
"`$.	c #0D1B39",
" %.	c #0D1C39",
".%.	c #0B1C39",
"+%.	c #0F265B",
"@%.	c #142A60",
"#%.	c #1B387C",
"$%.	c #1E397C",
"%%.	c #183C86",
"&%.	c #1B3F8A",
"*%.	c #4870AE",
"=%.	c #527CB7",
"-%.	c #5983BD",
";%.	c #5680BA",
">%.	c #5C87C0",
",%.	c #A7C7DE",
"'%.	c #A9CADF",
")%.	c #A8C9E0",
"!%.	c #97B6D7",
"~%.	c #BDD2E2",
"{%.	c #DEE7E8",
"]%.	c #BED3E3",
"^%.	c #95B4D5",
"/%.	c #466BA9",
"(%.	c #3057A1",
"_%.	c #2A4F99",
":%.	c #1F438C",
"<%.	c #182753",
"[%.	c #222A49",
"}%.	c #232B48",
"|%.	c #6E7B89",
"1%.	c #9CA4A9",
"2%.	c #AEB1AB",
"3%.	c #B4B6B0",
"4%.	c #B9BBB6",
"5%.	c #C6C9BF",
"6%.	c #CCCEC2",
"7%.	c #D3D4C6",
"8%.	c #E2DECB",
"9%.	c #EAE6D4",
"0%.	c #EAE7D5",
"a%.	c #E8E5D2",
"b%.	c #EAE2CB",
"c%.	c #F2632B",
"d%.	c #F0560F",
"e%.	c #F39008",
"f%.	c #EEDA03",
"g%.	c #F2E11C",
"h%.	c #F5E628",
"i%.	c #F5E62B",
"j%.	c #EFE5A4",
"k%.	c #F0EFE1",
"l%.	c #F0EEE0",
"m%.	c #F1EEDF",
"n%.	c #F2EDD8",
"o%.	c #F0E137",
"p%.	c #F5E620",
"q%.	c #EBDD39",
"r%.	c #A4A58A",
"s%.	c #A1A8A9",
"t%.	c #B1B3AA",
"u%.	c #D3D0BC",
"v%.	c #EFEAD1",
"w%.	c #EEE7C9",
"x%.	c #ECE6C4",
"y%.	c #EEE7CA",
"z%.	c #EBE5C8",
"A%.	c #E7E1C4",
"B%.	c #E4DDBF",
"C%.	c #E3DDC0",
"D%.	c #DBD5B6",
"E%.	c #D6D1B2",
"F%.	c #D4CFB3",
"G%.	c #D1CCB3",
"H%.	c #CDC8AD",
"I%.	c #CEC9AD",
"J%.	c #CEC9AC",
"K%.	c #E98E5D",
"L%.	c #F95C02",
"M%.	c #F55802",
"N%.	c #F1800C",
"O%.	c #F3DE05",
"P%.	c #EDDA03",
"Q%.	c #E8D605",
"R%.	c #D8CE4C",
"S%.	c #A1A089",
"T%.	c #A1A390",
"U%.	c #9CA190",
"V%.	c #9CA291",
"W%.	c #9A9E8F",
"X%.	c #969B8D",
"Y%.	c #7E8D97",
"Z%.	c #53687D",
"`%.	c #1F3652",
" &.	c #1C324B",
".&.	c #1A334B",
"+&.	c #0F2840",
"@&.	c #112741",
"#&.	c #0E243F",
"$&.	c #12223A",
"%&.	c #0F223C",
"&&.	c #0F2441",
"*&.	c #0E1E39",
"=&.	c #0B1C38",
"-&.	c #0E213D",
";&.	c #0B1F3B",
">&.	c #0A1F3D",
",&.	c #0B1D3A",
"'&.	c #0D1D3A",
")&.	c #0F203D",
"!&.	c #0D1B35",
"~&.	c #0C1A36",
"{&.	c #0D1830",
"]&.	c #0E1932",
"^&.	c #0D1832",
"/&.	c #121A32",
"(&.	c #0B1731",
"_&.	c #0C1B37",
":&.	c #0F1C37",
"<&.	c #0C1B38",
"[&.	c #0D245A",
"}&.	c #172C63",
"|&.	c #1A3578",
"1&.	c #1E3A7D",
"2&.	c #16377D",
"3&.	c #476FAD",
"4&.	c #537DB7",
"5&.	c #5781BB",
"6&.	c #618CC4",
"7&.	c #6591C8",
"8&.	c #6993CA",
"9&.	c #A4C5DD",
"0&.	c #ABCCE2",
"a&.	c #AED1E5",
"b&.	c #A7C8DF",
"c&.	c #96B4D6",
"d&.	c #BFD3E2",
"e&.	c #D8E3E8",
"f&.	c #D7E2E7",
"g&.	c #DAE4E8",
"h&.	c #B9D1E2",
"i&.	c #A6C6DC",
"j&.	c #95B4D4",
"k&.	c #3E66A9",
"l&.	c #2F56A0",
"m&.	c #20458E",
"n&.	c #1E418A",
"o&.	c #193A80",
"p&.	c #153478",
"q&.	c #202F63",
"r&.	c #192856",
"s&.	c #172752",
"t&.	c #182752",
"u&.	c #202C4D",
"v&.	c #2B3653",
"w&.	c #56657A",
"x&.	c #949DA5",
"y&.	c #A6ABAB",
"z&.	c #A9ADA7",
"A&.	c #B2B5B0",
"B&.	c #BCBCBF",
"C&.	c #C2C2C2",
"D&.	c #CFD2C7",
"E&.	c #CED0C3",
"F&.	c #E0DECD",
"G&.	c #E8E0CA",
"H&.	c #F26931",
"I&.	c #F65403",
"J&.	c #F4950A",
"K&.	c #E8D505",
"L&.	c #EEDC07",
"M&.	c #EFDD17",
"N&.	c #F0E027",
"O&.	c #F5E62C",
"P&.	c #F6E514",
"Q&.	c #F0E6A6",
"R&.	c #EFECDD",
"S&.	c #EDE4B8",
"T&.	c #F0E12B",
"U&.	c #F5E522",
"V&.	c #EFE038",
"W&.	c #A4A68D",
"X&.	c #A1A7A7",
"Y&.	c #B5B7AB",
"Z&.	c #E3DFC8",
"`&.	c #F3ECCF",
" *.	c #ECE6BF",
".*.	c #EDE6C8",
"+*.	c #E9E2C2",
"@*.	c #EFE8CA",
"#*.	c #E2DCBD",
"$*.	c #E7E1C5",
"%*.	c #E4DFC2",
"&*.	c #D7D0B0",
"**.	c #D6D1AF",
"=*.	c #D2CDAE",
"-*.	c #D7D2B5",
";*.	c #D4CFB4",
">*.	c #D0CBB0",
",*.	c #CBC7A8",
"'*.	c #D7AB7E",
")*.	c #EF6520",
"!*.	c #F95A02",
"~*.	c #F65802",
"{*.	c #EC790B",
"]*.	c #F4DD05",
"^*.	c #F0DC03",
"/*.	c #D8CC43",
"(*.	c #8A8C7E",
"_*.	c #787C76",
":*.	c #878C82",
"<*.	c #939990",
"[*.	c #999E8F",
"}*.	c #9CA090",
"|*.	c #9B9F90",
"1*.	c #959A8E",
"2*.	c #7A8B97",
"3*.	c #43596F",
"4*.	c #1C334D",
"5*.	c #1D354D",
"6*.	c #152C43",
"7*.	c #112640",
"8*.	c #0F233D",
"9*.	c #10213C",
"0*.	c #0D1E3A",
"a*.	c #0D1F3B",
"b*.	c #0B203D",
"c*.	c #0C1F3A",
"d*.	c #0E1D38",
"e*.	c #101F3A",
"f*.	c #10223D",
"g*.	c #0A1E3D",
"h*.	c #0D1D39",
"i*.	c #121C36",
"j*.	c #0C1A34",
"k*.	c #0E1B36",
"l*.	c #0B1934",
"m*.	c #0F1A33",
"n*.	c #18213A",
"o*.	c #0E265E",
"p*.	c #182B5E",
"q*.	c #1B3475",
"r*.	c #1D3779",
"s*.	c #466EAE",
"t*.	c #6F98CB",
"u*.	c #7DA1CF",
"v*.	c #A4C4DD",
"w*.	c #B4D1E3",
"x*.	c #B6D2E4",
"y*.	c #C0D6E5",
"z*.	c #97B5D7",
"A*.	c #B7CFE1",
"B*.	c #C8DAE4",
"C*.	c #A7C7DD",
"D*.	c #A0C0DB",
"E*.	c #91B1D3",
"F*.	c #2C519B",
"G*.	c #16367B",
"H*.	c #1F3978",
"I*.	c #192854",
"J*.	c #192752",
"K*.	c #182651",
"L*.	c #242841",
"M*.	c #4C333C",
"N*.	c #604145",
"O*.	c #836C69",
"P*.	c #8F7B75",
"Q*.	c #A7ABA6",
"R*.	c #B5B6B4",
"S*.	c #C0C0C2",
"T*.	c #C6C8C2",
"U*.	c #CCCFC6",
"V*.	c #CBCCBF",
"W*.	c #D4D5C6",
"X*.	c #E1DEC9",
"Y*.	c #EBE6D1",
"Z*.	c #EAE0C8",
"`*.	c #F2712E",
" =.	c #F19E0B",
".=.	c #EEDC0F",
"+=.	c #E8D91F",
"@=.	c #EAD71A",
"#=.	c #F3E327",
"$=.	c #F0E7AA",
"%=.	c #EFECDB",
"&=.	c #EDE6C5",
"*=.	c #EEDF54",
"==.	c #F5E51B",
"-=.	c #F6E50C",
";=.	c #F5E517",
">=.	c #EFE03A",
",=.	c #A0A18A",
"'=.	c #A4AAA9",
")=.	c #A9ADA8",
"!=.	c #C3C0A7",
"~=.	c #E4DEC0",
"{=.	c #F0E9CC",
"]=.	c #ECE5C2",
"^=.	c #E8E1BF",
"/=.	c #E2DBB9",
"(=.	c #E3DDBD",
"_=.	c #D8D1AF",
":=.	c #D7D1AF",
"<=.	c #D6D0B1",
"[=.	c #D8D1B1",
"}=.	c #D2CDAF",
"|=.	c #D5CFB3",
"1=.	c #CFCAAE",
"2=.	c #CAC6AB",
"3=.	c #D8AD87",
"4=.	c #ED6626",
"5=.	c #F85A02",
"6=.	c #F75A02",
"7=.	c #EE7B0B",
"8=.	c #F5DF04",
"9=.	c #F3DE02",
"0=.	c #EFDA03",
"a=.	c #DED042",
"b=.	c #7A7D75",
"c=.	c #717572",
"d=.	c #7B807D",
"e=.	c #788286",
"f=.	c #868C87",
"g=.	c #92978B",
"h=.	c #989D8F",
"i=.	c #9CA191",
"j=.	c #949B91",
"k=.	c #6E8399",
"l=.	c #435870",
"m=.	c #243B54",
"n=.	c #1A2E43",
"o=.	c #132641",
"p=.	c #112A44",
"q=.	c #10223E",
"r=.	c #0E1F3A",
"s=.	c #0B203C",
"t=.	c #0D2744",
"u=.	c #0E2642",
"v=.	c #0A1B36",
"w=.	c #0F1F3B",
"x=.	c #0D203C",
"y=.	c #0B1E3A",
"z=.	c #0C1B36",
"A=.	c #121B34",
"B=.	c #0E255B",
"C=.	c #192C5E",
"D=.	c #192F6B",
"E=.	c #1C3779",
"F=.	c #517AB5",
"G=.	c #638FC7",
"H=.	c #6691C9",
"I=.	c #789DCC",
"J=.	c #BFD3E1",
"K=.	c #C7D6E3",
"L=.	c #C9D6E3",
"M=.	c #CFDDE5",
"N=.	c #B2D1E3",
"O=.	c #A0BFDA",
"P=.	c #AECFE3",
"Q=.	c #B0CFE2",
"R=.	c #B3D2E5",
"S=.	c #B8D5E5",
"T=.	c #B8D5E6",
"U=.	c #C7DBE7",
"V=.	c #D2DFE8",
"W=.	c #D0DFE7",
"X=.	c #CADBE6",
"Y=.	c #A2C1DC",
"Z=.	c #3057A0",
"`=.	c #2C529C",
" -.	c #294D97",
".-.	c #22468E",
"+-.	c #1B3D84",
"@-.	c #18377D",
"#-.	c #163579",
"$-.	c #1E3876",
"%-.	c #1F346F",
"&-.	c #203369",
"*-.	c #16244E",
"=-.	c #16234A",
"--.	c #18254A",
";-.	c #332636",
">-.	c #5E2C25",
",-.	c #7D2A1E",
"'-.	c #8E2818",
")-.	c #957766",
"!-.	c #AEB1A7",
"~-.	c #BDBFBC",
"{-.	c #C5C7C7",
"]-.	c #C8CBC5",
"^-.	c #CFD1C8",
"/-.	c #D7D7C6",
"(-.	c #D9D9C8",
"_-.	c #E8E4D0",
":-.	c #ECE8D3",
"<-.	c #E9E2C8",
"[-.	c #EE7C31",
"}-.	c #F66A06",
"|-.	c #F56705",
"1-.	c #F56204",
"2-.	c #F56405",
"3-.	c #F75902",
"4-.	c #EEA50C",
"5-.	c #EAD60C",
"6-.	c #F1DF1B",
"7-.	c #EFE024",
"8-.	c #EADE2D",
"9-.	c #E9DC30",
"0-.	c #EBDB31",
"a-.	c #F3E226",
"b-.	c #EFE5A0",
"c-.	c #EEECDC",
"d-.	c #F1EDDD",
"e-.	c #F2EED6",
"f-.	c #F0E14A",
"g-.	c #F4E42A",
"h-.	c #F4E526",
"i-.	c #F4E420",
"j-.	c #EDDF3F",
"k-.	c #AFAD87",
"l-.	c #A3A8A3",
"m-.	c #AEB1A9",
"n-.	c #D5CEAA",
"o-.	c #F2EDD7",
"p-.	c #F0EACF",
"q-.	c #EAE3C0",
"r-.	c #E7E0C1",
"s-.	c #EBE4C4",
"t-.	c #E5DDBB",
"u-.	c #DFD7B2",
"v-.	c #E3DCBB",
"w-.	c #D9D2B0",
"x-.	c #D6D0B0",
"y-.	c #D7D1B1",
"z-.	c #D5CFAE",
"A-.	c #D7D1B5",
"B-.	c #CFCBB1",
"C-.	c #C8C5AC",
"D-.	c #C8C4A9",
"E-.	c #D69F79",
"F-.	c #F05803",
"G-.	c #F25402",
"H-.	c #F65902",
"I-.	c #F1820C",
"J-.	c #EBD803",
"K-.	c #DECF2E",
"L-.	c #797E6A",
"M-.	c #767B78",
"N-.	c #7C807A",
"O-.	c #757D7E",
"P-.	c #747979",
"Q-.	c #7C8382",
"R-.	c #8E948B",
"S-.	c #90958A",
"T-.	c #92978C",
"U-.	c #8A9391",
"V-.	c #667D93",
"W-.	c #3C536D",
"X-.	c #233951",
"Y-.	c #1A2E49",
"Z-.	c #112644",
"`-.	c #122540",
" ;.	c #112541",
".;.	c #0D1F39",
"+;.	c #0B1B37",
"@;.	c #0A1C38",
"#;.	c #0C2440",
"$;.	c #0B2642",
"%;.	c #0E1E38",
"&;.	c #0B223E",
"*;.	c #09203D",
"=;.	c #0A203E",
"-;.	c #131C33",
";;.	c #10265C",
">;.	c #15295D",
",;.	c #192B5C",
"';.	c #182B61",
");.	c #172C62",
"!;.	c #162D6A",
"~;.	c #19387F",
"{;.	c #517AB6",
"];.	c #739ACC",
"^;.	c #7CA0CD",
"/;.	c #B5CCE0",
"(;.	c #C7D5E2",
"_;.	c #CAD7E0",
":;.	c #A9CAE0",
"<;.	c #A5C5DC",
"[;.	c #A7C8DE",
"};.	c #A9CADE",
"|;.	c #B0D1E4",
"1;.	c #CCDBE5",
"2;.	c #AAC8DF",
"3;.	c #5379B5",
"4;.	c #325BA5",
"5;.	c #2E559F",
"6;.	c #284B94",
"7;.	c #15357B",
"8;.	c #16357A",
"9;.	c #17254E",
"0;.	c #162348",
"a;.	c #362433",
"b;.	c #6A2B23",
"c;.	c #87291B",
"d;.	c #863D28",
"e;.	c #A39F91",
"f;.	c #B1B4AC",
"g;.	c #C6CAC0",
"h;.	c #C1C4B7",
"i;.	c #C8CBC0",
"j;.	c #C6CAC1",
"k;.	c #D7D8CA",
"l;.	c #D8D7C5",
"m;.	c #DEDCCA",
"n;.	c #E9E4CE",
"o;.	c #E9E5CE",
"p;.	c #E9E1BC",
"q;.	c #E2C459",
"r;.	c #E6C240",
"s;.	c #E6BD3B",
"t;.	c #ECC327",
"u;.	c #EDCE24",
"v;.	c #E9CC21",
"w;.	c #EBCC28",
"x;.	c #E4CD4F",
"y;.	c #E6D670",
"z;.	c #E9DD93",
"A;.	c #E9E0A9",
"B;.	c #EAE0A1",
"C;.	c #EAE1A2",
"D;.	c #E9E1AC",
"E;.	c #EBE2AA",
"F;.	c #EAE0A0",
"G;.	c #EDE5B0",
"H;.	c #EEE6BC",
"I;.	c #F1EEDD",
"J;.	c #F0ECDC",
"K;.	c #F0E24E",
"L;.	c #F5E524",
"M;.	c #F6E510",
"N;.	c #F4E522",
"O;.	c #F0E037",
"P;.	c #AEAD85",
"Q;.	c #A0A7A5",
"R;.	c #B2B4AA",
"S;.	c #DFD9BD",
"T;.	c #F1EBD1",
"U;.	c #EFE8D0",
"V;.	c #EFE8CE",
"W;.	c #EAE4C6",
"X;.	c #E7E1C2",
"Y;.	c #E2DBB8",
"Z;.	c #DDD6B3",
"`;.	c #D5CEA9",
" >.	c #DAD3B1",
".>.	c #D7D1B0",
"+>.	c #D2CDB1",
"@>.	c #D6D0B5",
"#>.	c #CDC9AF",
"$>.	c #C6C4AC",
"%>.	c #CCC3A7",
"&>.	c #DF7547",
"*>.	c #F45402",
"=>.	c #F35502",
"->.	c #F85902",
";>.	c #EF830D",
">>.	c #EEDA05",
",>.	c #EAD705",
"'>.	c #DED032",
")>.	c #7D806B",
"!>.	c #757874",
"~>.	c #757975",
"{>.	c #757C80",
"]>.	c #767A78",
"^>.	c #767E80",
"/>.	c #8A8F89",
"(>.	c #8E948D",
"_>.	c #838F94",
":>.	c #657E97",
"<>.	c #364A60",
"[>.	c #1C314E",
"}>.	c #122946",
"|>.	c #0E2440",
"1>.	c #081E3C",
"2>.	c #0B203E",
"3>.	c #0D2743",
"4>.	c #0F2440",
"5>.	c #0E213C",
"6>.	c #0B1D39",
"7>.	c #10213B",
"8>.	c #112544",
"9>.	c #0B223F",
"0>.	c #0E233F",
"a>.	c #0E203B",
"b>.	c #0A1D3B",
"c>.	c #091E3B",
"d>.	c #1B2F64",
"e>.	c #192F65",
"f>.	c #132B63",
"g>.	c #12275F",
"h>.	c #173576",
"i>.	c #183A81",
"j>.	c #4C75B1",
"k>.	c #547EB9",
"l>.	c #6A93C6",
"m>.	c #A7C5DC",
"n>.	c #BCD2E2",
"o>.	c #C1D5E4",
"p>.	c #B2D0E3",
"q>.	c #AACBDF",
"r>.	c #A5C4DB",
"s>.	c #A8C9DD",
"t>.	c #D3DFE5",
"u>.	c #D4E0E8",
"v>.	c #B0CBE0",
"w>.	c #4D75B2",
"x>.	c #2F57A1",
"y>.	c #22458C",
"z>.	c #1A3C83",
"A>.	c #183980",
"B>.	c #18397F",
"C>.	c #153378",
"D>.	c #1E3167",
"E>.	c #213265",
"F>.	c #1B2B5B",
"G>.	c #18254B",
"H>.	c #172349",
"I>.	c #182549",
"J>.	c #1F2338",
"K>.	c #38252C",
"L>.	c #732A21",
"M>.	c #972714",
"N>.	c #957562",
"O>.	c #AFB2A9",
"P>.	c #C3C6BA",
"Q>.	c #C8CCC2",
"R>.	c #C9CCC2",
"S>.	c #E0DFCF",
"T>.	c #DCDAC7",
"U>.	c #E7E4D0",
"V>.	c #EAE5CD",
"W>.	c #E3E0CA",
"X>.	c #E8E3CE",
"Y>.	c #E8DB62",
"Z>.	c #F3E434",
"`>.	c #EDDE3E",
" ,.	c #EFE03B",
".,.	c #EEDE3B",
"+,.	c #F0E02C",
"@,.	c #E4D753",
"#,.	c #E4DB80",
"$,.	c #EEE7CD",
"%,.	c #F0E9D4",
"&,.	c #F0EBD1",
"*,.	c #EEDF3E",
"=,.	c #F3E41D",
"-,.	c #F2E332",
";,.	c #B0AD7D",
">,.	c #A3A8A2",
",,.	c #B7B8AA",
"',.	c #EDE6CA",
"),.	c #F2ECCF",
"!,.	c #F1EBD0",
"~,.	c #ECE5CD",
"{,.	c #DDD6AF",
"],.	c #DFD6B3",
"^,.	c #DED6B1",
"/,.	c #D8CFAA",
"(,.	c #DFD8B6",
"_,.	c #DED7B2",
":,.	c #D7D1B2",
"<,.	c #D6D0B2",
"[,.	c #D6D0B6",
"},.	c #CAC6AE",
"|,.	c #C3C1AB",
"1,.	c #C5C3AC",
"2,.	c #D2AF8E",
"3,.	c #EE610F",
"4,.	c #F55902",
"5,.	c #F55702",
"6,.	c #F25602",
"7,.	c #EB8A0D",
"8,.	c #F3DD08",
"9,.	c #F1DD02",
"0,.	c #E9D509",
"a,.	c #DECF44",
"b,.	c #797B70",
"c,.	c #717571",
"d,.	c #707576",
"e,.	c #737773",
"f,.	c #727775",
"g,.	c #747C81",
"h,.	c #828987",
"i,.	c #8D948F",
"j,.	c #828E94",
"k,.	c #617687",
"l,.	c #283D58",
"m,.	c #192F49",
"n,.	c #182B45",
"o,.	c #14243A",
"p,.	c #11243D",
"q,.	c #091F3D",
"r,.	c #0A213D",
"s,.	c #0F1F39",
"t,.	c #0E1F39",
"u,.	c #0D203B",
"v,.	c #0C213D",
"w,.	c #0A213E",
"x,.	c #0A2341",
"y,.	c #0E2543",
"z,.	c #0E2646",
"A,.	c #0A1F3C",
"B,.	c #0C223F",
"C,.	c #0F2744",
"D,.	c #102645",
"E,.	c #102441",
"F,.	c #0D1F3A",
"G,.	c #0E1B37",
"H,.	c #141D34",
"I,.	c #11275A",
"J,.	c #1A3167",
"K,.	c #182D63",
"L,.	c #1C3370",
"M,.	c #4D76B2",
"N,.	c #5A84BE",
"O,.	c #5B85BE",
"P,.	c #5D87BE",
"Q,.	c #5F88BE",
"R,.	c #779AC6",
"S,.	c #90B0D3",
"T,.	c #91B2D5",
"U,.	c #94B4D6",
"V,.	c #9ABCD8",
"W,.	c #97B9D8",
"X,.	c #87A9D1",
"Y,.	c #88ABD2",
"Z,.	c #8BAED4",
"`,.	c #7FA3CF",
" '.	c #81A5D0",
".'.	c #7DA1CE",
"+'.	c #7EA1CC",
"@'.	c #83A4CD",
"#'.	c #7A9DC9",
"$'.	c #B8CDDE",
"%'.	c #C1D3E1",
"&'.	c #B6CADD",
"*'.	c #B5CBDE",
"='.	c #8BAED3",
"-'.	c #4D76B4",
";'.	c #17387F",
">'.	c #213773",
",'.	c #1A2B57",
"''.	c #1B2C53",
")'.	c #19274C",
"!'.	c #23222F",
"~'.	c #3E2526",
"{'.	c #832C1D",
"]'.	c #9C422D",
"^'.	c #A9A79C",
"/'.	c #B4B7AE",
"('.	c #C7CBC0",
"_'.	c #D1D4CA",
":'.	c #D9D9CB",
"<'.	c #E0DCC9",
"['.	c #EDE7D0",
"}'.	c #ECE6D0",
"|'.	c #F1EDDE",
"1'.	c #E8E1C4",
"2'.	c #EBDE8E",
"3'.	c #EDDE3D",
"4'.	c #ECDE4F",
"5'.	c #F5E526",
"6'.	c #F2E226",
"7'.	c #E5D95F",
"8'.	c #ECDD3E",
"9'.	c #E8DD8E",
"0'.	c #EEE9D7",
"a'.	c #F2EBD6",
"b'.	c #EFE9D4",
"c'.	c #F2ECD7",
"d'.	c #F1E336",
"e'.	c #F4E525",
"f'.	c #F6E511",
"g'.	c #F5E51A",
"h'.	c #F4E52C",
"i'.	c #B6B27B",
"j'.	c #A3A79B",
"k'.	c #BCBCAD",
"l'.	c #EDE7CE",
"m'.	c #EAE4CC",
"n'.	c #E9E3C6",
"o'.	c #E4DDBE",
"p'.	c #E4D9B3",
"q'.	c #DDD4AD",
"r'.	c #E4DBB6",
"s'.	c #E0D7B4",
"t'.	c #DFD8B4",
"u'.	c #DCD5B3",
"v'.	c #D9D3B3",
"w'.	c #D5CFAD",
"x'.	c #D5D0B2",
"y'.	c #CFCBB5",
"z'.	c #C4C3AD",
"A'.	c #C2C1AA",
"B'.	c #C7C1A4",
"C'.	c #E1834C",
"D'.	c #F95B03",
"E'.	c #F85F02",
"F'.	c #F75802",
"G'.	c #EC5302",
"H'.	c #E88A10",
"I'.	c #F1DC07",
"J'.	c #F0DA04",
"K'.	c #E0D146",
"L'.	c #717469",
"M'.	c #6E726F",
"N'.	c #6F7370",
"O'.	c #6A6E6B",
"P'.	c #696D6B",
"Q'.	c #6C706E",
"R'.	c #707470",
"S'.	c #737774",
"T'.	c #737878",
"U'.	c #777C79",
"V'.	c #7E837D",
"W'.	c #828B8A",
"X'.	c #72808B",
"Y'.	c #4B5D71",
"Z'.	c #203A57",
"`'.	c #192D46",
" ).	c #12233A",
".).	c #12233C",
"+).	c #0A1D3A",
"@).	c #112039",
"#).	c #101F38",
"$).	c #09213F",
"%).	c #0B2443",
"&).	c #0D2442",
"*).	c #0D2443",
"=).	c #0C203B",
"-).	c #142758",
";).	c #17285B",
">).	c #172A5D",
",).	c #152B61",
"').	c #162C62",
")).	c #172D64",
"!).	c #1A316F",
"~).	c #183880",
"{).	c #4A73B0",
"]).	c #4C74B0",
"^).	c #648DC2",
"/).	c #6D96CB",
"().	c #7A9FCE",
"_).	c #6892C8",
":).	c #658FC4",
"<).	c #658FC5",
"[).	c #6490C7",
"}).	c #638DC2",
"|).	c #628DC5",
"1).	c #547DB7",
"2).	c #5079B4",
"3).	c #4D77B3",
"4).	c #5982BB",
"5).	c #779DCD",
"6).	c #7CA1CE",
"7).	c #7EA2CF",
"8).	c #537CB8",
"9).	c #2C519C",
"0).	c #284B95",
"a).	c #153479",
"b).	c #1A3776",
"c).	c #1A2A55",
"d).	c #1A2951",
"e).	c #1A2B51",
"f).	c #192B50",
"g).	c #182550",
"h).	c #18264F",
"i).	c #242331",
"j).	c #3B252B",
"k).	c #802A1D",
"l).	c #A27A65",
"m).	c #B8BAAE",
"n).	c #C7CABF",
"o).	c #CACCC1",
"p).	c #CACEC4",
"q).	c #CFD2C9",
"r).	c #D3D5C9",
"s).	c #DEDDCE",
"t).	c #E2DFCC",
"u).	c #E7E2CF",
"v).	c #EAE5CF",
"w).	c #F1EDD9",
"x).	c #F0EEDF",
"y).	c #E6D97B",
"z).	c #F3E42F",
"A).	c #F7E407",
"B).	c #F4E41F",
"C).	c #F5E516",
"D).	c #F0DF26",
"E).	c #E5D865",
"F).	c #EBDC3F",
"G).	c #E8DD94",
"H).	c #EEEBDC",
"I).	c #EDEADA",
"J).	c #EEE9CE",
"K).	c #F0E234",
"L).	c #F4E51D",
"M).	c #F5E51C",
"N).	c #B6B177",
"O).	c #A2A699",
"P).	c #C3C1AC",
"Q).	c #F2EBD2",
"R).	c #F1EBD2",
"S).	c #F3ECD0",
"T).	c #EFE9C9",
"U).	c #EBE5CC",
"V).	c #E8E1C5",
"W).	c #E5DDB9",
"X).	c #E0D7B1",
"Y).	c #E6DEBA",
"Z).	c #D9CFA8",
"`).	c #DFD7B3",
" !.	c #DFD8B7",
".!.	c #D7D0AE",
"+!.	c #D9D2AF",
"@!.	c #CDC7AA",
"#!.	c #C6C3AB",
"$!.	c #C2C0AB",
"%!.	c #C5C2A7",
"&!.	c #C5C1A4",
"*!.	c #D4B17F",
"=!.	c #EF5C0D",
"-!.	c #F65702",
";!.	c #F45902",
">!.	c #EE5402",
",!.	c #ED5502",
"'!.	c #E8860F",
")!.	c #EED905",
"!!.	c #EBDA04",
"~!.	c #ECDC03",
"{!.	c #E5D20A",
"]!.	c #DCCF4E",
"^!.	c #6F7166",
"/!.	c #686C69",
"(!.	c #6B6F6B",
"_!.	c #6A6F6C",
":!.	c #696D6A",
"<!.	c #6A6E6D",
"[!.	c #6D7270",
"}!.	c #717676",
"|!.	c #6F736F",
"1!.	c #767D7B",
"2!.	c #63717E",
"3!.	c #28405B",
"4!.	c #182D45",
"5!.	c #14273E",
"6!.	c #112137",
"7!.	c #0D203A",
"8!.	c #0C1D38",
"9!.	c #0F1E38",
"0!.	c #121F37",
"a!.	c #0D213C",
"b!.	c #0D223D",
"c!.	c #10233E",
"d!.	c #0A203F",
"e!.	c #0A2342",
"f!.	c #192C5B",
"g!.	c #162658",
"h!.	c #172B5F",
"i!.	c #162D63",
"j!.	c #142B63",
"k!.	c #1B316D",
"l!.	c #173880",
"m!.	c #4973B3",
"n!.	c #547EB8",
"o!.	c #648FC5",
"p!.	c #7098CB",
"q!.	c #6891C5",
"r!.	c #638EC5",
"s!.	c #648EC4",
"t!.	c #638EC6",
"u!.	c #628CC2",
"v!.	c #648DC3",
"w!.	c #507AB5",
"x!.	c #5780B9",
"y!.	c #6C95CA",
"z!.	c #537DB9",
"A!.	c #25478F",
"B!.	c #24468D",
"C!.	c #22448A",
"D!.	c #1A3774",
"E!.	c #21376E",
"F!.	c #1F346A",
"G!.	c #1E3368",
"H!.	c #192957",
"I!.	c #1A2B52",
"J!.	c #1B2C55",
"K!.	c #1D2D53",
"L!.	c #1B2A52",
"M!.	c #19264E",
"N!.	c #242635",
"O!.	c #3E252A",
"P!.	c #95321B",
"Q!.	c #ABA18E",
"R!.	c #B9BCB1",
"S!.	c #BBBEB3",
"T!.	c #CFD1C4",
"U!.	c #CED2CA",
"V!.	c #D8D9CB",
"W!.	c #DBD9C8",
"X!.	c #E5E1CC",
"Y!.	c #EBE6D0",
"Z!.	c #EFEBD6",
"`!.	c #E5D96A",
" ~.	c #EDDF41",
".~.	c #F3E322",
"+~.	c #ECDC3E",
"@~.	c #E7DC92",
"#~.	c #F3ECD6",
"$~.	c #EEE8D3",
"%~.	c #E9E1B8",
"&~.	c #EEE138",
"*~.	c #F0E00C",
"=~.	c #F3E10B",
"-~.	c #F4E514",
";~.	c #BCB56E",
">~.	c #A7A99B",
",~.	c #EBE5C6",
"'~.	c #EBE4C6",
")~.	c #E6DFC2",
"!~.	c #E1DABA",
"~~.	c #E4DCB9",
"{~.	c #DFD4AE",
"]~.	c #E1D9B5",
"^~.	c #E0D9B8",
"/~.	c #D7D1AE",
"(~.	c #D9D3B1",
"_~.	c #CCC6A6",
":~.	c #C6C2A8",
"<~.	c #C4C2A8",
"[~.	c #C8C5A9",
"}~.	c #C7C3A8",
"|~.	c #CEBC92",
"1~.	c #E18A33",
"2~.	c #E87F17",
"3~.	c #E87F1B",
"4~.	c #EB830F",
"5~.	c #E77D11",
"6~.	c #E3822A",
"7~.	c #DFA32B",
"8~.	c #E6D512",
"9~.	c #F1E004",
"0~.	c #EBDB06",
"a~.	c #EAD90E",
"b~.	c #E6D621",
"c~.	c #E5D41E",
"d~.	c #E4D61B",
"e~.	c #E2D51C",
"f~.	c #E6D61B",
"g~.	c #DFD023",
"h~.	c #D9CC49",
"i~.	c #6F6F60",
"j~.	c #656967",
"k~.	c #666966",
"l~.	c #676B69",
"m~.	c #686C6A",
"n~.	c #6E716C",
"o~.	c #727672",
"p~.	c #6B6F6D",
"q~.	c #727671",
"r~.	c #6E7473",
"s~.	c #445666",
"t~.	c #1E3655",
"u~.	c #182A3E",
"v~.	c #0D1A32",
"w~.	c #0D1D37",
"x~.	c #121C31",
"y~.	c #0C1F3C",
"z~.	c #091F3C",
"A~.	c #091D39",
"B~.	c #0C203D",
"C~.	c #0E1931",
"D~.	c #141D31",
"E~.	c #172B5C",
"F~.	c #182859",
"G~.	c #182758",
"H~.	c #1A295A",
"I~.	c #182C61",
"J~.	c #132A62",
"K~.	c #183270",
"L~.	c #19377C",
"M~.	c #1D3E85",
"N~.	c #476FAE",
"O~.	c #527CB6",
"P~.	c #4972B0",
"Q~.	c #4770AE",
"R~.	c #658FC6",
"S~.	c #6B95CA",
"T~.	c #5E87BD",
"U~.	c #5D85BB",
"V~.	c #5880B7",
"W~.	c #5078B1",
"X~.	c #567EB7",
"Y~.	c #5E89C1",
"Z~.	c #517BB6",
"`~.	c #4D77B2",
" {.	c #557EB8",
".{.	c #789ECE",
"+{.	c #769CCD",
"@{.	c #4D76B3",
"#{.	c #2B4F9A",
"${.	c #284B96",
"%{.	c #274993",
"&{.	c #23458D",
"*{.	c #183779",
"={.	c #1E3C75",
"-{.	c #213871",
";{.	c #22305A",
">{.	c #1C2C54",
",{.	c #1B2B53",
"'{.	c #1B2B52",
"){.	c #212841",
"!{.	c #4B4C62",
"~{.	c #A77E68",
"{{.	c #B9B7B0",
"]{.	c #BCBEB1",
"^{.	c #C0C2B5",
"/{.	c #CED1C7",
"({.	c #CCCDC1",
"_{.	c #D1D3C9",
":{.	c #EDE7D1",
"<{.	c #E8E3CF",
"[{.	c #EFEAD3",
"}{.	c #F0E9CD",
"|{.	c #E8DB58",
"1{.	c #F0E12C",
"2{.	c #F3E428",
"3{.	c #EEDF3B",
"4{.	c #F0E135",
"5{.	c #ECDE46",
"6{.	c #F0E026",
"7{.	c #E4D649",
"8{.	c #E9E0A3",
"9{.	c #EFEAD4",
"0{.	c #F2EDDA",
"a{.	c #EFE138",
"b{.	c #F3E52A",
"c{.	c #EFDF23",
"d{.	c #F0E023",
"e{.	c #F0E015",
"f{.	c #C4BE6D",
"g{.	c #9DA090",
"h{.	c #EAE4C7",
"i{.	c #E7E1C6",
"j{.	c #E8E2C9",
"k{.	c #E4DCBA",
"l{.	c #E0D5AE",
"m{.	c #DDD4B1",
"n{.	c #E3DBB9",
"o{.	c #DCD6B3",
"p{.	c #DBD4B3",
"q{.	c #D9D2B2",
"r{.	c #CFCAAC",
"s{.	c #C9C6AA",
"t{.	c #C5C3A6",
"u{.	c #CBC5A1",
"v{.	c #D6C67A",
"w{.	c #DACE4B",
"x{.	c #E6D71F",
"y{.	c #E8D209",
"z{.	c #E6CF16",
"A{.	c #DFCC21",
"B{.	c #D9CE60",
"C{.	c #DED78C",
"D{.	c #E8DD96",
"E{.	c #E7DD91",
"F{.	c #E3DA99",
"G{.	c #DCD498",
"H{.	c #DED696",
"I{.	c #E0D89B",
"J{.	c #E2DBA0",
"K{.	c #DDD697",
"L{.	c #DDD59C",
"M{.	c #D9CD8D",
"N{.	c #A58A6C",
"O{.	c #9F7160",
"P{.	c #A57160",
"Q{.	c #A87357",
"R{.	c #A66952",
"S{.	c #A46850",
"T{.	c #A46B56",
"U{.	c #A36C57",
"V{.	c #A76953",
"W{.	c #A56B54",
"X{.	c #996E5A",
"Y{.	c #70726C",
"Z{.	c #6D716E",
"`{.	c #6B706D",
" ].	c #5C666A",
".].	c #1D3754",
"+].	c #162B44",
"@].	c #15243B",
"#].	c #0F1A30",
"$].	c #101E39",
"%].	c #0F1D36",
"&].	c #0E1B34",
"*].	c #101D36",
"=].	c #0C2140",
"-].	c #0E2341",
";].	c #072041",
">].	c #0A2442",
",].	c #101D38",
"'].	c #0E1C36",
")].	c #131E35",
"!].	c #192B5D",
"~].	c #1B2959",
"{].	c #172A60",
"]].	c #1C3470",
"^].	c #15367E",
"/].	c #4B74B0",
"(].	c #638DC5",
"_].	c #6A94CA",
":].	c #638DC4",
"<].	c #5B84BB",
"[].	c #618CC3",
"}].	c #618BC1",
"|].	c #4D75B1",
"1].	c #5E89C2",
"2].	c #799FCE",
"3].	c #4A71B0",
"4].	c #1E4189",
"5].	c #183A83",
"6].	c #163479",
"7].	c #123074",
"8].	c #133276",
"9].	c #1E3875",
"0].	c #1E3874",
"a].	c #223974",
"b].	c #223A6C",
"c].	c #1C2B53",
"d].	c #362F4B",
"e].	c #312D4D",
"f].	c #362B47",
"g].	c #442945",
"h].	c #483347",
"i].	c #3E344C",
"j].	c #463F53",
"k].	c #737A88",
"l].	c #B7B8AD",
"m].	c #BFC2B7",
"n].	c #C3C5B4",
"o].	c #CACBBD",
"p].	c #D2D3C5",
"q].	c #D4D5C7",
"r].	c #D2D3C6",
"s].	c #D7D6C7",
"t].	c #E2DEC9",
"u].	c #E5E1CD",
"v].	c #F0EBD4",
"w].	c #EEE9D1",
"x].	c #F0E9CF",
"y].	c #F2EDD5",
"z].	c #F3F0DE",
"A].	c #E6D971",
"B].	c #EEDD24",
"C].	c #EBDE2B",
"D].	c #EBDA21",
"E].	c #E9DB38",
"F].	c #E7D842",
"G].	c #EBDB3B",
"H].	c #E3D75C",
"I].	c #ECE2A6",
"J].	c #EDE7C5",
"K].	c #ECE7CC",
"L].	c #EFEAD0",
"M].	c #F3ECD2",
"N].	c #F3ECD4",
"O].	c #F2EDD9",
"P].	c #F3EFDA",
"Q].	c #F1ECD5",
"R].	c #EFE7C1",
"S].	c #ECDC42",
"T].	c #EFE12A",
"U].	c #EFDF27",
"V].	c #F0E120",
"W].	c #EEDF1E",
"X].	c #EFE229",
"Y].	c #F2E328",
"Z].	c #F1E332",
"`].	c #BFBB76",
" ^.	c #9EA190",
".^.	c #D4D0BE",
"+^.	c #E9E3C5",
"@^.	c #EAE5C8",
"#^.	c #E4DDBC",
"$^.	c #E3DBB8",
"%^.	c #E3DBBA",
"&^.	c #D6CFAC",
"*^.	c #D4CEB5",
"=^.	c #D1CBB1",
"-^.	c #C9C5A8",
";^.	c #C8C4A7",
">^.	c #C7C3A1",
",^.	c #C7C29C",
"'^.	c #CDC7A0",
")^.	c #DBD14D",
"!^.	c #E8D806",
"~^.	c #ECDC02",
"{^.	c #E5D308",
"]^.	c #E1D980",
"^^.	c #E6E4D3",
"/^.	c #E8E6D5",
"(^.	c #E7E5D4",
"_^.	c #E6E5D5",
":^.	c #E7E6D6",
"<^.	c #E7E6D8",
"[^.	c #EAE9DA",
"}^.	c #E4E4D6",
"|^.	c #E2DFCE",
"1^.	c #E38758",
"2^.	c #F75A04",
"3^.	c #F85903",
"4^.	c #FA5C02",
"5^.	c #F65603",
"6^.	c #F75603",
"7^.	c #F85603",
"8^.	c #F65202",
"9^.	c #F05D08",
"0^.	c #93715E",
"a^.	c #696F6D",
"b^.	c #3C4D60",
"c^.	c #162E4C",
"d^.	c #132439",
"e^.	c #111D32",
"f^.	c #0E1930",
"g^.	c #0F1B33",
"h^.	c #0E203A",
"i^.	c #072141",
"j^.	c #081F3E",
"k^.	c #092140",
"l^.	c #10192C",
"m^.	c #14285A",
"n^.	c #17295E",
"o^.	c #213770",
"p^.	c #1A3370",
"q^.	c #1C3C84",
"r^.	c #22448E",
"s^.	c #456DAD",
"t^.	c #537CB7",
"u^.	c #5F8BC3",
"v^.	c #5E88C1",
"w^.	c #5F89C0",
"x^.	c #608AC1",
"y^.	c #648FC6",
"z^.	c #4E74AE",
"A^.	c #4C71AB",
"B^.	c #4A72B0",
"C^.	c #557FBA",
"D^.	c #5680BB",
"E^.	c #5781BA",
"F^.	c #628DC6",
"G^.	c #4069AC",
"H^.	c #21448C",
"I^.	c #193D86",
"J^.	c #163981",
"K^.	c #14347A",
"L^.	c #1C3774",
"M^.	c #213A72",
"N^.	c #213B6F",
"O^.	c #22386E",
"P^.	c #432C3E",
"Q^.	c #B32B13",
"R^.	c #C6351E",
"S^.	c #BD270E",
"T^.	c #C2250D",
"U^.	c #C4260D",
"V^.	c #C3270F",
"W^.	c #C12D14",
"X^.	c #BB674D",
"Y^.	c #B9B9AB",
"Z^.	c #C8CABF",
"`^.	c #CDCDBD",
" /.	c #D2D1C1",
"./.	c #D8D7C8",
"+/.	c #DFDBC4",
"@/.	c #E9E4D0",
"#/.	c #EBE6CF",
"$/.	c #F0EAD3",
"%/.	c #EFE9D3",
"&/.	c #F4EFD8",
"*/.	c #E4CF4E",
"=/.	c #E4CD3D",
"-/.	c #E0CA34",
";/.	c #E1CB3F",
">/.	c #E0C847",
",/.	c #E1C946",
"'/.	c #E3C64B",
")/.	c #E2CD52",
"!/.	c #E8DA86",
"~/.	c #E9E0A0",
"{/.	c #EBE1A8",
"]/.	c #EBE3AD",
"^/.	c #EFE8C3",
"//.	c #EFE7BC",
"(/.	c #F0E8C1",
"_/.	c #EFE7BE",
":/.	c #EFE6B9",
"</.	c #F1E9C5",
"[/.	c #F0EAC8",
"}/.	c #EBE2B5",
"|/.	c #EDDE50",
"1/.	c #EFDE2A",
"2/.	c #ECDA2A",
"3/.	c #EBDC2F",
"4/.	c #EDDC2C",
"5/.	c #EAD938",
"6/.	c #EDDC36",
"7/.	c #EBDC3C",
"8/.	c #B4AD7C",
"9/.	c #9EA193",
"0/.	c #EFE9CF",
"a/.	c #EFE9CA",
"b/.	c #E5DCB6",
"c/.	c #EAE3BF",
"d/.	c #E5DDBA",
"e/.	c #E2DAB7",
"f/.	c #DED6B3",
"g/.	c #DCD4B2",
"h/.	c #DAD3B3",
"i/.	c #D6D1B7",
"j/.	c #CEC9AF",
"k/.	c #C9C5A9",
"l/.	c #C5C1A2",
"m/.	c #CBC59C",
"n/.	c #CBC58E",
"o/.	c #E0D528",
"p/.	c #ECDC06",
"q/.	c #E7D926",
"r/.	c #DAD497",
"s/.	c #E1E2D1",
"t/.	c #E7E6D5",
"u/.	c #E6E5D4",
"v/.	c #E7E5D5",
"w/.	c #E4E3D3",
"x/.	c #E5E3D3",
"y/.	c #EAE6D6",
"z/.	c #EAE8D9",
"A/.	c #EC9266",
"B/.	c #F95B02",
"C/.	c #F35803",
"D/.	c #B06C4C",
"E/.	c #676C6A",
"F/.	c #5A6368",
"G/.	c #1B3350",
"H/.	c #15263F",
"I/.	c #0F1B35",
"J/.	c #0D1A33",
"K/.	c #0C1A33",
"L/.	c #0C1D37",
"M/.	c #102039",
"N/.	c #07203F",
"O/.	c #0B2242",
"P/.	c #071E3F",
"Q/.	c #0A1F3E",
"R/.	c #0B1F3D",
"S/.	c #0A1D39",
"T/.	c #0F203B",
"U/.	c #121A31",
"V/.	c #162C5E",
"W/.	c #172B62",
"X/.	c #19326C",
"Y/.	c #1C3572",
"Z/.	c #426BAD",
"`/.	c #5984BD",
" (.	c #5882BC",
".(.	c #5A84BD",
"+(.	c #5F8AC2",
"@(.	c #5B86BF",
"#(.	c #5881BB",
"$(.	c #4D72AB",
"%(.	c #4A6CA5",
"&(.	c #4C73AE",
"*(.	c #608BC4",
"=(.	c #628EC6",
"-(.	c #3F68AB",
";(.	c #2B509B",
">(.	c #1F3873",
",(.	c #1E356C",
"'(.	c #22386C",
")(.	c #212B4E",
"!(.	c #562E3C",
"~(.	c #CD230A",
"{(.	c #D2260B",
"](.	c #D42C0D",
"^(.	c #C86047",
"/(.	c #B7B8AB",
"((.	c #D1D0BF",
"_(.	c #D1CFBC",
":(.	c #DAD9C8",
"<(.	c #DCDAC8",
"[(.	c #DBD8C4",
"}(.	c #E6E1C5",
"|(.	c #F3EED6",
"1(.	c #F3EED7",
"2(.	c #EDE6CC",
"3(.	c #EF8235",
"4(.	c #F85D03",
"5(.	c #F75C03",
"6(.	c #F75D05",
"7(.	c #F35E08",
"8(.	c #F56107",
"9(.	c #F76106",
"0(.	c #F75F03",
"a(.	c #F0B41E",
"b(.	c #F0E235",
"c(.	c #F2E33E",
"d(.	c #F1E249",
"e(.	c #F2E336",
"f(.	c #F2E229",
"g(.	c #F0E13A",
"h(.	c #F1E138",
"i(.	c #EEE052",
"j(.	c #F1E24F",
"k(.	c #EBCA3E",
"l(.	c #F67E12",
"m(.	c #F77107",
"n(.	c #F76E07",
"o(.	c #F57A14",
"p(.	c #F37F21",
"q(.	c #F37315",
"r(.	c #F28423",
"s(.	c #F18529",
"t(.	c #C1976E",
"u(.	c #A1A393",
"v(.	c #EAE2C0",
"w(.	c #E5DEBD",
"x(.	c #E5DEC2",
"y(.	c #E9E4CD",
"z(.	c #E9E2C4",
"A(.	c #E5DDBF",
"B(.	c #E4DCBB",
"C(.	c #DAD4B7",
"D(.	c #D2CEB6",
"E(.	c #CBC9B5",
"F(.	c #C7C5AD",
"G(.	c #C7C4A8",
"H(.	c #C7C29B",
"I(.	c #CCC599",
"J(.	c #C9C392",
"K(.	c #D6CF3C",
"L(.	c #E9D90A",
"M(.	c #E5D936",
"N(.	c #E3DB9A",
"O(.	c #E3E2D1",
"P(.	c #E2E3D2",
"Q(.	c #E5E4D4",
"R(.	c #E5E5D6",
"S(.	c #E7E4D4",
"T(.	c #E5E2D1",
"U(.	c #E6E2D2",
"V(.	c #E9E5D4",
"W(.	c #E5E0CD",
"X(.	c #ED8449",
"Y(.	c #FB5902",
"Z(.	c #F35802",
"`(.	c #B76C4D",
" _.	c #717471",
"._.	c #666A68",
"+_.	c #646867",
"@_.	c #5F6A6E",
"#_.	c #314559",
"$_.	c #192B45",
"%_.	c #11233B",
"&_.	c #0C1C37",
"*_.	c #0E1A31",
"=_.	c #091D3B",
"-_.	c #071D3C",
";_.	c #0D1F3C",
">_.	c #0D1B38",
",_.	c #0B1B39",
"'_.	c #0D1B36",
")_.	c #131C31",
"!_.	c #162A58",
"~_.	c #1D3169",
"{_.	c #192E69",
"]_.	c #527CBA",
"^_.	c #5681BF",
"/_.	c #5C87C3",
"(_.	c #5D88C2",
"__.	c #5C87BF",
":_.	c #5C86C0",
"<_.	c #5882BD",
"[_.	c #4F79B5",
"}_.	c #5C87C1",
"|_.	c #264890",
"1_.	c #1F428A",
"2_.	c #1B3470",
"3_.	c #22376E",
"4_.	c #532B3B",
"5_.	c #D4270C",
"6_.	c #D42F0E",
"7_.	c #BE8C77",
"8_.	c #BEBEAE",
"9_.	c #D1CEBB",
"0_.	c #CECEC0",
"a_.	c #D4D3C3",
"b_.	c #DCD9C4",
"c_.	c #E0DBC4",
"d_.	c #EBE5CD",
"e_.	c #F0EAD1",
"f_.	c #F3EDD3",
"g_.	c #F4F0DB",
"h_.	c #F6F1D8",
"i_.	c #EE7644",
"j_.	c #F2A91A",
"k_.	c #F5E62A",
"l_.	c #F0BF1F",
"m_.	c #C28161",
"n_.	c #A7A896",
"o_.	c #F1EACF",
"p_.	c #E4DFC9",
"q_.	c #E8E3C9",
"r_.	c #E3DCBE",
"s_.	c #DED8BA",
"t_.	c #D3CFB7",
"u_.	c #D1CDB6",
"v_.	c #CECBB5",
"w_.	c #C7C5AE",
"x_.	c #C2BFA5",
"y_.	c #C8C4A0",
"z_.	c #C6C199",
"A_.	c #CAC396",
"B_.	c #CBC74A",
"C_.	c #E8D814",
"D_.	c #ECDA08",
"E_.	c #E9DC2A",
"F_.	c #E5DB91",
"G_.	c #E9E7D6",
"H_.	c #EBE9D9",
"I_.	c #EBE8D8",
"J_.	c #E9E7D7",
"K_.	c #E5E2D2",
"L_.	c #E7E3D3",
"M_.	c #ED8F58",
"N_.	c #F35503",
"O_.	c #AF6E53",
"P_.	c #707676",
"Q_.	c #656B6A",
"R_.	c #4B5F6D",
"S_.	c #15314F",
"T_.	c #13243C",
"U_.	c #0A1E3B",
"V_.	c #0C1C38",
"W_.	c #0C203C",
"X_.	c #0A1B38",
"Y_.	c #0B1B38",
"Z_.	c #142757",
"`_.	c #152658",
" :.	c #1E2E62",
".:.	c #1B2D64",
"+:.	c #3259A1",
"@:.	c #345CA5",
"#:.	c #3861AA",
"$:.	c #426DB2",
"%:.	c #527DBB",
"&:.	c #4B76B8",
"*:.	c #4975B8",
"=:.	c #507ABA",
"-:.	c #4C76B7",
";:.	c #4E79BB",
">:.	c #4A76BA",
",:.	c #4A74B6",
"':.	c #4D77B8",
"):.	c #547FBE",
"!:.	c #5882BE",
"~:.	c #537BB6",
"{:.	c #5079B5",
"]:.	c #4973B2",
"^:.	c #547FBC",
"/:.	c #5F8BC6",
"(:.	c #5A86C3",
"_:.	c #5985C4",
"::.	c #527DBC",
"<:.	c #5681BE",
"[:.	c #5883C0",
"}:.	c #537EBD",
"|:.	c #4C79BD",
"1:.	c #3D65AA",
"2:.	c #284C95",
"3:.	c #24478F",
"4:.	c #1E3066",
"5:.	c #222E59",
"6:.	c #46293D",
"7:.	c #CE230A",
"8:.	c #D12109",
"9:.	c #DA2B0D",
"0:.	c #D44222",
"a:.	c #BCA79A",
"b:.	c #C5C5B6",
"c:.	c #CBCDC0",
"d:.	c #CDCFC2",
"e:.	c #D3D1BF",
"f:.	c #DDD8C2",
"g:.	c #E6E0C8",
"h:.	c #ECE5CC",
"i:.	c #EBE5C7",
"j:.	c #EAE4C8",
"k:.	c #F4EED2",
"l:.	c #F5F0DB",
"m:.	c #F4F0D9",
"n:.	c #F4EFD6",
"o:.	c #F0EBD5",
"p:.	c #EF8A5D",
"q:.	c #F3A610",
"r:.	c #F6E406",
"s:.	c #F1C11C",
"t:.	c #CF7B57",
"u:.	c #ADAB95",
"v:.	c #E5DFC6",
"w:.	c #F0E9CB",
"x:.	c #E9E4CC",
"y:.	c #E6E1CD",
"z:.	c #E1DBC8",
"A:.	c #E0DABD",
"B:.	c #E7E0C2",
"C:.	c #E0D9B7",
"D:.	c #DFD8B9",
"E:.	c #DAD6BE",
"F:.	c #D8D5C1",
"G:.	c #D0CEBB",
"H:.	c #C8C7B3",
"I:.	c #C8C6AE",
"J:.	c #C4C2AC",
"K:.	c #C6C2A4",
"L:.	c #C8C39B",
"M:.	c #CCC699",
"N:.	c #C2C170",
"O:.	c #E5D61B",
"P:.	c #E7DA31",
"Q:.	c #E5DB90",
"R:.	c #E0DFCD",
"S:.	c #E2E3D4",
"T:.	c #E8E7D8",
"U:.	c #EAE8D7",
"V:.	c #E8E5D5",
"W:.	c #E2E1D0",
"X:.	c #EA8F60",
"Y:.	c #F35402",
"Z:.	c #B36D50",
"`:.	c #707370",
" <.	c #686B69",
".<.	c #606666",
"+<.	c #5D696C",
"@<.	c #28425B",
"#<.	c #152641",
"$<.	c #081F40",
"%<.	c #071E3E",
"&<.	c #091D3D",
"*<.	c #0B1A36",
"=<.	c #0E1B35",
"-<.	c #0D1A37",
";<.	c #131D33",
"><.	c #132C56",
",<.	c #152759",
"'<.	c #172757",
")<.	c #192958",
"!<.	c #162755",
"~<.	c #102457",
"{<.	c #152960",
"]<.	c #192D62",
"^<.	c #214080",
"/<.	c #203E7E",
"(<.	c #234387",
"_<.	c #26478E",
":<.	c #25488E",
"<<.	c #2A4D95",
"[<.	c #2D529A",
"}<.	c #2A5098",
"|<.	c #2C529A",
"1<.	c #294D96",
"2<.	c #264A93",
"3<.	c #274B94",
"4<.	c #2C529B",
"5<.	c #2D529B",
"6<.	c #3258A1",
"7<.	c #2F559F",
"8<.	c #2D529D",
"9<.	c #284B92",
"0<.	c #21448B",
"a<.	c #1D4088",
"b<.	c #183B83",
"c<.	c #212D56",
"d<.	c #482B3B",
"e<.	c #CC240B",
"f<.	c #D56141",
"g<.	c #B3B4A8",
"h<.	c #C2C5B8",
"i<.	c #CCCDBF",
"j<.	c #DFDCC9",
"k<.	c #EAE5CE",
"l<.	c #ECE7CE",
"m<.	c #F4EED4",
"n<.	c #EEE8CE",
"o<.	c #F07849",
"p<.	c #FB5802",
"q<.	c #F2A81C",
"r<.	c #F3E412",
"s<.	c #F5E629",
"t<.	c #F2BF20",
"u<.	c #D07B57",
"v<.	c #B6B398",
"w<.	c #EFE8D1",
"x<.	c #DFD8C1",
"y<.	c #E2DDC8",
"z<.	c #E3DDC4",
"A<.	c #E4DDC3",
"B<.	c #E3DCC1",
"C<.	c #ECE5C7",
"D<.	c #E5DDBC",
"E<.	c #DFD8BA",
"F<.	c #D8D4BF",
"G<.	c #D0CFBD",
"H<.	c #CCCAB5",
"I<.	c #C4C1A7",
"J<.	c #C5C2AA",
"K<.	c #C8C4A3",
"L<.	c #C9C49B",
"M<.	c #CAC58A",
"N<.	c #E2D431",
"O<.	c #E4DA3B",
"P<.	c #E4D990",
"Q<.	c #E5E3D1",
"R<.	c #E8E7D7",
"S<.	c #ECE9DA",
"T<.	c #EEECDF",
"U<.	c #EDEADC",
"V<.	c #E3E1D0",
"W<.	c #EAE7D7",
"X<.	c #E3E1D1",
"Y<.	c #E8996D",
"Z<.	c #F45502",
"`<.	c #F15302",
" [.	c #AF6843",
".[.	c #70736F",
"+[.	c #636866",
"@[.	c #5F6564",
"#[.	c #626E73",
"$[.	c #415769",
"%[.	c #152D47",
"&[.	c #0B1E3B",
"*[.	c #0A2241",
"=[.	c #0C2240",
"-[.	c #0A2240",
";[.	c #092342",
">[.	c #082242",
",[.	c #061D3D",
"'[.	c #081E3D",
")[.	c #091E3D",
"![.	c #0A1B39",
"~[.	c #0F1B36",
"{[.	c #0C172D",
"][.	c #151F39",
"^[.	c #0E1A33",
"/[.	c #111D37",
"([.	c #172B57",
"_[.	c #152757",
":[.	c #142557",
"<[.	c #142658",
"[[.	c #152656",
"}[.	c #172755",
"|[.	c #19285A",
"1[.	c #1B3774",
"2[.	c #203F81",
"3[.	c #204081",
"4[.	c #214286",
"5[.	c #1F3F85",
"6[.	c #22448D",
"7[.	c #254890",
"8[.	c #274A93",
"9[.	c #284A94",
"0[.	c #20428B",
"a[.	c #163982",
"b[.	c #173981",
"c[.	c #1D3571",
"d[.	c #203162",
"e[.	c #472739",
"f[.	c #C8230B",
"g[.	c #CC816D",
"h[.	c #B4B6AC",
"i[.	c #C8CABD",
"j[.	c #C8CABC",
"k[.	c #D3D4C7",
"l[.	c #D7D6C4",
"m[.	c #E2DFCD",
"n[.	c #E7E0CB",
"o[.	c #F3ECD3",
"p[.	c #F1EAD1",
"q[.	c #F5F0D9",
"r[.	c #EF764C",
"s[.	c #F0A81C",
"t[.	c #F5E41D",
"u[.	c #F5E40D",
"v[.	c #F3BD1A",
"w[.	c #CF7955",
"x[.	c #BBB8A0",
"y[.	c #EBE5CB",
"z[.	c #EEE7D0",
"A[.	c #E0DAC0",
"B[.	c #E1DCC5",
"C[.	c #E7E2CC",
"D[.	c #E6E0C9",
"E[.	c #E6E0CA",
"F[.	c #E4DEC2",
"G[.	c #E2DAB9",
"H[.	c #D8D2B8",
"I[.	c #D2CFBA",
"J[.	c #C6C3A8",
"K[.	c #BFBCA2",
"L[.	c #C6C3A7",
"M[.	c #CAC59E",
"N[.	c #C5C09A",
"O[.	c #DED44C",
"P[.	c #EAD90C",
"Q[.	c #E2D844",
"R[.	c #E4DA87",
"S[.	c #E9E6D5",
"T[.	c #EAE8D8",
"U[.	c #E9E6D6",
"V[.	c #EAA373",
"W[.	c #F15502",
"X[.	c #F05502",
"Y[.	c #F55602",
"Z[.	c #B36A49",
"`[.	c #6F7371",
" }.	c #636867",
".}.	c #606665",
"+}.	c #676C6B",
"@}.	c #4D5F6B",
"#}.	c #1A324D",
"$}.	c #09203E",
"%}.	c #081D3B",
"&}.	c #082243",
"*}.	c #0B2646",
"=}.	c #092343",
"-}.	c #091F3F",
";}.	c #061C3C",
">}.	c #081B38",
",}.	c #091C39",
"'}.	c #091B39",
")}.	c #091B38",
"!}.	c #091A37",
"~}.	c #0D182E",
"{}.	c #0B1935",
"]}.	c #0F1C39",
"^}.	c #111B34",
"/}.	c #101C35",
"(}.	c #101D37",
"_}.	c #162957",
":}.	c #152653",
"<}.	c #152555",
"[}.	c #17295B",
"}}.	c #1C2D62",
"|}.	c #1D3B7B",
"1}.	c #1B3A7B",
"2}.	c #1E3D7F",
"3}.	c #1E3F84",
"4}.	c #1E4086",
"5}.	c #1E3F86",
"6}.	c #1C3E86",
"7}.	c #20448A",
"8}.	c #21428B",
"9}.	c #23448C",
"0}.	c #24468E",
"a}.	c #26488F",
"b}.	c #25488F",
"c}.	c #25478D",
"d}.	c #25468D",
"e}.	c #26478F",
"f}.	c #1B3A7E",
"g}.	c #1E3369",
"h}.	c #212D51",
"i}.	c #212C52",
"j}.	c #4A293A",
"k}.	c #C6230B",
"l}.	c #D11E08",
"m}.	c #D32E15",
"n}.	c #C8A397",
"o}.	c #C2C5BC",
"p}.	c #C8CBBE",
"q}.	c #CBCEC3",
"r}.	c #D2D4C9",
"s}.	c #DBDAC9",
"t}.	c #E0DECE",
"u}.	c #ECE6D1",
"v}.	c #F2ECD3",
"w}.	c #F6F0D7",
"x}.	c #EDE6CD",
"y}.	c #F2ECD4",
"z}.	c #EE7F53",
"A}.	c #F1AC16",
"B}.	c #F4E30F",
"C}.	c #F5E625",
"D}.	c #F1C01F",
"E}.	c #D27753",
"F}.	c #C2BFAA",
"G}.	c #ECE7D2",
"H}.	c #E6E1CE",
"I}.	c #E4DFCB",
"J}.	c #E9E2C5",
"K}.	c #E4DDBB",
"L}.	c #CBC8B1",
"M}.	c #CBC9B4",
"N}.	c #C0BDA2",
"O}.	c #C4C1A8",
"P}.	c #CAC59B",
"Q}.	c #C1BD9E",
"R}.	c #DAD369",
"S}.	c #EDDC1D",
"T}.	c #E5DA3D",
"U}.	c #E6DA83",
"V}.	c #E4E3D2",
"W}.	c #E7E4D3",
"X}.	c #E89E72",
"Y}.	c #F65502",
"Z}.	c #F55502",
"`}.	c #B36E51",
" |.	c #656968",
".|.	c #626867",
"+|.	c #57656D",
"@|.	c #1E3751",
"#|.	c #092240",
"$|.	c #071C3B",
"%|.	c #081B39",
"&|.	c #071C3A",
"*|.	c #092345",
"=|.	c #092243",
"-|.	c #0B1E3D",
";|.	c #081D3C",
">|.	c #071B39",
",|.	c #0A1B37",
"'|.	c #0F1C35",
")|.	c #142856",
"!|.	c #182855",
"~|.	c #152453",
"{|.	c #142456",
"]|.	c #142453",
"^|.	c #142352",
"/|.	c #162657",
"(|.	c #162759",
"_|.	c #182754",
":|.	c #1D2E62",
"<|.	c #1B306B",
"[|.	c #1D356E",
"}|.	c #1E3971",
"||.	c #214081",
"1|.	c #204187",
"2|.	c #224489",
"3|.	c #21448A",
"4|.	c #234389",
"5|.	c #23458C",
"6|.	c #244589",
"7|.	c #244586",
"8|.	c #254585",
"9|.	c #25457D",
"0|.	c #234383",
"a|.	c #234485",
"b|.	c #244588",
"c|.	c #244488",
"d|.	c #193375",
"e|.	c #232F62",
"f|.	c #4A2939",
"g|.	c #C3250C",
"h|.	c #D13D25",
"i|.	c #C0A99A",
"j|.	c #BBBDB2",
"k|.	c #CFD0C3",
"l|.	c #D6D5C5",
"m|.	c #F1EAD3",
"n|.	c #F0EAD4",
"o|.	c #F2EACD",
"p|.	c #EF7B4C",
"q|.	c #F94F01",
"r|.	c #F1A817",
"s|.	c #F6E513",
"t|.	c #F5E626",
"u|.	c #F6E51B",
"v|.	c #F6E50A",
"w|.	c #F2BE1C",
"x|.	c #CAC6B1",
"y|.	c #EAE4CD",
"z|.	c #E9E6D3",
"A|.	c #E6E1D0",
"B|.	c #E7E2D2",
"C|.	c #DED7B5",
"D|.	c #DDD7B8",
"E|.	c #CDC9B1",
"F|.	c #C1C1AB",
"G|.	c #CBC7AD",
"H|.	c #C7C3A9",
"I|.	c #C2BEA5",
"J|.	c #BEBA9B",
"K|.	c #CBC378",
"L|.	c #EBDB25",
"M|.	c #E7D92B",
"N|.	c #E5DA74",
"O|.	c #E3E2CF",
"P|.	c #E1E1D1",
"Q|.	c #E3E3D2",
"R|.	c #E8E6D6",
"S|.	c #E9E5D6",
"T|.	c #E8A37A",
"U|.	c #F65602",
"V|.	c #F55102",
"W|.	c #F15402",
"X|.	c #F25502",
"Y|.	c #EE5502",
"Z|.	c #B26A4B",
"`|.	c #737572",
" 1.	c #616666",
".1.	c #5C676A",
"+1.	c #2B4259",
"@1.	c #0E2540",
"#1.	c #09213C",
"$1.	c #061C39",
"%1.	c #0A1C39",
"&1.	c #061C3B",
"*1.	c #071F3F",
"=1.	c #0D2140",
"-1.	c #091F3E",
";1.	c #071D3D",
">1.	c #0B1A35",
",1.	c #0F1E37",
"'1.	c #111A31",
")1.	c #182A57",
"!1.	c #15234E",
"~1.	c #122251",
"{1.	c #172553",
"]1.	c #18244F",
"^1.	c #17244E",
"/1.	c #152452",
"(1.	c #132456",
"_1.	c #1C2D56",
":1.	c #1C2C5A",
"<1.	c #1D3972",
"[1.	c #1C3976",
"}1.	c #1E3D81",
"|1.	c #214182",
"11.	c #1F4086",
"21.	c #1F4087",
"31.	c #214188",
"41.	c #204189",
"51.	c #214187",
"61.	c #204287",
"71.	c #29457E",
"81.	c #2A4678",
"91.	c #294273",
"01.	c #253F75",
"a1.	c #243F79",
"b1.	c #23427E",
"c1.	c #224384",
"d1.	c #224082",
"e1.	c #224382",
"f1.	c #224385",
"g1.	c #224285",
"h1.	c #1D3874",
"i1.	c #1F284C",
"j1.	c #3B273C",
"k1.	c #C93810",
"l1.	c #DD3506",
"m1.	c #E03508",
"n1.	c #E13707",
"o1.	c #DC3608",
"p1.	c #D55732",
"q1.	c #BAB09F",
"r1.	c #C5C7B8",
"s1.	c #D1D2C6",
"t1.	c #DDDBCA",
"u1.	c #EAE5D3",
"v1.	c #EDE8D2",
"w1.	c #F5EFD4",
"x1.	c #EEE4C5",
"y1.	c #F16729",
"z1.	c #F3AE18",
"A1.	c #F4E520",
"B1.	c #F4B61C",
"C1.	c #C67F5F",
"D1.	c #CEC9B0",
"E1.	c #E9E4D2",
"F1.	c #DED4B0",
"G1.	c #DCD2AC",
"H1.	c #DFD4AD",
"I1.	c #E6DFBF",
"J1.	c #E3DCBC",
"K1.	c #DCD6B6",
"L1.	c #DBD4B4",
"M1.	c #CCC8AE",
"N1.	c #C6C4AB",
"O1.	c #CCC7AB",
"P1.	c #CAC7AF",
"Q1.	c #C3C0A8",
"R1.	c #C2C0A9",
"S1.	c #C3BF9B",
"T1.	c #C2BD88",
"U1.	c #DED336",
"V1.	c #E0D830",
"W1.	c #E7DD96",
"X1.	c #E8E6D4",
"Y1.	c #E5E4D3",
"Z1.	c #E5E3D2",
"`1.	c #E6E3D3",
" 2.	c #E89D77",
".2.	c #B86641",
"+2.	c #797B77",
"@2.	c #646866",
"#2.	c #626766",
"$2.	c #5D6464",
"%2.	c #5E6769",
"&2.	c #364D5F",
"*2.	c #122B46",
"=2.	c #0B2541",
"-2.	c #061D3C",
";2.	c #071E3D",
">2.	c #081E3E",
",2.	c #0B1E3C",
"'2.	c #091C3B",
")2.	c #051C3B",
"!2.	c #091D3A",
"~2.	c #091834",
"{2.	c #0F1A32",
"]2.	c #16234C",
"^2.	c #162247",
"/2.	c #15244F",
"(2.	c #172759",
"_2.	c #203455",
":2.	c #1E3055",
"<2.	c #1F2F50",
"[2.	c #1F2E51",
"}2.	c #203155",
"|2.	c #1B2E54",
"12.	c #1A2F5E",
"22.	c #1E3A70",
"32.	c #1B3977",
"42.	c #1D3B79",
"52.	c #1F3C7B",
"62.	c #1D3C78",
"72.	c #1C3A78",
"82.	c #1E3D7C",
"92.	c #1D3B80",
"02.	c #234288",
"a2.	c #214281",
"b2.	c #254374",
"c2.	c #203762",
"d2.	c #1B3358",
"e2.	c #1F386B",
"f2.	c #1E3B75",
"g2.	c #213E7F",
"h2.	c #234283",
"i2.	c #234486",
"j2.	c #1E3F82",
"k2.	c #18397E",
"l2.	c #183477",
"m2.	c #1E3873",
"n2.	c #3C2E40",
"o2.	c #E65F17",
"p2.	c #E5835A",
"q2.	c #B8B8A9",
"r2.	c #C5C7B9",
"s2.	c #D1D3C8",
"t2.	c #CCCEC1",
"u2.	c #E5E0CA",
"v2.	c #E6E2CD",
"w2.	c #EFE9D2",
"x2.	c #E7A87D",
"y2.	c #ED9A6F",
"z2.	c #EC9A72",
"A2.	c #EB8551",
"B2.	c #E98549",
"C2.	c #E67431",
"D2.	c #F16119",
"E2.	c #EE6520",
"F2.	c #E7B334",
"G2.	c #EBDC20",
"H2.	c #E9DC25",
"I2.	c #EFE021",
"J2.	c #EBDD22",
"K2.	c #EADC27",
"L2.	c #E9DD33",
"M2.	c #ECDF30",
"N2.	c #E8DC2E",
"O2.	c #E3D931",
"P2.	c #E2D736",
"Q2.	c #DFD63B",
"R2.	c #E4D73E",
"S2.	c #DDD447",
"T2.	c #DED448",
"U2.	c #DDB744",
"V2.	c #E07130",
"W2.	c #DF6C37",
"X2.	c #E46B39",
"Y2.	c #E56935",
"Z2.	c #E36636",
"`2.	c #E56E3B",
" 3.	c #E87C4E",
".3.	c #EB976A",
"+3.	c #D5BA9E",
"@3.	c #F2EBCF",
"#3.	c #E8E2C6",
"$3.	c #E5DDBE",
"%3.	c #E1D7B2",
"&3.	c #DBD0A8",
"*3.	c #DDD2AB",
"=3.	c #DAD1AB",
"-3.	c #DDD6B7",
";3.	c #D1CBAE",
">3.	c #CCC7AC",
",3.	c #D2CBAD",
"'3.	c #CFCAB0",
")3.	c #C3C2AB",
"!3.	c #C4C1A4",
"~3.	c #C9C39A",
"{3.	c #C6C19B",
"]3.	c #B9B695",
"^3.	c #D4CD4E",
"/3.	c #E0D42F",
"(3.	c #E3DA85",
"_3.	c #ECEADA",
":3.	c #E29F77",
"<3.	c #EE610B",
"[3.	c #F26405",
"}3.	c #F35B03",
"|3.	c #F35A03",
"13.	c #F15802",
"23.	c #F25A03",
"33.	c #EE5C03",
"43.	c #F05802",
"53.	c #F15A03",
"63.	c #EE5703",
"73.	c #B76943",
"83.	c #6B706C",
"93.	c #636766",
"03.	c #5F6565",
"a3.	c #425663",
"b3.	c #13314D",
"c3.	c #0A2441",
"d3.	c #082342",
"e3.	c #061B39",
"f3.	c #051D3D",
"g3.	c #061D3E",
"h3.	c #081D3D",
"i3.	c #051C3C",
"j3.	c #071F3E",
"k3.	c #071F3D",
"l3.	c #072040",
"m3.	c #061F3E",
"n3.	c #0A2644",
"o3.	c #091A36",
"p3.	c #112653",
"q3.	c #162249",
"r3.	c #152246",
"s3.	c #15234C",
"t3.	c #203053",
"u3.	c #1C2A49",
"v3.	c #122342",
"w3.	c #1A2C55",
"x3.	c #1D3060",
"y3.	c #233868",
"z3.	c #21386D",
"A3.	c #1F3A6F",
"B3.	c #1B3573",
"C3.	c #1E3771",
"D3.	c #1F3A72",
"E3.	c #1D3771",
"F3.	c #1D3977",
"G3.	c #204080",
"H3.	c #214183",
"I3.	c #213F7F",
"J3.	c #214171",
"K3.	c #20375F",
"L3.	c #192A4B",
"M3.	c #1C3361",
"N3.	c #1C3872",
"O3.	c #1F3E72",
"P3.	c #203F7B",
"Q3.	c #1F3E7F",
"R3.	c #19397D",
"S3.	c #1D336B",
"T3.	c #1E2E63",
"U3.	c #1F294B",
"V3.	c #3D3042",
"W3.	c #E35F10",
"X3.	c #D88D6B",
"Y3.	c #CECFC1",
"Z3.	c #CAC9B7",
"`3.	c #E9E3CA",
" 4.	c #F2ECD2",
".4.	c #F3ECCD",
"+4.	c #EBE09D",
"@4.	c #CBBC94",
"#4.	c #BAAC8A",
"$4.	c #A79F82",
"%4.	c #9E9E77",
"&4.	c #9EA076",
"*4.	c #9D9F79",
"=4.	c #9B9E7A",
"-4.	c #97997D",
";4.	c #99997C",
">4.	c #97987D",
",4.	c #98997D",
"'4.	c #96997F",
")4.	c #989A83",
"!4.	c #949684",
"~4.	c #939686",
"{4.	c #979A89",
"]4.	c #94978A",
"^4.	c #979A8B",
"/4.	c #9D9F8E",
"(4.	c #AAA997",
"_4.	c #B2B09A",
":4.	c #ACAA95",
"<4.	c #B7B39C",
"[4.	c #C5C2AC",
"}4.	c #D5D1B8",
"|4.	c #E2DDC0",
"14.	c #F2EBD4",
"24.	c #E7DFBE",
"34.	c #E7E0C3",
"44.	c #E1DAB7",
"54.	c #E1D8B4",
"64.	c #D8CEA8",
"74.	c #E0D5AF",
"84.	c #DDD4AF",
"94.	c #D5CDA9",
"04.	c #D4CFAF",
"a4.	c #D1CCAD",
"b4.	c #CFC9AB",
"c4.	c #D2CCB3",
"d4.	c #C2C0A7",
"e4.	c #C3C0A2",
"f4.	c #CAC5A3",
"g4.	c #C6C2A0",
"h4.	c #BCBA9D",
"i4.	c #D1C966",
"j4.	c #E3D831",
"k4.	c #E4DD83",
"l4.	c #E4E4D3",
"m4.	c #E5E5D5",
"n4.	c #E7E3CF",
"o4.	c #E4DA91",
"p4.	c #F0D61C",
"q4.	c #F3D814",
"r4.	c #F0D210",
"s4.	c #F1D214",
"t4.	c #F0D312",
"u4.	c #F1D213",
"v4.	c #F0D011",
"w4.	c #F0CD0C",
"x4.	c #EFCF11",
"y4.	c #ECCE29",
"z4.	c #BDA965",
"A4.	c #6B6E6A",
"B4.	c #606464",
"C4.	c #5C6263",
"D4.	c #5F6666",
"E4.	c #4F5F68",
"F4.	c #203A56",
"G4.	c #0C2E4A",
"H4.	c #0A2543",
"I4.	c #092445",
"J4.	c #082040",
"K4.	c #061C3D",
"L4.	c #07203E",
"M4.	c #051E3E",
"N4.	c #0A1E3C",
"O4.	c #082244",
"P4.	c #082143",
"Q4.	c #082043",
"R4.	c #092444",
"S4.	c #0B2547",
"T4.	c #0D2748",
"U4.	c #172D52",
"V4.	c #18244A",
"W4.	c #152349",
"X4.	c #152650",
"Y4.	c #142759",
"Z4.	c #1D2A5A",
"`4.	c #1E2D55",
" 5.	c #17213B",
".5.	c #131D37",
"+5.	c #19284D",
"@5.	c #1D3059",
"#5.	c #1D3164",
"$5.	c #1F396A",
"%5.	c #1E3B6B",
"&5.	c #1D396B",
"*5.	c #1D3769",
"=5.	c #1D376F",
"-5.	c #1E3972",
";5.	c #1F3D72",
">5.	c #1E3C76",
",5.	c #224080",
"'5.	c #21427B",
")5.	c #1E3E7B",
"!5.	c #1F3C7A",
"~5.	c #224081",
"{5.	c #21407F",
"]5.	c #203E7C",
"^5.	c #23437D",
"/5.	c #223C66",
"(5.	c #142540",
"_5.	c #1D305C",
":5.	c #1F376E",
"<5.	c #203A72",
"[5.	c #1F3B73",
"}5.	c #1D3D74",
"|5.	c #1E3C78",
"15.	c #1C3D83",
"25.	c #1D2B5C",
"35.	c #1E2C5E",
"45.	c #222B4C",
"55.	c #392D3F",
"65.	c #DF5B10",
"75.	c #FA6102",
"85.	c #FC6303",
"95.	c #CE977E",
"05.	c #CDCCBB",
"a5.	c #E6E1CB",
"b5.	c #F6F2DD",
"c5.	c #C5C2AB",
"d5.	c #AFB2A7",
"e5.	c #A4A9A4",
"f5.	c #9AA19E",
"g5.	c #99A096",
"h5.	c #969D97",
"i5.	c #959C94",
"j5.	c #969C92",
"k5.	c #969E9C",
"l5.	c #99A09A",
"m5.	c #9CA39F",
"n5.	c #A0A59C",
"o5.	c #A3A79F",
"p5.	c #A0A599",
"q5.	c #A7AA9C",
"r5.	c #ADAFA1",
"s5.	c #C9C8B3",
"t5.	c #CECCB6",
"u5.	c #D8D5BF",
"v5.	c #DFDBC7",
"w5.	c #E5E1C9",
"x5.	c #E4DFC6",
"y5.	c #EAE5CA",
"z5.	c #ECE7CA",
"A5.	c #EAE3C5",
"B5.	c #E7E0BE",
"C5.	c #E2DAB4",
"D5.	c #E2DCBE",
"E5.	c #DDD6B6",
"F5.	c #D6CEAA",
"G5.	c #D6CCA5",
"H5.	c #DDD0AA",
"I5.	c #E5DCB8",
"J5.	c #DED4AD",
"K5.	c #DCD2AE",
"L5.	c #DCD4B4",
"M5.	c #D1CBAB",
"N5.	c #D2CCAD",
"O5.	c #D4CEAD",
"P5.	c #D2CCAF",
"Q5.	c #C9C4A3",
"R5.	c #C2BFA2",
"S5.	c #C6C17D",
"T5.	c #E0D732",
"U5.	c #E5DC90",
"V5.	c #E6E6D5",
"W5.	c #E6E3D2",
"X5.	c #EADF8D",
"Y5.	c #F4E31A",
"Z5.	c #B9B35D",
"`5.	c #6E706B",
" 6.	c #626665",
".6.	c #5F6464",
"+6.	c #5A6061",
"@6.	c #5B6263",
"#6.	c #55646B",
"$6.	c #294058",
"%6.	c #0C2D4A",
"&6.	c #0A2443",
"*6.	c #09213E",
"=6.	c #081F3F",
"-6.	c #091D3C",
";6.	c #061D3F",
">6.	c #071A39",
",6.	c #062040",
"'6.	c #092245",
")6.	c #0A2446",
"!6.	c #0B2849",
"~6.	c #092145",
"{6.	c #0B2A4B",
"]6.	c #0B284B",
"^6.	c #092545",
"/6.	c #092041",
"(6.	c #082041",
"_6.	c #08203F",
":6.	c #182851",
"<6.	c #17244F",
"[6.	c #18254D",
"}6.	c #18244C",
"|6.	c #1C2A5B",
"16.	c #152034",
"26.	c #161E31",
"36.	c #131826",
"46.	c #111728",
"56.	c #111729",
"66.	c #131829",
"76.	c #121725",
"86.	c #121826",
"96.	c #111829",
"06.	c #13182A",
"a6.	c #162340",
"b6.	c #1F3059",
"c6.	c #1E3261",
"d6.	c #1F3362",
"e6.	c #1C3166",
"f6.	c #1C3267",
"g6.	c #1D3466",
"h6.	c #1E3A6A",
"i6.	c #203B6C",
"j6.	c #1F3C6F",
"k6.	c #1E3D70",
"l6.	c #1D3C73",
"m6.	c #1E3D78",
"n6.	c #1F3F7E",
"o6.	c #204079",
"p6.	c #203F7D",
"q6.	c #1D3B75",
"r6.	c #203C7C",
"s6.	c #22417C",
"t6.	c #214077",
"u6.	c #1E3B6D",
"v6.	c #182744",
"w6.	c #15243F",
"x6.	c #16243B",
"y6.	c #17233F",
"z6.	c #18284B",
"A6.	c #203566",
"B6.	c #203971",
"C6.	c #1C3974",
"D6.	c #223266",
"E6.	c #1E2B5C",
"F6.	c #392B3B",
"G6.	c #DF5C10",
"H6.	c #FA6002",
"I6.	c #F96105",
"J6.	c #C6A489",
"K6.	c #C5C3B2",
"L6.	c #E7E2CA",
"M6.	c #F1EBD4",
"N6.	c #EDE8CF",
"O6.	c #B6B8AD",
"P6.	c #ADB1AB",
"Q6.	c #A5AAA8",
"R6.	c #98A1A5",
"S6.	c #99A1A0",
"T6.	c #989F9B",
"U6.	c #9AA098",
"V6.	c #9FA393",
"W6.	c #A2A69D",
"X6.	c #A6A9A0",
"Y6.	c #ABAEA1",
"Z6.	c #B0B1A2",
"`6.	c #B4B5A8",
" 7.	c #BBBCAE",
".7.	c #C9C9B9",
"+7.	c #DCDAC9",
"@7.	c #E3E0CE",
"#7.	c #EAE6CF",
"$7.	c #EBE6D3",
"%7.	c #E9E1BF",
"&7.	c #DDD5B4",
"*7.	c #D4CBA7",
"=7.	c #DAD1AA",
"-7.	c #DBD2AF",
";7.	c #DDD3AD",
">7.	c #DBD1AB",
",7.	c #DBD2B0",
"'7.	c #D9D2B3",
")7.	c #D4CEAF",
"!7.	c #D3CEB1",
"~7.	c #D8D1B0",
"{7.	c #D3CBAA",
"]7.	c #C9C6AC",
"^7.	c #CAC5A5",
"/7.	c #C9C3A0",
"(7.	c #C5C1A1",
"_7.	c #C4C09B",
":7.	c #E0D63E",
"<7.	c #E5DB85",
"[7.	c #E6E4D4",
"}7.	c #E8E5D3",
"|7.	c #E6DC8C",
"17.	c #F5E306",
"27.	c #F3E207",
"37.	c #F3E208",
"47.	c #F6E304",
"57.	c #EFDF24",
"67.	c #BCB854",
"77.	c #6D706C",
"87.	c #626662",
"97.	c #595C5C",
"07.	c #595F5F",
"a7.	c #5B6162",
"b7.	c #576369",
"c7.	c #2E4359",
"d7.	c #0A2643",
"e7.	c #071835",
"f7.	c #0A1C3A",
"g7.	c #081935",
"h7.	c #061B3A",
"i7.	c #0A2747",
"j7.	c #082344",
"k7.	c #082142",
"l7.	c #082246",
"m7.	c #0A2648",
"n7.	c #0A254A",
"o7.	c #0B274C",
"p7.	c #0A2848",
"q7.	c #092344",
"r7.	c #082140",
"s7.	c #071F3C",
"t7.	c #051E3F",
"u7.	c #061E3D",
"v7.	c #172653",
"w7.	c #151E31",
"x7.	c #141B28",
"y7.	c #151927",
"z7.	c #141826",
"A7.	c #131828",
"B7.	c #131623",
"C7.	c #14192B",
"D7.	c #141A28",
"E7.	c #141924",
"F7.	c #131824",
"G7.	c #141928",
"H7.	c #151A28",
"I7.	c #111727",
"J7.	c #17233C",
"K7.	c #1B2F5B",
"L7.	c #1C325F",
"M7.	c #1C3365",
"N7.	c #1D3669",
"O7.	c #1F3A6D",
"P7.	c #1F3B6F",
"Q7.	c #213D7A",
"R7.	c #223E7E",
"S7.	c #203E77",
"T7.	c #214078",
"U7.	c #244072",
"V7.	c #253E74",
"W7.	c #264071",
"X7.	c #29406E",
"Y7.	c #243D6A",
"Z7.	c #1D345B",
"`7.	c #192C4C",
" 8.	c #16223B",
".8.	c #152037",
"+8.	c #162238",
"@8.	c #192E57",
"#8.	c #1D3C77",
"$8.	c #1D3D77",
"%8.	c #1B3875",
"&8.	c #1D3671",
"*8.	c #213267",
"=8.	c #1F2D61",
"-8.	c #3A2D3F",
";8.	c #E15A10",
">8.	c #FA5E02",
",8.	c #F36414",
"'8.	c #C2A88B",
")8.	c #CAC8B2",
"!8.	c #D1CBAD",
"~8.	c #CBCAB5",
"{8.	c #D2D1BF",
"]8.	c #E4E0CD",
"^8.	c #F2EDD3",
"/8.	c #CBCBBB",
"(8.	c #B5B8AC",
"_8.	c #AFB2AC",
":8.	c #A9ADA9",
"<8.	c #A4A8A1",
"[8.	c #A2A7A2",
"}8.	c #A3A8A1",
"|8.	c #AAAC9E",
"18.	c #B4B4A3",
"28.	c #C0BEAA",
"38.	c #CDC9B0",
"48.	c #D6D1B6",
"58.	c #D8D4BB",
"68.	c #DBD7BF",
"78.	c #DDD9C1",
"88.	c #F2ECD0",
"98.	c #F3ECD5",
"08.	c #E9E2C3",
"a8.	c #E8E1C1",
"b8.	c #E9E3C2",
"c8.	c #E6DFBC",
"d8.	c #E3D9B6",
"e8.	c #E2DABA",
"f8.	c #D8D2B3",
"g8.	c #D7CFAC",
"h8.	c #D9D0AD",
"i8.	c #DAD1AD",
"j8.	c #D8CFA9",
"k8.	c #DCD2AB",
"l8.	c #DCD4B3",
"m8.	c #DDD6B8",
"n8.	c #D4CDAE",
"o8.	c #D5CFB6",
"p8.	c #C9C4A6",
"q8.	c #C2BFA3",
"r8.	c #D9D150",
"s8.	c #E5DC77",
"t8.	c #DEDDCC",
"u8.	c #E5E5D4",
"v8.	c #E3E1CC",
"w8.	c #E6DD97",
"x8.	c #F2E106",
"y8.	c #F3E205",
"z8.	c #F0E010",
"A8.	c #F4E208",
"B8.	c #EEE024",
"C8.	c #BEBD59",
"D8.	c #6B6D64",
"E8.	c #60635F",
"F8.	c #595E5E",
"G8.	c #595E5F",
"H8.	c #5A6161",
"I8.	c #586266",
"J8.	c #354B5F",
"K8.	c #0C2946",
"L8.	c #0C223D",
"M8.	c #081936",
"N8.	c #0A1B3A",
"O8.	c #071C3C",
"P8.	c #0A2447",
"Q8.	c #0A2749",
"R8.	c #0B2C4A",
"S8.	c #092544",
"T8.	c #082141",
"U8.	c #071E3C",
"V8.	c #061E3E",
"W8.	c #0F2442",
"X8.	c #172655",
"Y8.	c #152553",
"Z8.	c #131B2D",
"`8.	c #141929",
" 9.	c #141925",
".9.	c #131825",
"+9.	c #141825",
"@9.	c #141927",
"#9.	c #141B26",
"$9.	c #131720",
"%9.	c #131722",
"&9.	c #121522",
"*9.	c #121724",
"=9.	c #141B2B",
"-9.	c #151F36",
";9.	c #192942",
">9.	c #213459",
",9.	c #1E315D",
"'9.	c #1F3560",
")9.	c #1C3265",
"!9.	c #1E386C",
"~9.	c #203C71",
"{9.	c #1D3872",
"]9.	c #213D77",
"^9.	c #233F78",
"/9.	c #243E71",
"(9.	c #223F71",
"_9.	c #23426C",
":9.	c #273D6B",
"<9.	c #23396B",
"[9.	c #283D6D",
"}9.	c #233562",
"|9.	c #1B3053",
"19.	c #162A48",
"29.	c #18243F",
"39.	c #1A2F5A",
"49.	c #1D376C",
"59.	c #1C3972",
"69.	c #1C3A72",
"79.	c #1D3C75",
"89.	c #1D3975",
"99.	c #1D3670",
"09.	c #1C336C",
"a9.	c #1E2F65",
"b9.	c #362E41",
"c9.	c #E85812",
"d9.	c #F1631A",
"e9.	c #C7AC8F",
"f9.	c #C5C3AD",
"g9.	c #CDC8AE",
"h9.	c #DBDACA",
"i9.	c #DAD9C9",
"j9.	c #E1DECA",
"k9.	c #ECE7D4",
"l9.	c #A6AAA3",
"m9.	c #AFB2A6",
"n9.	c #B8B8A8",
"o9.	c #C8C7B1",
"p9.	c #E5DFC0",
"q9.	c #EFE8CD",
"r9.	c #F5F0D4",
"s9.	c #F3EDD1",
"t9.	c #F6F0D4",
"u9.	c #F4EDCE",
"v9.	c #F0EACA",
"w9.	c #EDE6CB",
"x9.	c #EBE6C9",
"y9.	c #E5DEBA",
"z9.	c #E7DFBD",
"A9.	c #E4DBB7",
"B9.	c #E0D5B1",
"C9.	c #D8D2B1",
"D9.	c #CDC6A1",
"E9.	c #D3CAA3",
"F9.	c #DBCFA7",
"G9.	c #DCD4B0",
"H9.	c #D5CEB1",
"I9.	c #D6D1B4",
"J9.	c #D5CEB4",
"K9.	c #D3CDB4",
"L9.	c #CDC8AC",
"M9.	c #C9C4A7",
"N9.	c #C0BD9D",
"O9.	c #C0BDA3",
"P9.	c #D2CC6D",
"Q9.	c #E6DD78",
"R9.	c #E2E1CE",
"S9.	c #E4E3D1",
"T9.	c #DEDAC3",
"U9.	c #E1D894",
"V9.	c #F2E105",
"W9.	c #F5E40C",
"X9.	c #F2E310",
"Y9.	c #F4E30A",
"Z9.	c #E9DB2F",
"`9.	c #BAB65C",
" 0.	c #6A6C67",
".0.	c #606562",
"+0.	c #595D5D",
"@0.	c #585C5C",
"#0.	c #566166",
"$0.	c #3B5162",
"%0.	c #0C243F",
"&0.	c #081937",
"*0.	c #061A39",
"=0.	c #051D3C",
"-0.	c #061E3F",
";0.	c #072042",
">0.	c #061E41",
",0.	c #0A2546",
"'0.	c #0B2A4C",
")0.	c #0C294C",
"!0.	c #092546",
"~0.	c #092242",
"{0.	c #061F40",
"]0.	c #061E40",
"^0.	c #172854",
"/0.	c #1A2A5B",
"(0.	c #161925",
"_0.	c #131724",
":0.	c #141824",
"<0.	c #151923",
"[0.	c #141C24",
"}0.	c #161B24",
"|0.	c #141723",
"10.	c #151B29",
"20.	c #151D2E",
"30.	c #151D30",
"40.	c #161F34",
"50.	c #162038",
"60.	c #162441",
"70.	c #1A2D50",
"80.	c #213566",
"90.	c #213870",
"00.	c #223B6E",
"a0.	c #213A6D",
"b0.	c #223E6C",
"c0.	c #28446B",
"d0.	c #2B456C",
"e0.	c #233F68",
"f0.	c #213E67",
"g0.	c #1F3A69",
"h0.	c #263A6C",
"i0.	c #223562",
"j0.	c #1D325D",
"k0.	c #1B2D5A",
"l0.	c #141F37",
"m0.	c #151F33",
"n0.	c #192B49",
"o0.	c #1B305B",
"p0.	c #1C346B",
"q0.	c #1D376E",
"r0.	c #1F3972",
"s0.	c #1E3A75",
"t0.	c #1B3673",
"u0.	c #1D2B5D",
"v0.	c #172652",
"w0.	c #2C2942",
"x0.	c #E0510E",
"y0.	c #EF5F1A",
"z0.	c #C4B499",
"A0.	c #C5C2AD",
"B0.	c #CAC4A7",
"C0.	c #C4C4B2",
"D0.	c #D6D6C6",
"E0.	c #DADACA",
"F0.	c #E1DCC7",
"G0.	c #E7E2C9",
"H0.	c #F4EDD3",
"I0.	c #F5F1DC",
"J0.	c #D8D5BE",
"K0.	c #B7B9AD",
"L0.	c #C7C4AE",
"M0.	c #EEE7CB",
"N0.	c #F3EDD0",
"O0.	c #F3EDCF",
"P0.	c #F4EECF",
"Q0.	c #F4EED1",
"R0.	c #F2ECCD",
"S0.	c #F3EDCE",
"T0.	c #EFE8C8",
"U0.	c #E4DDB9",
"V0.	c #E4DCB7",
"W0.	c #E5DEB9",
"X0.	c #DDD4B3",
"Y0.	c #CFC9A6",
"Z0.	c #D8D0AC",
"`0.	c #D6CFAE",
" a.	c #D4CDAF",
".a.	c #CEC7A2",
"+a.	c #DACFA8",
"@a.	c #E0D2AC",
"#a.	c #D9D1AB",
"$a.	c #D4CEAE",
"%a.	c #D1CCAF",
"&a.	c #D5D0B4",
"*a.	c #D0CBAD",
"=a.	c #C7C3A7",
"-a.	c #C6C2A7",
";a.	c #C0BC9E",
">a.	c #B7B69E",
",a.	c #C4BF8C",
"'a.	c #E0D784",
")a.	c #DCDCCD",
"!a.	c #E3E2D2",
"~a.	c #E6E3D1",
"{a.	c #E7E4D1",
"]a.	c #E1D793",
"^a.	c #F4E204",
"/a.	c #F2E217",
"(a.	c #F4E206",
"_a.	c #F1E009",
":a.	c #EDDE24",
"<a.	c #EADC2D",
"[a.	c #BEB85C",
"}a.	c #6F726C",
"|a.	c #5E6260",
"1a.	c #5B6061",
"2a.	c #5A6060",
"3a.	c #566064",
"4a.	c #3E5463",
"5a.	c #0C2A46",
"6a.	c #0B213C",
"7a.	c #0B1D38",
"8a.	c #091936",
"9a.	c #061937",
"0a.	c #071A38",
"aa.	c #051938",
"ba.	c #051D3F",
"ca.	c #061E42",
"da.	c #0A2445",
"ea.	c #082146",
"fa.	c #082144",
"ga.	c #081F3D",
"ha.	c #071F40",
"ia.	c #1E2C49",
"ja.	c #1A2741",
"ka.	c #161A28",
"la.	c #13192A",
"ma.	c #141926",
"na.	c #131A24",
"oa.	c #151924",
"pa.	c #161B25",
"qa.	c #191D27",
"ra.	c #171E27",
"sa.	c #181F2F",
"ta.	c #161C2B",
"ua.	c #141C32",
"va.	c #17284B",
"wa.	c #1D2F57",
"xa.	c #253961",
"ya.	c #273B63",
"za.	c #294367",
"Aa.	c #2D456A",
"Ba.	c #2D4567",
"Ca.	c #284065",
"Da.	c #254167",
"Ea.	c #243F68",
"Fa.	c #263D6D",
"Ga.	c #25396C",
"Ha.	c #243769",
"Ia.	c #1C305B",
"Ja.	c #193057",
"Ka.	c #1B2F5C",
"La.	c #1E3468",
"Ma.	c #1D3467",
"Na.	c #1C346C",
"Oa.	c #1F356C",
"Pa.	c #1D2C60",
"Qa.	c #152450",
"Ra.	c #2F2B44",
"Sa.	c #DE5314",
"Ta.	c #EB6B2C",
"Ua.	c #C4BDA7",
"Va.	c #BEBEAD",
"Wa.	c #D5D2BE",
"Xa.	c #D1D0C0",
"Ya.	c #D8D8CA",
"Za.	c #E1DCC6",
"`a.	c #E8E2CE",
" b.	c #E9E3CB",
".b.	c #D1CEB8",
"+b.	c #CAC9B5",
"@b.	c #DED9C1",
"#b.	c #F1EBCC",
"$b.	c #F2EBCB",
"%b.	c #ECE6C6",
"&b.	c #E8E2C7",
"*b.	c #E5DEBB",
"=b.	c #E7E1C1",
"-b.	c #D2CBAE",
";b.	c #CDC7A6",
">b.	c #CFC8A2",
",b.	c #D7CCA6",
"'b.	c #D0CAA9",
")b.	c #D4CDAC",
"!b.	c #DAD4BC",
"~b.	c #D4CFB5",
"{b.	c #D1CBB0",
"]b.	c #C7C3A5",
"^b.	c #BCBAA0",
"/b.	c #B5B49C",
"(b.	c #B7B592",
"_b.	c #DBD25E",
":b.	c #E0DFCC",
"<b.	c #E0E0D0",
"[b.	c #E3E4D5",
"}b.	c #E0E3D5",
"|b.	c #E6E3D0",
"1b.	c #E2DA9C",
"2b.	c #F1E20E",
"3b.	c #F2E104",
"4b.	c #F5E304",
"5b.	c #F4E106",
"6b.	c #F5E305",
"7b.	c #F4E306",
"8b.	c #F3E209",
"9b.	c #F1E114",
"0b.	c #EADF30",
"ab.	c #B6B45B",
"bb.	c #6A6C68",
"cb.	c #585B5B",
"db.	c #565A59",
"eb.	c #575A5A",
"fb.	c #5C6262",
"gb.	c #576266",
"hb.	c #395064",
"ib.	c #09223E",
"jb.	c #081A36",
"kb.	c #081A37",
"lb.	c #051B3B",
"mb.	c #041C3E",
"nb.	c #061F41",
"ob.	c #0A2144",
"pb.	c #092347",
"qb.	c #0A2647",
"rb.	c #092042",
"sb.	c #2B3D65",
"tb.	c #1B2A5C",
"ub.	c #1E2C5F",
"vb.	c #20314D",
"wb.	c #131726",
"xb.	c #121726",
"yb.	c #141724",
"zb.	c #131725",
"Ab.	c #111624",
"Bb.	c #141A25",
"Cb.	c #161C25",
"Db.	c #141823",
"Eb.	c #181D27",
"Fb.	c #181E2A",
"Gb.	c #151A27",
"Hb.	c #131728",
"Ib.	c #283F5E",
"Jb.	c #293E58",
"Kb.	c #263B56",
"Lb.	c #293E5D",
"Mb.	c #273D64",
"Nb.	c #233C6B",
"Ob.	c #22376D",
"Pb.	c #253A6D",
"Qb.	c #233A70",
"Rb.	c #23396E",
"Sb.	c #141B27",
"Tb.	c #162138",
"Ub.	c #182A4D",
"Vb.	c #19284B",
"Wb.	c #1E3060",
"Xb.	c #203468",
"Yb.	c #142450",
"Zb.	c #2E314A",
"`b.	c #DD5312",
" c.	c #E77A3E",
".c.	c #B3B3A5",
"+c.	c #C0C0AD",
"@c.	c #BEBDAB",
"#c.	c #BBBCAD",
"$c.	c #CECAB3",
"%c.	c #DDDBC9",
"&c.	c #DCD7C0",
"*c.	c #E1DCC4",
"=c.	c #E8E3C8",
"-c.	c #E7E1C7",
";c.	c #ECE5C8",
">c.	c #F1EAD0",
",c.	c #F1EACD",
"'c.	c #F1EACC",
")c.	c #F0E9CA",
"!c.	c #F2EBCC",
"~c.	c #F0EAC9",
"{c.	c #E2DAB6",
"]c.	c #E6DDB8",
"^c.	c #E0D6B2",
"/c.	c #DED6B2",
"(c.	c #DBD4B2",
"_c.	c #CFC9A7",
":c.	c #D3CCAB",
"<c.	c #D3CCA9",
"[c.	c #CFC7A3",
"}c.	c #D8CEA7",
"|c.	c #E1D7B3",
"1c.	c #CEC8A6",
"2c.	c #CEC9AA",
"3c.	c #D5CFB1",
"4c.	c #D1CBAF",
"5c.	c #C5C3AA",
"6c.	c #C3C0A6",
"7c.	c #BAB9A2",
"8c.	c #B4B49F",
"9c.	c #AEAD97",
"0c.	c #C9C75F",
"ac.	c #DFDDC7",
"bc.	c #E3E4D3",
"cc.	c #DDDBC8",
"dc.	c #E2E0CC",
"ec.	c #E5E2CE",
"fc.	c #E3DA9E",
"gc.	c #EFE126",
"hc.	c #EDDB0E",
"ic.	c #EEDE08",
"jc.	c #F0E004",
"kc.	c #EEDD0A",
"lc.	c #F0E007",
"mc.	c #E5DA38",
"nc.	c #B3B359",
"oc.	c #6D6F67",
"pc.	c #575A58",
"qc.	c #565857",
"rc.	c #545756",
"sc.	c #565B5B",
"tc.	c #585D5E",
"uc.	c #555D61",
"vc.	c #3C5263",
"wc.	c #0C2C49",
"xc.	c #081A38",
"yc.	c #081C3B",
"zc.	c #041C3D",
"Ac.	c #082145",
"Bc.	c #051D3E",
"Cc.	c #092443",
"Dc.	c #0A2748",
"Ec.	c #08203E",
"Fc.	c #0C1B35",
"Gc.	c #091B37",
"Hc.	c #304269",
"Ic.	c #18223B",
"Jc.	c #121624",
"Kc.	c #141827",
"Lc.	c #151B28",
"Mc.	c #121828",
"Nc.	c #16253E",
"Oc.	c #1A2941",
"Pc.	c #1B2B3E",
"Qc.	c #192B3F",
"Rc.	c #20364F",
"Sc.	c #233B69",
"Tc.	c #20376B",
"Uc.	c #23376C",
"Vc.	c #1F3363",
"Wc.	c #17294D",
"Xc.	c #141A29",
"Yc.	c #1A263F",
"Zc.	c #182948",
"`c.	c #172742",
" d.	c #182437",
".d.	c #21366B",
"+d.	c #20356C",
"@d.	c #192751",
"#d.	c #162651",
"$d.	c #17254B",
"%d.	c #152244",
"&d.	c #2F344A",
"*d.	c #DA5624",
"=d.	c #DC8552",
"-d.	c #ABADA0",
";d.	c #B2B4A8",
">d.	c #B0B1A3",
",d.	c #B5B6A7",
"'d.	c #C1BEA4",
")d.	c #CFCAAF",
"!d.	c #E2DCC7",
"~d.	c #E1DAC3",
"{d.	c #EBE6CD",
"]d.	c #E9E3C9",
"^d.	c #E0DABC",
"/d.	c #F5EED6",
"(d.	c #F2EBD0",
"_d.	c #F2EBCD",
":d.	c #EFE8CF",
"<d.	c #E7E1C3",
"[d.	c #E7E0C0",
"}d.	c #E1D9B8",
"|d.	c #DED5B1",
"1d.	c #DCD3AF",
"2d.	c #DAD3B2",
"3d.	c #DCD4B1",
"4d.	c #DBD3AF",
"5d.	c #DBD1AD",
"6d.	c #D5CDA8",
"7d.	c #D2CAA5",
"8d.	c #D2C8A3",
"9d.	c #DED6B5",
"0d.	c #D3CFB3",
"ad.	c #C6C2A3",
"bd.	c #CEC8AD",
"cd.	c #D1CDB4",
"dd.	c #CAC6AF",
"ed.	c #C0BEA6",
"fd.	c #BCBAA3",
"gd.	c #B0B09B",
"hd.	c #B2B29D",
"id.	c #ADAD99",
"jd.	c #CAC563",
"kd.	c #E0DCBD",
"ld.	c #E4E2D0",
"md.	c #E5E2CC",
"nd.	c #E4DEC3",
"od.	c #E0D992",
"pd.	c #ECDB20",
"qd.	c #F1E015",
"rd.	c #ECDB09",
"sd.	c #F1E10A",
"td.	c #F0DF08",
"ud.	c #ECDB17",
"vd.	c #EFDE0C",
"wd.	c #F0DF09",
"xd.	c #E6DA34",
"yd.	c #BFBB52",
"zd.	c #6D6E67",
"Ad.	c #5B5E5B",
"Bd.	c #575958",
"Cd.	c #555A5A",
"Dd.	c #565859",
"Ed.	c #545F64",
"Fd.	c #364B62",
"Gd.	c #0B2B48",
"Hd.	c #0A2645",
"Id.	c #08223F",
"Jd.	c #071B3A",
"Kd.	c #051C3F",
"Ld.	c #071F43",
"Md.	c #061F3F",
"Nd.	c #06203F",
"Od.	c #0B2A49",
"Pd.	c #0C2A4D",
"Qd.	c #0D1932",
"Rd.	c #2D3F64",
"Sd.	c #192C60",
"Td.	c #203060",
"Ud.	c #131827",
"Vd.	c #161A25",
"Wd.	c #12182A",
"Xd.	c #182130",
"Yd.	c #1A2738",
"Zd.	c #1E324A",
"`d.	c #253960",
" e.	c #16243E",
".e.	c #172033",
"+e.	c #162339",
"@e.	c #162337",
"#e.	c #182333",
"$e.	c #172237",
"%e.	c #1E2F56",
"&e.	c #1F3160",
"*e.	c #1F3263",
"=e.	c #202F5E",
"-e.	c #142659",
";e.	c #132657",
">e.	c #122454",
",e.	c #152652",
"'e.	c #14254F",
")e.	c #302F46",
"!e.	c #DE5B1C",
"~e.	c #D78F5E",
"{e.	c #A7A99A",
"]e.	c #AAACA0",
"^e.	c #ACAD9E",
"/e.	c #E3DDC3",
"(e.	c #E3DDC2",
"_e.	c #EDE6C9",
":e.	c #F4EDCF",
"<e.	c #ECE6C8",
"[e.	c #E9E2C6",
"}e.	c #E4DDBD",
"|e.	c #E7E0C4",
"1e.	c #E0D8B5",
"2e.	c #E1D8B6",
"3e.	c #DBD4B1",
"4e.	c #D7CFAA",
"5e.	c #D8D0AD",
"6e.	c #DFD8B8",
"7e.	c #E2D9B7",
"8e.	c #D2CAA4",
"9e.	c #DED3AE",
"0e.	c #D8CEA9",
"ae.	c #CFCCB6",
"be.	c #C7C4AD",
"ce.	c #B7B7A2",
"de.	c #AAAB99",
"ee.	c #AAAB9D",
"fe.	c #A7A793",
"ge.	c #D1CA5B",
"he.	c #E1DCB9",
"ie.	c #E8E7D6",
"je.	c #E7E5D6",
"ke.	c #E2D990",
"le.	c #EEDE14",
"me.	c #EBDB08",
"ne.	c #F0E109",
"oe.	c #EFDD07",
"pe.	c #F1E011",
"qe.	c #F0DF18",
"re.	c #E3DD2D",
"se.	c #C8C355",
"te.	c #6B6D65",
"ue.	c #555959",
"ve.	c #565A5B",
"we.	c #545757",
"xe.	c #344E66",
"ye.	c #081A39",
"ze.	c #061A3A",
"Ae.	c #081C3D",
"Be.	c #051B3C",
"Ce.	c #0A294A",
"De.	c #071F42",
"Ee.	c #091935",
"Fe.	c #1D2C4F",
"Ge.	c #172545",
"He.	c #17223C",
"Ie.	c #161A2A",
"Je.	c #141828",
"Ke.	c #151826",
"Le.	c #192435",
"Me.	c #162135",
"Ne.	c #161E30",
"Oe.	c #1A2337",
"Pe.	c #1F2F51",
"Qe.	c #1B2B42",
"Re.	c #1B2D51",
"Se.	c #1E3363",
"Te.	c #203365",
"Ue.	c #142552",
"Ve.	c #13254F",
"We.	c #15254D",
"Xe.	c #3E3747",
"Ye.	c #E05717",
"Ze.	c #CE9A6F",
"`e.	c #A5A795",
" f.	c #A6A899",
".f.	c #A7A99C",
"+f.	c #BCBBA6",
"@f.	c #E1DBC2",
"#f.	c #E6E0C1",
"$f.	c #F0E9CE",
"%f.	c #EFE8CB",
"&f.	c #E9E4C7",
"*f.	c #E5E0C3",
"=f.	c #E3DBBC",
"-f.	c #E2DBBA",
";f.	c #E1D9B6",
">f.	c #D2CBA6",
",f.	c #D5CCA8",
"'f.	c #E2DAB8",
")f.	c #D9D0AA",
"!f.	c #DED2AC",
"~f.	c #DACFAA",
"{f.	c #CFCCB5",
"]f.	c #C5C4AE",
"^f.	c #C9C7B2",
"/f.	c #BAB9A3",
"(f.	c #ADAE9C",
"_f.	c #A5A797",
":f.	c #A7A998",
"<f.	c #A5A692",
"[f.	c #CBC667",
"}f.	c #DFDBC1",
"|f.	c #E7E4D2",
"1f.	c #DDD68A",
"2f.	c #EFDC0F",
"3f.	c #EEDC0A",
"4f.	c #F0E006",
"5f.	c #F4E30C",
"6f.	c #F2E315",
"7f.	c #EADC23",
"8f.	c #E1DA31",
"9f.	c #C1BF54",
"0f.	c #66665E",
"af.	c #555857",
"bf.	c #545755",
"cf.	c #565958",
"df.	c #555958",
"ef.	c #565E64",
"ff.	c #374E65",
"gf.	c #0B2A46",
"hf.	c #092340",
"if.	c #071937",
"jf.	c #091B3A",
"kf.	c #081A3A",
"lf.	c #061D42",
"mf.	c #041B3D",
"nf.	c #0A2646",
"of.	c #0A284A",
"pf.	c #0B2A4A",
"qf.	c #0B2D4D",
"rf.	c #072142",
"sf.	c #161B29",
"tf.	c #151B25",
"uf.	c #121829",
"vf.	c #131928",
"wf.	c #141A26",
"xf.	c #151A24",
"yf.	c #151B27",
"zf.	c #151B2A",
"Af.	c #161D2B",
"Bf.	c #141C35",
"Cf.	c #131B30",
"Df.	c #172031",
"Ef.	c #162032",
"Ff.	c #192131",
"Gf.	c #192031",
"Hf.	c #171E2B",
"If.	c #192533",
"Jf.	c #1B283B",
"Kf.	c #1E3159",
"Lf.	c #152550",
"Mf.	c #152651",
"Nf.	c #132551",
"Of.	c #10244E",
"Pf.	c #112450",
"Qf.	c #172449",
"Rf.	c #2E2A43",
"Sf.	c #D95817",
"Tf.	c #CD9A6E",
"Uf.	c #A4A798",
"Vf.	c #ADAE9E",
"Wf.	c #B1B1A0",
"Xf.	c #ADAE9B",
"Yf.	c #BCBBA5",
"Zf.	c #CFC9AC",
"`f.	c #DED8BE",
" g.	c #E2DBB7",
".g.	c #F2EBD1",
"+g.	c #E2DBBB",
"@g.	c #DED5B3",
"#g.	c #DFD3AD",
"$g.	c #E0D4AD",
"%g.	c #CFC89F",
"&g.	c #CEC7A1",
"*g.	c #C8C19C",
"=g.	c #D7CEA9",
"-g.	c #DCD4AE",
";g.	c #E3DAB8",
">g.	c #D8CFAB",
",g.	c #D4CCA8",
"'g.	c #C7C6B2",
")g.	c #CAC5A8",
"!g.	c #C1BFA6",
"~g.	c #B2B19A",
"{g.	c #A8AA99",
"]g.	c #A3A697",
"^g.	c #A5A899",
"/g.	c #A3A695",
"(g.	c #C5BF97",
"_g.	c #DCD9C1",
":g.	c #E4E2D1",
"<g.	c #E8E6D3",
"[g.	c #E5E1CA",
"}g.	c #DCD361",
"|g.	c #F1E008",
"1g.	c #F0DF0C",
"2g.	c #F0DF1E",
"3g.	c #F3E311",
"4g.	c #F0DF0B",
"5g.	c #ECDA27",
"6g.	c #E5D730",
"7g.	c #E2D930",
"8g.	c #DCD62F",
"9g.	c #BCBB55",
"0g.	c #656761",
"ag.	c #545859",
"bg.	c #545E64",
"cg.	c #334C66",
"dg.	c #0B2A47",
"eg.	c #081735",
"fg.	c #071938",
"gg.	c #051C40",
"hg.	c #0B2B4E",
"ig.	c #0B2D4E",
"jg.	c #092040",
"kg.	c #172540",
"lg.	c #18223C",
"mg.	c #131727",
"ng.	c #151926",
"og.	c #151C27",
"pg.	c #151C29",
"qg.	c #181F2E",
"rg.	c #192138",
"sg.	c #151D33",
"tg.	c #121723",
"ug.	c #151C2D",
"vg.	c #161D2D",
"wg.	c #171E2C",
"xg.	c #161E2B",
"yg.	c #18202C",
"zg.	c #1A2433",
"Ag.	c #1B2533",
"Bg.	c #1B2939",
"Cg.	c #1C2B48",
"Dg.	c #20305B",
"Eg.	c #152556",
"Fg.	c #162653",
"Gg.	c #162752",
"Hg.	c #152654",
"Ig.	c #162753",
"Jg.	c #142550",
"Kg.	c #122347",
"Lg.	c #483C47",
"Mg.	c #DE5C18",
"Ng.	c #C59560",
"Og.	c #AAAB9B",
"Pg.	c #B1B2A1",
"Qg.	c #B1B19D",
"Rg.	c #C0BFAA",
"Sg.	c #D7D1B4",
"Tg.	c #E3DBBB",
"Ug.	c #E6DEBF",
"Vg.	c #DCD5B1",
"Wg.	c #DFD6B1",
"Xg.	c #DFD6B2",
"Yg.	c #DFD5B1",
"Zg.	c #E0D9BB",
"`g.	c #E4DDC1",
" h.	c #EAE3C6",
".h.	c #ECE7CB",
"+h.	c #E8E1C6",
"@h.	c #E1DABB",
"#h.	c #DDD5B3",
"$h.	c #DCCFA9",
"%h.	c #D7CCA4",
"&h.	c #D3CAA5",
"*h.	c #D4CAA3",
"=h.	c #D6CDA7",
"-h.	c #D1CAA4",
";h.	c #E0D8B6",
">h.	c #E2D9B8",
",h.	c #D7CDA7",
"'h.	c #D4CBA4",
")h.	c #D0C69F",
"!h.	c #CCC5A3",
"~h.	c #BEBA9F",
"{h.	c #BEBBA1",
"]h.	c #BEBCA6",
"^h.	c #C5C3AB",
"/h.	c #BCBAA4",
"(h.	c #A3A492",
"_h.	c #A1A495",
":h.	c #9CA091",
"<h.	c #BEBBA2",
"[h.	c #DFDDCC",
"}h.	c #E7E3CC",
"|h.	c #E3D85A",
"1h.	c #EEDE05",
"2h.	c #EEDE09",
"3h.	c #EEDC13",
"4h.	c #F2E129",
"5h.	c #F3E313",
"6h.	c #F1E10E",
"7h.	c #E8DA24",
"8h.	c #E0D72D",
"9h.	c #E0DA3B",
"0h.	c #DED631",
"ah.	c #B4B354",
"bh.	c #646863",
"ch.	c #595D5E",
"dh.	c #565C60",
"eh.	c #565B5C",
"fh.	c #555A59",
"gh.	c #525B63",
"hh.	c #314862",
"ih.	c #0B2B47",
"jh.	c #09213D",
"kh.	c #0A1A39",
"lh.	c #061836",
"mh.	c #051B3E",
"nh.	c #051D41",
"oh.	c #072044",
"ph.	c #082044",
"qh.	c #0A2548",
"rh.	c #051A39",
"sh.	c #061D3B",
"th.	c #071C39",
"uh.	c #0E264A",
"vh.	c #131B35",
"wh.	c #131927",
"xh.	c #141A27",
"yh.	c #141B29",
"zh.	c #161C29",
"Ah.	c #161A29",
"Bh.	c #13182B",
"Ch.	c #151D27",
"Dh.	c #161C26",
"Eh.	c #19212C",
"Fh.	c #1A2331",
"Gh.	c #192536",
"Hh.	c #202F51",
"Ih.	c #203054",
"Jh.	c #22315C",
"Kh.	c #16275A",
"Lh.	c #112559",
"Mh.	c #122352",
"Nh.	c #11234D",
"Oh.	c #13254E",
"Ph.	c #0F224B",
"Qh.	c #132146",
"Rh.	c #484247",
"Sh.	c #D87723",
"Th.	c #F0720A",
"Uh.	c #F47409",
"Vh.	c #F07309",
"Wh.	c #C6985B",
"Xh.	c #A8A996",
"Yh.	c #A9AB9B",
"Zh.	c #AFAF9C",
"`h.	c #B4B299",
" i.	c #C0BEA7",
".i.	c #C9C4A5",
"+i.	c #D4CDB0",
"@i.	c #DED7BE",
"#i.	c #DCD5B2",
"$i.	c #E0D7B3",
"%i.	c #DED4AE",
"&i.	c #E0D9B9",
"*i.	c #DFD7B5",
"=i.	c #DCD5B5",
"-i.	c #E6DFC5",
";i.	c #E8E2C4",
">i.	c #EDE6C7",
",i.	c #F0EBD2",
"'i.	c #DDD6B5",
")i.	c #D7D0AD",
"!i.	c #DCD3AE",
"~i.	c #D8D0AB",
"{i.	c #DACFA9",
"]i.	c #DDD0A8",
"^i.	c #D9CDA6",
"/i.	c #D7CDA8",
"(i.	c #E3DAB9",
"_i.	c #E0D9BC",
":i.	c #D7CEA8",
"<i.	c #D1C8A2",
"[i.	c #C9C29E",
"}i.	c #BBB798",
"|i.	c #B9B69B",
"1i.	c #B3B29E",
"2i.	c #A6A48D",
"3i.	c #A6A691",
"4i.	c #A2A491",
"5i.	c #9A9E90",
"6i.	c #E0DFCE",
"7i.	c #E7E6D4",
"8i.	c #EBE8D4",
"9i.	c #E4E0C7",
"0i.	c #E1D66A",
"ai.	c #ECDC1E",
"bi.	c #F0DF11",
"ci.	c #F3E31D",
"di.	c #EFDF0B",
"ei.	c #EEDD10",
"fi.	c #E8DD29",
"gi.	c #DCD730",
"hi.	c #ABAD56",
"ii.	c #646762",
"ji.	c #555A5D",
"ki.	c #575A5B",
"li.	c #4D5862",
"mi.	c #324A61",
"ni.	c #0B2946",
"oi.	c #051C3A",
"pi.	c #091A38",
"qi.	c #061B3B",
"ri.	c #061D41",
"si.	c #071E43",
"ti.	c #071F44",
"ui.	c #091E3C",
"vi.	c #061B3C",
"wi.	c #0B2045",
"xi.	c #15192B",
"yi.	c #131B33",
"zi.	c #151A23",
"Ai.	c #131823",
"Bi.	c #151A26",
"Ci.	c #181E2C",
"Di.	c #161C28",
"Ei.	c #171F2A",
"Fi.	c #161924",
"Gi.	c #161D25",
"Hi.	c #17212E",
"Ii.	c #172236",
"Ji.	c #21304F",
"Ki.	c #213054",
"Li.	c #15285C",
"Mi.	c #152659",
"Ni.	c #102456",
"Oi.	c #122557",
"Pi.	c #0F234E",
"Qi.	c #10234E",
"Ri.	c #13244E",
"Si.	c #15254F",
"Ti.	c #172348",
"Ui.	c #65664B",
"Vi.	c #E2D125",
"Wi.	c #EBD50A",
"Xi.	c #EED607",
"Yi.	c #EBCF12",
"Zi.	c #BCAE58",
"`i.	c #A0A28F",
" j.	c #ACAB96",
".j.	c #B5B49B",
"+j.	c #BEBEAA",
"@j.	c #CBC7AE",
"#j.	c #E6E0C5",
"$j.	c #E1D9B7",
"%j.	c #DAD2AE",
"&j.	c #D3CBA6",
"*j.	c #DCD5B7",
"=j.	c #E5DFC1",
"-j.	c #E0D8B8",
";j.	c #DDD4B0",
">j.	c #DBD0AA",
",j.	c #D9D0AB",
"'j.	c #DBD2AE",
")j.	c #D9CFA9",
"!j.	c #DACEA7",
"~j.	c #DAD0AB",
"{j.	c #D2C9A0",
"]j.	c #D5CCA6",
"^j.	c #D8D0AF",
"/j.	c #D7CFB1",
"(j.	c #E4DEC5",
"_j.	c #DFD8BC",
":j.	c #E1D8B7",
"<j.	c #D5CEAC",
"[j.	c #CEC8A8",
"}j.	c #C8C2A0",
"|j.	c #C8C4AA",
"1j.	c #C1BEA3",
"2j.	c #C0BBA0",
"3j.	c #BDBA9E",
"4j.	c #C0BEA2",
"5j.	c #B4B39C",
"6j.	c #AEAD98",
"7j.	c #A2A28D",
"8j.	c #A3A493",
"9j.	c #A0A393",
"0j.	c #CBCAB8",
"aj.	c #E4E1D0",
"bj.	c #EAE5D2",
"cj.	c #E3E1CB",
"dj.	c #E4D770",
"ej.	c #E6DA30",
"fj.	c #F0E013",
"gj.	c #F0E117",
"hj.	c #F1E22D",
"ij.	c #F0E10A",
"jj.	c #EFDD0D",
"kj.	c #EDDC29",
"lj.	c #E0D933",
"mj.	c #AEAE54",
"nj.	c #646765",
"oj.	c #5B5F5E",
"pj.	c #53585A",
"qj.	c #575C5D",
"rj.	c #565A5C",
"sj.	c #4F5963",
"tj.	c #2E4764",
"uj.	c #0B2C48",
"vj.	c #0A2340",
"wj.	c #051B3D",
"xj.	c #051C3D",
"yj.	c #061D44",
"zj.	c #071F45",
"Aj.	c #0A2448",
"Bj.	c #082147",
"Cj.	c #082046",
"Dj.	c #0A244A",
"Ej.	c #061C42",
"Fj.	c #061C3E",
"Gj.	c #081C3C",
"Hj.	c #061B3D",
"Ij.	c #081D42",
"Jj.	c #16223D",
"Kj.	c #131926",
"Lj.	c #151C24",
"Mj.	c #131723",
"Nj.	c #131A25",
"Oj.	c #181F2C",
"Pj.	c #131923",
"Qj.	c #131822",
"Rj.	c #121722",
"Sj.	c #1F2E52",
"Tj.	c #14275B",
"Uj.	c #122657",
"Vj.	c #102353",
"Wj.	c #0D234C",
"Xj.	c #0C214B",
"Yj.	c #636943",
"Zj.	c #C4BB56",
"`j.	c #AAAA96",
" k.	c #B4B39A",
".k.	c #C4C3AF",
"+k.	c #DED7BD",
"@k.	c #E4DFC5",
"#k.	c #E6DFC4",
"$k.	c #E2DCC4",
"%k.	c #E5E0C6",
"&k.	c #DBD4B5",
"*k.	c #D9D1B0",
"=k.	c #D0C9A6",
"-k.	c #D3C9A5",
";k.	c #D0C8A3",
">k.	c #D5CEAD",
",k.	c #D3CEB2",
"'k.	c #DBD5BC",
")k.	c #D4CEB0",
"!k.	c #D3CDAC",
"~k.	c #DFD9B7",
"{k.	c #E1DBB9",
"]k.	c #E1DABC",
"^k.	c #DED6B6",
"/k.	c #DDD1AC",
"(k.	c #D1C9A2",
"_k.	c #DCD0AA",
":k.	c #DDD2AC",
"<k.	c #C8C19B",
"[k.	c #C5BE9A",
"}k.	c #C8C19E",
"|k.	c #D9D3BA",
"1k.	c #DBD6BC",
"2k.	c #DCD8C2",
"3k.	c #DFD7B8",
"4k.	c #D3CCAA",
"5k.	c #D0CAB1",
"6k.	c #C8C3A5",
"7k.	c #C9C4A9",
"8k.	c #C4C0A4",
"9k.	c #BCB798",
"0k.	c #BBB79A",
"ak.	c #B5B293",
"bk.	c #B4B195",
"ck.	c #AAA993",
"dk.	c #9A9B87",
"ek.	c #9FA08B",
"fk.	c #A0A18F",
"gk.	c #9DA292",
"hk.	c #9EA296",
"ik.	c #D4D4C2",
"jk.	c #E3DECA",
"kk.	c #E6E2CF",
"lk.	c #E5E0CC",
"mk.	c #E7E2CE",
"nk.	c #E1DECB",
"ok.	c #E0DBC6",
"pk.	c #E0D65C",
"qk.	c #E5DD2A",
"rk.	c #F0DE1C",
"sk.	c #EEE122",
"tk.	c #EEE02C",
"uk.	c #F1E123",
"vk.	c #F1E109",
"wk.	c #EFDE0E",
"xk.	c #E7D82E",
"yk.	c #DEDC2D",
"zk.	c #AEAF51",
"Ak.	c #676A65",
"Bk.	c #565A5A",
"Ck.	c #525657",
"Dk.	c #575C5E",
"Ek.	c #585D5F",
"Fk.	c #4C5660",
"Gk.	c #253F59",
"Hk.	c #071D44",
"Ik.	c #061C43",
"Jk.	c #0A234B",
"Kk.	c #092246",
"Lk.	c #071E45",
"Mk.	c #081F45",
"Nk.	c #092447",
"Ok.	c #051C41",
"Pk.	c #051C3E",
"Qk.	c #061C40",
"Rk.	c #161D2C",
"Sk.	c #161C2A",
"Tk.	c #161A2D",
"Uk.	c #151928",
"Vk.	c #171B25",
"Wk.	c #151822",
"Xk.	c #141922",
"Yk.	c #151C28",
"Zk.	c #151925",
"`k.	c #131721",
" l.	c #152758",
".l.	c #172656",
"+l.	c #112457",
"@l.	c #102551",
"#l.	c #13244D",
"$l.	c #132247",
"%l.	c #606648",
"&l.	c #E6D417",
"*l.	c #F0D906",
"=l.	c #C2BC57",
"-l.	c #A4A38A",
";l.	c #ACAA90",
">l.	c #ABAA92",
",l.	c #B9B9A3",
"'l.	c #C6C4AE",
")l.	c #D5CFB2",
"!l.	c #E6E0C7",
"~l.	c #E5DFC9",
"{l.	c #DDD6BC",
"]l.	c #DCD5BC",
"^l.	c #CEC8A7",
"/l.	c #CFC8A7",
"(l.	c #C9C29F",
"_l.	c #CAC5AB",
":l.	c #D1CDB8",
"<l.	c #CBC6AC",
"[l.	c #E1DAB8",
"}l.	c #EEE9D0",
"|l.	c #E2DDC1",
"1l.	c #DFD6B5",
"2l.	c #DED5B2",
"3l.	c #D2C9A2",
"4l.	c #D0C89F",
"5l.	c #D4CCA6",
"6l.	c #CCC59F",
"7l.	c #D2CCA9",
"8l.	c #D9D1AF",
"9l.	c #D9D2B6",
"0l.	c #DCD7C1",
"al.	c #D9D4BD",
"bl.	c #DAD6C1",
"cl.	c #DAD6C2",
"dl.	c #E2DABB",
"el.	c #CDC7A9",
"fl.	c #CDC6A5",
"gl.	c #CBC5A3",
"hl.	c #C6C0A1",
"il.	c #C4BF9F",
"jl.	c #BEBA9C",
"kl.	c #B1AE90",
"ll.	c #B0AD90",
"ml.	c #9C9C87",
"nl.	c #9A9A84",
"ol.	c #9B9E8C",
"pl.	c #999E90",
"ql.	c #ABAD9F",
"rl.	c #D8D6C4",
"sl.	c #DEDAC8",
"tl.	c #E2DECE",
"ul.	c #E7E3D0",
"vl.	c #E2D771",
"wl.	c #E1D834",
"xl.	c #E8DA1F",
"yl.	c #ECE020",
"zl.	c #F1E223",
"Al.	c #EBDF2D",
"Bl.	c #EADB1C",
"Cl.	c #EDDC0F",
"Dl.	c #E2D626",
"El.	c #DAD337",
"Fl.	c #AEB04C",
"Gl.	c #636560",
"Hl.	c #585C5B",
"Il.	c #535758",
"Jl.	c #575D60",
"Kl.	c #4C5662",
"Ll.	c #253F5B",
"Ml.	c #0B2844",
"Nl.	c #041C3C",
"Ol.	c #041B3C",
"Pl.	c #071E44",
"Ql.	c #09214A",
"Rl.	c #082045",
"Sl.	c #0A2348",
"Tl.	c #092446",
"Ul.	c #041B3E",
"Vl.	c #0A2345",
"Wl.	c #1A1F2B",
"Xl.	c #191D24",
"Yl.	c #191F28",
"Zl.	c #191E28",
"`l.	c #16171D",
" m.	c #15171D",
".m.	c #161921",
"+m.	c #141722",
"@m.	c #161821",
"#m.	c #161923",
"$m.	c #141A24",
"%m.	c #141923",
"&m.	c #131924",
"*m.	c #151B22",
"=m.	c #161E28",
"-m.	c #151A21",
";m.	c #151821",
">m.	c #141822",
",m.	c #141C29",
"'m.	c #171C30",
")m.	c #18203A",
"!m.	c #18274B",
"~m.	c #122456",
"{m.	c #132556",
"]m.	c #0D2356",
"^m.	c #0E2354",
"/m.	c #122453",
"(m.	c #112552",
"_m.	c #11214C",
":m.	c #11234B",
"<m.	c #606745",
"[m.	c #E7D418",
"}m.	c #F0D904",
"|m.	c #BCBA59",
"1m.	c #ADAB7A",
"2m.	c #B0AC89",
"3m.	c #B2B29B",
"4m.	c #D3CDB2",
"5m.	c #D6CFAF",
"6m.	c #DAD5BB",
"7m.	c #C6C2A6",
"8m.	c #CAC3A1",
"9m.	c #C5C1A5",
"0m.	c #CAC4A4",
"am.	c #C4C0A1",
"bm.	c #C9C6AF",
"cm.	c #C9C4AA",
"dm.	c #D2CBAA",
"em.	c #E3DCBA",
"fm.	c #E4DEBD",
"gm.	c #E4DEBF",
"hm.	c #E5DFBF",
"im.	c #ECE7CD",
"jm.	c #ECE5CA",
"km.	c #DCD4AF",
"lm.	c #DDD5B1",
"mm.	c #D5CBA4",
"nm.	c #D1C9A3",
"om.	c #D3CBA5",
"pm.	c #CDC69E",
"qm.	c #CBC49F",
"rm.	c #D5CDB1",
"sm.	c #D2CEB9",
"tm.	c #DBD6C0",
"um.	c #D9D4B8",
"vm.	c #E5DEBE",
"wm.	c #D7D0AF",
"xm.	c #CDC7A4",
"ym.	c #C5C09E",
"zm.	c #C3BE9E",
"Am.	c #C4BE9C",
"Bm.	c #B3AF90",
"Cm.	c #ABA78B",
"Dm.	c #A9A994",
"Em.	c #A4A48E",
"Fm.	c #9FA08C",
"Gm.	c #9A9D8E",
"Hm.	c #969B8F",
"Im.	c #DAD9C7",
"Jm.	c #E2E2D1",
"Km.	c #E4E1CC",
"Lm.	c #E3DFCC",
"Mm.	c #DFDDCA",
"Nm.	c #E0D66F",
"Om.	c #E0D630",
"Pm.	c #E7D923",
"Qm.	c #E5DB23",
"Rm.	c #EDDD09",
"Sm.	c #ECDF22",
"Tm.	c #EDDC23",
"Um.	c #F2E00C",
"Vm.	c #DFD62E",
"Wm.	c #D7CE37",
"Xm.	c #B3B54B",
"Ym.	c #636660",
"Zm.	c #575C5C",
"`m.	c #535A61",
" n.	c #565D60",
".n.	c #555C63",
"+n.	c #4A5460",
"@n.	c #203B57",
"#n.	c #0B2843",
"$n.	c #081D3A",
"%n.	c #061C3A",
"&n.	c #081B37",
"*n.	c #041B3B",
"=n.	c #041A3A",
"-n.	c #092149",
";n.	c #031B3B",
">n.	c #1D1E23",
",n.	c #171D2A",
"'n.	c #1A1E29",
")n.	c #14182A",
"!n.	c #14151A",
"~n.	c #14161B",
"{n.	c #151820",
"]n.	c #161927",
"^n.	c #161922",
"/n.	c #15161C",
"(n.	c #171924",
"_n.	c #121720",
":n.	c #141721",
"<n.	c #161D23",
"[n.	c #141C28",
"}n.	c #141A22",
"|n.	c #131920",
"1n.	c #171B20",
"2n.	c #15191E",
"3n.	c #13171D",
"4n.	c #14171D",
"5n.	c #121621",
"6n.	c #151922",
"7n.	c #141C2A",
"8n.	c #131A29",
"9n.	c #131925",
"0n.	c #161F39",
"an.	c #182445",
"bn.	c #132558",
"cn.	c #142656",
"dn.	c #0F2354",
"en.	c #0E2253",
"fn.	c #142455",
"gn.	c #102454",
"hn.	c #0D214D",
"in.	c #0C224D",
"jn.	c #14244D",
"kn.	c #64694B",
"ln.	c #E4D320",
"mn.	c #BFBE4A",
"nn.	c #AFAB8C",
"on.	c #A4A38C",
"pn.	c #B7B498",
"qn.	c #DDD7BF",
"rn.	c #E4DAB5",
"sn.	c #DAD1AF",
"tn.	c #D6CFB2",
"un.	c #DAD3B0",
"vn.	c #D4CDAB",
"wn.	c #C8C2A4",
"xn.	c #C6C1A2",
"yn.	c #C6C2A9",
"zn.	c #BDBBA1",
"An.	c #C1BDA1",
"Bn.	c #C3C0A9",
"Cn.	c #BFBCA4",
"Dn.	c #BAB699",
"En.	c #C6C09F",
"Fn.	c #D3CCA6",
"Gn.	c #DCD5B6",
"Hn.	c #E5DDBD",
"In.	c #D0CAAB",
"Jn.	c #CEC7A8",
"Kn.	c #CDC7A3",
"Ln.	c #CDC59E",
"Mn.	c #C7BF99",
"Nn.	c #C6BF9B",
"On.	c #C7BF9D",
"Pn.	c #C4BD9A",
"Qn.	c #C7C2A1",
"Rn.	c #BAB696",
"Sn.	c #B9B595",
"Tn.	c #C7C4AC",
"Un.	c #CFCEBE",
"Vn.	c #DCD8C4",
"Wn.	c #D7D4BD",
"Xn.	c #D1CDB7",
"Yn.	c #D4D1BC",
"Zn.	c #CFCAB2",
"`n.	c #CFC9AA",
" o.	c #D8CFAC",
".o.	c #DAD2B0",
"+o.	c #CCC6A2",
"@o.	c #C9C4A1",
"#o.	c #C8C19F",
"$o.	c #C4BFA2",
"%o.	c #C5C0A3",
"&o.	c #B6B192",
"*o.	c #A8A489",
"=o.	c #A2A18B",
"-o.	c #929485",
";o.	c #A6A897",
">o.	c #979C8F",
",o.	c #999D92",
"'o.	c #CBCAB9",
")o.	c #DEDBC9",
"!o.	c #DDDCCB",
"~o.	c #DBDBC8",
"{o.	c #DEDDCB",
"]o.	c #E4E0CE",
"^o.	c #DEDCC9",
"/o.	c #E0D660",
"(o.	c #E1D82C",
"_o.	c #EBD819",
":o.	c #E6DB25",
"<o.	c #E9DB1E",
"[o.	c #E9DC27",
"}o.	c #E6D922",
"|o.	c #E7D924",
"1o.	c #DFD430",
"2o.	c #D4CC34",
"3o.	c #A7B04F",
"4o.	c #60645F",
"5o.	c #575B5D",
"6o.	c #555B5C",
"7o.	c #54595E",
"8o.	c #555B60",
"9o.	c #545D65",
"0o.	c #445264",
"ao.	c #183856",
"bo.	c #0C2642",
"co.	c #081C38",
"do.	c #061B38",
"eo.	c #071A37",
"fo.	c #051A3B",
"go.	c #082048",
"ho.	c #081F44",
"io.	c #071F41",
"jo.	c #071E42",
"ko.	c #061938",
"lo.	c #081835",
"mo.	c #1A1E25",
"no.	c #1B1E26",
"oo.	c #191D25",
"po.	c #161B26",
"qo.	c #171B21",
"ro.	c #171C26",
"so.	c #151519",
"to.	c #16161B",
"uo.	c #17181E",
"vo.	c #14161E",
"wo.	c #16171F",
"xo.	c #141720",
"yo.	c #172029",
"zo.	c #161E25",
"Ao.	c #161D26",
"Bo.	c #151A1F",
"Co.	c #161A1D",
"Do.	c #171B1F",
"Eo.	c #15181C",
"Fo.	c #15181F",
"Go.	c #172648",
"Ho.	c #122558",
"Io.	c #0F2253",
"Jo.	c #102356",
"Ko.	c #132453",
"Lo.	c #152554",
"Mo.	c #0E2351",
"No.	c #132554",
"Oo.	c #132450",
"Po.	c #12244F",
"Qo.	c #15244D",
"Ro.	c #15254A",
"So.	c #6C7247",
"To.	c #E8D71B",
"Uo.	c #CFC83F",
"Vo.	c #AAAA73",
"Wo.	c #A9A78E",
"Xo.	c #A2A28B",
"Yo.	c #BCBAA2",
"Zo.	c #D6CFB1",
"`o.	c #E0D9BA",
" p.	c #D6CEAC",
".p.	c #DFD5B0",
"+p.	c #D9D1AC",
"@p.	c #C8C3A2",
"#p.	c #C6C09E",
"$p.	c #C5BFA1",
"%p.	c #C2BEA1",
"&p.	c #B5B398",
"*p.	c #B4B091",
"=p.	c #B6B091",
"-p.	c #B2AE8F",
";p.	c #C0BCA0",
">p.	c #BDB89A",
",p.	c #C3BD9B",
"'p.	c #CAC4A1",
")p.	c #D9D0A9",
"!p.	c #D6CDA8",
"~p.	c #D9D1AD",
"{p.	c #E2D8B3",
"]p.	c #E4DCB8",
"^p.	c #E1D6B0",
"/p.	c #E1D3AD",
"(p.	c #D5CDAA",
"_p.	c #C5C0A2",
":p.	c #BDB899",
"<p.	c #C8C09E",
"[p.	c #C0B995",
"}p.	c #B8B291",
"|p.	c #B6B090",
"1p.	c #B7B190",
"2p.	c #B8B393",
"3p.	c #BEB998",
"4p.	c #B5B192",
"5p.	c #CBC8B0",
"6p.	c #CECBB6",
"7p.	c #CCCBBA",
"8p.	c #CDCBB4",
"9p.	c #CCC9B3",
"0p.	c #D6D2B9",
"ap.	c #C5C4AC",
"bp.	c #C6C5AD",
"cp.	c #D4CEAC",
"dp.	c #D6CEAB",
"ep.	c #D0CAA6",
"fp.	c #C4BE9A",
"gp.	c #C4BFA0",
"hp.	c #C3BEA1",
"ip.	c #C4C0A3",
"jp.	c #C0BC9F",
"kp.	c #B2AE91",
"lp.	c #A6A389",
"mp.	c #999984",
"np.	c #929586",
"op.	c #ABAC9B",
"pp.	c #D5D3BF",
"qp.	c #DFDCCA",
"rp.	c #DCD9C6",
"sp.	c #DFDECC",
"tp.	c #DCDCCC",
"up.	c #DBDDCE",
"vp.	c #E4D86E",
"wp.	c #E8D929",
"xp.	c #E8D71E",
"yp.	c #EBDA19",
"zp.	c #E6D926",
"Ap.	c #E4DB29",
"Bp.	c #E8D81A",
"Cp.	c #EDDB1C",
"Dp.	c #E9D925",
"Ep.	c #DDD52F",
"Fp.	c #D4CC33",
"Gp.	c #ADB351",
"Hp.	c #61655F",
"Ip.	c #56595A",
"Jp.	c #545A5D",
"Kp.	c #53595F",
"Lp.	c #545C65",
"Mp.	c #415064",
"Np.	c #173551",
"Op.	c #0C233F",
"Pp.	c #091D38",
"Qp.	c #041A39",
"Rp.	c #061D43",
"Sp.	c #051D40",
"Tp.	c #071936",
"Up.	c #17191F",
"Vp.	c #171921",
"Wp.	c #171B27",
"Xp.	c #171A21",
"Yp.	c #171920",
"Zp.	c #181B22",
"`p.	c #171B24",
" q.	c #14171E",
".q.	c #15161B",
"+q.	c #16171B",
"@q.	c #131621",
"#q.	c #12161E",
"$q.	c #12161B",
"%q.	c #15171C",
"&q.	c #14171C",
"*q.	c #16181F",
"=q.	c #141820",
"-q.	c #13161E",
";q.	c #1B1E25",
">q.	c #181C24",
",q.	c #141A1F",
"'q.	c #13171C",
")q.	c #18202D",
"!q.	c #18202B",
"~q.	c #172126",
"{q.	c #151D22",
"]q.	c #161C1F",
"^q.	c #161A1E",
"/q.	c #15191D",
"(q.	c #15181D",
"_q.	c #15171E",
":q.	c #141821",
"<q.	c #141B25",
"[q.	c #121622",
"}q.	c #152443",
"|q.	c #162747",
"1q.	c #142657",
"2q.	c #122455",
"3q.	c #102455",
"4q.	c #122451",
"5q.	c #192954",
"6q.	c #18264E",
"7q.	c #797E4C",
"8q.	c #EBD812",
"9q.	c #D9CF38",
"0q.	c #AEAB85",
"aq.	c #A3A38E",
"bq.	c #A1A18B",
"cq.	c #C1BEA6",
"dq.	c #D8D3B9",
"eq.	c #D9D3B4",
"fq.	c #DCD2AD",
"gq.	c #DBD3AC",
"hq.	c #D2CAA3",
"iq.	c #CFC7A1",
"jq.	c #CAC5A4",
"kq.	c #BFBB9D",
"lq.	c #B8B69E",
"mq.	c #ACAA8E",
"nq.	c #A29F82",
"oq.	c #A09C80",
"pq.	c #A39E80",
"qq.	c #A49F81",
"rq.	c #B9B69D",
"sq.	c #C0BA98",
"tq.	c #CAC39A",
"uq.	c #D4CDA8",
"vq.	c #CAC39B",
"wq.	c #D1C8A1",
"xq.	c #DBD3AD",
"yq.	c #D6CCA6",
"zq.	c #CFC7A2",
"Aq.	c #C9C29A",
"Bq.	c #B7B192",
"Cq.	c #B7B291",
"Dq.	c #C3BC96",
"Eq.	c #BEB794",
"Fq.	c #B0AB8C",
"Gq.	c #A9A386",
"Hq.	c #A4A083",
"Iq.	c #A7A487",
"Jq.	c #ABA88B",
"Kq.	c #B6B293",
"Lq.	c #BEBB9F",
"Mq.	c #CCC9B4",
"Nq.	c #C7C4AB",
"Oq.	c #C8C3A6",
"Pq.	c #C2BEA2",
"Qq.	c #C4C2AA",
"Rq.	c #C0BEA8",
"Sq.	c #BFBDA7",
"Tq.	c #CBC8B4",
"Uq.	c #C2C0AA",
"Vq.	c #CCC8A9",
"Wq.	c #CFC8A6",
"Xq.	c #D7CEAA",
"Yq.	c #CDC7A2",
"Zq.	c #C1BB98",
"`q.	c #BDB99B",
" r.	c #BDB99C",
".r.	c #B8B59A",
"+r.	c #ACA98D",
"@r.	c #959581",
"#r.	c #8C8E80",
"$r.	c #888B80",
"%r.	c #8C918A",
"&r.	c #A4A694",
"*r.	c #D2D0BC",
"=r.	c #DCDBC9",
"-r.	c #DBDAC8",
";r.	c #DBD9C7",
">r.	c #DCDBC8",
",r.	c #E0E0CE",
"'r.	c #DCDCCB",
")r.	c #DCD9C5",
"!r.	c #E3D879",
"~r.	c #E8D923",
"{r.	c #E7D61C",
"]r.	c #E5D927",
"^r.	c #E3D728",
"/r.	c #E0D52B",
"(r.	c #DFD52D",
"_r.	c #DBD230",
":r.	c #D6CE2F",
"<r.	c #DBD32F",
"[r.	c #D3CB32",
"}r.	c #B0B24C",
"|r.	c #616560",
"1r.	c #555A5C",
"2r.	c #51575B",
"3r.	c #525A61",
"4r.	c #505D68",
"5r.	c #3E5067",
"6r.	c #1E3A58",
"7r.	c #081C39",
"8r.	c #051B3A",
"9r.	c #09224A",
"0r.	c #061735",
"ar.	c #13161A",
"br.	c #171C25",
"cr.	c #1C1C20",
"dr.	c #1D1F22",
"er.	c #1B1D22",
"fr.	c #181A21",
"gr.	c #17191E",
"hr.	c #171719",
"ir.	c #161518",
"jr.	c #18181E",
"kr.	c #16171E",
"lr.	c #14161C",
"mr.	c #13161D",
"nr.	c #14181E",
"or.	c #13171E",
"pr.	c #15181E",
"qr.	c #14171F",
"rr.	c #191B1F",
"sr.	c #16191E",
"tr.	c #181B21",
"ur.	c #171A20",
"vr.	c #131620",
"wr.	c #151C2B",
"xr.	c #181E23",
"yr.	c #151E21",
"zr.	c #161E20",
"Ar.	c #161B1E",
"Br.	c #171A1C",
"Cr.	c #151A1D",
"Dr.	c #12171F",
"Er.	c #171E29",
"Fr.	c #151823",
"Gr.	c #162647",
"Hr.	c #192952",
"Ir.	c #122556",
"Jr.	c #112451",
"Kr.	c #112454",
"Lr.	c #112555",
"Mr.	c #112355",
"Nr.	c #222B4F",
"Or.	c #3E2E44",
"Pr.	c #55373F",
"Qr.	c #5E3E46",
"Rr.	c #503643",
"Sr.	c #362E46",
"Tr.	c #38304A",
"Ur.	c #3F384B",
"Vr.	c #7F7E4F",
"Wr.	c #E9D716",
"Xr.	c #EBD903",
"Yr.	c #D3CA43",
"Zr.	c #ABA888",
"`r.	c #A4A28B",
" s.	c #A5A690",
".s.	c #CBC6AD",
"+s.	c #DBD5BA",
"@s.	c #E2DCC2",
"#s.	c #CEC69F",
"$s.	c #CBC3A0",
"%s.	c #C3BD9C",
"&s.	c #AFAC91",
"*s.	c #B7B398",
"=s.	c #BAB598",
"-s.	c #B7B499",
";s.	c #A3A087",
">s.	c #969479",
",s.	c #999579",
"'s.	c #9B987B",
")s.	c #A5A38A",
"!s.	c #B7B396",
"~s.	c #B3AF92",
"{s.	c #C5BE99",
"]s.	c #DBCFA8",
"^s.	c #CEC79C",
"/s.	c #CAC299",
"(s.	c #CBC39C",
"_s.	c #CEC79F",
":s.	c #C8C099",
"<s.	c #CEC79E",
"[s.	c #CDC69F",
"}s.	c #CBC4A1",
"|s.	c #C5BF9C",
"1s.	c #C2BB96",
"2s.	c #C2BB95",
"3s.	c #BEB693",
"4s.	c #B9B391",
"5s.	c #B6AF8E",
"6s.	c #B2AC8C",
"7s.	c #A19C80",
"8s.	c #9C987E",
"9s.	c #A09C83",
"0s.	c #9E9B80",
"as.	c #A7A489",
"bs.	c #AAA78D",
"cs.	c #B0AE94",
"ds.	c #A9A790",
"es.	c #B0B09D",
"fs.	c #AEAE9C",
"gs.	c #A5A38D",
"hs.	c #9D9A82",
"is.	c #9A9882",
"js.	c #A8A488",
"ks.	c #B0AC91",
"ls.	c #B7B59B",
"ms.	c #BBB99F",
"ns.	c #B8B8A2",
"os.	c #B7B7A5",
"ps.	c #B7B8A7",
"qs.	c #BCBDAB",
"rs.	c #BFBEA7",
"ss.	c #C2C0A8",
"ts.	c #CBC7AC",
"us.	c #D0C9A7",
"vs.	c #BEB999",
"ws.	c #B7B496",
"xs.	c #B4B298",
"ys.	c #AAAB95",
"zs.	c #9D9F8A",
"As.	c #8F917F",
"Bs.	c #888A7D",
"Cs.	c #82857A",
"Ds.	c #828885",
"Es.	c #9EA08C",
"Fs.	c #DBD8C3",
"Gs.	c #DEDDCA",
"Hs.	c #DCD9C3",
"Is.	c #DAD9C5",
"Js.	c #DBD9C5",
"Ks.	c #DBD7BC",
"Ls.	c #DDD37E",
"Ms.	c #DED42F",
"Ns.	c #DDD528",
"Os.	c #DFD729",
"Ps.	c #E4DA27",
"Qs.	c #DBD22E",
"Rs.	c #E0D527",
"Ss.	c #DBD22F",
"Ts.	c #D5CD32",
"Us.	c #D7CE35",
"Vs.	c #D7CD39",
"Ws.	c #ABAD49",
"Xs.	c #5D6160",
"Ys.	c #535D64",
"Zs.	c #4F5B67",
"`s.	c #374C64",
" t.	c #1E3B59",
".t.	c #081934",
"+t.	c #081B36",
"@t.	c #051B3F",
"#t.	c #051A3A",
"$t.	c #031B3C",
"%t.	c #051E40",
"&t.	c #071E41",
"*t.	c #181A23",
"=t.	c #1B1B21",
"-t.	c #191920",
";t.	c #17181C",
">t.	c #191D26",
",t.	c #13141A",
"'t.	c #16171C",
")t.	c #16181C",
"!t.	c #161517",
"~t.	c #18171B",
"{t.	c #16161A",
"]t.	c #17161B",
"^t.	c #17171C",
"/t.	c #13151A",
"(t.	c #14161A",
"_t.	c #14161F",
":t.	c #12151D",
"<t.	c #13151B",
"[t.	c #13161C",
"}t.	c #15171B",
"|t.	c #181B20",
"1t.	c #161B1F",
"2t.	c #161920",
"3t.	c #151C25",
"4t.	c #171C1F",
"5t.	c #151D1E",
"6t.	c #171D1F",
"7t.	c #171A1B",
"8t.	c #14181C",
"9t.	c #12171B",
"0t.	c #161F26",
"at.	c #121625",
"bt.	c #19294E",
"ct.	c #152750",
"dt.	c #0F2452",
"et.	c #0E2454",
"ft.	c #5F373E",
"gt.	c #E55708",
"ht.	c #EC5905",
"it.	c #F45806",
"jt.	c #EC5A09",
"kt.	c #DA550E",
"lt.	c #E3580D",
"mt.	c #E95712",
"nt.	c #E78C1F",
"ot.	c #ECD617",
"pt.	c #E7D60D",
"qt.	c #CFC769",
"rt.	c #A9A588",
"st.	c #B5B193",
"tt.	c #B3B197",
"ut.	c #E0D9BE",
"vt.	c #E3DDC7",
"wt.	c #E5DFC5",
"xt.	c #D3CCAC",
"yt.	c #AFA988",
"zt.	c #A9A281",
"At.	c #B0AA85",
"Bt.	c #A9A586",
"Ct.	c #A19D81",
"Dt.	c #9A977C",
"Et.	c #9D9A81",
"Ft.	c #9B987F",
"Gt.	c #94947F",
"Ht.	c #91917E",
"It.	c #96947B",
"Jt.	c #959278",
"Kt.	c #A1A087",
"Lt.	c #AAA78B",
"Mt.	c #ADA98A",
"Nt.	c #BEB896",
"Ot.	c #D5CBA5",
"Pt.	c #CFC69D",
"Qt.	c #D5CBA3",
"Rt.	c #CDC69C",
"St.	c #C9C299",
"Tt.	c #CCC49B",
"Ut.	c #C4BD97",
"Vt.	c #CCC49D",
"Wt.	c #CFC8A1",
"Xt.	c #C8C199",
"Yt.	c #BDB896",
"Zt.	c #B8B492",
"`t.	c #AEA98A",
" u.	c #B0AA8A",
".u.	c #AAA587",
"+u.	c #B1AC8B",
"@u.	c #A5A086",
"#u.	c #9F9B82",
"$u.	c #9B9A82",
"%u.	c #9C9B85",
"&u.	c #9B9B85",
"*u.	c #979785",
"=u.	c #9EA191",
"-u.	c #969989",
";u.	c #999B89",
">u.	c #9B9C8B",
",u.	c #888A7C",
"'u.	c #7E7C6D",
")u.	c #7B7867",
"!u.	c #7D7867",
"~u.	c #8F8B74",
"{u.	c #908B72",
"]u.	c #939178",
"^u.	c #959279",
"/u.	c #99977F",
"(u.	c #9C9B87",
"_u.	c #9D9D8B",
":u.	c #B2B29E",
"<u.	c #B9B8A3",
"[u.	c #BEBCA4",
"}u.	c #BBBAA5",
"|u.	c #BDBCA3",
"1u.	c #D0CAA8",
"2u.	c #BCB897",
"3u.	c #BFBB9C",
"4u.	c #B2AF94",
"5u.	c #AFAE98",
"6u.	c #ABAB98",
"7u.	c #A2A493",
"8u.	c #939585",
"9u.	c #8C8F81",
"0u.	c #82877F",
"au.	c #7F857F",
"bu.	c #A19F7E",
"cu.	c #D2CB8D",
"du.	c #DFD590",
"eu.	c #DFD78E",
"fu.	c #E1D87F",
"gu.	c #DFD787",
"hu.	c #DCD38F",
"iu.	c #DBD396",
"ju.	c #DCD4A1",
"ku.	c #DDD59B",
"lu.	c #D7D196",
"mu.	c #DFD7A1",
"nu.	c #E0D79D",
"ou.	c #E2D781",
"pu.	c #E2D062",
"qu.	c #DEC834",
"ru.	c #DCC436",
"su.	c #D9C436",
"tu.	c #DAC42D",
"uu.	c #D8C633",
"vu.	c #D6C635",
"wu.	c #D7C32E",
"xu.	c #DCC32C",
"yu.	c #DFC52D",
"zu.	c #DABD2D",
"Au.	c #A49B51",
"Bu.	c #5E615F",
"Cu.	c #54595D",
"Du.	c #54585B",
"Eu.	c #545A5C",
"Fu.	c #4D5760",
"Gu.	c #364A61",
"Hu.	c #0A233E",
"Iu.	c #0A1F3A",
"Ju.	c #081D39",
"Ku.	c #051D3B",
"Lu.	c #051E3D",
"Mu.	c #061C41",
"Nu.	c #181920",
"Ou.	c #191A20",
"Pu.	c #181A24",
"Qu.	c #171922",
"Ru.	c #16181E",
"Su.	c #161A20",
"Tu.	c #19191F",
"Uu.	c #18181D",
"Vu.	c #15151A",
"Wu.	c #15151B",
"Xu.	c #171619",
"Yu.	c #16191F",
"Zu.	c #14161D",
"`u.	c #12151F",
" v.	c #17181D",
".v.	c #181D21",
"+v.	c #15161D",
"@v.	c #14171B",
"#v.	c #171C20",
"$v.	c #151A1B",
"%v.	c #16191C",
"&v.	c #161A1C",
"*v.	c #171C1B",
"=v.	c #15191F",
"-v.	c #182644",
";v.	c #14264A",
">v.	c #0D234E",
",v.	c #0E2452",
"'v.	c #0E2451",
")v.	c #0F2356",
"!v.	c #6E3B39",
"~v.	c #EE5D04",
"{v.	c #F55A02",
"]v.	c #F45602",
"^v.	c #E77E1A",
"/v.	c #E6D421",
"(v.	c #E3D32A",
"_v.	c #CDC57F",
":v.	c #ADA989",
"<v.	c #B3B093",
"[v.	c #D7D0B2",
"}v.	c #BAB596",
"|v.	c #ABA684",
"1v.	c #A7A280",
"2v.	c #959275",
"3v.	c #8A856C",
"4v.	c #88836B",
"5v.	c #8A866D",
"6v.	c #8C8871",
"7v.	c #88866D",
"8v.	c #8B8A70",
"9v.	c #88856F",
"0v.	c #7D7A67",
"av.	c #8C8A72",
"bv.	c #909180",
"cv.	c #8E8F7C",
"dv.	c #92927C",
"ev.	c #9B9980",
"fv.	c #A19F84",
"gv.	c #B0AB8B",
"hv.	c #BFBA9B",
"iv.	c #CAC4A2",
"jv.	c #C9C19A",
"kv.	c #CDC59B",
"lv.	c #CBC49A",
"mv.	c #CBC49B",
"nv.	c #CBC39A",
"ov.	c #C3BC94",
"pv.	c #C2BB94",
"qv.	c #C7C099",
"rv.	c #B8B38F",
"sv.	c #B6B191",
"tv.	c #B3AE8E",
"uv.	c #ADA788",
"vv.	c #ACA789",
"wv.	c #A19C7E",
"xv.	c #A5A084",
"yv.	c #A5A28A",
"zv.	c #A3A187",
"Av.	c #989780",
"Bv.	c #989781",
"Cv.	c #92937F",
"Dv.	c #999983",
"Ev.	c #919487",
"Fv.	c #8F9388",
"Gv.	c #85887C",
"Hv.	c #7B7D71",
"Iv.	c #6D6D65",
"Jv.	c #5F615C",
"Kv.	c #55544E",
"Lv.	c #4F4E48",
"Mv.	c #4E4D44",
"Nv.	c #535249",
"Ov.	c #5E5D4E",
"Pv.	c #6B6858",
"Qv.	c #756F5C",
"Rv.	c #7E7B66",
"Sv.	c #8D8972",
"Tv.	c #8D8971",
"Uv.	c #908C77",
"Vv.	c #9F9C85",
"Wv.	c #A6A58F",
"Xv.	c #B0AE98",
"Yv.	c #ADAC99",
"Zv.	c #B8B6A0",
"`v.	c #BCBA9F",
" w.	c #C6C1A0",
".w.	c #C4BF9C",
"+w.	c #B8B69C",
"@w.	c #AAAB98",
"#w.	c #AAAB9A",
"$w.	c #A3A696",
"%w.	c #989B8B",
"&w.	c #969888",
"*w.	c #898E87",
"=w.	c #7E857F",
"-w.	c #8E9659",
";w.	c #CDC735",
">w.	c #E8DB13",
",w.	c #EFE00B",
"'w.	c #EFDE09",
")w.	c #ECDD0C",
"!w.	c #EEDE12",
"~w.	c #ECDD19",
"{w.	c #EEE010",
"]w.	c #F2E10B",
"^w.	c #F0E016",
"/w.	c #F1E215",
"(w.	c #F2E313",
"_w.	c #EEDB16",
":w.	c #E88610",
"<w.	c #F35C04",
"[w.	c #F35903",
"}w.	c #ED5D05",
"|w.	c #ED5604",
"1w.	c #EB5607",
"2w.	c #E85605",
"3w.	c #E75406",
"4w.	c #E85705",
"5w.	c #E65004",
"6w.	c #E65206",
"7w.	c #B0653D",
"8w.	c #5C6162",
"9w.	c #545A5E",
"0w.	c #525758",
"aw.	c #4E5761",
"bw.	c #354B66",
"cw.	c #1C3552",
"dw.	c #071E3A",
"ew.	c #061A38",
"fw.	c #05193A",
"gw.	c #051837",
"hw.	c #061B40",
"iw.	c #081E45",
"jw.	c #171A1E",
"kw.	c #17191C",
"lw.	c #181A1E",
"mw.	c #18191C",
"nw.	c #181A20",
"ow.	c #13151C",
"pw.	c #14141A",
"qw.	c #17171B",
"rw.	c #151418",
"sw.	c #141519",
"tw.	c #15161A",
"uw.	c #16181D",
"vw.	c #171D21",
"ww.	c #181D1F",
"xw.	c #141A1C",
"yw.	c #181C1C",
"zw.	c #171D1E",
"Aw.	c #151B1C",
"Bw.	c #151A1E",
"Cw.	c #14181D",
"Dw.	c #151920",
"Ew.	c #161D27",
"Fw.	c #171D29",
"Gw.	c #161926",
"Hw.	c #141829",
"Iw.	c #172547",
"Jw.	c #162648",
"Kw.	c #14264D",
"Lw.	c #0F234D",
"Mw.	c #0B2252",
"Nw.	c #0B2256",
"Ow.	c #0F2455",
"Pw.	c #152655",
"Qw.	c #7B3F3C",
"Rw.	c #F35D03",
"Sw.	c #EC8711",
"Tw.	c #ECD708",
"Uw.	c #E1D343",
"Vw.	c #C7C193",
"Ww.	c #ADA98B",
"Xw.	c #C1BFA7",
"Yw.	c #D8D2B5",
"Zw.	c #DAD5BC",
"`w.	c #D3CDB5",
" x.	c #CBC5A6",
".x.	c #B7B28F",
"+x.	c #979275",
"@x.	c #8A8670",
"#x.	c #757360",
"$x.	c #6B685B",
"%x.	c #666357",
"&x.	c #5F5C54",
"*x.	c #5B5952",
"=x.	c #5B5753",
"-x.	c #54534F",
";x.	c #5E5D56",
">x.	c #605E57",
",x.	c #615F57",
"'x.	c #6D6A5E",
")x.	c #898876",
"!x.	c #93917C",
"~x.	c #95947C",
"{x.	c #939278",
"]x.	c #95937A",
"^x.	c #9F9D83",
"/x.	c #B1AF91",
"(x.	c #B7B59D",
"_x.	c #C1BA94",
":x.	c #CCC49C",
"<x.	c #C9C198",
"[x.	c #C6BF95",
"}x.	c #CAC398",
"|x.	c #CCC59C",
"1x.	c #C6BF97",
"2x.	c #BCB68C",
"3x.	c #BCB58F",
"4x.	c #B2AC8A",
"5x.	c #A7A386",
"6x.	c #9F9A7E",
"7x.	c #A09A7A",
"8x.	c #A19C7F",
"9x.	c #A7A58C",
"0x.	c #9E9E89",
"ax.	c #9A9A85",
"bx.	c #939480",
"cx.	c #91917A",
"dx.	c #8D8E7B",
"ex.	c #888C81",
"fx.	c #848A85",
"gx.	c #868B85",
"hx.	c #797C72",
"ix.	c #6B6E69",
"jx.	c #60625E",
"kx.	c #4D4E4C",
"lx.	c #403E3E",
"mx.	c #3B373A",
"nx.	c #363336",
"ox.	c #323132",
"px.	c #2D2D2C",
"qx.	c #2A292A",
"rx.	c #2E2E2C",
"sx.	c #3B3B39",
"tx.	c #4C4B46",
"ux.	c #656054",
"vx.	c #827A63",
"wx.	c #988A6D",
"xx.	c #9B9072",
"yx.	c #9A9479",
"zx.	c #A19C83",
"Ax.	c #A8A68D",
"Bx.	c #A9A892",
"Cx.	c #B6B397",
"Dx.	c #B9B79E",
"Ex.	c #A1A493",
"Fx.	c #A2A494",
"Gx.	c #818B8E",
"Hx.	c #878D6A",
"Ix.	c #B5B532",
"Jx.	c #E7D707",
"Kx.	c #F2E102",
"Lx.	c #F1E002",
"Mx.	c #EFDD03",
"Nx.	c #ED910B",
"Ox.	c #EF5602",
"Px.	c #EE5102",
"Qx.	c #ED4E01",
"Rx.	c #ED4F01",
"Sx.	c #EE4F01",
"Tx.	c #EC5002",
"Ux.	c #E94C01",
"Vx.	c #ED5102",
"Wx.	c #C25C36",
"Xx.	c #595C5B",
"Yx.	c #555A5B",
"Zx.	c #54595B",
"`x.	c #505658",
" y.	c #475360",
".y.	c #30455E",
"+y.	c #102D49",
"@y.	c #081E3A",
"#y.	c #08213E",
"$y.	c #07203D",
"%y.	c #051C42",
"&y.	c #051B40",
"*y.	c #061B41",
"=y.	c #101933",
"-y.	c #131418",
";y.	c #151721",
">y.	c #191B21",
",y.	c #191B20",
"'y.	c #17191D",
")y.	c #17181B",
"!y.	c #1A1B1D",
"~y.	c #18171A",
"{y.	c #1A1A1E",
"]y.	c #17161A",
"^y.	c #18191D",
"/y.	c #191A1E",
"(y.	c #18191E",
"_y.	c #18191F",
":y.	c #17181F",
"<y.	c #17171D",
"[y.	c #181C25",
"}y.	c #181E22",
"|y.	c #161B1D",
"1y.	c #171B1D",
"2y.	c #151B1D",
"3y.	c #151C1F",
"4y.	c #172443",
"5y.	c #142446",
"6y.	c #14254D",
"7y.	c #102451",
"8y.	c #0A224E",
"9y.	c #102658",
"0y.	c #0C2354",
"ay.	c #142555",
"by.	c #864437",
"cy.	c #F05902",
"dy.	c #ED8614",
"ey.	c #EBD710",
"fy.	c #ECD904",
"gy.	c #E0D45B",
"hy.	c #BDB996",
"iy.	c #B3B29A",
"jy.	c #DAD6C0",
"ky.	c #CBC5A8",
"ly.	c #BBB698",
"my.	c #B5B090",
"ny.	c #9B967C",
"oy.	c #615F52",
"py.	c #5C5B53",
"qy.	c #605D55",
"ry.	c #626058",
"sy.	c #605E58",
"ty.	c #5B5955",
"uy.	c #52534F",
"vy.	c #4E4F4C",
"wy.	c #4E5047",
"xy.	c #474843",
"yy.	c #50514F",
"zy.	c #545552",
"Ay.	c #5B5A56",
"By.	c #717065",
"Cy.	c #8F8D76",
"Dy.	c #97957C",
"Ey.	c #94937C",
"Fy.	c #93947F",
"Gy.	c #9C9C85",
"Hy.	c #B0AD91",
"Iy.	c #B9B69A",
"Jy.	c #BDB694",
"Ky.	c #B6B283",
"Ly.	c #B7B383",
"My.	c #BEB88D",
"Ny.	c #D4CCA5",
"Oy.	c #C9C29D",
"Py.	c #BAB58B",
"Qy.	c #A8A383",
"Ry.	c #A8A487",
"Sy.	c #9B987E",
"Ty.	c #8E8C76",
"Uy.	c #97967F",
"Vy.	c #8E9185",
"Wy.	c #85877B",
"Xy.	c #898B7D",
"Yy.	c #838579",
"Zy.	c #828477",
"`y.	c #8E9182",
" z.	c #848C89",
".z.	c #7D8484",
"+z.	c #71746D",
"@z.	c #5D5F5C",
"#z.	c #4F504D",
"$z.	c #4B4C47",
"%z.	c #444541",
"&z.	c #393738",
"*z.	c #2D2C2E",
"=z.	c #2C2B2C",
"-z.	c #2B2B2C",
";z.	c #2A2A2B",
">z.	c #2D2D2E",
",z.	c #302F31",
"'z.	c #2F2E2F",
")z.	c #342929",
"!z.	c #6A2920",
"~z.	c #7D3F25",
"{z.	c #924E31",
"]z.	c #936C4F",
"^z.	c #90846B",
"/z.	c #959076",
"(z.	c #9B9780",
"_z.	c #B7B598",
":z.	c #A2A697",
"<z.	c #A7A999",
"[z.	c #A4A697",
"}z.	c #A9AB9D",
"|z.	c #9FA394",
"1z.	c #89908D",
"2z.	c #838A81",
"3z.	c #9C9B3F",
"4z.	c #DED21E",
"5z.	c #EFDF02",
"6z.	c #EA8C0A",
"7z.	c #F45702",
"8z.	c #EE5202",
"9z.	c #F05202",
"0z.	c #F05102",
"az.	c #EE5302",
"bz.	c #EA5002",
"cz.	c #EB5001",
"dz.	c #C5592D",
"ez.	c #52575A",
"fz.	c #515556",
"gz.	c #3E4D5C",
"hz.	c #28405F",
"iz.	c #0C2B46",
"jz.	c #071E3B",
"kz.	c #07203C",
"lz.	c #041A3B",
"mz.	c #061C46",
"nz.	c #081F46",
"oz.	c #071734",
"pz.	c #0F1831",
"qz.	c #17171A",
"rz.	c #181618",
"sz.	c #161619",
"tz.	c #181518",
"uz.	c #1B1A1E",
"vz.	c #1A191B",
"wz.	c #191819",
"xz.	c #1A1D20",
"yz.	c #181C1F",
"zz.	c #171B1E",
"Az.	c #19191D",
"Bz.	c #141317",
"Cz.	c #141419",
"Dz.	c #1A1C21",
"Ez.	c #191E23",
"Fz.	c #151B1E",
"Gz.	c #151C1E",
"Hz.	c #161C1E",
"Iz.	c #161D1E",
"Jz.	c #161A21",
"Kz.	c #161A23",
"Lz.	c #121721",
"Mz.	c #101623",
"Nz.	c #102347",
"Oz.	c #0F2249",
"Pz.	c #0E234D",
"Qz.	c #0F2553",
"Rz.	c #0F2454",
"Sz.	c #863C34",
"Tz.	c #F25A02",
"Uz.	c #F65302",
"Vz.	c #E6832B",
"Wz.	c #EBD81F",
"Xz.	c #E9D705",
"Yz.	c #DCD36D",
"Zz.	c #B1AE92",
"`z.	c #C0BDA5",
" A.	c #DAD7C3",
".A.	c #D9D5BC",
"+A.	c #C8C2A1",
"@A.	c #B8B392",
"#A.	c #A4A184",
"$A.	c #646057",
"%A.	c #565652",
"&A.	c #585855",
"*A.	c #5C5B56",
"=A.	c #52514F",
"-A.	c #494948",
";A.	c #44463E",
">A.	c #3C3B39",
",A.	c #383736",
"'A.	c #393837",
")A.	c #3A3739",
"!A.	c #3D3D3C",
"~A.	c #383836",
"{A.	c #3C3C39",
"]A.	c #4E4E48",
"^A.	c #6E6D60",
"/A.	c #87846E",
"(A.	c #8C8A73",
"_A.	c #92917B",
":A.	c #95957F",
"<A.	c #9C9C86",
"[A.	c #A7A690",
"}A.	c #AFAE97",
"|A.	c #B4B092",
"1A.	c #B6B28A",
"2A.	c #BDB68F",
"3A.	c #C5BE98",
"4A.	c #D1CAA9",
"5A.	c #CDC7A7",
"6A.	c #CBC4A3",
"7A.	c #B3AE8F",
"8A.	c #A29D81",
"9A.	c #92927E",
"0A.	c #939380",
"aA.	c #969785",
"bA.	c #8C8F83",
"cA.	c #818378",
"dA.	c #7F8176",
"eA.	c #787970",
"fA.	c #75776F",
"gA.	c #7A7D76",
"hA.	c #707574",
"iA.	c #5C5F5B",
"jA.	c #4D4F4C",
"kA.	c #454544",
"lA.	c #414041",
"mA.	c #3E3D3F",
"nA.	c #3B393D",
"oA.	c #303031",
"pA.	c #2D2C2D",
"qA.	c #2E2D2E",
"rA.	c #313032",
"sA.	c #302F30",
"tA.	c #3D2B2A",
"uA.	c #8D2B18",
"vA.	c #9A2712",
"wA.	c #9B2B12",
"xA.	c #982E14",
"yA.	c #9A4E2F",
"zA.	c #9A704F",
"AA.	c #92876F",
"BA.	c #8F907F",
"CA.	c #929385",
"DA.	c #A1A392",
"EA.	c #B4B29C",
"FA.	c #BEBA9D",
"GA.	c #B6B59B",
"HA.	c #A8A997",
"IA.	c #AAAB9C",
"JA.	c #A9AB9E",
"KA.	c #A5A89A",
"LA.	c #808A8C",
"MA.	c #8C8F43",
"NA.	c #CEC529",
"OA.	c #E9DA04",
"PA.	c #F0E002",
"QA.	c #F0DD04",
"RA.	c #E98A0A",
"SA.	c #F65D02",
"TA.	c #EC5102",
"UA.	c #F05302",
"VA.	c #EB5202",
"WA.	c #EA4E01",
"XA.	c #C7592C",
"YA.	c #5D6364",
"ZA.	c #585F61",
"`A.	c #51585D",
" B.	c #3A4C61",
".B.	c #1D3853",
"+B.	c #0F2B47",
"@B.	c #0B233E",
"#B.	c #041B3A",
"$B.	c #051A3D",
"%B.	c #061C44",
"&B.	c #061C45",
"*B.	c #071D43",
"=B.	c #091835",
"-B.	c #111A33",
";B.	c #14181A",
">B.	c #151819",
",B.	c #16181B",
"'B.	c #18181F",
")B.	c #191A1F",
"!B.	c #171A1F",
"~B.	c #18181A",
"{B.	c #18181C",
"]B.	c #1A1B1F",
"^B.	c #191B1E",
"/B.	c #161417",
"(B.	c #141417",
"_B.	c #161519",
":B.	c #151417",
"<B.	c #141418",
"[B.	c #151921",
"}B.	c #171A24",
"|B.	c #181C23",
"1B.	c #171B23",
"2B.	c #181F23",
"3B.	c #161D22",
"4B.	c #131A1D",
"5B.	c #15181B",
"6B.	c #121825",
"7B.	c #0F2247",
"8B.	c #11244E",
"9B.	c #0B224D",
"0B.	c #0A214C",
"aB.	c #0D2255",
"bB.	c #0B2353",
"cB.	c #994431",
"dB.	c #F35902",
"eB.	c #F55402",
"fB.	c #EC8C16",
"gB.	c #E8D515",
"hB.	c #F0DA03",
"iB.	c #D0C872",
"jB.	c #AFAC90",
"kB.	c #D3CFB9",
"lB.	c #E0DDC9",
"mB.	c #CEC7A3",
"nB.	c #CAC39C",
"oB.	c #C3BD95",
"pB.	c #A19D80",
"qB.	c #77786B",
"rB.	c #65655D",
"sB.	c #615D55",
"tB.	c #555652",
"uB.	c #484847",
"vB.	c #413E3F",
"wB.	c #383738",
"xB.	c #2B2B2B",
"yB.	c #2C2B2D",
"zB.	c #2F2D2F",
"AB.	c #302E30",
"BB.	c #2E2D2F",
"CB.	c #292929",
"DB.	c #3B3A38",
"EB.	c #5D5B54",
"FB.	c #757367",
"GB.	c #868472",
"HB.	c #8A8A7A",
"IB.	c #999A84",
"JB.	c #A7A68B",
"KB.	c #ABAB95",
"LB.	c #B1AE94",
"MB.	c #BBB797",
"NB.	c #C6C09D",
"OB.	c #CCC6A3",
"PB.	c #B5AF8C",
"QB.	c #BAB391",
"RB.	c #C1BEA0",
"SB.	c #AFAB8F",
"TB.	c #A3A188",
"UB.	c #A6A690",
"VB.	c #B2AF95",
"WB.	c #96937B",
"XB.	c #8D8C7A",
"YB.	c #878777",
"ZB.	c #828375",
"`B.	c #76786E",
" C.	c #72756D",
".C.	c #71736C",
"+C.	c #6D6E66",
"@C.	c #555654",
"#C.	c #4A4C47",
"$C.	c #474645",
"%C.	c #434344",
"&C.	c #3C3A3B",
"*C.	c #3A383C",
"=C.	c #2A2828",
"-C.	c #272627",
";C.	c #272325",
">C.	c #262221",
",C.	c #252321",
"'C.	c #242320",
")C.	c #252324",
"!C.	c #292829",
"~C.	c #2B292B",
"{C.	c #362727",
"]C.	c #902817",
"^C.	c #9B2711",
"/C.	c #9B2A12",
"(C.	c #8F573C",
"_C.	c #917E65",
":C.	c #969177",
"<C.	c #A4A592",
"[C.	c #BFBB9F",
"}C.	c #B5B196",
"|C.	c #B3B39F",
"1C.	c #A5A898",
"2C.	c #969B8E",
"3C.	c #828C8F",
"4C.	c #8A8C61",
"5C.	c #AEAD37",
"6C.	c #E4D71D",
"7C.	c #EEDA04",
"8C.	c #EA890E",
"9C.	c #F35702",
"0C.	c #F45B02",
"aC.	c #F05402",
"bC.	c #EF5202",
"cC.	c #EA4F01",
"dC.	c #E94B01",
"eC.	c #C1592C",
"fC.	c #5C5F5E",
"gC.	c #555A5E",
"hC.	c #4F575C",
"iC.	c #36495F",
"jC.	c #18334C",
"kC.	c #0A2542",
"lC.	c #041C3B",
"mC.	c #061835",
"nC.	c #081836",
"oC.	c #181A1B",
"pC.	c #171E1D",
"qC.	c #161B1C",
"rC.	c #16191B",
"sC.	c #181B1E",
"tC.	c #151518",
"uC.	c #141518",
"vC.	c #131318",
"wC.	c #16151A",
"xC.	c #181D22",
"yC.	c #1B232B",
"zC.	c #181F25",
"AC.	c #171D22",
"BC.	c #171F23",
"CC.	c #171F24",
"DC.	c #181F21",
"EC.	c #181B1F",
"FC.	c #181D26",
"GC.	c #131729",
"HC.	c #111C39",
"IC.	c #0E2147",
"JC.	c #0E224A",
"KC.	c #0A2247",
"LC.	c #0B224E",
"MC.	c #0C2355",
"NC.	c #A1462F",
"OC.	c #EC5502",
"PC.	c #F45603",
"QC.	c #E7841D",
"RC.	c #E6D41C",
"SC.	c #EBD706",
"TC.	c #E6D525",
"UC.	c #D6CC7E",
"VC.	c #BFB998",
"WC.	c #D2C9A4",
"XC.	c #CEC5A0",
"YC.	c #7A7968",
"ZC.	c #6F6E63",
"`C.	c #616057",
" D.	c #55554E",
".D.	c #454741",
"+D.	c #373536",
"@D.	c #333233",
"#D.	c #353435",
"$D.	c #363436",
"%D.	c #343234",
"&D.	c #353436",
"*D.	c #373537",
"=D.	c #383538",
"-D.	c #393737",
";D.	c #2B2A2B",
">D.	c #282828",
",D.	c #373636",
"'D.	c #52524F",
")D.	c #70716A",
"!D.	c #868778",
"~D.	c #949481",
"{D.	c #A9A78F",
"]D.	c #A8A58C",
"^D.	c #A09D82",
"/D.	c #9B987D",
"(D.	c #BAB79C",
"_D.	c #B8B28F",
":D.	c #ABA685",
"<D.	c #949073",
"[D.	c #97947A",
"}D.	c #A3A086",
"|D.	c #7C7A69",
"1D.	c #79786A",
"2D.	c #727369",
"3D.	c #73766F",
"4D.	c #5D5D57",
"5D.	c #4E4D4A",
"6D.	c #44443F",
"7D.	c #403D3F",
"8D.	c #3A373B",
"9D.	c #393838",
"0D.	c #2D2C2C",
"aD.	c #292828",
"bD.	c #2A2525",
"cD.	c #262422",
"dD.	c #282526",
"eD.	c #262424",
"fD.	c #272628",
"gD.	c #282728",
"hD.	c #29282A",
"iD.	c #252224",
"jD.	c #2C2222",
"kD.	c #912817",
"lD.	c #932D17",
"mD.	c #945D42",
"nD.	c #948C71",
"oD.	c #9B9C8A",
"pD.	c #AEAD95",
"qD.	c #C0BA9A",
"rD.	c #BFB894",
"sD.	c #BAB697",
"tD.	c #B0AF99",
"uD.	c #A6A796",
"vD.	c #8A918C",
"wD.	c #888C7E",
"xD.	c #959A3A",
"yD.	c #D7CD2F",
"zD.	c #EEDE04",
"AD.	c #EFDA05",
"BD.	c #E8880F",
"CD.	c #EF5402",
"DD.	c #EA5001",
"ED.	c #E94D01",
"FD.	c #BE5B2E",
"GD.	c #5D5F5E",
"HD.	c #565B5E",
"ID.	c #54595C",
"JD.	c #4B545D",
"KD.	c #30455D",
"LD.	c #15324C",
"MD.	c #0A223D",
"ND.	c #08203D",
"OD.	c #081B3A",
"PD.	c #0B1C3B",
"QD.	c #051A3C",
"RD.	c #061939",
"SD.	c #071A3A",
"TD.	c #051735",
"UD.	c #061A3B",
"VD.	c #041C3F",
"WD.	c #071836",
"XD.	c #081939",
"YD.	c #141619",
"ZD.	c #161C1D",
"`D.	c #19191E",
" E.	c #19181C",
".E.	c #171519",
"+E.	c #141215",
"@E.	c #141316",
"#E.	c #12161D",
"$E.	c #13171F",
"%E.	c #171C21",
"&E.	c #182129",
"*E.	c #192329",
"=E.	c #182026",
"-E.	c #171F27",
";E.	c #192025",
">E.	c #192127",
",E.	c #1B2226",
"'E.	c #1D2226",
")E.	c #191E20",
"!E.	c #181D20",
"~E.	c #181C22",
"{E.	c #111521",
"]E.	c #11182C",
"^E.	c #101A34",
"/E.	c #0B2147",
"(E.	c #092147",
"_E.	c #0A2049",
":E.	c #0A2353",
"<E.	c #13244F",
"[E.	c #915643",
"}E.	c #E56408",
"|E.	c #EE6205",
"1E.	c #EB5D05",
"2E.	c #EA5D05",
"3E.	c #E95A05",
"4E.	c #EA5C04",
"5E.	c #E7690A",
"6E.	c #D9A24A",
"7E.	c #DFD247",
"8E.	c #DED243",
"9E.	c #E1D555",
"0E.	c #D3C887",
"aE.	c #7D7B67",
"bE.	c #6C685D",
"cE.	c #5C5A51",
"dE.	c #4D4F48",
"eE.	c #3E3F3B",
"fE.	c #393639",
"gE.	c #363536",
"hE.	c #383638",
"iE.	c #373538",
"jE.	c #3E3B3E",
"kE.	c #393739",
"lE.	c #3A363A",
"mE.	c #3F3F3E",
"nE.	c #4E523A",
"oE.	c #605E42",
"pE.	c #2B2A2C",
"qE.	c #272527",
"rE.	c #404040",
"sE.	c #4E4E4C",
"tE.	c #868777",
"uE.	c #969683",
"vE.	c #9D9C85",
"wE.	c #8D8B72",
"xE.	c #91907B",
"yE.	c #A9A99A",
"zE.	c #BDBEAE",
"AE.	c #C6C4AD",
"BE.	c #CBC6AA",
"CE.	c #C4BE9B",
"DE.	c #C8C29C",
"EE.	c #BAB490",
"FE.	c #A19C7C",
"GE.	c #8E8C70",
"HE.	c #88866E",
"IE.	c #84816B",
"JE.	c #89866F",
"KE.	c #88866F",
"LE.	c #848370",
"ME.	c #72746B",
"NE.	c #656763",
"OE.	c #545653",
"PE.	c #45453F",
"QE.	c #43423F",
"RE.	c #3D3D3A",
"SE.	c #3D393C",
"TE.	c #282426",
"UE.	c #272323",
"VE.	c #262120",
"WE.	c #252121",
"XE.	c #272426",
"YE.	c #232222",
"ZE.	c #201F1F",
"`E.	c #222123",
" F.	c #222122",
".F.	c #232123",
"+F.	c #211F20",
"@F.	c #2E201F",
"#F.	c #B44313",
"$F.	c #BB3A0D",
"%F.	c #AA310F",
"&F.	c #9D2911",
"*F.	c #9B2911",
"=F.	c #9B2F13",
"-F.	c #974B29",
";F.	c #938A72",
">F.	c #A1A290",
",F.	c #BAB79E",
"'F.	c #C9C3A2",
")F.	c #C0BB9A",
"!F.	c #B8B394",
"~F.	c #ACAB95",
"{F.	c #A8A999",
"]F.	c #878D87",
"^F.	c #8E9240",
"/F.	c #BFBC35",
"(F.	c #EBDC14",
"_F.	c #EDDD03",
":F.	c #F0E003",
"<F.	c #EDDA0C",
"[F.	c #E68C1F",
"}F.	c #E94E01",
"|F.	c #CA6034",
"1F.	c #5A5D5D",
"2F.	c #585E60",
"3F.	c #565C5F",
"4F.	c #53595E",
"5F.	c #49535C",
"6F.	c #263D55",
"7F.	c #0A2440",
"8F.	c #061E3C",
"9F.	c #061F3D",
"0F.	c #071735",
"aF.	c #061532",
"bF.	c #061D40",
"cF.	c #071633",
"dF.	c #141A1B",
"eF.	c #181F1F",
"fF.	c #191E1E",
"gF.	c #171A1A",
"hF.	c #14191C",
"iF.	c #1A1C20",
"jF.	c #151419",
"kF.	c #181619",
"lF.	c #13161F",
"mF.	c #182125",
"nF.	c #19222B",
"oF.	c #182126",
"pF.	c #192429",
"qF.	c #1C252B",
"rF.	c #1B242D",
"sF.	c #192023",
"tF.	c #181E21",
"uF.	c #191E21",
"vF.	c #1A1D22",
"wF.	c #111721",
"xF.	c #142042",
"yF.	c #132145",
"zF.	c #0F2145",
"AF.	c #0D2349",
"BF.	c #0C224C",
"CF.	c #0B2450",
"DF.	c #0B2455",
"EF.	c #122553",
"FF.	c #888348",
"GF.	c #F0CF0A",
"HF.	c #EFCE0B",
"IF.	c #EDCD0B",
"JF.	c #EDD111",
"KF.	c #EBD30E",
"LF.	c #E9CC0F",
"MF.	c #E3D45F",
"NF.	c #E0D9B3",
"OF.	c #E8E0BF",
"PF.	c #CEC7A0",
"QF.	c #DDD6B1",
"RF.	c #6E6C5E",
"SF.	c #5A564F",
"TF.	c #525449",
"UF.	c #464741",
"VF.	c #3A3939",
"WF.	c #3B383B",
"XF.	c #3E3D3C",
"YF.	c #3A373C",
"ZF.	c #3B393B",
"`F.	c #3B3A3A",
" G.	c #41403F",
".G.	c #474746",
"+G.	c #5B5C4C",
"@G.	c #877941",
"#G.	c #827443",
"$G.	c #3D3F37",
"%G.	c #282628",
"&G.	c #2A292B",
"*G.	c #565650",
"=G.	c #76766C",
"-G.	c #7E7E70",
";G.	c #838371",
">G.	c #908E78",
",G.	c #A1A291",
"'G.	c #B1B2A5",
")G.	c #BBBBAA",
"!G.	c #BBBBA9",
"~G.	c #BEB892",
"{G.	c #B6B18B",
"]G.	c #A9A483",
"^G.	c #82806A",
"/G.	c #85846E",
"(G.	c #888671",
"_G.	c #87866E",
":G.	c #93927A",
"<G.	c #858573",
"[G.	c #717165",
"}G.	c #50514E",
"|G.	c #45463F",
"1G.	c #413F40",
"2G.	c #3F3D3E",
"3G.	c #3D3A3D",
"4G.	c #363636",
"5G.	c #282729",
"6G.	c #262426",
"7G.	c #272525",
"8G.	c #262423",
"9G.	c #242323",
"0G.	c #252424",
"aG.	c #191718",
"bG.	c #161314",
"cG.	c #151313",
"dG.	c #1C1B1B",
"eG.	c #212020",
"fG.	c #312520",
"gG.	c #D8550D",
"hG.	c #F45903",
"iG.	c #F15703",
"jG.	c #DD4C08",
"kG.	c #C63E0C",
"lG.	c #AD3410",
"mG.	c #9C2811",
"nG.	c #93461E",
"oG.	c #88774F",
"pG.	c #979479",
"qG.	c #ACAB94",
"rG.	c #CBC39E",
"sG.	c #C3BC97",
"tG.	c #B3AF91",
"uG.	c #B0AE96",
"vG.	c #A6A896",
"wG.	c #999C8D",
"xG.	c #8D9187",
"yG.	c #8F9451",
"zG.	c #A8AC41",
"AG.	c #E4D827",
"BG.	c #ECDD03",
"CG.	c #ECDD05",
"DG.	c #EADA06",
"EG.	c #ECD909",
"FG.	c #F1DF0A",
"GG.	c #E98E15",
"HG.	c #EC5202",
"IG.	c #EA5102",
"JG.	c #CA5B2E",
"KG.	c #5D5E5C",
"LG.	c #565E62",
"MG.	c #565B5D",
"NG.	c #53585B",
"OG.	c #49545D",
"PG.	c #243C54",
"QG.	c #0C2C47",
"RG.	c #09223F",
"SG.	c #0A233F",
"TG.	c #08213F",
"UG.	c #08142D",
"VG.	c #071530",
"WG.	c #081B3C",
"XG.	c #171C1D",
"YG.	c #13181B",
"ZG.	c #151A1C",
"`G.	c #19191C",
" H.	c #16161C",
".H.	c #111115",
"+H.	c #15171A",
"@H.	c #16191D",
"#H.	c #151B1F",
"$H.	c #11151E",
"%H.	c #12161F",
"&H.	c #171C22",
"*H.	c #161E29",
"=H.	c #18202A",
"-H.	c #1A232C",
";H.	c #19222A",
">H.	c #1C262F",
",H.	c #1A2225",
"'H.	c #1A1E22",
")H.	c #151B20",
"!H.	c #14191D",
"~H.	c #161D21",
"{H.	c #131A21",
"]H.	c #121728",
"^H.	c #121D3B",
"/H.	c #0C234E",
"(H.	c #0F2657",
"_H.	c #142650",
":H.	c #908E3F",
"<H.	c #EDD804",
"[H.	c #E1D474",
"}H.	c #D0C9A5",
"|H.	c #D8D1B3",
"1H.	c #CDC7A5",
"2H.	c #83806B",
"3H.	c #5E5D57",
"4H.	c #52524E",
"5H.	c #464543",
"6H.	c #434142",
"7H.	c #3E393D",
"8H.	c #413F3E",
"9H.	c #3B3A3B",
"0H.	c #3C393B",
"aH.	c #434143",
"bH.	c #4B4B4A",
"cH.	c #5C5F4D",
"dH.	c #87783D",
"eH.	c #8F8D35",
"fH.	c #857736",
"gH.	c #3F403C",
"hH.	c #29292A",
"iH.	c #41433E",
"jH.	c #757568",
"kH.	c #7A7A6C",
"lH.	c #BAB9A6",
"mH.	c #CDCDBE",
"nH.	c #C3C2AE",
"oH.	c #D3D1BC",
"pH.	c #BFB892",
"qH.	c #B0AB8A",
"rH.	c #908D74",
"sH.	c #888775",
"tH.	c #898878",
"uH.	c #737265",
"vH.	c #787863",
"wH.	c #6F6F5E",
"xH.	c #66675A",
"yH.	c #535450",
"zH.	c #474844",
"AH.	c #424240",
"BH.	c #484846",
"CH.	c #464746",
"DH.	c #3C3C3B",
"EH.	c #292729",
"FH.	c #242221",
"GH.	c #222020",
"HH.	c #1A1818",
"IH.	c #131111",
"JH.	c #131011",
"KH.	c #141113",
"LH.	c #151312",
"MH.	c #312419",
"NH.	c #D7560E",
"OH.	c #F85C02",
"PH.	c #DC4906",
"QH.	c #C7420C",
"RH.	c #A73010",
"SH.	c #923F19",
"TH.	c #86703A",
"UH.	c #807C45",
"VH.	c #969378",
"WH.	c #B0AC92",
"XH.	c #CAC3A0",
"YH.	c #C5BF9F",
"ZH.	c #B7B18E",
"`H.	c #B2AF91",
" I.	c #A8A790",
".I.	c #9DA08F",
"+I.	c #8E9289",
"@I.	c #90925B",
"#I.	c #989C36",
"$I.	c #D5CE3F",
"%I.	c #EDDC0C",
"&I.	c #EBD906",
"*I.	c #EAD709",
"=I.	c #E8D523",
"-I.	c #ECDB06",
";I.	c #EDDC09",
">I.	c #E79611",
",I.	c #F05303",
"'I.	c #F35101",
")I.	c #C95A2E",
"!I.	c #53595D",
"~I.	c #52585C",
"{I.	c #44505C",
"]I.	c #213A51",
"^I.	c #0D2845",
"/I.	c #09233F",
"(I.	c #061531",
"_I.	c #061632",
":I.	c #091631",
"<I.	c #0A1328",
"[I.	c #07122C",
"}I.	c #061936",
"|I.	c #071733",
"1I.	c #081A3B",
"2I.	c #071532",
"3I.	c #1A1C1C",
"4I.	c #1B1E20",
"5I.	c #181C1E",
"6I.	c #191C25",
"7I.	c #161A24",
"8I.	c #151720",
"9I.	c #131419",
"0I.	c #14151B",
"aI.	c #131417",
"bI.	c #161D1F",
"cI.	c #14191E",
"dI.	c #131921",
"eI.	c #161E26",
"fI.	c #19212B",
"gI.	c #1A2329",
"hI.	c #192029",
"iI.	c #1A1F27",
"jI.	c #1A2024",
"kI.	c #191D22",
"lI.	c #181C20",
"mI.	c #181A1F",
"nI.	c #1A1B20",
"oI.	c #161B23",
"pI.	c #10172B",
"qI.	c #0F1933",
"rI.	c #0F1E41",
"sI.	c #0C2047",
"tI.	c #092045",
"uI.	c #0B2351",
"vI.	c #152851",
"wI.	c #8A8A4D",
"xI.	c #EBD606",
"yI.	c #E4D771",
"zI.	c #E0DBC5",
"AI.	c #E2DDC6",
"BI.	c #E2DEC6",
"CI.	c #8B8A77",
"DI.	c #5F5F5A",
"EI.	c #5B5752",
"FI.	c #50514D",
"GI.	c #474646",
"HI.	c #454345",
"II.	c #474345",
"JI.	c #454443",
"KI.	c #454344",
"LI.	c #454244",
"MI.	c #464345",
"NI.	c #464446",
"OI.	c #4D4E4D",
"PI.	c #5A5A4F",
"QI.	c #78764C",
"RI.	c #907244",
"SI.	c #918830",
"TI.	c #938230",
"UI.	c #8B833B",
"VI.	c #444441",
"WI.	c #222022",
"XI.	c #21211E",
"YI.	c #4D4E48",
"ZI.	c #737368",
"`I.	c #969887",
" J.	c #AAAC9F",
".J.	c #ACAC99",
"+J.	c #C4C0AA",
"@J.	c #D8D3BE",
"#J.	c #DDD7BB",
"$J.	c #B4AF8F",
"%J.	c #9C997F",
"&J.	c #8A8B7B",
"*J.	c #747468",
"=J.	c #6B6B5E",
"-J.	c #79795F",
";J.	c #656656",
">J.	c #494847",
",J.	c #45443F",
"'J.	c #41423C",
")J.	c #454642",
"!J.	c #494949",
"~J.	c #474846",
"{J.	c #252425",
"]J.	c #2E2D30",
"^J.	c #232122",
"/J.	c #221F21",
"(J.	c #1F1D1F",
"_J.	c #171517",
":J.	c #1B191A",
"<J.	c #141213",
"[J.	c #151214",
"}J.	c #34251F",
"|J.	c #D3540E",
"1J.	c #F45802",
"2J.	c #E85303",
"3J.	c #D36517",
"4J.	c #BBAD2C",
"5J.	c #9A8E2B",
"6J.	c #867643",
"7J.	c #989371",
"8J.	c #BAB597",
"9J.	c #D1CAAA",
"0J.	c #C1B996",
"aJ.	c #AFAA8C",
"bJ.	c #A9A893",
"cJ.	c #A0A392",
"dJ.	c #90946C",
"eJ.	c #949732",
"fJ.	c #C7C338",
"gJ.	c #E9D910",
"hJ.	c #EEDD03",
"iJ.	c #EAD70B",
"jJ.	c #EBDA05",
"kJ.	c #E8D80E",
"lJ.	c #E6960D",
"mJ.	c #EB4F01",
"nJ.	c #F35302",
"oJ.	c #EA4F02",
"pJ.	c #C75A28",
"qJ.	c #5E5E5C",
"rJ.	c #435261",
"sJ.	c #213852",
"tJ.	c #0F2843",
"uJ.	c #082240",
"vJ.	c #092341",
"wJ.	c #071935",
"xJ.	c #07162F",
"yJ.	c #071430",
"zJ.	c #081631",
"AJ.	c #0A1730",
"BJ.	c #06132E",
"CJ.	c #081B3E",
"DJ.	c #071C41",
"EJ.	c #06193A",
"FJ.	c #061633",
"GJ.	c #15191C",
"HJ.	c #181A1D",
"IJ.	c #131319",
"JJ.	c #121318",
"KJ.	c #12131A",
"LJ.	c #15171F",
"MJ.	c #1B181B",
"NJ.	c #19171A",
"OJ.	c #1A181B",
"PJ.	c #1A191C",
"QJ.	c #1A191E",
"RJ.	c #151C23",
"SJ.	c #171E28",
"TJ.	c #19202C",
"UJ.	c #191F22",
"VJ.	c #1B2023",
"WJ.	c #121A2E",
"XJ.	c #111B31",
"YJ.	c #11182B",
"ZJ.	c #0D1F43",
"`J.	c #142245",
" K.	c #0B224F",
".K.	c #848554",
"+K.	c #E8D510",
"@K.	c #EBD607",
"#K.	c #E1D875",
"$K.	c #E0DDC8",
"%K.	c #CEC8A5",
"&K.	c #B8B391",
"*K.	c #75766B",
"=K.	c #5C5A54",
"-K.	c #515248",
";K.	c #494A46",
">K.	c #484748",
",K.	c #474647",
"'K.	c #484647",
")K.	c #474547",
"!K.	c #4C4D4D",
"~K.	c #555552",
"{K.	c #7D7552",
"]K.	c #918832",
"^K.	c #918735",
"/K.	c #92852F",
"(K.	c #94812D",
"_K.	c #8B803D",
":K.	c #4A4B4A",
"<K.	c #37363B",
"[K.	c #2C2A2C",
"}K.	c #1C1A1C",
"|K.	c #201E1F",
"1K.	c #242223",
"2K.	c #52534D",
"3K.	c #8E9080",
"4K.	c #9FA395",
"5K.	c #B1B09B",
"6K.	c #C4C1A9",
"7K.	c #DCD7BF",
"8K.	c #D7D2BB",
"9K.	c #BCB797",
"0K.	c #96947D",
"aK.	c #8B8D7C",
"bK.	c #8E9081",
"cK.	c #898B7B",
"dK.	c #71705F",
"eK.	c #4C4C4B",
"fK.	c #454541",
"gK.	c #494A45",
"hK.	c #484747",
"iK.	c #4A4A4A",
"jK.	c #333333",
"kK.	c #2C2C2D",
"lK.	c #201E20",
"mK.	c #181517",
"nK.	c #171315",
"oK.	c #141112",
"pK.	c #392A26",
"qK.	c #D35110",
"rK.	c #EC5602",
"sK.	c #F05602",
"tK.	c #ED5402",
"uK.	c #E9710A",
"vK.	c #DDCC0B",
"wK.	c #D5C911",
"xK.	c #B4AD23",
"yK.	c #8F833E",
"zK.	c #ABAA83",
"AK.	c #C6C1A3",
"BK.	c #C1BC9F",
"CK.	c #AAA586",
"DK.	c #92937C",
"EK.	c #8F9338",
"FK.	c #ABAD37",
"GK.	c #E8D815",
"HK.	c #EBDB04",
"IK.	c #E2D61B",
"JK.	c #E9D809",
"KK.	c #EAD909",
"LK.	c #E8D714",
"MK.	c #E8D70A",
"NK.	c #E5D420",
"OK.	c #E1D12A",
"PK.	c #EA8E10",
"QK.	c #ED5302",
"RK.	c #ED5001",
"SK.	c #EC4F01",
"TK.	c #EB4E01",
"UK.	c #EA4D01",
"VK.	c #C85721",
"WK.	c #61605E",
"XK.	c #55585A",
"YK.	c #53595C",
"ZK.	c #4E5459",
"`K.	c #3D4D5E",
" L.	c #203A54",
".L.	c #0B2540",
"+L.	c #08152F",
"@L.	c #081734",
"#L.	c #081833",
"$L.	c #071B3D",
"%L.	c #071B3C",
"&L.	c #0C1D3D",
"*L.	c #0A1D3C",
"=L.	c #17191B",
"-L.	c #171A1D",
";L.	c #131317",
">L.	c #13141B",
",L.	c #12141A",
"'L.	c #13151D",
")L.	c #14171A",
"!L.	c #1A181A",
"~L.	c #181718",
"{L.	c #1B1C1F",
"]L.	c #141921",
"^L.	c #141A21",
"/L.	c #171E23",
"(L.	c #182025",
"_L.	c #1B2026",
":L.	c #182023",
"<L.	c #192123",
"[L.	c #12161C",
"}L.	c #121623",
"|L.	c #12192B",
"1L.	c #151E32",
"2L.	c #151D31",
"3L.	c #131E37",
"4L.	c #0D2044",
"5L.	c #08204B",
"6L.	c #09224C",
"7L.	c #8D8D5C",
"8L.	c #E5D414",
"9L.	c #ECD703",
"0L.	c #E8D50C",
"aL.	c #E4D975",
"bL.	c #E4DEC7",
"cL.	c #D4CEAA",
"dL.	c #CEC7A5",
"eL.	c #BBB693",
"fL.	c #797A70",
"gL.	c #595A50",
"hL.	c #4E5148",
"iL.	c #4F4F4B",
"jL.	c #50504D",
"kL.	c #4D4D4C",
"lL.	c #505251",
"mL.	c #4E4F4F",
"nL.	c #4F5150",
"oL.	c #515251",
"pL.	c #595753",
"qL.	c #837D46",
"rL.	c #91882F",
"sL.	c #91872F",
"tL.	c #908B34",
"uL.	c #908C30",
"vL.	c #8C7F3B",
"wL.	c #494844",
"xL.	c #3C3B3E",
"yL.	c #2F2E30",
"zL.	c #262526",
"AL.	c #211E20",
"BL.	c #1D1A1C",
"CL.	c #201D1F",
"DL.	c #21201E",
"EL.	c #2B2C27",
"FL.	c #7D7E70",
"GL.	c #94998D",
"HL.	c #ADAD97",
"IL.	c #E0DCC7",
"JL.	c #E4DFC3",
"KL.	c #D8D1AA",
"LL.	c #BEB894",
"ML.	c #A5A286",
"NL.	c #A5A489",
"OL.	c #A4A48F",
"PL.	c #A2A38E",
"QL.	c #9C9D8A",
"RL.	c #818376",
"SL.	c #60615B",
"TL.	c #616159",
"UL.	c #505250",
"VL.	c #4B4B49",
"WL.	c #4D504B",
"XL.	c #4F514F",
"YL.	c #4B4B4B",
"ZL.	c #494B4A",
"`L.	c #2D2C2F",
" M.	c #2E2E2F",
".M.	c #2F2F30",
"+M.	c #323235",
"@M.	c #211F21",
"#M.	c #161515",
"$M.	c #151213",
"%M.	c #161313",
"&M.	c #161414",
"*M.	c #161315",
"=M.	c #332E2C",
"-M.	c #AA5025",
";M.	c #C44F14",
">M.	c #C55214",
",M.	c #D4530E",
"'M.	c #DD5006",
")M.	c #DC5206",
"!M.	c #E45304",
"~M.	c #DD5106",
"{M.	c #DE5406",
"]M.	c #DB700F",
"^M.	c #D8C711",
"/M.	c #DACD0A",
"(M.	c #DBCD0A",
"_M.	c #C9C01C",
":M.	c #A6A55F",
"<M.	c #BAB494",
"[M.	c #C2BEA3",
"}M.	c #ADA88A",
"|M.	c #A4A695",
"1M.	c #A1A391",
"2M.	c #939689",
"3M.	c #909260",
"4M.	c #909456",
"5M.	c #B6B343",
"6M.	c #C9C238",
"7M.	c #BFBD45",
"8M.	c #C8C24F",
"9M.	c #C2BE4E",
"0M.	c #C5C347",
"aM.	c #CCC644",
"bM.	c #C2C052",
"cM.	c #CCC75C",
"dM.	c #E39E38",
"eM.	c #E35B0A",
"fM.	c #E75B08",
"gM.	c #E45708",
"hM.	c #E35306",
"iM.	c #E15105",
"jM.	c #E44F03",
"kM.	c #E25105",
"lM.	c #E05004",
"mM.	c #DB4B05",
"nM.	c #DB4D07",
"oM.	c #B26741",
"pM.	c #5B5F5F",
"qM.	c #405060",
"rM.	c #1F3751",
"sM.	c #0D2844",
"tM.	c #091630",
"uM.	c #061430",
"vM.	c #071632",
"wM.	c #051836",
"xM.	c #061C3F",
"yM.	c #172022",
"zM.	c #13181C",
"AM.	c #12151B",
"BM.	c #1A1A20",
"CM.	c #18171C",
"DM.	c #19181B",
"EM.	c #19171B",
"FM.	c #121620",
"GM.	c #14191F",
"HM.	c #171B22",
"IM.	c #161E23",
"JM.	c #171C23",
"KM.	c #182123",
"LM.	c #1A2224",
"MM.	c #191D21",
"NM.	c #161B20",
"OM.	c #141C2F",
"PM.	c #0F1D3E",
"QM.	c #132044",
"RM.	c #0B214A",
"SM.	c #0A234E",
"TM.	c #152755",
"UM.	c #979450",
"VM.	c #ECD803",
"WM.	c #E6D406",
"XM.	c #E1D013",
"YM.	c #E5D97B",
"ZM.	c #DED9BC",
"`M.	c #CDC6A2",
" N.	c #BFB996",
".N.	c #B4AF8B",
"+N.	c #8A8770",
"@N.	c #67655C",
"#N.	c #636059",
"$N.	c #61625E",
"%N.	c #6A6A64",
"&N.	c #656A6C",
"*N.	c #646869",
"=N.	c #555756",
"-N.	c #535554",
";N.	c #5D5C55",
">N.	c #8D8E41",
",N.	c #99982D",
"'N.	c #96902D",
")N.	c #918C30",
"!N.	c #95812E",
"~N.	c #928639",
"{N.	c #54544F",
"]N.	c #414042",
"^N.	c #373639",
"/N.	c #1E1B1D",
"(N.	c #1F1D1D",
"_N.	c #35372F",
":N.	c #727366",
"<N.	c #8D9185",
"[N.	c #A4A188",
"}N.	c #EBE6CC",
"|N.	c #E3DFC7",
"1N.	c #DBD6BF",
"2N.	c #C6BF98",
"3N.	c #A5A38C",
"4N.	c #A4A48D",
"5N.	c #9E9E88",
"6N.	c #979782",
"7N.	c #848475",
"8N.	c #6D706A",
"9N.	c #5B5C58",
"0N.	c #585A57",
"aN.	c #555754",
"bN.	c #5D5C54",
"cN.	c #585653",
"dN.	c #49494A",
"eN.	c #3F3E44",
"fN.	c #313137",
"gN.	c #37373D",
"hN.	c #232224",
"iN.	c #151215",
"jN.	c #1E1D1F",
"kN.	c #292727",
"lN.	c #3C3334",
"mN.	c #413B3C",
"nN.	c #55483E",
"oN.	c #685447",
"pN.	c #6E5748",
"qN.	c #715846",
"rN.	c #745643",
"sN.	c #6F543F",
"tN.	c #6C5748",
"uN.	c #716A4C",
"vN.	c #747948",
"wN.	c #8F9048",
"xN.	c #A7A657",
"yN.	c #A5A666",
"zN.	c #C0BBA1",
"AN.	c #B4AF90",
"BN.	c #ADAA8F",
"CN.	c #A6A795",
"DN.	c #969A8C",
"EN.	c #5F6361",
"FN.	c #626664",
"GN.	c #5D6362",
"HN.	c #5E6361",
"IN.	c #636664",
"JN.	c #666A67",
"KN.	c #686C64",
"LN.	c #6D7069",
"MN.	c #696C67",
"NN.	c #64615D",
"ON.	c #6B5D54",
"PN.	c #71614D",
"QN.	c #716056",
"RN.	c #726157",
"SN.	c #766355",
"TN.	c #766354",
"UN.	c #756154",
"VN.	c #766356",
"WN.	c #7A6554",
"XN.	c #776254",
"YN.	c #6A665D",
"ZN.	c #5C5F5F",
"`N.	c #585E5F",
" O.	c #535C63",
".O.	c #3D4D5F",
"+O.	c #1D3956",
"@O.	c #0F2C49",
"#O.	c #071A36",
"$O.	c #07152F",
"%O.	c #06142F",
"&O.	c #06132D",
"*O.	c #16171A",
"=O.	c #12141E",
"-O.	c #18181B",
";O.	c #12171C",
">O.	c #11141C",
",O.	c #12171D",
"'O.	c #13181D",
")O.	c #172025",
"!O.	c #161C23",
"~O.	c #1A1F22",
"{O.	c #13161B",
"]O.	c #10151C",
"^O.	c #11141F",
"/O.	c #131622",
"(O.	c #131A2A",
"_O.	c #10172A",
":O.	c #11172A",
"<O.	c #121B31",
"[O.	c #121F42",
"}O.	c #112046",
"|O.	c #0B2049",
"1O.	c #0B2350",
"2O.	c #132654",
"3O.	c #8C8F4E",
"4O.	c #E4D216",
"5O.	c #E7D506",
"6O.	c #E0CF12",
"7O.	c #DCCF23",
"8O.	c #E1D56B",
"9O.	c #E7DFB8",
"0O.	c #C6C19F",
"aO.	c #B1AC84",
"bO.	c #918E6F",
"cO.	c #737264",
"dO.	c #6E6F68",
"eO.	c #626563",
"fO.	c #777A74",
"gO.	c #888D85",
"hO.	c #7B7F79",
"iO.	c #888D88",
"jO.	c #929997",
"kO.	c #999E98",
"lO.	c #848880",
"mO.	c #93936E",
"nO.	c #D7CA27",
"oO.	c #E7D20B",
"pO.	c #E7D109",
"qO.	c #E3D109",
"rO.	c #DACB13",
"sO.	c #C4BB26",
"tO.	c #54534A",
"uO.	c #454548",
"vO.	c #3C3B3F",
"wO.	c #323032",
"xO.	c #1E1C1D",
"yO.	c #1D1B1B",
"zO.	c #20201D",
"AO.	c #383835",
"BO.	c #727160",
"CO.	c #8E8F7D",
"DO.	c #C4BF9D",
"EO.	c #B0AC8F",
"FO.	c #A8A68B",
"GO.	c #989882",
"HO.	c #979882",
"IO.	c #93927C",
"JO.	c #7B7C6F",
"KO.	c #66675F",
"LO.	c #66665F",
"MO.	c #63645D",
"NO.	c #6D6C60",
"OO.	c #646358",
"PO.	c #595752",
"QO.	c #4A4B47",
"RO.	c #515352",
"SO.	c #424449",
"TO.	c #323133",
"UO.	c #323234",
"VO.	c #333236",
"WO.	c #1E1C1E",
"XO.	c #242225",
"YO.	c #323232",
"ZO.	c #434445",
"`O.	c #4F5151",
" P.	c #505252",
".P.	c #4D4F4F",
"+P.	c #4E504F",
"@P.	c #525453",
"#P.	c #545858",
"$P.	c #53585C",
"%P.	c #576066",
"&P.	c #6F7878",
"*P.	c #8D8F81",
"=P.	c #9B9873",
"-P.	c #B4B191",
";P.	c #BEB99E",
">P.	c #C1BC9B",
",P.	c #A6A58E",
"'P.	c #979C8D",
")P.	c #7A7F7A",
"!P.	c #5B6164",
"~P.	c #575E61",
"{P.	c #5B6264",
"]P.	c #585F62",
"^P.	c #555C62",
"/P.	c #565B5F",
"(P.	c #555C60",
"_P.	c #565C5E",
":P.	c #575C60",
"<P.	c #585E5E",
"[P.	c #575B5B",
"}P.	c #575959",
"|P.	c #5D6363",
"1P.	c #5A6162",
"2P.	c #525C65",
"3P.	c #3E5162",
"4P.	c #213D5D",
"5P.	c #142F4C",
"6P.	c #0A203D",
"7P.	c #081630",
"8P.	c #081632",
"9P.	c #051A38",
"0P.	c #092348",
"aP.	c #041D3D",
"bP.	c #14181B",
"cP.	c #141416",
"dP.	c #11161B",
"eP.	c #11141D",
"fP.	c #11151B",
"gP.	c #151A20",
"hP.	c #12171E",
"iP.	c #111520",
"jP.	c #131B29",
"kP.	c #131B2E",
"lP.	c #131D35",
"mP.	c #122044",
"nP.	c #112147",
"oP.	c #0B224C",
"pP.	c #192B56",
"qP.	c #9A994C",
"rP.	c #E3D222",
"sP.	c #E8D409",
"tP.	c #EAD606",
"uP.	c #E5D309",
"vP.	c #DDCF22",
"wP.	c #D8CE37",
"xP.	c #E3D67F",
"yP.	c #E6DDB5",
"zP.	c #E3DCB7",
"AP.	c #E1D8A9",
"BP.	c #C7C19A",
"CP.	c #B2AD84",
"DP.	c #8C8A67",
"EP.	c #7D7A66",
"FP.	c #717267",
"GP.	c #83857B",
"HP.	c #8A8D83",
"IP.	c #8B8E82",
"JP.	c #B0B3A7",
"KP.	c #A7AA9D",
"LP.	c #9BA19A",
"MP.	c #9FA397",
"NP.	c #BEB96D",
"OP.	c #F3DB06",
"PP.	c #D8C71F",
"QP.	c #5C5947",
"RP.	c #4A4949",
"SP.	c #454445",
"TP.	c #3F3D40",
"UP.	c #313031",
"VP.	c #201F20",
"WP.	c #1F1E1D",
"XP.	c #2E2E2A",
"YP.	c #787666",
"ZP.	c #8C8D7C",
"`P.	c #99977E",
" Q.	c #C6C1A5",
".Q.	c #EAE5D1",
"+Q.	c #D5D0B5",
"@Q.	c #C8C5A7",
"#Q.	c #C2BD9E",
"$Q.	c #A3A084",
"%Q.	c #94947E",
"&Q.	c #868879",
"*Q.	c #717166",
"=Q.	c #656359",
"-Q.	c #68675C",
";Q.	c #75775D",
">Q.	c #7E7D65",
",Q.	c #6D6C5B",
"'Q.	c #4C4D4E",
")Q.	c #343538",
"!Q.	c #313033",
"~Q.	c #38383F",
"{Q.	c #302F33",
"]Q.	c #201E21",
"^Q.	c #161416",
"/Q.	c #1B1A19",
"(Q.	c #222021",
"_Q.	c #313132",
":Q.	c #3E3D3E",
"<Q.	c #535555",
"[Q.	c #5D6262",
"}Q.	c #5B6265",
"|Q.	c #596063",
"1Q.	c #595F63",
"2Q.	c #676D6E",
"3Q.	c #93978D",
"4Q.	c #999C8B",
"5Q.	c #8C8B72",
"6Q.	c #ABA887",
"7Q.	c #C4C0A7",
"8Q.	c #C3BE9F",
"9Q.	c #9B9D8A",
"0Q.	c #646968",
"aQ.	c #5A6264",
"bQ.	c #5A6163",
"cQ.	c #5B6161",
"dQ.	c #595F60",
"eQ.	c #535859",
"fQ.	c #55595D",
"gQ.	c #585D60",
"hQ.	c #565959",
"iQ.	c #575B5C",
"jQ.	c #5A6063",
"kQ.	c #535E67",
"lQ.	c #3B5066",
"mQ.	c #193857",
"nQ.	c #0C2A47",
"oQ.	c #071F3B",
"pQ.	c #071631",
"qQ.	c #091731",
"rQ.	c #071834",
"sQ.	c #051937",
"tQ.	c #171F22",
"uQ.	c #141A1D",
"vQ.	c #15191B",
"wQ.	c #13171A",
"xQ.	c #131518",
"yQ.	c #151619",
"zQ.	c #12141B",
"AQ.	c #151C2A",
"BQ.	c #121929",
"CQ.	c #121C34",
"DQ.	c #0C1C3D",
"EQ.	c #131F45",
"FQ.	c #0E1F45",
"GQ.	c #101F48",
"HQ.	c #0F214C",
"IQ.	c #132652",
"JQ.	c #A57240",
"KQ.	c #EC8311",
"LQ.	c #E98A15",
"MQ.	c #E38D21",
"NQ.	c #E28720",
"OQ.	c #E58410",
"PQ.	c #E48627",
"QQ.	c #E49035",
"RQ.	c #E9A740",
"SQ.	c #E3D673",
"TQ.	c #E5D86F",
"UQ.	c #C7C373",
"VQ.	c #C8C29A",
"WQ.	c #B7B28B",
"XQ.	c #8A876C",
"YQ.	c #777761",
"ZQ.	c #797768",
"`Q.	c #818173",
" R.	c #8C8E7D",
".R.	c #909283",
"+R.	c #BFBEAC",
"@R.	c #C6C7B6",
"#R.	c #C3C2B0",
"$R.	c #B6B6A7",
"%R.	c #B7B8A8",
"&R.	c #D1A26C",
"*R.	c #EF8A0F",
"=R.	c #F0880C",
"-R.	c #ED8F0C",
";R.	c #ED8C0B",
">R.	c #EC920C",
",R.	c #E48416",
"'R.	c #645546",
")R.	c #4D4F4D",
"!R.	c #3D3C3E",
"~R.	c #242324",
"{R.	c #201D20",
"]R.	c #33332C",
"^R.	c #7E7C67",
"/R.	c #919381",
"(R.	c #EBE5CE",
"_R.	c #D9D4B7",
":R.	c #C2BEA0",
"<R.	c #B1AF94",
"[R.	c #9E9C82",
"}R.	c #999881",
"|R.	c #919079",
"1R.	c #5D5B55",
"2R.	c #5E5E55",
"3R.	c #696B54",
"4R.	c #807D65",
"5R.	c #868469",
"6R.	c #757363",
"7R.	c #5D5E56",
"8R.	c #4B4C4A",
"9R.	c #515454",
"0R.	c #3B3D42",
"aR.	c #38383D",
"bR.	c #1F1D20",
"cR.	c #171416",
"dR.	c #1C1A1D",
"eR.	c #343334",
"fR.	c #3A3A3F",
"gR.	c #333335",
"hR.	c #41413E",
"iR.	c #5D6466",
"jR.	c #5E6365",
"kR.	c #626868",
"lR.	c #5E6364",
"mR.	c #8A8E85",
"nR.	c #A3A594",
"oR.	c #878671",
"pR.	c #A7A383",
"qR.	c #BFBCA3",
"rR.	c #C2BFA8",
"sR.	c #BCB899",
"tR.	c #A0A18B",
"uR.	c #8B8F84",
"vR.	c #6E726D",
"wR.	c #545B61",
"xR.	c #585E61",
"yR.	c #575D62",
"zR.	c #575E62",
"AR.	c #565C61",
"BR.	c #595F61",
"CR.	c #575D5F",
"DR.	c #53575B",
"ER.	c #535655",
"FR.	c #56595B",
"GR.	c #55595B",
"HR.	c #595D5F",
"IR.	c #5C6161",
"JR.	c #585D5D",
"KR.	c #596163",
"LR.	c #54636B",
"MR.	c #405566",
"NR.	c #173552",
"OR.	c #0C2B47",
"PR.	c #09203B",
"QR.	c #051B39",
"RR.	c #121A33",
"SR.	c #151D20",
"TR.	c #1A1A1A",
"UR.	c #1A1B1E",
"VR.	c #11151A",
"WR.	c #121418",
"XR.	c #13191D",
"YR.	c #12151E",
"ZR.	c #11151C",
"`R.	c #171A22",
" S.	c #131A28",
".S.	c #141B2A",
"+S.	c #121E36",
"@S.	c #0B1830",
"#S.	c #111D42",
"$S.	c #0A1D41",
"%S.	c #0B1D43",
"&S.	c #091F47",
"*S.	c #A44C2D",
"=S.	c #F55D02",
"-S.	c #EF8B0C",
";S.	c #F2DA03",
">S.	c #E9D709",
",S.	c #DCD533",
"'S.	c #B5B572",
")S.	c #BDB998",
"!S.	c #B9B495",
"~S.	c #928C6C",
"{S.	c #7A7A60",
"]S.	c #7C7969",
"^S.	c #83806D",
"/S.	c #9B9982",
"(S.	c #C1C1B0",
"_S.	c #C4C5B4",
":S.	c #CACBBE",
"<S.	c #C9CCC1",
"[S.	c #CEC2AC",
"}S.	c #EA7535",
"|S.	c #F15A04",
"1S.	c #6F5548",
"2S.	c #5D5F5D",
"3S.	c #6E6F6A",
"4S.	c #4B4B48",
"5S.	c #212120",
"6S.	c #484641",
"7S.	c #797866",
"8S.	c #949582",
"9S.	c #A4A590",
"0S.	c #BFBCA0",
"aS.	c #B3B29B",
"bS.	c #B5B49E",
"cS.	c #ABAA93",
"dS.	c #909181",
"eS.	c #7E8074",
"fS.	c #5F615B",
"gS.	c #5C5C55",
"hS.	c #6C6F57",
"iS.	c #787A5D",
"jS.	c #8B8970",
"kS.	c #888770",
"lS.	c #5F6157",
"mS.	c #51524E",
"nS.	c #3C3B3C",
"oS.	c #444648",
"pS.	c #444548",
"qS.	c #333135",
"rS.	c #1B191C",
"sS.	c #4A4B4C",
"tS.	c #44474A",
"uS.	c #393B3F",
"vS.	c #616157",
"wS.	c #8E8C74",
"xS.	c #8B8A75",
"yS.	c #666B6A",
"zS.	c #7F847F",
"AS.	c #A9ABA0",
"BS.	c #AFB1A5",
"CS.	c #ABADA2",
"DS.	c #8A8A75",
"ES.	c #A6A386",
"FS.	c #B5B296",
"GS.	c #A8A78C",
"HS.	c #A3A38C",
"IS.	c #919486",
"JS.	c #767A73",
"KS.	c #555D64",
"LS.	c #596064",
"MS.	c #586063",
"NS.	c #585E62",
"OS.	c #596062",
"PS.	c #5A5E5F",
"QS.	c #5B6262",
"RS.	c #5C6365",
"SS.	c #566369",
"TS.	c #3F5464",
"US.	c #1B3856",
"VS.	c #0B2944",
"WS.	c #071731",
"XS.	c #081733",
"YS.	c #091831",
"ZS.	c #071934",
"`S.	c #071732",
" T.	c #082047",
".T.	c #08152E",
"+T.	c #12182D",
"@T.	c #182324",
"#T.	c #171D20",
"$T.	c #1A181C",
"%T.	c #17181A",
"&T.	c #12151C",
"*T.	c #13171B",
"=T.	c #151517",
"-T.	c #161E2C",
";T.	c #131D32",
">T.	c #111A30",
",T.	c #0B1F42",
"'T.	c #0C2248",
")T.	c #102249",
"!T.	c #1A2B56",
"~T.	c #A64E2E",
"{T.	c #F95F02",
"]T.	c #EC890C",
"^T.	c #E3D41D",
"/T.	c #AFB161",
"(T.	c #BAB48F",
"_T.	c #A19E80",
":T.	c #828167",
"<T.	c #817D6C",
"[T.	c #8A886E",
"}T.	c #9A9678",
"|T.	c #B1AC8C",
"1T.	c #BEBDA4",
"2T.	c #C3C3B0",
"3T.	c #C7C6B4",
"4T.	c #C9C9B8",
"5T.	c #D0BA97",
"6T.	c #E18C46",
"7T.	c #F85A03",
"8T.	c #F95D02",
"9T.	c #F05B05",
"0T.	c #6C5749",
"aT.	c #535553",
"bT.	c #70726B",
"cT.	c #9C9D8E",
"dT.	c #5C5D58",
"eT.	c #414240",
"fT.	c #50504E",
"gT.	c #7D7B6C",
"hT.	c #949683",
"iT.	c #F0ECD8",
"jT.	c #B9B69C",
"kT.	c #979886",
"lT.	c #A4A591",
"mT.	c #C0C2B1",
"nT.	c #BABCAD",
"oT.	c #B8B8A7",
"pT.	c #9F9F8B",
"qT.	c #7D8074",
"rT.	c #65655E",
"sT.	c #626057",
"tT.	c #61624F",
"uT.	c #6D6F53",
"vT.	c #85836A",
"wT.	c #84836E",
"xT.	c #898A77",
"yT.	c #7A7A68",
"zT.	c #5D5D55",
"AT.	c #444641",
"BT.	c #41423F",
"CT.	c #3A393B",
"DT.	c #36353A",
"ET.	c #2D2C31",
"FT.	c #1E1D22",
"GT.	c #1B1A1D",
"HT.	c #525555",
"IT.	c #5E6261",
"JT.	c #4F5152",
"KT.	c #404142",
"LT.	c #3D3B3F",
"MT.	c #82816F",
"NT.	c #918E77",
"OT.	c #969581",
"PT.	c #666A69",
"QT.	c #6A6F6E",
"RT.	c #818987",
"ST.	c #BABAAA",
"TT.	c #B2B4A6",
"UT.	c #ADAFA3",
"VT.	c #A3A083",
"WT.	c #C7C0A1",
"XT.	c #AAA990",
"YT.	c #9A9D8D",
"ZT.	c #7A7E76",
"`T.	c #52585D",
" U.	c #535B63",
".U.	c #535B64",
"+U.	c #565E65",
"@U.	c #565D63",
"#U.	c #565D61",
"$U.	c #586064",
"%U.	c #5E6465",
"&U.	c #5E6464",
"*U.	c #5B6060",
"=U.	c #5A5F60",
"-U.	c #5D6465",
";U.	c #5C6567",
">U.	c #55636B",
",U.	c #3C5266",
"'U.	c #1A3855",
")U.	c #0A1A35",
"!U.	c #081834",
"~U.	c #091934",
"{U.	c #081732",
"]U.	c #091732",
"^U.	c #071531",
"/U.	c #061734",
"(U.	c #071E40",
"_U.	c #09152D",
":U.	c #172223",
"<U.	c #14191B",
"[U.	c #191C1F",
"}U.	c #111116",
"|U.	c #121217",
"1U.	c #131519",
"2U.	c #151719",
"3U.	c #141618",
"4U.	c #141A20",
"5U.	c #13191C",
"6U.	c #14181F",
"7U.	c #121923",
"8U.	c #161D2A",
"9U.	c #121A26",
"0U.	c #121A27",
"aU.	c #121B30",
"bU.	c #152346",
"cU.	c #AA4D29",
"dU.	c #F35202",
"eU.	c #E9900B",
"fU.	c #E0D115",
"gU.	c #BCBE4D",
"hU.	c #C1BA90",
"iU.	c #D3CBA4",
"jU.	c #BAB693",
"kU.	c #89856A",
"lU.	c #989173",
"mU.	c #999576",
"nU.	c #9E997B",
"oU.	c #BDB895",
"pU.	c #C1BE9E",
"qU.	c #C7C29F",
"rU.	c #C8C098",
"sU.	c #E38252",
"tU.	c #F85B02",
"uU.	c #765949",
"vU.	c #72756E",
"wU.	c #BDBEAD",
"xU.	c #909081",
"yU.	c #6B6A60",
"zU.	c #4C4D4B",
"AU.	c #353437",
"BU.	c #545350",
"CU.	c #838271",
"DU.	c #BDBCA8",
"EU.	c #DFDBC6",
"FU.	c #D7D2B9",
"GU.	c #9A9B88",
"HU.	c #AEAE9A",
"IU.	c #B6B8A9",
"JU.	c #C5C6B6",
"KU.	c #AEB0A2",
"LU.	c #A6A797",
"MU.	c #7D7F73",
"NU.	c #65655C",
"OU.	c #5F5C55",
"PU.	c #5E5B51",
"QU.	c #73745C",
"RU.	c #72715E",
"SU.	c #83826E",
"TU.	c #878672",
"UU.	c #88876A",
"VU.	c #6D6B59",
"WU.	c #4F5045",
"XU.	c #343433",
"YU.	c #3D3B3C",
"ZU.	c #403E40",
"`U.	c #1D1C20",
" V.	c #343436",
".V.	c #616564",
"+V.	c #606463",
"@V.	c #373638",
"#V.	c #3A393A",
"$V.	c #757364",
"%V.	c #9F9C81",
"&V.	c #A39F84",
"*V.	c #989883",
"=V.	c #6F7473",
"-V.	c #8F948D",
";V.	c #A1A598",
">V.	c #B9B9A8",
",V.	c #A2A086",
"'V.	c #C8C4AE",
")V.	c #CEC9B2",
"!V.	c #C6C2A5",
"~V.	c #A1A38F",
"{V.	c #7D827B",
"]V.	c #525A62",
"^V.	c #525A64",
"/V.	c #545A60",
"(V.	c #525960",
"_V.	c #565C62",
":V.	c #555B61",
"<V.	c #565A5D",
"[V.	c #575C5F",
"}V.	c #5B6163",
"|V.	c #5C6264",
"1V.	c #606565",
"2V.	c #5E6362",
"3V.	c #616867",
"4V.	c #56646A",
"5V.	c #3E5365",
"6V.	c #183754",
"7V.	c #0A1A34",
"8V.	c #0D1C37",
"9V.	c #091832",
"0V.	c #08162F",
"aV.	c #071630",
"bV.	c #06122B",
"cV.	c #08152C",
"dV.	c #071B38",
"eV.	c #071D3B",
"fV.	c #09162E",
"gV.	c #10182D",
"hV.	c #182224",
"iV.	c #151316",
"jV.	c #151416",
"kV.	c #171417",
"lV.	c #171518",
"mV.	c #151315",
"nV.	c #141718",
"oV.	c #10151B",
"pV.	c #11171D",
"qV.	c #141920",
"rV.	c #1B2126",
"sV.	c #161A1F",
"tV.	c #171E20",
"uV.	c #182022",
"vV.	c #1C2023",
"wV.	c #191E22",
"xV.	c #131A23",
"yV.	c #171F29",
"zV.	c #141C27",
"AV.	c #151D2C",
"BV.	c #162545",
"CV.	c #B35638",
"DV.	c #EB9112",
"EV.	c #EAD804",
"FV.	c #DCD026",
"GV.	c #BCBD56",
"HV.	c #C8C29B",
"IV.	c #DDD1AA",
"JV.	c #D0C7A1",
"KV.	c #989376",
"LV.	c #A7A175",
"MV.	c #9D9774",
"NV.	c #9F9979",
"OV.	c #C0BA96",
"PV.	c #CBC59E",
"QV.	c #C6C18F",
"RV.	c #DCD351",
"SV.	c #E2D42E",
"TV.	c #ED7213",
"UV.	c #F46404",
"VV.	c #FA6502",
"WV.	c #F55F02",
"XV.	c #ED5403",
"YV.	c #835D49",
"ZV.	c #5A5D5E",
"`V.	c #757770",
" W.	c #A1A190",
".W.	c #7D7D6C",
"+W.	c #5B5C57",
"@W.	c #424242",
"#W.	c #52514C",
"$W.	c #858470",
"%W.	c #7C7D72",
"&W.	c #9BA096",
"*W.	c #C2C4B3",
"=W.	c #DEDBCA",
"-W.	c #D3CFB8",
";W.	c #CDCAB3",
">W.	c #BCBAA1",
",W.	c #BEBCA5",
"'W.	c #C1C2B3",
")W.	c #CACAB7",
"!W.	c #BFC0AE",
"~W.	c #9EA08F",
"{W.	c #A2A597",
"]W.	c #868A7E",
"^W.	c #64665F",
"/W.	c #626158",
"(W.	c #615E55",
"_W.	c #797861",
":W.	c #818064",
"<W.	c #72735C",
"[W.	c #84826A",
"}W.	c #8D8A67",
"|W.	c #7C7B5D",
"1W.	c #676658",
"2W.	c #403F3C",
"3W.	c #3A3938",
"4W.	c #4A4C46",
"5W.	c #3C3E3B",
"6W.	c #222124",
"7W.	c #232225",
"8W.	c #535757",
"9W.	c #5F6364",
"0W.	c #434346",
"aW.	c #3C3A3D",
"bW.	c #3D3C3C",
"cW.	c #5F5E55",
"dW.	c #A7A387",
"eW.	c #B2AF92",
"fW.	c #A1A08B",
"gW.	c #7C7E7A",
"hW.	c #9A9C90",
"iW.	c #B4B5A6",
"jW.	c #BDBCA7",
"kW.	c #B9B9A9",
"lW.	c #AFB0A1",
"mW.	c #AFB0A2",
"nW.	c #A09F88",
"oW.	c #C6C3AC",
"pW.	c #A3A28B",
"qW.	c #9EA08E",
"rW.	c #7B807B",
"sW.	c #51565B",
"tW.	c #515860",
"uW.	c #51575D",
"vW.	c #535960",
"wW.	c #5D6263",
"xW.	c #616665",
"yW.	c #656A68",
"zW.	c #646967",
"AW.	c #636968",
"BW.	c #6C716E",
"CW.	c #636A6A",
"DW.	c #58676B",
"EW.	c #3D5167",
"FW.	c #183550",
"GW.	c #0A2541",
"HW.	c #0A1934",
"IW.	c #07142E",
"JW.	c #081731",
"KW.	c #0C1A35",
"LW.	c #0B172F",
"MW.	c #0C152C",
"NW.	c #08132A",
"OW.	c #071128",
"PW.	c #07142F",
"QW.	c #0A162F",
"RW.	c #192020",
"SW.	c #121317",
"TW.	c #121419",
"UW.	c #121316",
"VW.	c #181719",
"WW.	c #131619",
"XW.	c #191F27",
"YW.	c #151B23",
"ZW.	c #161C24",
"`W.	c #161E2A",
" X.	c #131C27",
".X.	c #182031",
"+X.	c #1C2C50",
"@X.	c #213259",
"#X.	c #A05A46",
"$X.	c #F15A02",
"%X.	c #F15102",
"&X.	c #F74F01",
"*X.	c #F75102",
"=X.	c #EE7E0C",
"-X.	c #ECDA06",
";X.	c #DDD32A",
">X.	c #C3C259",
",X.	c #CAC6A6",
"'X.	c #E1D9B2",
")X.	c #DFD8B3",
"!X.	c #B2AE93",
"~X.	c #A39C79",
"{X.	c #928E73",
"]X.	c #A19C7D",
"^X.	c #BDB897",
"/X.	c #D2C96D",
"(X.	c #E4D731",
"_X.	c #E6D718",
":X.	c #EC7C26",
"<X.	c #F96603",
"[X.	c #FA6402",
"}X.	c #F05503",
"|X.	c #8C5E4A",
"1X.	c #636868",
"2X.	c #ADB0A5",
"3X.	c #ADAEA0",
"4X.	c #92907A",
"5X.	c #7C7C6E",
"6X.	c #64655B",
"7X.	c #969686",
"8X.	c #8C8C79",
"9X.	c #797A6F",
"0X.	c #A1A497",
"aX.	c #BDBEAF",
"bX.	c #CBCAB7",
"cX.	c #A7A794",
"dX.	c #9EA192",
"eX.	c #696C66",
"fX.	c #545852",
"gX.	c #605C53",
"hX.	c #75755A",
"iX.	c #7F7D63",
"jX.	c #807E67",
"kX.	c #828263",
"lX.	c #7E8062",
"mX.	c #73715E",
"nX.	c #626053",
"oX.	c #4F5047",
"pX.	c #50524E",
"qX.	c #313131",
"rX.	c #2F2F33",
"sX.	c #474748",
"tX.	c #414144",
"uX.	c #3E3C41",
"vX.	c #514F4B",
"wX.	c #7D7A6A",
"xX.	c #BAB79A",
"yX.	c #AAAA95",
"zX.	c #BBBAA6",
"AX.	c #C0BFAC",
"BX.	c #C5C2A9",
"CX.	c #A6A694",
"DX.	c #9A9983",
"EX.	c #D4CFBA",
"FX.	c #D2CCB0",
"GX.	c #C6C4A9",
"HX.	c #AFAD94",
"IX.	c #A3A48E",
"JX.	c #999B88",
"KX.	c #787D77",
"LX.	c #525759",
"MX.	c #50565B",
"NX.	c #565D62",
"OX.	c #5A5F61",
"PX.	c #5F6566",
"QX.	c #656A69",
"RX.	c #626968",
"SX.	c #686D6B",
"TX.	c #696E6D",
"UX.	c #656B69",
"VX.	c #636A69",
"WX.	c #57656A",
"XX.	c #364B63",
"YX.	c #1C364F",
"ZX.	c #0B233F",
"`X.	c #091933",
" Y.	c #081730",
".Y.	c #081832",
"+Y.	c #08152D",
"@Y.	c #0A172F",
"#Y.	c #0A152B",
"$Y.	c #0A142B",
"%Y.	c #0E1830",
"&Y.	c #0F162A",
"*Y.	c #0C1428",
"=Y.	c #081028",
"-Y.	c #070F23",
";Y.	c #081026",
">Y.	c #0A1329",
",Y.	c #091329",
"'Y.	c #0A142A",
")Y.	c #0C152A",
"!Y.	c #0A1429",
"~Y.	c #091227",
"{Y.	c #0B1329",
"]Y.	c #0F1529",
"^Y.	c #161D1B",
"/Y.	c #182020",
"(Y.	c #16181A",
"_Y.	c #181819",
":Y.	c #191619",
"<Y.	c #131315",
"[Y.	c #111419",
"}Y.	c #161D20",
"|Y.	c #151D1F",
"1Y.	c #131821",
"2Y.	c #191C22",
"3Y.	c #161E27",
"4Y.	c #141D25",
"5Y.	c #151D2A",
"6Y.	c #A85E45",
"7Y.	c #EA5402",
"8Y.	c #F25202",
"9Y.	c #F55302",
"0Y.	c #F74E01",
"aY.	c #F27708",
"bY.	c #ECD805",
"cY.	c #E9D707",
"dY.	c #DBD131",
"eY.	c #BBBA75",
"fY.	c #DDD7B7",
"gY.	c #DDD7B6",
"hY.	c #A59F81",
"iY.	c #8F8B72",
"jY.	c #979477",
"kY.	c #A59F7D",
"lY.	c #CFC855",
"mY.	c #E7D719",
"nY.	c #E9D805",
"oY.	c #E0D32D",
"pY.	c #EE8023",
"qY.	c #FA6302",
"rY.	c #F85D02",
"sY.	c #F75C02",
"tY.	c #F25702",
"uY.	c #8F5A46",
"vY.	c #626767",
"wY.	c #696D6C",
"xY.	c #A8ABA4",
"yY.	c #B1B3A8",
"zY.	c #AAA996",
"AY.	c #9D9D8A",
"BY.	c #909080",
"CY.	c #8A8C7C",
"DY.	c #CBCDC1",
"EY.	c #E1DDC9",
"FY.	c #D5D1BA",
"GY.	c #BABBA9",
"HY.	c #C4C4B1",
"IY.	c #B6B399",
"JY.	c #A3A698",
"KY.	c #83867B",
"LY.	c #5C5E5A",
"MY.	c #5E5E58",
"NY.	c #5D5D58",
"OY.	c #666255",
"PY.	c #727557",
"QY.	c #797B5D",
"RY.	c #8D886E",
"SY.	c #8A886D",
"TY.	c #70705C",
"UY.	c #626355",
"VY.	c #484944",
"WY.	c #323134",
"XY.	c #3B3C3D",
"YY.	c #3E3D40",
"ZY.	c #575550",
"`Y.	c #646158",
" Z.	c #706C5F",
".Z.	c #84816F",
"+Z.	c #9F9C83",
"@Z.	c #BCB89A",
"#Z.	c #BFBB9B",
"$Z.	c #C0BB9C",
"%Z.	c #C6C3AE",
"&Z.	c #C4C1AC",
"*Z.	c #B2B3A5",
"=Z.	c #92927B",
"-Z.	c #ACAB92",
";Z.	c #A1A28F",
">Z.	c #505659",
",Z.	c #696E6B",
"'Z.	c #6D716F",
")Z.	c #646A69",
"!Z.	c #61696A",
"~Z.	c #56656B",
"{Z.	c #3C526A",
"]Z.	c #1A3652",
"^Z.	c #0C1932",
"/Z.	c #0B1833",
"(Z.	c #09152B",
"_Z.	c #0B172E",
":Z.	c #0A1327",
"<Z.	c #0C1429",
"[Z.	c #101629",
"}Z.	c #0B1325",
"|Z.	c #091223",
"1Z.	c #0A111F",
"2Z.	c #0B1121",
"3Z.	c #0E1429",
"4Z.	c #0B1529",
"5Z.	c #0F1629",
"6Z.	c #0A1224",
"7Z.	c #0C1326",
"8Z.	c #0C1529",
"9Z.	c #0C182E",
"0Z.	c #081329",
"aZ.	c #0F1526",
"bZ.	c #16191A",
"cZ.	c #18191B",
"dZ.	c #1A1F20",
"eZ.	c #171C1E",
"fZ.	c #191719",
"gZ.	c #161A1B",
"hZ.	c #12151A",
"iZ.	c #1A2223",
"jZ.	c #1B2224",
"kZ.	c #1B1F23",
"lZ.	c #182124",
"mZ.	c #182227",
"nZ.	c #161E2D",
"oZ.	c #212C4D",
"pZ.	c #B2532D",
"qZ.	c #F07A0C",
"rZ.	c #EBD90E",
"sZ.	c #D9D143",
"tZ.	c #BAB889",
"uZ.	c #D0CEBC",
"vZ.	c #DDD7B4",
"wZ.	c #CECAB1",
"xZ.	c #ADA98C",
"yZ.	c #989574",
"zZ.	c #989478",
"AZ.	c #ACA88A",
"BZ.	c #B9B596",
"CZ.	c #D2CA7C",
"DZ.	c #DDD12E",
"EZ.	c #DCCC42",
"FZ.	c #EB7C26",
"GZ.	c #FA6403",
"HZ.	c #FB6602",
"IZ.	c #F86203",
"JZ.	c #F66003",
"KZ.	c #E95905",
"LZ.	c #925D41",
"MZ.	c #A4A69D",
"NZ.	c #B0B2A6",
"OZ.	c #AEAF9D",
"PZ.	c #B4B39D",
"QZ.	c #AAA994",
"RZ.	c #999986",
"SZ.	c #898C80",
"TZ.	c #A0A293",
"UZ.	c #D8D7C9",
"VZ.	c #D8D4BD",
"WZ.	c #C3C4B1",
"XZ.	c #B8B8A6",
"YZ.	c #C3C1A9",
"ZZ.	c #CFCAAD",
"`Z.	c #B5B5A2",
" `.	c #777B75",
".`.	c #5F6160",
"+`.	c #63645F",
"@`.	c #656357",
"#`.	c #676554",
"$`.	c #6D6D56",
"%`.	c #76785A",
"&`.	c #8B896D",
"*`.	c #8B896F",
"=`.	c #706F61",
"-`.	c #5B5751",
";`.	c #4A4946",
">`.	c #38373B",
",`.	c #3C3B3D",
"'`.	c #4C4C49",
")`.	c #6C6C62",
"!`.	c #58564E",
"~`.	c #949279",
"{`.	c #A4A084",
"]`.	c #CCC6A7",
"^`.	c #C9C4A8",
"/`.	c #C3BFA8",
"(`.	c #C1BFAB",
"_`.	c #B8B7A1",
":`.	c #AAA78C",
"<`.	c #C3C2AD",
"[`.	c #C7C5B2",
"}`.	c #AFAD93",
"|`.	c #A8A68A",
"1`.	c #A3A38D",
"2`.	c #515961",
"3`.	c #5A6265",
"4`.	c #5C6367",
"5`.	c #625A56",
"6`.	c #676661",
"7`.	c #5E6566",
"8`.	c #596265",
"9`.	c #616767",
"0`.	c #6A6E6C",
"a`.	c #6C706D",
"b`.	c #6E736F",
"c`.	c #5E6869",
"d`.	c #546168",
"e`.	c #394F65",
"f`.	c #173453",
"g`.	c #09172F",
"h`.	c #0A1832",
"i`.	c #0C1832",
"j`.	c #0D1529",
"k`.	c #101931",
"l`.	c #0E152A",
"m`.	c #0E1527",
"n`.	c #0D1423",
"o`.	c #0D111E",
"p`.	c #0E1321",
"q`.	c #0F1423",
"r`.	c #101525",
"s`.	c #0C1123",
"t`.	c #101628",
"u`.	c #0E1425",
"v`.	c #11182A",
"w`.	c #10162A",
"x`.	c #0A1228",
"y`.	c #0D152A",
"z`.	c #071029",
"A`.	c #0B1428",
"B`.	c #0F1525",
"C`.	c #141315",
"D`.	c #161415",
"E`.	c #171617",
"F`.	c #121519",
"G`.	c #141517",
"H`.	c #192024",
"I`.	c #192324",
"J`.	c #182223",
"K`.	c #171F21",
"L`.	c #182120",
"M`.	c #192222",
"N`.	c #181E24",
"O`.	c #191D23",
"P`.	c #161C21",
"Q`.	c #161820",
"R`.	c #171E21",
"S`.	c #1B263D",
"T`.	c #654947",
"U`.	c #9B3F33",
"V`.	c #AC482E",
"W`.	c #AF482F",
"X`.	c #AF4727",
"Y`.	c #AF4D2C",
"Z`.	c #B44D2C",
"``.	c #BC4B2A",
"  +	c #B55E2D",
". +	c #9E993A",
"+ +	c #8D9142",
"@ +	c #A2A364",
"# +	c #BBB897",
"$ +	c #CECDBA",
"% +	c #D8D3B8",
"& +	c #E1DBBA",
"* +	c #C1BFA9",
"= +	c #A8A588",
"- +	c #959075",
"; +	c #AEA98B",
"> +	c #BAB89B",
", +	c #CEC889",
"' +	c #C9C370",
") +	c #D18946",
"! +	c #DC651D",
"~ +	c #CB6322",
"{ +	c #C86124",
"] +	c #D3601C",
"^ +	c #D3611D",
"/ +	c #C86126",
"( +	c #C05B27",
"_ +	c #CB5921",
": +	c #7B5B4C",
"< +	c #A0A399",
"[ +	c #B1B2A3",
"} +	c #B0AF98",
"| +	c #9E9D87",
"1 +	c #959684",
"2 +	c #A1A396",
"3 +	c #B2B2A1",
"4 +	c #B7BBB1",
"5 +	c #DEDCCB",
"6 +	c #DBD3AE",
"7 +	c #E0D9C1",
"8 +	c #DAD4BB",
"9 +	c #CDCCB7",
"0 +	c #BABBA8",
"a +	c #B5B5A1",
"b +	c #BCBBA7",
"c +	c #ADAE9D",
"d +	c #929689",
"e +	c #6E716D",
"f +	c #616461",
"g +	c #686856",
"h +	c #6C6C59",
"i +	c #7B7A63",
"j +	c #7E7F65",
"k +	c #7A7A69",
"l +	c #737364",
"m +	c #67665D",
"n +	c #5B5B54",
"o +	c #403F41",
"p +	c #3B383D",
"q +	c #424341",
"r +	c #51504B",
"s +	c #5C5B52",
"t +	c #5F5D56",
"u +	c #96957B",
"v +	c #A4A185",
"w +	c #CCC6A8",
"x +	c #C7C2A8",
"y +	c #C4C0A8",
"z +	c #B1AF98",
"A +	c #A9AA99",
"B +	c #9F9E88",
"C +	c #98967E",
"D +	c #AFAD92",
"E +	c #C2C1AC",
"F +	c #C9C8B4",
"G +	c #D1CEB7",
"H +	c #BEBDA9",
"I +	c #A6A48A",
"J +	c #8D938A",
"K +	c #51585F",
"L +	c #565F66",
"M +	c #5C6465",
"N +	c #646563",
"O +	c #5A342E",
"P +	c #686560",
"Q +	c #5E6565",
"R +	c #6D716D",
"S +	c #6D726F",
"T +	c #666C6A",
"U +	c #5D6667",
"V +	c #51606A",
"W +	c #394E67",
"X +	c #133150",
"Y +	c #0A1935",
"Z +	c #09152C",
"` +	c #0A162D",
" .+	c #0E1831",
"..+	c #0F182F",
"+.+	c #0B1429",
"@.+	c #10192E",
"#.+	c #0B1327",
"$.+	c #0C1323",
"%.+	c #0E1320",
"&.+	c #101320",
"*.+	c #111623",
"=.+	c #0C101D",
"-.+	c #0F121E",
";.+	c #101423",
">.+	c #101524",
",.+	c #0B1123",
"'.+	c #0F1527",
").+	c #0E1528",
"!.+	c #0D1528",
"~.+	c #0C142A",
"{.+	c #121A29",
"].+	c #121011",
"^.+	c #100F10",
"/.+	c #110F11",
"(.+	c #120F12",
"_.+	c #121012",
":.+	c #141313",
"<.+	c #141214",
"[.+	c #151314",
"}.+	c #171415",
"|.+	c #131314",
"1.+	c #151618",
"2.+	c #151817",
"3.+	c #192225",
"4.+	c #192224",
"5.+	c #192425",
"6.+	c #192526",
"7.+	c #171F20",
"8.+	c #171D23",
"9.+	c #151D23",
"0.+	c #131A27",
"a.+	c #121927",
"b.+	c #121A2C",
"c.+	c #182541",
"d.+	c #1D2D54",
"e.+	c #555E63",
"f.+	c #B8B8A3",
"g.+	c #D2CDB4",
"h.+	c #DAD4B8",
"i.+	c #DED8B3",
"j.+	c #CCC9B0",
"k.+	c #A29D80",
"l.+	c #B1AC89",
"m.+	c #B1B098",
"n.+	c #BBB99E",
"o.+	c #C4C0A0",
"p.+	c #C3C1A8",
"q.+	c #BFBDA8",
"r.+	c #A4A597",
"s.+	c #8C8C81",
"t.+	c #717068",
"u.+	c #646460",
"v.+	c #5A5D5C",
"w.+	c #9FA298",
"x.+	c #B5B5A5",
"y.+	c #AFAE9A",
"z.+	c #9FA08E",
"A.+	c #B5B6A8",
"B.+	c #B9B9AE",
"C.+	c #CACBC9",
"D.+	c #E1DBBF",
"E.+	c #E0DBC7",
"F.+	c #D4CDA6",
"G.+	c #DBD7C3",
"H.+	c #D6D1BB",
"I.+	c #B6B8AB",
"J.+	c #B9B7A0",
"K.+	c #A8AA98",
"L.+	c #878B81",
"M.+	c #6F726B",
"N.+	c #6A6B63",
"O.+	c #6A695C",
"P.+	c #6C6C5B",
"Q.+	c #7A7967",
"R.+	c #888771",
"S.+	c #8D8C76",
"T.+	c #7C7D6C",
"U.+	c #737366",
"V.+	c #6A6B5F",
"W.+	c #5A5853",
"X.+	c #55544F",
"Y.+	c #636156",
"Z.+	c #646359",
"`.+	c #706F63",
" ++	c #939179",
".++	c #CEC8A9",
"+++	c #CBC5A5",
"@++	c #C9C3A3",
"#++	c #C7C2A5",
"$++	c #B0AD93",
"%++	c #AAAA97",
"&++	c #9A9982",
"*++	c #96947A",
"=++	c #B2B096",
"-++	c #C5C5B3",
";++	c #D2D0BD",
">++	c #D5D1BB",
",++	c #BCBBA4",
"'++	c #AFAF99",
")++	c #A8A68E",
"!++	c #ABAA91",
"~++	c #9A9F93",
"{++	c #585F63",
"]++	c #525B64",
"^++	c #575F66",
"/++	c #616868",
"(++	c #604E4A",
"_++	c #592C26",
":++	c #6A6862",
"<++	c #666B69",
"[++	c #707570",
"}++	c #727772",
"|++	c #5A6567",
"1++	c #50626C",
"2++	c #324863",
"3++	c #112C47",
"4++	c #0C172F",
"5++	c #0A1933",
"6++	c #0B1832",
"7++	c #0D172D",
"8++	c #0F172D",
"9++	c #0F162B",
"0++	c #101625",
"a++	c #101522",
"b++	c #0F121F",
"c++	c #111523",
"d++	c #101420",
"e++	c #121521",
"f++	c #111522",
"g++	c #101627",
"h++	c #101626",
"i++	c #141C2E",
"j++	c #0F1628",
"k++	c #0C1328",
"l++	c #0D1427",
"m++	c #0E1628",
"n++	c #121B2A",
"o++	c #171618",
"p++	c #131113",
"q++	c #110F10",
"r++	c #131112",
"s++	c #171516",
"t++	c #151415",
"u++	c #131517",
"v++	c #0F1519",
"w++	c #161E1F",
"x++	c #161F1F",
"y++	c #111720",
"z++	c #111925",
"A++	c #141C2B",
"B++	c #161E2E",
"C++	c #15233F",
"D++	c #19294A",
"E++	c #1A2A58",
"F++	c #192A52",
"G++	c #20314F",
"H++	c #54606C",
"I++	c #D4D0BA",
"J++	c #D0CBAA",
"K++	c #B3AE87",
"L++	c #B1AC83",
"M++	c #B7B599",
"N++	c #B3B094",
"O++	c #B9B9A6",
"P++	c #BABBAC",
"Q++	c #BFC1B1",
"R++	c #C1C2B1",
"S++	c #B6B6A6",
"T++	c #B2B3A4",
"U++	c #A7A89B",
"V++	c #969A92",
"W++	c #8C9088",
"X++	c #777B76",
"Y++	c #A1A499",
"Z++	c #A4A696",
"`++	c #9F9E86",
" @+	c #9B9A83",
".@+	c #9F9E8A",
"+@+	c #AEAFA0",
"@@+	c #B4B4A5",
"#@+	c #BABCB6",
"$@+	c #CCCCC1",
"%@+	c #E2DCC0",
"&@+	c #DEDAC2",
"*@+	c #CCC69D",
"=@+	c #CEC8A3",
"-@+	c #CBC6A3",
";@+	c #D5CFB5",
">@+	c #D5D0B9",
",@+	c #D5CFB8",
"'@+	c #C8C6B1",
")@+	c #C3C1AE",
"!@+	c #BCBDAE",
"~@+	c #A9ACA1",
"{@+	c #9BA092",
"]@+	c #C0BD9F",
"^@+	c #CDC9AD",
"/@+	c #9DA093",
"(@+	c #797C73",
"_@+	c #70736D",
":@+	c #6F6F63",
"<@+	c #777669",
"[@+	c #858472",
"}@+	c #878775",
"|@+	c #878776",
"1@+	c #828273",
"2@+	c #838575",
"3@+	c #79796A",
"4@+	c #65655B",
"5@+	c #5F5E56",
"6@+	c #6A685E",
"7@+	c #67665C",
"8@+	c #838374",
"9@+	c #91907A",
"0@+	c #B5B092",
"a@+	c #CDC8A9",
"b@+	c #CAC4A3",
"c@+	c #C5BE9C",
"d@+	c #CAC4A0",
"e@+	c #C9C2A2",
"f@+	c #B0AD92",
"g@+	c #A4A593",
"h@+	c #929077",
"i@+	c #969275",
"j@+	c #BCB99F",
"k@+	c #C5C4B2",
"l@+	c #D4D2C0",
"m@+	c #D4D0BC",
"n@+	c #AFAF98",
"o@+	c #A9A68B",
"p@+	c #AEAC91",
"q@+	c #9B9F91",
"r@+	c #5A6062",
"s@+	c #596266",
"t@+	c #696560",
"u@+	c #5A302A",
"v@+	c #5C2C26",
"w@+	c #6A635C",
"x@+	c #606767",
"y@+	c #6B6F6C",
"z@+	c #737772",
"A@+	c #747975",
"B@+	c #4C5F6B",
"C@+	c #1F3E5F",
"D@+	c #112E4D",
"E@+	c #0A1731",
"F@+	c #091730",
"G@+	c #0E1A35",
"H@+	c #0C162B",
"I@+	c #0C1329",
"J@+	c #111724",
"K@+	c #0F141F",
"L@+	c #0F121D",
"M@+	c #0C101C",
"N@+	c #0F131F",
"O@+	c #111421",
"P@+	c #0F1321",
"Q@+	c #0D1422",
"R@+	c #111726",
"S@+	c #0C1426",
"T@+	c #0D1526",
"U@+	c #0D1424",
"V@+	c #0D1524",
"W@+	c #151D2D",
"X@+	c #181C1D",
"Y@+	c #111215",
"Z@+	c #121417",
"`@+	c #171B1C",
" #+	c #161819",
".#+	c #171B19",
"+#+	c #19201A",
"@#+	c #1C241D",
"##+	c #18201B",
"$#+	c #151B1A",
"%#+	c #151B18",
"&#+	c #141818",
"*#+	c #171B1A",
"=#+	c #161A19",
"-#+	c #151919",
";#+	c #141719",
">#+	c #171718",
",#+	c #131416",
"'#+	c #161618",
")#+	c #131618",
"!#+	c #10131B",
"~#+	c #172020",
"{#+	c #18211F",
"]#+	c #192122",
"^#+	c #171F1F",
"/#+	c #111620",
"(#+	c #11161F",
"_#+	c #131A26",
":#+	c #131C26",
"<#+	c #141D27",
"[#+	c #192130",
"}#+	c #162236",
"|#+	c #16243A",
"1#+	c #1B2D54",
"2#+	c #172849",
"3#+	c #1F324C",
"4#+	c #65717B",
"5#+	c #B2B3A0",
"6#+	c #CDC9AE",
"7#+	c #D1CBA8",
"8#+	c #C2BD98",
"9#+	c #BBB48D",
"0#+	c #B5B191",
"a#+	c #B0AF95",
"b#+	c #B4B297",
"c#+	c #BDBAA1",
"d#+	c #BBBBA8",
"e#+	c #BDBEB1",
"f#+	c #BABCAF",
"g#+	c #BBBBAC",
"h#+	c #BBBCAC",
"i#+	c #B9BAAC",
"j#+	c #B0B0A1",
"k#+	c #A0A394",
"l#+	c #96957E",
"m#+	c #A6A490",
"n#+	c #B0B2A7",
"o#+	c #B4B4A2",
"p#+	c #DAD6BF",
"q#+	c #D5D1BC",
"r#+	c #C1BD95",
"s#+	c #C8C39C",
"t#+	c #C8C3A1",
"u#+	c #C6C4AF",
"v#+	c #C7C5AF",
"w#+	c #B5B49A",
"x#+	c #CCC7A7",
"y#+	c #CAC6A7",
"z#+	c #9D9E89",
"A#+	c #86897D",
"B#+	c #8F8F7B",
"C#+	c #848474",
"D#+	c #888875",
"E#+	c #858675",
"F#+	c #868673",
"G#+	c #7E7E6F",
"H#+	c #757669",
"I#+	c #67675D",
"J#+	c #6B695E",
"K#+	c #8C8D79",
"L#+	c #8E8F7B",
"M#+	c #969580",
"N#+	c #A2A189",
"O#+	c #B6B298",
"P#+	c #B9B597",
"Q#+	c #B4B196",
"R#+	c #999882",
"S#+	c #A09E86",
"T#+	c #939175",
"U#+	c #A6A183",
"V#+	c #C8C6B2",
"W#+	c #CFCDB8",
"X#+	c #BCBCA7",
"Y#+	c #AEAE97",
"Z#+	c #A7A68C",
"`#+	c #9B9F8F",
" $+	c #5C666C",
".$+	c #576368",
"+$+	c #5C6566",
"@$+	c #604640",
"#$+	c #66605B",
"$$+	c #777C77",
"%$+	c #6F7470",
"&$+	c #5B6466",
"*$+	c #596466",
"=$+	c #465B6A",
"-$+	c #1C3B5B",
";$+	c #0F172B",
">$+	c #111625",
",$+	c #0F111D",
"'$+	c #0C0E1A",
")$+	c #0F1422",
"!$+	c #131624",
"~$+	c #0E1423",
"{$+	c #101322",
"]$+	c #0B121F",
"^$+	c #0C1221",
"/$+	c #0B1225",
"($+	c #0D1222",
"_$+	c #0A0F1C",
":$+	c #0B1324",
"<$+	c #141C2C",
"[$+	c #181E1F",
"}$+	c #111417",
"|$+	c #161D19",
"1$+	c #171E19",
"2$+	c #171F18",
"3$+	c #1B241C",
"4$+	c #1A231A",
"5$+	c #19221A",
"6$+	c #171F1C",
"7$+	c #171F1A",
"8$+	c #171C1C",
"9$+	c #161A1A",
"0$+	c #151A19",
"a$+	c #151818",
"b$+	c #151918",
"c$+	c #141817",
"d$+	c #141717",
"e$+	c #151915",
"f$+	c #161717",
"g$+	c #151716",
"h$+	c #13181F",
"i$+	c #11161E",
"j$+	c #192021",
"k$+	c #171F1E",
"l$+	c #182220",
"m$+	c #19221F",
"n$+	c #192423",
"o$+	c #192221",
"p$+	c #17201E",
"q$+	c #141B1D",
"r$+	c #10151E",
"s$+	c #10161D",
"t$+	c #0F161D",
"u$+	c #121922",
"v$+	c #131B24",
"w$+	c #121A25",
"x$+	c #141C26",
"y$+	c #151E28",
"z$+	c #182128",
"A$+	c #161F28",
"B$+	c #171F2B",
"C$+	c #151E29",
"D$+	c #161F2F",
"E$+	c #172337",
"F$+	c #768086",
"G$+	c #C1BC9A",
"H$+	c #B0AA84",
"I$+	c #AEAA8C",
"J$+	c #BFBB9A",
"K$+	c #C2BEA4",
"L$+	c #BBB9A3",
"M$+	c #BABAA9",
"N$+	c #B9BBB0",
"O$+	c #B4B6AB",
"P$+	c #BCBFB5",
"Q$+	c #AEAE9D",
"R$+	c #9FA090",
"S$+	c #9B9A84",
"T$+	c #A0A18D",
"U$+	c #B4B6B1",
"V$+	c #B0B1A1",
"W$+	c #B6B59F",
"X$+	c #C8C5AE",
"Y$+	c #DAD3B5",
"Z$+	c #C8C8B6",
"`$+	c #9F9F8C",
" %+	c #AFAE96",
".%+	c #B3B3A1",
"+%+	c #C9C6B0",
"@%+	c #CDC9B5",
"#%+	c #B6B7A9",
"$%+	c #B5B6A6",
"%%+	c #A1A394",
"&%+	c #9FA18F",
"*%+	c #C2C1AB",
"=%+	c #CCC7A9",
"-%+	c #D3CDAB",
";%+	c #D1CAA8",
">%+	c #A8A892",
",%+	c #8E8E7E",
"'%+	c #989A88",
")%+	c #939484",
"!%+	c #878670",
"~%+	c #85856E",
"{%+	c #8A8B7A",
"]%+	c #7E7F70",
"^%+	c #737466",
"/%+	c #646259",
"(%+	c #64645A",
"_%+	c #6C6B61",
":%+	c #848576",
"<%+	c #888876",
"[%+	c #606059",
"}%+	c #68675D",
"|%+	c #7F7D6A",
"1%+	c #C2BC9A",
"2%+	c #B0AC8E",
"3%+	c #ACA88B",
"4%+	c #A29E84",
"5%+	c #9B977C",
"6%+	c #C0BDA4",
"7%+	c #D5D2BF",
"8%+	c #D9D6C5",
"9%+	c #DCD8C3",
"0%+	c #C4C2AD",
"a%+	c #B0AF97",
"b%+	c #A9A78B",
"c%+	c #AAA88D",
"d%+	c #9A9F90",
"e%+	c #636D6F",
"f%+	c #5F6767",
"g%+	c #5D6567",
"h%+	c #65635E",
"i%+	c #592F29",
"j%+	c #747773",
"k%+	c #737672",
"l%+	c #777B77",
"m%+	c #747875",
"n%+	c #5E6666",
"o%+	c #5C6466",
"p%+	c #5D6566",
"q%+	c #566267",
"r%+	c #3B4F62",
"s%+	c #173554",
"t%+	c #0B162A",
"u%+	c #0A1831",
"v%+	c #0B172C",
"w%+	c #0D1429",
"x%+	c #0F1627",
"y%+	c #0E1524",
"z%+	c #0F1320",
"A%+	c #0E111C",
"B%+	c #0D1323",
"C%+	c #101422",
"D%+	c #0B1322",
"E%+	c #0D1324",
"F%+	c #0A1322",
"G%+	c #0D121F",
"H%+	c #0E121E",
"I%+	c #0D111D",
"J%+	c #0C121F",
"K%+	c #101523",
"L%+	c #131B2A",
"M%+	c #1A2025",
"N%+	c #181D1E",
"O%+	c #161718",
"P%+	c #171C19",
"Q%+	c #1C211D",
"R%+	c #18211A",
"S%+	c #19211B",
"T%+	c #171E17",
"U%+	c #181E18",
"V%+	c #161F18",
"W%+	c #15191A",
"X%+	c #141816",
"Y%+	c #141914",
"Z%+	c #141715",
"`%+	c #131514",
" &+	c #161817",
".&+	c #131615",
"+&+	c #161719",
"@&+	c #1D2124",
"#&+	c #191D20",
"$&+	c #1A1E1B",
"%&+	c #192424",
"&&+	c #151D1B",
"*&+	c #171E1F",
"=&+	c #181F1C",
"-&+	c #161E1E",
";&+	c #161E1C",
">&+	c #151C1B",
",&+	c #131A1E",
"'&+	c #161B21",
")&+	c #11171F",
"!&+	c #141B24",
"~&+	c #151D24",
"{&+	c #131B23",
"]&+	c #121822",
"^&+	c #121B24",
"/&+	c #141D26",
"(&+	c #161F25",
"_&+	c #162028",
":&+	c #19232E",
"<&+	c #1B273A",
"[&+	c #162541",
"}&+	c #213454",
"|&+	c #6F7A7D",
"1&+	c #A2A492",
"2&+	c #CBC7A9",
"3&+	c #D3CBA3",
"4&+	c #C7C29E",
"5&+	c #A69E7E",
"6&+	c #A09B7E",
"7&+	c #ACA98F",
"8&+	c #ABA88C",
"9&+	c #AEB0A3",
"0&+	c #A8ACA5",
"a&+	c #A5AAA3",
"b&+	c #9FA5A2",
"c&+	c #969C96",
"d&+	c #9A9F98",
"e&+	c #B7B8A9",
"f&+	c #A7A692",
"g&+	c #8F9080",
"h&+	c #999985",
"i&+	c #A7A58F",
"j&+	c #ADAFA2",
"k&+	c #B2B4B0",
"l&+	c #B4B5A7",
"m&+	c #BEBDA6",
"n&+	c #D4CEB4",
"o&+	c #D6D0AF",
"p&+	c #CFCBB4",
"q&+	c #B8B9AA",
"r&+	c #A5A79B",
"s&+	c #545657",
"t&+	c #6C6F6B",
"u&+	c #8F9285",
"v&+	c #B5B7A8",
"w&+	c #C7C3AC",
"x&+	c #C9C6B1",
"y&+	c #BCBCAA",
"z&+	c #9D9F8F",
"A&+	c #ABAD9E",
"B&+	c #C1C0AC",
"C&+	c #CBC6A5",
"D&+	c #CBC5A4",
"E&+	c #B4B093",
"F&+	c #8E9181",
"G&+	c #86897B",
"H&+	c #868776",
"I&+	c #90907B",
"J&+	c #8E8E77",
"K&+	c #7F8070",
"L&+	c #67675E",
"M&+	c #6B6B60",
"N&+	c #707165",
"O&+	c #76776B",
"P&+	c #77776B",
"Q&+	c #6C6B60",
"R&+	c #6B675D",
"S&+	c #7C7A67",
"T&+	c #AFAA8B",
"U&+	c #C1BB9A",
"V&+	c #A39F82",
"W&+	c #9A977A",
"X&+	c #A29E81",
"Y&+	c #B2AF97",
"Z&+	c #D3CFBA",
"`&+	c #DDD7BE",
" *+	c #D1CDB5",
".*+	c #C0BFA7",
"+*+	c #AEAD93",
"@*+	c #A9A88F",
"#*+	c #9BA093",
"$*+	c #747A76",
"%*+	c #604842",
"&*+	c #582C26",
"**+	c #686762",
"=*+	c #747670",
"-*+	c #73797A",
";*+	c #79807E",
">*+	c #7E8684",
",*+	c #727773",
"'*+	c #596164",
")*+	c #5E6567",
"!*+	c #505C67",
"~*+	c #31475D",
"{*+	c #122E49",
"]*+	c #091C38",
"^*+	c #0B182E",
"/*+	c #0A1427",
"(*+	c #0E162B",
"_*+	c #0C1830",
":*+	c #09142B",
"<*+	c #0E121F",
"[*+	c #0D101C",
"}*+	c #0D1525",
"|*+	c #0B1323",
"1*+	c #0E1526",
"2*+	c #0C1325",
"3*+	c #0E1220",
"4*+	c #0C1322",
"5*+	c #0E0F1B",
"6*+	c #101521",
"7*+	c #1B2324",
"8*+	c #1B2120",
"9*+	c #141516",
"0*+	c #161617",
"a*+	c #121617",
"b*+	c #151C1C",
"c*+	c #161C1A",
"d*+	c #171D1B",
"e*+	c #141B18",
"f*+	c #161D16",
"g*+	c #161D17",
"h*+	c #181D17",
"i*+	c #161B17",
"j*+	c #131917",
"k*+	c #161B18",
"l*+	c #171919",
"m*+	c #171A19",
"n*+	c #161815",
"o*+	c #151916",
"p*+	c #161918",
"q*+	c #161B1A",
"r*+	c #121114",
"s*+	c #100F11",
"t*+	c #131311",
"u*+	c #151414",
"v*+	c #141412",
"w*+	c #141614",
"x*+	c #141716",
"y*+	c #181B1A",
"z*+	c #181917",
"A*+	c #191C18",
"B*+	c #191D19",
"C*+	c #1A1B1C",
"D*+	c #1B1D1D",
"E*+	c #181F1A",
"F*+	c #19201B",
"G*+	c #172121",
"H*+	c #1A241F",
"I*+	c #19221D",
"J*+	c #161E1D",
"K*+	c #19211D",
"L*+	c #17201D",
"M*+	c #181F22",
"N*+	c #161D1D",
"O*+	c #181C21",
"P*+	c #10161C",
"Q*+	c #0F141D",
"R*+	c #13191F",
"S*+	c #151A22",
"T*+	c #141A23",
"U*+	c #141C22",
"V*+	c #172129",
"W*+	c #18232F",
"X*+	c #16253C",
"Y*+	c #243654",
"Z*+	c #6E7777",
"`*+	c #B1B19C",
" =+	c #CCC7A8",
".=+	c #CCC69B",
"+=+	c #C0BC99",
"@=+	c #B7B495",
"#=+	c #B0AC8B",
"$=+	c #AEAB8E",
"%=+	c #B4B193",
"&=+	c #BFBA99",
"*=+	c #B6B296",
"==+	c #A9ADA3",
"-=+	c #A0A6A1",
";=+	c #9AA09E",
">=+	c #949A96",
",=+	c #9EA195",
"'=+	c #999B8B",
")=+	c #94927B",
"!=+	c #AEAA8E",
"~=+	c #B2B29F",
"{=+	c #B5B5A4",
"]=+	c #D5CFB4",
"^=+	c #A2A59A",
"/=+	c #3B3C39",
"(=+	c #28272C",
"_=+	c #262628",
":=+	c #212123",
"<=+	c #343531",
"[=+	c #7D7F71",
"}=+	c #C7C4AA",
"|=+	c #BABAA7",
"1=+	c #BBBCAB",
"2=+	c #A8A998",
"3=+	c #AEAFA2",
"4=+	c #CECBB2",
"5=+	c #D3CDAD",
"6=+	c #D3CEAC",
"7=+	c #A8A891",
"8=+	c #848678",
"9=+	c #88897A",
"0=+	c #888979",
"a=+	c #8F8E77",
"b=+	c #8A8974",
"c=+	c #838474",
"d=+	c #797A6C",
"e=+	c #77786C",
"f=+	c #727367",
"g=+	c #78786C",
"h=+	c #888774",
"i=+	c #95927B",
"j=+	c #C7C2A3",
"k=+	c #C5BF9B",
"l=+	c #A9A384",
"m=+	c #A8A486",
"n=+	c #A19E85",
"o=+	c #DCD8C5",
"p=+	c #ACAA8F",
"q=+	c #ABA98E",
"r=+	c #AEAB91",
"s=+	c #95998C",
"t=+	c #6C7474",
"u=+	c #655D57",
"v=+	c #5C2F26",
"w=+	c #592D27",
"x=+	c #686965",
"y=+	c #727570",
"z=+	c #727571",
"A=+	c #7A8181",
"B=+	c #7A8485",
"C=+	c #788080",
"D=+	c #6C716F",
"E=+	c #4F5D68",
"F=+	c #2C4158",
"G=+	c #132740",
"H=+	c #0D1D35",
"I=+	c #0C1528",
"J=+	c #0D1428",
"K=+	c #0B1427",
"L=+	c #0D182C",
"M=+	c #0D172E",
"N=+	c #0E162A",
"O=+	c #0F172A",
"P=+	c #101727",
"Q=+	c #111626",
"R=+	c #101421",
"S=+	c #0F1421",
"T=+	c #0C121E",
"U=+	c #111828",
"V=+	c #111622",
"W=+	c #0C1220",
"X=+	c #0E1422",
"Y=+	c #141C2D",
"Z=+	c #1B1C1E",
"`=+	c #171819",
" -+	c #151815",
".-+	c #151814",
"+-+	c #151913",
"@-+	c #151914",
"#-+	c #151813",
"$-+	c #151613",
"%-+	c #151A15",
"&-+	c #131714",
"*-+	c #151714",
"=-+	c #181717",
"--+	c #121515",
";-+	c #111610",
">-+	c #141612",
",-+	c #131812",
"'-+	c #161915",
")-+	c #161B16",
"!-+	c #141815",
"~-+	c #131215",
"{-+	c #141211",
"]-+	c #151413",
"^-+	c #141610",
"/-+	c #151514",
"(-+	c #171515",
"_-+	c #171918",
":-+	c #171816",
"<-+	c #1A1B19",
"[-+	c #181C19",
"}-+	c #191D18",
"|-+	c #1A1A1C",
"1-+	c #1A2421",
"2-+	c #10141E",
"3-+	c #182431",
"4-+	c #172132",
"5-+	c #172740",
"6-+	c #2D415A",
"7-+	c #737C79",
"8-+	c #C4C2AE",
"9-+	c #C8C398",
"0-+	c #A7A68F",
"a-+	c #B1AC8D",
"b-+	c #B0AC8D",
"c-+	c #B6B291",
"d-+	c #C1BC9C",
"e-+	c #9C9B82",
"f-+	c #A4A38D",
"g-+	c #AAAC9D",
"h-+	c #A6AAA0",
"i-+	c #8C8C7C",
"j-+	c #9F9D82",
"k-+	c #D0CAAD",
"l-+	c #B1B3A6",
"m-+	c #ACAEA4",
"n-+	c #ACAD9B",
"o-+	c #BAB9A4",
"p-+	c #BEBFAE",
"q-+	c #9DA091",
"r-+	c #62645E",
"s-+	c #2D2B2A",
"t-+	c #181616",
"u-+	c #1A1718",
"v-+	c #3A3A37",
"w-+	c #898D81",
"x-+	c #ACAD9F",
"y-+	c #CAC6AD",
"z-+	c #BCBBA8",
"A-+	c #BABBAA",
"B-+	c #B4B6A7",
"C-+	c #AAAC9C",
"D-+	c #AFB1A3",
"E-+	c #BABBAB",
"F-+	c #C9C8B2",
"G-+	c #D8D2B0",
"H-+	c #B2B19D",
"I-+	c #959583",
"J-+	c #898A79",
"K-+	c #888A7B",
"L-+	c #87897A",
"M-+	c #838475",
"N-+	c #7F8172",
"O-+	c #838473",
"P-+	c #828374",
"Q-+	c #838577",
"R-+	c #7F8173",
"S-+	c #888A7A",
"T-+	c #908F79",
"U-+	c #9FA089",
"V-+	c #A7A58E",
"W-+	c #BDBA9F",
"X-+	c #AEAA8D",
"Y-+	c #A7A284",
"Z-+	c #A5A081",
"`-+	c #A5A185",
" ;+	c #ADAA90",
".;+	c #DAD7C1",
"+;+	c #D7D3BD",
"@;+	c #BFBDA4",
"#;+	c #ADAB92",
"$;+	c #AAA88E",
"%;+	c #949889",
"&;+	c #6A706F",
"*;+	c #676A64",
"=;+	c #746B4B",
"-;+	c #796C2F",
";;+	c #7D652D",
">;+	c #80682C",
",;+	c #7D6B34",
"';+	c #6B6C63",
");+	c #676B68",
"!;+	c #6C6F6C",
"~;+	c #788284",
"{;+	c #828880",
"];+	c #77807E",
"^;+	c #5A6365",
"/;+	c #4F5D66",
"(;+	c #213549",
"_;+	c #101C32",
":;+	c #0E1426",
"<;+	c #0C1324",
"[;+	c #0A152A",
"};+	c #111B2F",
"|;+	c #0F1729",
"1;+	c #0F1420",
"2;+	c #0E111D",
"3;+	c #0D1626",
"4;+	c #0D1426",
"5;+	c #101828",
"6;+	c #101726",
"7;+	c #131213",
"8;+	c #110F12",
"9;+	c #171616",
"0;+	c #181817",
"a;+	c #161514",
"b;+	c #151516",
"c;+	c #141617",
"d;+	c #131310",
"e;+	c #141312",
"f;+	c #13120E",
"g;+	c #131110",
"h;+	c #141212",
"i;+	c #161613",
"j;+	c #1A1919",
"k;+	c #1A1C1B",
"l;+	c #171C18",
"m;+	c #18191A",
"n;+	c #19221E",
"o;+	c #1A211D",
"p;+	c #11171A",
"q;+	c #12181C",
"r;+	c #131A1B",
"s;+	c #151C1D",
"t;+	c #141B1C",
"u;+	c #11171B",
"v;+	c #141B1E",
"w;+	c #10171B",
"x;+	c #12161A",
"y;+	c #0F151A",
"z;+	c #172027",
"A;+	c #182530",
"B;+	c #182230",
"C;+	c #223449",
"D;+	c #3C5066",
"E;+	c #797E76",
"F;+	c #AFB09E",
"G;+	c #BABAA3",
"H;+	c #BFBDA6",
"I;+	c #C4C1A5",
"J;+	c #C9C398",
"K;+	c #C8C297",
"L;+	c #B2AE8C",
"M;+	c #9D9B81",
"N;+	c #AAA687",
"O;+	c #AFAB90",
"P;+	c #ABA88D",
"Q;+	c #A19F88",
"R;+	c #979784",
"S;+	c #989987",
"T;+	c #8B8D7F",
"U;+	c #87887A",
"V;+	c #868573",
"W;+	c #A19D83",
"X;+	c #D1CAAE",
"Y;+	c #B0B2A5",
"Z;+	c #A9A997",
"`;+	c #ABAA97",
" >+	c #CCC8B0",
".>+	c #C8C6B0",
"+>+	c #AEB1A4",
"@>+	c #7E8178",
"#>+	c #2A2928",
"$>+	c #1F1C1A",
"%>+	c #151212",
"&>+	c #1A171A",
"*>+	c #383936",
"=>+	c #BAB89D",
"->+	c #BBB9A1",
";>+	c #B9B9A7",
">>+	c #ACAD9C",
",>+	c #ACAE9F",
"'>+	c #B3B4A7",
")>+	c #D1CBAC",
"!>+	c #DED7B8",
"~>+	c #D3CDAF",
"{>+	c #C0BCA2",
"]>+	c #A3A28C",
"^>+	c #86887A",
"/>+	c #808275",
"(>+	c #797A6E",
"_>+	c #7E7F71",
":>+	c #7E7F72",
"<>+	c #7A7C71",
"[>+	c #858778",
"}>+	c #8B8B78",
"|>+	c #90917C",
"1>+	c #9C9B83",
"2>+	c #ACA98B",
"3>+	c #AFAC8E",
"4>+	c #B4AF91",
"5>+	c #B8B497",
"6>+	c #AAA78A",
"7>+	c #98967C",
"8>+	c #C7C6AF",
"9>+	c #BDBAA0",
"0>+	c #A8A893",
"a>+	c #A2A390",
"b>+	c #6A706D",
"c>+	c #6D7252",
"d>+	c #747334",
"e>+	c #73732F",
"f>+	c #866D2B",
"g>+	c #7E6F2C",
"h>+	c #886D36",
"i>+	c #6C6B63",
"j>+	c #6A6F6D",
"k>+	c #717675",
"l>+	c #747A7B",
"m>+	c #808B91",
"n>+	c #747E80",
"o>+	c #566066",
"p>+	c #42505D",
"q>+	c #182B43",
"r>+	c #0F172C",
"s>+	c #0E182E",
"t>+	c #11182D",
"u>+	c #101729",
"v>+	c #0D1527",
"w>+	c #0A1325",
"x>+	c #10182A",
"y>+	c #10192A",
"z>+	c #131A2B",
"A>+	c #101624",
"B>+	c #121827",
"C>+	c #0E1421",
"D>+	c #101A2B",
"E>+	c #121B2D",
"F>+	c #12192A",
"G>+	c #0F1523",
"H>+	c #181B1B",
"I>+	c #120F11",
"J>+	c #121010",
"K>+	c #171414",
"L>+	c #121113",
"M>+	c #12100F",
"N>+	c #12120E",
"O>+	c #11120E",
"P>+	c #191A1B",
"Q>+	c #151617",
"R>+	c #151D1D",
"S>+	c #161F1D",
"T>+	c #141A1A",
"U>+	c #161C19",
"V>+	c #141B1B",
"W>+	c #151C18",
"X>+	c #182019",
"Y>+	c #141A19",
"Z>+	c #121818",
"`>+	c #11151D",
" ,+	c #12141F",
".,+	c #151B21",
"+,+	c #16222A",
"@,+	c #576770",
"#,+	c #82877C",
"$,+	c #A0A18E",
"%,+	c #ACAE9C",
"&,+	c #BFBA98",
"*,+	c #CCC59B",
"=,+	c #C5C098",
"-,+	c #BFBA95",
";,+	c #A8A485",
">,+	c #A39B7B",
",,+	c #A8A284",
"',+	c #9E9B7E",
"),+	c #9A987F",
"!,+	c #959582",
"~,+	c #8D9081",
"{,+	c #808278",
"],+	c #7F8175",
"^,+	c #898979",
"/,+	c #8D8C78",
"(,+	c #99987E",
"_,+	c #C8C3A7",
":,+	c #CCC7AA",
"<,+	c #CBC6AB",
"[,+	c #CAC4AA",
"},+	c #B3B095",
"|,+	c #B2B098",
"1,+	c #A6A693",
"2,+	c #CECBB3",
"3,+	c #B6B49D",
"4,+	c #A5A9A1",
"5,+	c #252624",
"6,+	c #23201B",
"7,+	c #181615",
"8,+	c #161413",
"9,+	c #1A1719",
"0,+	c #191616",
"a,+	c #2C2C2A",
"b,+	c #979682",
"c,+	c #C0BB97",
"d,+	c #B5B5A3",
"e,+	c #AEAF9C",
"f,+	c #B8B9A7",
"g,+	c #BFBEA8",
"h,+	c #D5D0B6",
"i,+	c #8F9182",
"j,+	c #838578",
"k,+	c #868779",
"l,+	c #828478",
"m,+	c #7A7C6F",
"n,+	c #848577",
"o,+	c #8B8C7A",
"p,+	c #989881",
"q,+	c #A19F87",
"r,+	c #9E9D83",
"s,+	c #AAA68A",
"t,+	c #D1CCAB",
"u,+	c #A9A891",
"v,+	c #ADAC97",
"w,+	c #7C817B",
"x,+	c #71723D",
"y,+	c #797238",
"z,+	c #767233",
"A,+	c #75722F",
"B,+	c #76712F",
"C,+	c #846E3A",
"D,+	c #686A63",
"E,+	c #686B68",
"F,+	c #707472",
"G,+	c #7B878C",
"H,+	c #788792",
"I,+	c #737B7B",
"J,+	c #555B62",
"K,+	c #545B64",
"L,+	c #575F64",
"M,+	c #515C64",
"N,+	c #2E4154",
"O,+	c #122239",
"P,+	c #0B162C",
"Q,+	c #0F182C",
"R,+	c #0C152B",
"S,+	c #0E192D",
"T,+	c #101A2D",
"U,+	c #0C1627",
"V,+	c #0F1623",
"W,+	c #0F1624",
"X,+	c #0E101C",
"Y,+	c #10131F",
"Z,+	c #101622",
"`,+	c #0F1626",
" '+	c #101A2F",
".'+	c #0F182B",
"+'+	c #0E1626",
"@'+	c #0D1321",
"#'+	c #0B1220",
"$'+	c #131B2C",
"%'+	c #1B1E1B",
"&'+	c #191918",
"*'+	c #1B1C1D",
"='+	c #191917",
"-'+	c #161614",
";'+	c #141413",
">'+	c #141111",
",'+	c #131212",
"''+	c #110F0F",
")'+	c #110E0F",
"!'+	c #13120F",
"~'+	c #12110F",
"{'+	c #131010",
"]'+	c #131316",
"^'+	c #161516",
"/'+	c #12191D",
"('+	c #161E1B",
"_'+	c #161C18",
":'+	c #182018",
"<'+	c #141819",
"['+	c #161E1A",
"}'+	c #14191A",
"|'+	c #131719",
"1'+	c #141B22",
"2'+	c #131B22",
"3'+	c #141B21",
"4'+	c #121C24",
"5'+	c #14202F",
"6'+	c #384757",
"7'+	c #646E6F",
"8'+	c #83887C",
"9'+	c #9FA291",
"0'+	c #C4BE98",
"a'+	c #C7C199",
"b'+	c #C4BE97",
"c'+	c #ABA789",
"d'+	c #969376",
"e'+	c #9B977A",
"f'+	c #9B9678",
"g'+	c #908F77",
"h'+	c #858779",
"i'+	c #8B8B79",
"j'+	c #B8B496",
"k'+	c #BEBA9A",
"l'+	c #C6C3AA",
"m'+	c #9A967D",
"n'+	c #B2AF93",
"o'+	c #B0B19F",
"p'+	c #C7C5B0",
"q'+	c #C3C1AD",
"r'+	c #A0A6A7",
"s'+	c #65696A",
"t'+	c #232121",
"u'+	c #24211E",
"v'+	c #1F1D1C",
"w'+	c #1C1B1D",
"x'+	c #222023",
"y'+	c #4E4E4B",
"z'+	c #BDBBA0",
"A'+	c #B5B4A0",
"B'+	c #ACAC97",
"C'+	c #B3B4A3",
"D'+	c #AFAF9B",
"E'+	c #B8B7A3",
"F'+	c #B7B6A2",
"G'+	c #B5B39A",
"H'+	c #DDD8C1",
"I'+	c #C7C3AA",
"J'+	c #ADAB90",
"K'+	c #979683",
"L'+	c #848575",
"M'+	c #7E7F73",
"N'+	c #7A7B6F",
"O'+	c #78786D",
"P'+	c #76776C",
"Q'+	c #7F8071",
"R'+	c #838373",
"S'+	c #898A7A",
"T'+	c #8C8D7E",
"U'+	c #ADAA8D",
"V'+	c #EBE7D0",
"W'+	c #E0DABA",
"X'+	c #D1CBAA",
"Y'+	c #BAB89C",
"Z'+	c #B8B69A",
"`'+	c #BAB89F",
" )+	c #ABADA1",
".)+	c #9CA097",
"+)+	c #897856",
"@)+	c #7C7137",
"#)+	c #787233",
"$)+	c #757334",
"%)+	c #77722D",
"&)+	c #886D3D",
"*)+	c #676964",
"=)+	c #646969",
"-)+	c #767B77",
";)+	c #7B8382",
">)+	c #7C827C",
",)+	c #656C6E",
"')+	c #545B62",
"))+	c #555D63",
"!)+	c #555E65",
"~)+	c #545F67",
"{)+	c #3B4C5A",
"])+	c #1F3246",
"^)+	c #111E36",
"/)+	c #0F192F",
"()+	c #0C1931",
"_)+	c #0D1628",
":)+	c #0E1627",
"<)+	c #101926",
"[)+	c #0D1320",
"})+	c #0C121D",
"|)+	c #0E1420",
"1)+	c #0F121C",
"2)+	c #0F1829",
"3)+	c #0E1523",
"4)+	c #0C1423",
"5)+	c #0F1625",
"6)+	c #0F1522",
"7)+	c #111420",
"8)+	c #0F1A2E",
"9)+	c #1C211F",
"0)+	c #171A17",
"a)+	c #191817",
"b)+	c #171615",
"c)+	c #191717",
"d)+	c #181A17",
"e)+	c #161615",
"f)+	c #171916",
"g)+	c #171E18",
"h)+	c #191E18",
"i)+	c #191B19",
"j)+	c #1A1B1A",
"k)+	c #181916",
"l)+	c #171A16",
"m)+	c #181816",
"n)+	c #181716",
"o)+	c #191818",
"p)+	c #1A1819",
"q)+	c #12120F",
"r)+	c #121110",
"s)+	c #121212",
"t)+	c #181A1C",
"u)+	c #13181E",
"v)+	c #181C1A",
"w)+	c #131718",
"x)+	c #171E1A",
"y)+	c #17201C",
"z)+	c #161B19",
"A)+	c #121913",
"B)+	c #121616",
"C)+	c #161D1A",
"D)+	c #12191A",
"E)+	c #151B1B",
"F)+	c #13191B",
"G)+	c #131A1C",
"H)+	c #131916",
"I)+	c #121719",
"J)+	c #101518",
"K)+	c #121518",
"L)+	c #11191E",
"M)+	c #151F24",
"N)+	c #1A2936",
"O)+	c #4D5A62",
"P)+	c #79807C",
"Q)+	c #8A8E82",
"R)+	c #979B8A",
"S)+	c #ACAD9D",
"T)+	c #C0C0AC",
"U)+	c #C3BF9C",
"V)+	c #C4BF96",
"W)+	c #C6C097",
"X)+	c #BFB994",
"Y)+	c #C1BC97",
"Z)+	c #A29F83",
"`)+	c #9C987B",
" !+	c #9F9C7F",
".!+	c #A7A385",
"+!+	c #B3AE90",
"@!+	c #BFBBA1",
"#!+	c #C8C39D",
"$!+	c #C2BC98",
"%!+	c #BDB99D",
"&!+	c #A19E81",
"*!+	c #A8A68F",
"=!+	c #A6A488",
"-!+	c #C9C7B4",
";!+	c #B7B9AE",
">!+	c #8F9595",
",!+	c #4E5151",
"'!+	c #232320",
")!+	c #22201F",
"!!+	c #1E1C1C",
"~!+	c #1F1E21",
"{!+	c #201F22",
"]!+	c #1D1B1F",
"^!+	c #181617",
"/!+	c #565955",
"(!+	c #B0AF9C",
"_!+	c #A8AA9B",
":!+	c #B6B6A3",
"<!+	c #B2B19B",
"[!+	c #A9A587",
"}!+	c #A8A385",
"|!+	c #D5CEB0",
"1!+	c #DAD2AF",
"2!+	c #E1DCC9",
"3!+	c #C9C5A6",
"4!+	c #B7B59A",
"5!+	c #9A9881",
"6!+	c #8C8B78",
"7!+	c #8D8C77",
"8!+	c #8F907E",
"9!+	c #959784",
"0!+	c #969783",
"a!+	c #969786",
"b!+	c #A4A289",
"c!+	c #B5B295",
"d!+	c #CECCB9",
"e!+	c #C3C1A7",
"f!+	c #B3B199",
"g!+	c #A9AB9C",
"h!+	c #A0A496",
"i!+	c #999A87",
"j!+	c #917750",
"k!+	c #866F39",
"l!+	c #806F30",
"m!+	c #8F6A35",
"n!+	c #8F7945",
"o!+	c #909281",
"p!+	c #92968A",
"q!+	c #898E84",
"r!+	c #898D82",
"s!+	c #969A8F",
"t!+	c #94998E",
"u!+	c #9DA195",
"v!+	c #9DA197",
"w!+	c #6F7574",
"x!+	c #535B65",
"y!+	c #565F65",
"z!+	c #475663",
"A!+	c #2D4152",
"B!+	c #182A40",
"C!+	c #162338",
"D!+	c #0E182B",
"E!+	c #0D1C34",
"F!+	c #0A1932",
"G!+	c #0D1B33",
"H!+	c #0B1629",
"I!+	c #101728",
"J!+	c #0D141F",
"K!+	c #0D131F",
"L!+	c #10131E",
"M!+	c #0E131F",
"N!+	c #101827",
"O!+	c #0D1420",
"P!+	c #0D1223",
"Q!+	c #0D121E",
"R!+	c #0E1525",
"S!+	c #0F192D",
"T!+	c #101B2F",
"U!+	c #121F33",
"V!+	c #181E19",
"W!+	c #171C17",
"X!+	c #181B16",
"Y!+	c #191A19",
"Z!+	c #171B16",
"`!+	c #181C17",
" ~+	c #192019",
".~+	c #191E1A",
"+~+	c #1B1D1A",
"@~+	c #1C1F1B",
"#~+	c #1A1D19",
"$~+	c #171A15",
"%~+	c #191A17",
"&~+	c #181A16",
"*~+	c #141511",
"=~+	c #121310",
"-~+	c #121411",
";~+	c #151512",
">~+	c #191B18",
",~+	c #191B17",
"'~+	c #171818",
")~+	c #121415",
"!~+	c #1B1F1B",
"~~+	c #1B221B",
"{~+	c #1B231E",
"]~+	c #19211A",
"^~+	c #1A221A",
"/~+	c #181F18",
"(~+	c #191F1A",
"_~+	c #161C16",
":~+	c #171D18",
"<~+	c #171B1B",
"[~+	c #141916",
"}~+	c #11161A",
"|~+	c #161F1A",
"1~+	c #12181A",
"2~+	c #151C20",
"3~+	c #172023",
"4~+	c #182325",
"5~+	c #243442",
"6~+	c #5E676A",
"7~+	c #81857A",
"8~+	c #8A8B78",
"9~+	c #CBC599",
"0~+	c #C3BD99",
"a~+	c #BDB893",
"b~+	c #C6C19C",
"c~+	c #CCC7A6",
"d~+	c #C8C4A6",
"e~+	c #C8C2A5",
"f~+	c #939075",
"g~+	c #A09C7F",
"h~+	c #A5A389",
"i~+	c #ABAC99",
"j~+	c #999F99",
"k~+	c #636666",
"l~+	c #302F2F",
"m~+	c #242422",
"n~+	c #22221F",
"o~+	c #21201D",
"p~+	c #1A191D",
"q~+	c #242426",
"r~+	c #242325",
"s~+	c #1F1D1E",
"t~+	c #5C5E5B",
"u~+	c #A5A79D",
"v~+	c #BFC0B4",
"w~+	c #989887",
"x~+	c #B4B29B",
"y~+	c #B4B4A1",
"z~+	c #959079",
"A~+	c #CFCAAA",
"B~+	c #DCD7BB",
"C~+	c #DAD5B6",
"D~+	c #DAD6C4",
"E~+	c #C3BFA4",
"F~+	c #A0A08D",
"G~+	c #9F9F87",
"H~+	c #A4A38B",
"I~+	c #B2B097",
"J~+	c #BDBBA4",
"K~+	c #D1CFBF",
"L~+	c #D9D7C5",
"M~+	c #CDCAB4",
"N~+	c #AFB1A6",
"O~+	c #A6A792",
"P~+	c #A1A594",
"Q~+	c #9C9681",
"R~+	c #937B4A",
"S~+	c #95723E",
"T~+	c #967851",
"U~+	c #A4A180",
"V~+	c #A8AB9E",
"W~+	c #A6A99C",
"X~+	c #AAADA1",
"Y~+	c #5F6669",
"Z~+	c #526068",
"`~+	c #36495C",
" {+	c #223649",
".{+	c #0C172A",
"+{+	c #0D1727",
"@{+	c #0C182C",
"#{+	c #0C1D36",
"${+	c #0B1B35",
"%{+	c #091830",
"&{+	c #101722",
"*{+	c #0D121D",
"={+	c #0D1625",
"-{+	c #0F1826",
";{+	c #111929",
">{+	c #0F1D34",
",{+	c #101D32",
"'{+	c #151F30",
"){+	c #1B201C",
"!{+	c #1B211D",
"~{+	c #191D1B",
"{{+	c #1A1E1A",
"]{+	c #191E19",
"^{+	c #1A1E19",
"/{+	c #181B19",
"({+	c #191C1A",
"_{+	c #181B17",
":{+	c #181C18",
"<{+	c #181A1A",
"[{+	c #1C1C1A",
"}{+	c #1B1D19",
"|{+	c #121510",
"1{+	c #161814",
"2{+	c #161714",
"3{+	c #151612",
"4{+	c #141512",
"5{+	c #141311",
"6{+	c #131712",
"7{+	c #151712",
"8{+	c #161913",
"9{+	c #171C16",
"0{+	c #161C15",
"a{+	c #191F18",
"b{+	c #1F271E",
"c{+	c #212C1F",
"d{+	c #1F2B20",
"e{+	c #18201F",
"f{+	c #1A221B",
"g{+	c #19221C",
"h{+	c #1A1D1D",
"i{+	c #1B2121",
"j{+	c #1A2320",
"k{+	c #1A231C",
"l{+	c #15181A",
"m{+	c #11181A",
"n{+	c #141C1C",
"o{+	c #161C22",
"p{+	c #384650",
"q{+	c #6B716D",
"r{+	c #888B7C",
"s{+	c #858571",
"t{+	c #ABAC9C",
"u{+	c #B5B194",
"v{+	c #BCB794",
"w{+	c #C3BE97",
"x{+	c #C1BC94",
"y{+	c #CAC49D",
"z{+	c #CAC49A",
"A{+	c #C6C098",
"B{+	c #C6C09B",
"C{+	c #D0CAA4",
"D{+	c #CCC5A0",
"E{+	c #C9C4A2",
"F{+	c #C6C19E",
"G{+	c #CFC9A4",
"H{+	c #B1AD8F",
"I{+	c #9F9B7B",
"J{+	c #979376",
"K{+	c #B1AF92",
"L{+	c #A5A591",
"M{+	c #BBBCAA",
"N{+	c #B9BBAF",
"O{+	c #767B76",
"P{+	c #393939",
"Q{+	c #252622",
"R{+	c #242423",
"S{+	c #211F1E",
"T{+	c #1F1E22",
"U{+	c #262527",
"V{+	c #252426",
"W{+	c #1E1D1B",
"X{+	c #1C1A1B",
"Y{+	c #6D6F6A",
"Z{+	c #B4B39E",
"`{+	c #AEAD96",
" ]+	c #9B9375",
".]+	c #E0D9BD",
"+]+	c #DED9C2",
"@]+	c #D6D3BD",
"#]+	c #CEC9AB",
"$]+	c #D0CBAF",
"%]+	c #D3D0BA",
"&]+	c #D9D6C1",
"*]+	c #E2DCC5",
"=]+	c #C5C3AE",
"-]+	c #BCB99E",
";]+	c #BCB99D",
">]+	c #AAAD9F",
",]+	c #AEB0A6",
"']+	c #AEB0A5",
")]+	c #ADAB94",
"!]+	c #A3A490",
"~]+	c #9CA193",
"{]+	c #A1A59C",
"]]+	c #999377",
"^]+	c #9D9473",
"/]+	c #A7A790",
"(]+	c #ACAEA3",
"_]+	c #9FA59B",
":]+	c #9DA192",
"<]+	c #9EA291",
"[]+	c #A2A596",
"}]+	c #A1A69A",
"|]+	c #858C86",
"1]+	c #575E63",
"2]+	c #465665",
"3]+	c #1C2F45",
"4]+	c #132239",
"5]+	c #101A2C",
"6]+	c #101B2E",
"7]+	c #121A2B",
"8]+	c #11192B",
"9]+	c #0E1D33",
"0]+	c #0B1A31",
"a]+	c #0C1C35",
"b]+	c #0C1A2F",
"c]+	c #0E1729",
"d]+	c #111825",
"e]+	c #0F101B",
"f]+	c #0D1522",
"g]+	c #0F1524",
"h]+	c #0E1727",
"i]+	c #111627",
"j]+	c #0B1A32",
"k]+	c #172032",
"l]+	c #1B221F",
"m]+	c #191C1C",
"n]+	c #181918",
"o]+	c #191D1A",
"p]+	c #191E1B",
"q]+	c #1B201D",
"r]+	c #191F1B",
"s]+	c #1A211B",
"t]+	c #1A1F1B",
"u]+	c #181818",
"v]+	c #191A1A",
"w]+	c #191B1B",
"x]+	c #151615",
"y]+	c #171815",
"z]+	c #171717",
"A]+	c #171715",
"B]+	c #151513",
"C]+	c #161713",
"D]+	c #141613",
"E]+	c #141713",
"F]+	c #121811",
"G]+	c #121410",
"H]+	c #171714",
"I]+	c #181A18",
"J]+	c #1A1C1A",
"K]+	c #171D17",
"L]+	c #181F19",
"M]+	c #1B221A",
"N]+	c #1C281D",
"O]+	c #1C271D",
"P]+	c #1A231D",
"Q]+	c #18201C",
"R]+	c #19201E",
"S]+	c #191F1C",
"T]+	c #19201C",
"U]+	c #171D1A",
"V]+	c #161D1C",
"W]+	c #1A1F1F",
"X]+	c #1A201E",
"Y]+	c #141D1D",
"Z]+	c #141C1B",
"`]+	c #162020",
" ^+	c #192321",
".^+	c #1A2321",
"+^+	c #192422",
"@^+	c #182122",
"#^+	c #1A2325",
"$^+	c #182525",
"%^+	c #1F2A2C",
"&^+	c #1F2B29",
"*^+	c #19252C",
"=^+	c #48545C",
"-^+	c #727870",
";^+	c #8C8D7B",
">^+	c #878772",
",^+	c #858673",
"'^+	c #999B8E",
")^+	c #A1A596",
"!^+	c #ABAA90",
"~^+	c #B4AF8D",
"{^+	c #C0BB92",
"]^+	c #C4BD98",
"^^+	c #BDB99A",
"/^+	c #B9B598",
"(^+	c #B9B492",
"_^+	c #CBC5A0",
":^+	c #C0BB98",
"<^+	c #B5B08E",
"[^+	c #B9B493",
"}^+	c #C0BA95",
"|^+	c #C2BC95",
"1^+	c #ACA87C",
"2^+	c #ADA77E",
"3^+	c #928E71",
"4^+	c #99967B",
"5^+	c #ACAC98",
"6^+	c #C9CABA",
"7^+	c #525352",
"8^+	c #262626",
"9^+	c #252523",
"0^+	c #20211E",
"a^+	c #2E2E2E",
"b^+	c #373739",
"c^+	c #333336",
"d^+	c #2C2C2E",
"e^+	c #211F22",
"f^+	c #1E1B1C",
"g^+	c #27272B",
"h^+	c #9FA49C",
"i^+	c #BBBDB0",
"j^+	c #A3A390",
"k^+	c #ABAB97",
"l^+	c #B4B39B",
"m^+	c #B1B09A",
"n^+	c #C0BEA4",
"o^+	c #C1BE9F",
"p^+	c #CBC6A6",
"q^+	c #D2CBA8",
"r^+	c #D4CEAB",
"s^+	c #DCD6B9",
"t^+	c #D5CEAB",
"u^+	c #D7CFA2",
"v^+	c #B6B6A2",
"w^+	c #A9A890",
"x^+	c #A3A189",
"y^+	c #A7A895",
"z^+	c #A5A691",
"A^+	c #9FA293",
"B^+	c #A8ACA4",
"C^+	c #B1B3A7",
"D^+	c #B2B4A7",
"E^+	c #A8A99A",
"F^+	c #A2A594",
"G^+	c #939583",
"H^+	c #868A81",
"I^+	c #60686D",
"J^+	c #545C63",
"K^+	c #535C65",
"L^+	c #4F5C67",
"M^+	c #2F4356",
"N^+	c #192B3D",
"O^+	c #162537",
"P^+	c #111D30",
"Q^+	c #111A27",
"R^+	c #101C2F",
"S^+	c #111A2B",
"T^+	c #11192A",
"U^+	c #101E31",
"V^+	c #0C1B31",
"W^+	c #0B1E38",
"X^+	c #0E1A2F",
"Y^+	c #0E1728",
"Z^+	c #11131F",
"`^+	c #10121F",
" /+	c #0D111C",
"./+	c #111722",
"+/+	c #0E1624",
"@/+	c #0D1521",
"#/+	c #0B1933",
"$/+	c #0A1A33",
"%/+	c #131C2D",
"&/+	c #1A1B1B",
"*/+	c #181919",
"=/+	c #19181A",
"-/+	c #191C19",
";/+	c #181516",
">/+	c #161513",
",/+	c #171514",
"'/+	c #131612",
")/+	c #131911",
"!/+	c #131913",
"~/+	c #141712",
"{/+	c #131611",
"]/+	c #171814",
"^/+	c #181D18",
"//+	c #1A1F19",
"(/+	c #141C18",
"_/+	c #18201A",
":/+	c #1B211C",
"</+	c #181D1A",
"[/+	c #1B231C",
"}/+	c #192318",
"|/+	c #1C261A",
"1/+	c #1D261B",
"2/+	c #1A2419",
"3/+	c #19231A",
"4/+	c #161C1C",
"5/+	c #1A211C",
"6/+	c #1A2620",
"7/+	c #1A251E",
"8/+	c #182323",
"9/+	c #1B2425",
"0/+	c #192525",
"a/+	c #1A2425",
"b/+	c #192826",
"c/+	c #1E2D2E",
"d/+	c #1A2D2B",
"e/+	c #1C282C",
"f/+	c #4E575B",
"g/+	c #6A706C",
"h/+	c #82867A",
"i/+	c #8B8D7D",
"j/+	c #808273",
"k/+	c #8F9180",
"l/+	c #999C8C",
"m/+	c #9C9F8D",
"n/+	c #B0AE93",
"o/+	c #A2A38F",
"p/+	c #B4B197",
"q/+	c #B0AE91",
"r/+	c #A5A287",
"s/+	c #A6A388",
"t/+	c #BAB590",
"u/+	c #BBB58C",
"v/+	c #A8A278",
"w/+	c #A59F78",
"x/+	c #8D896F",
"y/+	c #A0A291",
"z/+	c #C8C9BA",
"A/+	c #8B8E86",
"B/+	c #434241",
"C/+	c #3E3F39",
"D/+	c #1E1D1D",
"E/+	c #1C1B1E",
"F/+	c #45494C",
"G/+	c #3E4044",
"H/+	c #808583",
"I/+	c #C6C9C0",
"J/+	c #B1B19F",
"K/+	c #A1A595",
"L/+	c #BBB89C",
"M/+	c #B7B497",
"N/+	c #CAC49F",
"O/+	c #D6CFAB",
"P/+	c #D0C9A4",
"Q/+	c #D4CDA5",
"R/+	c #D7CFA8",
"S/+	c #DCD6BB",
"T/+	c #D0CAA7",
"U/+	c #CCC9B2",
"V/+	c #C5C3AF",
"W/+	c #BEBB9D",
"X/+	c #B1AD90",
"Y/+	c #A7AA9B",
"Z/+	c #BCBDAD",
"`/+	c #B5B6AA",
" (+	c #B4B6A6",
".(+	c #ADAC96",
"+(+	c #969782",
"@(+	c #8B8C7B",
"#(+	c #7E8177",
"$(+	c #757974",
"%(+	c #535C66",
"&(+	c #515A65",
"*(+	c #3C4C5D",
"=(+	c #1C2F42",
"-(+	c #18283A",
";(+	c #152436",
">(+	c #131D2E",
",(+	c #0F1728",
"'(+	c #141F31",
")(+	c #121B29",
"!(+	c #0E192B",
"~(+	c #111D31",
"{(+	c #152135",
"](+	c #0E192C",
"^(+	c #0E1726",
"/(+	c #11131E",
"((+	c #10141F",
"_(+	c #0E1620",
":(+	c #0D1523",
"<(+	c #0D141D",
"[(+	c #0C1628",
"}(+	c #161916",
"|(+	c #161A15",
"1(+	c #171B15",
"2(+	c #141814",
"3(+	c #141B17",
"4(+	c #131A17",
"5(+	c #151C17",
"6(+	c #141B19",
"7(+	c #121A1C",
"8(+	c #141C1E",
"9(+	c #1B251C",
"0(+	c #1F2E1C",
"a(+	c #1C271B",
"b(+	c #1B251B",
"c(+	c #1A2119",
"d(+	c #1A1F17",
"e(+	c #171914",
"f(+	c #161B15",
"g(+	c #161B1B",
"h(+	c #141B1A",
"i(+	c #19231B",
"j(+	c #18221A",
"k(+	c #192219",
"l(+	c #1B2420",
"m(+	c #17201F",
"n(+	c #161F21",
"o(+	c #172123",
"p(+	c #172222",
"q(+	c #182221",
"r(+	c #1A2324",
"s(+	c #182424",
"t(+	c #1A2828",
"u(+	c #1F2C2A",
"v(+	c #1F3027",
"w(+	c #252B2B",
"x(+	c #495457",
"y(+	c #606564",
"z(+	c #82887D",
"A(+	c #898E81",
"B(+	c #8F907D",
"C(+	c #989985",
"D(+	c #9C9D89",
"E(+	c #9B9E8E",
"F(+	c #93988B",
"G(+	c #969C8F",
"H(+	c #A8AA9C",
"I(+	c #9B9E91",
"J(+	c #9EA297",
"K(+	c #A2A497",
"L(+	c #95988A",
"M(+	c #96998A",
"N(+	c #B6B395",
"O(+	c #B2AD8D",
"P(+	c #B3AE8B",
"Q(+	c #B7B290",
"R(+	c #A39D7C",
"S(+	c #A09C7E",
"T(+	c #8E8B73",
"U(+	c #9F9E87",
"V(+	c #A5A48F",
"W(+	c #C8C9BB",
"X(+	c #D2D5CA",
"Y(+	c #84877E",
"Z(+	c #4B4F45",
"`(+	c #4B4C49",
" _+	c #282829",
"._+	c #1C1B1F",
"+_+	c #343431",
"@_+	c #535451",
"#_+	c #515351",
"$_+	c #38383A",
"%_+	c #1C1A1A",
"&_+	c #1B181A",
"*_+	c #4C5155",
"=_+	c #B6B9AF",
"-_+	c #C4C6B9",
";_+	c #BBBAA7",
">_+	c #B3B29C",
",_+	c #A0A495",
"'_+	c #B3B092",
")_+	c #B3B091",
"!_+	c #BAB595",
"~_+	c #C3BE99",
"{_+	c #C9C39E",
"]_+	c #CCC7A5",
"^_+	c #CCC6A4",
"/_+	c #CBC6A2",
"(_+	c #D2CBA7",
"__+	c #CEC9A9",
":_+	c #C5C1A3",
"<_+	c #C8C5AF",
"[_+	c #AEB0A0",
"}_+	c #B1AF93",
"|_+	c #C0BB9B",
"1_+	c #B8B598",
"2_+	c #A0A089",
"3_+	c #989B8C",
"4_+	c #9BA29A",
"5_+	c #9DA39D",
"6_+	c #A1A494",
"7_+	c #B6B6A5",
"8_+	c #BDBEAC",
"9_+	c #B9BAAA",
"0_+	c #878876",
"a_+	c #7C7F74",
"b_+	c #555D65",
"c_+	c #465362",
"d_+	c #152431",
"e_+	c #141F2D",
"f_+	c #131C2C",
"g_+	c #0E1621",
"h_+	c #111E2F",
"i_+	c #131B27",
"j_+	c #111B25",
"k_+	c #0E1A2E",
"l_+	c #0F1727",
"m_+	c #101725",
"n_+	c #0C1526",
"o_+	c #0F1723",
"p_+	c #0F111C",
"q_+	c #10121E",
"r_+	c #0F1521",
"s_+	c #0B111C",
"t_+	c #0D131E",
"u_+	c #0C0F1B",
"v_+	c #0D101B",
"w_+	c #0C1422",
"x_+	c #0C1527",
"y_+	c #111723",
"z_+	c #1A1E20",
"A_+	c #1A191A",
"B_+	c #171917",
"C_+	c #171A18",
"D_+	c #191617",
"E_+	c #121615",
"F_+	c #141A14",
"G_+	c #141611",
"H_+	c #121813",
"I_+	c #151C15",
"J_+	c #131A19",
"K_+	c #18211D",
"L_+	c #1B271C",
"M_+	c #172217",
"N_+	c #192418",
"O_+	c #1A261B",
"P_+	c #151311",
"Q_+	c #161914",
"R_+	c #121919",
"S_+	c #151E17",
"T_+	c #182318",
"U_+	c #1A251B",
"V_+	c #17201B",
"W_+	c #1A2523",
"X_+	c #172221",
"Y_+	c #182423",
"Z_+	c #192323",
"`_+	c #182523",
" :+	c #1A2625",
".:+	c #1A2824",
"+:+	c #1A2A26",
"@:+	c #1B2828",
"#:+	c #1B2B27",
"$:+	c #1A2B28",
"%:+	c #1C2F28",
"&:+	c #1D3029",
"*:+	c #1F2C26",
"=:+	c #1E2621",
"-:+	c #40484B",
";:+	c #7D8278",
">:+	c #8D9285",
",:+	c #9B9B84",
"':+	c #99987F",
"):+	c #878A7A",
"!:+	c #8A8F88",
"~:+	c #93988D",
"{:+	c #8F958D",
"]:+	c #878F8C",
"^:+	c #8B918C",
"/:+	c #8E9286",
"(:+	c #8D9184",
"_:+	c #898C81",
"::+	c #8D9085",
"<:+	c #9FA190",
"[:+	c #A5A796",
"}:+	c #B1AD8E",
"|:+	c #9D997D",
"1:+	c #8E8B74",
"2:+	c #969784",
"3:+	c #A9A791",
"4:+	c #9C9A81",
"5:+	c #C2C2B0",
"6:+	c #9A9A8D",
"7:+	c #585955",
"8:+	c #2E2E32",
"9:+	c #1E1D20",
"0:+	c #50504A",
"a:+	c #5D5E58",
"b:+	c #565751",
"c:+	c #5C5D59",
"d:+	c #272526",
"e:+	c #A7AA9F",
"f:+	c #C6C7B9",
"g:+	c #BEBDA8",
"h:+	c #B8B69D",
"i:+	c #AFAE99",
"j:+	c #9A9C8B",
"k:+	c #A7A795",
"l:+	c #C1BEA5",
"m:+	c #B7B397",
"n:+	c #AEAC90",
"o:+	c #ACAA91",
"p:+	c #A7A58A",
"q:+	c #A8A791",
"r:+	c #B2B198",
"s:+	c #B9B79D",
"t:+	c #BBB799",
"u:+	c #C3BFA2",
"v:+	c #CAC5A6",
"w:+	c #C5C0A0",
"x:+	c #C0BC9A",
"y:+	c #C1BD99",
"z:+	c #B4B29A",
"A:+	c #B2B094",
"B:+	c #C1BD9F",
"C:+	c #C9C4A4",
"D:+	c #9B9C86",
"E:+	c #9DA297",
"F:+	c #9DA299",
"G:+	c #B1B2A0",
"H:+	c #BEBFAC",
"I:+	c #BEC0AE",
"J:+	c #B9BAA6",
"K:+	c #868878",
"L:+	c #7C7D71",
"M:+	c #6C706C",
"N:+	c #575F63",
"O:+	c #4E5A64",
"P:+	c #374758",
"Q:+	c #1B2B38",
"R:+	c #15252F",
"S:+	c #142029",
"T:+	c #0F1822",
"U:+	c #0F1720",
"V:+	c #141D28",
"W:+	c #131E2A",
"X:+	c #0F1823",
"Y:+	c #111E2B",
"Z:+	c #0D1624",
"`:+	c #0F1726",
" <+	c #121727",
".<+	c #0E121D",
"+<+	c #0C101A",
"@<+	c #0E131D",
"#<+	c #0E101B",
"$<+	c #0B0F1B",
"%<+	c #0C101B",
"&<+	c #0B1426",
"*<+	c #0E172C",
"=<+	c #171716",
"-<+	c #161715",
";<+	c #171614",
"><+	c #151717",
",<+	c #181915",
"'<+	c #121614",
")<+	c #151B15",
"!<+	c #161A14",
"~<+	c #111415",
"{<+	c #111614",
"]<+	c #131816",
"^<+	c #161C17",
"/<+	c #182116",
"(<+	c #1A2518",
"_<+	c #1A2519",
":<+	c #151411",
"<<+	c #161616",
"[<+	c #131716",
"}<+	c #151C1A",
"|<+	c #19241C",
"1<+	c #151D1A",
"2<+	c #1A241D",
"3<+	c #151E1D",
"4<+	c #192322",
"5<+	c #16201F",
"6<+	c #182321",
"7<+	c #192727",
"8<+	c #192A27",
"9<+	c #22312A",
"0<+	c #20302B",
"a<+	c #24312C",
"b<+	c #24372B",
"c<+	c #21302B",
"d<+	c #23302B",
"e<+	c #1D3027",
"f<+	c #1C2E28",
"g<+	c #1D2721",
"h<+	c #1F2721",
"i<+	c #303D38",
"j<+	c #767C77",
"k<+	c #83887F",
"l<+	c #989A87",
"m<+	c #9A9C88",
"n<+	c #747870",
"o<+	c #808379",
"p<+	c #777A73",
"q<+	c #757872",
"r<+	c #6C6F69",
"s<+	c #646763",
"t<+	c #788083",
"u<+	c #7D8689",
"v<+	c #788288",
"w<+	c #7A7E7A",
"x<+	c #7D827D",
"y<+	c #868A7F",
"z<+	c #989986",
"A<+	c #ACAC9B",
"B<+	c #B5B4A1",
"C<+	c #ADAC95",
"D<+	c #96957F",
"E<+	c #888877",
"F<+	c #9B9A86",
"G<+	c #9D9B83",
"H<+	c #CED0C5",
"I<+	c #B9BBAE",
"J<+	c #4F4E4C",
"K<+	c #39393E",
"L<+	c #29292B",
"M<+	c #232326",
"N<+	c #4E4E43",
"O<+	c #757569",
"P<+	c #555755",
"Q<+	c #2C2B2E",
"R<+	c #90938C",
"S<+	c #BDC0B4",
"T<+	c #BEBCA7",
"U<+	c #909386",
"V<+	c #9C9D8C",
"W<+	c #A2A392",
"X<+	c #AFAF9D",
"Y<+	c #989988",
"Z<+	c #979987",
"`<+	c #949687",
" [+	c #8E907F",
".[+	c #8D9084",
"+[+	c #91968B",
"@[+	c #93998F",
"#[+	c #959B95",
"$[+	c #959B94",
"%[+	c #A0A499",
"&[+	c #ACAD98",
"*[+	c #B3B19A",
"=[+	c #B9B79B",
"-[+	c #C0BC9D",
";[+	c #C3BF9E",
">[+	c #B4B194",
",[+	c #ABA98F",
"'[+	c #A6A58D",
")[+	c #B5B297",
"![+	c #CAC6A8",
"~[+	c #9A9D8B",
"{[+	c #9CA399",
"][+	c #9DA191",
"^[+	c #B5B49D",
"/[+	c #AAAA94",
"([+	c #77796F",
"_[+	c #6F726D",
":[+	c #576064",
"<[+	c #556066",
"[[+	c #374859",
"}[+	c #1F3243",
"|[+	c #192A2C",
"1[+	c #15242E",
"2[+	c #18262B",
"3[+	c #10181F",
"4[+	c #111A24",
"5[+	c #101B28",
"6[+	c #121B25",
"7[+	c #121B26",
"8[+	c #131D26",
"9[+	c #121C27",
"0[+	c #121824",
"a[+	c #111B26",
"b[+	c #0E141E",
"c[+	c #0B121D",
"d[+	c #0A101B",
"e[+	c #0E131E",
"f[+	c #0D0F1B",
"g[+	c #090F1C",
"h[+	c #0C1626",
"i[+	c #0C1629",
"j[+	c #151515",
"k[+	c #11120F",
"l[+	c #141411",
"m[+	c #151412",
"n[+	c #101412",
"o[+	c #141913",
"p[+	c #151A13",
"q[+	c #141813",
"r[+	c #182017",
"s[+	c #192119",
"t[+	c #181F17",
"u[+	c #151B13",
"v[+	c #172018",
"w[+	c #182218",
"x[+	c #181815",
"y[+	c #171915",
"z[+	c #141812",
"A[+	c #192118",
"B[+	c #1E2C1F",
"C[+	c #1E2923",
"D[+	c #18211B",
"E[+	c #121A1B",
"F[+	c #171F1B",
"G[+	c #182422",
"H[+	c #1B2525",
"I[+	c #1B2728",
"J[+	c #1C2D2A",
"K[+	c #1C2B2A",
"L[+	c #1A2B27",
"M[+	c #1E2E26",
"N[+	c #1B2625",
"O[+	c #1C261F",
"P[+	c #1D271F",
"Q[+	c #222F25",
"R[+	c #515757",
"S[+	c #6D726E",
"T[+	c #808883",
"U[+	c #898D7F",
"V[+	c #8C9084",
"W[+	c #767972",
"X[+	c #707269",
"Y[+	c #6A6C64",
"Z[+	c #636561",
"`[+	c #6A6D67",
" }+	c #71756F",
".}+	c #787B73",
"+}+	c #73756C",
"@}+	c #737469",
"#}+	c #76785F",
"$}+	c #8B8D7A",
"%}+	c #B1B2A2",
"&}+	c #AEB0A1",
"*}+	c #A3A596",
"=}+	c #A1A18C",
"-}+	c #A19E84",
";}+	c #B9B8A2",
">}+	c #555453",
",}+	c #444343",
"'}+	c #3C3E42",
")}+	c #2C2C30",
"!}+	c #1D1C1F",
"~}+	c #40413B",
"{}+	c #555651",
"]}+	c #555757",
"^}+	c #4B4C4D",
"/}+	c #38383B",
"(}+	c #37393F",
"_}+	c #868980",
":}+	c #C0BEA9",
"<}+	c #ACAC96",
"[}+	c #929587",
"}}+	c #919385",
"|}+	c #979988",
"1}+	c #999A88",
"2}+	c #909282",
"3}+	c #8C8E7F",
"4}+	c #8C8D7D",
"5}+	c #84867A",
"6}+	c #818277",
"7}+	c #828579",
"8}+	c #878B82",
"9}+	c #888C82",
"0}+	c #878D88",
"a}+	c #8E9387",
"b}+	c #999D8F",
"c}+	c #ABAD9D",
"d}+	c #B4B4A0",
"e}+	c #BBB89E",
"f}+	c #B5B396",
"g}+	c #CBC7AA",
"h}+	c #A3A491",
"i}+	c #989C8D",
"j}+	c #9BA299",
"k}+	c #979986",
"l}+	c #828577",
"m}+	c #77796D",
"n}+	c #646865",
"o}+	c #586165",
"p}+	c #4A5863",
"q}+	c #283C4D",
"r}+	c #172532",
"s}+	c #16222B",
"t}+	c #152429",
"u}+	c #142027",
"v}+	c #151F29",
"w}+	c #141F28",
"x}+	c #131C24",
"y}+	c #131B26",
"z}+	c #141E27",
"A}+	c #141E2B",
"B}+	c #121520",
"C}+	c #0F1724",
"D}+	c #0B0F1C",
"E}+	c #0A101C",
"F}+	c #0A0F1A",
"G}+	c #0C121B",
"H}+	c #0E192A",
"I}+	c #0E131C",
"J}+	c #131114",
"K}+	c #131012",
"L}+	c #11100F",
"M}+	c #120F10",
"N}+	c #131211",
"O}+	c #131511",
"P}+	c #151A14",
"Q}+	c #1D231C",
"R}+	c #181C15",
"S}+	c #172017",
"T}+	c #161A16",
"U}+	c #181A15",
"V}+	c #191B16",
"W}+	c #1A1D1A",
"X}+	c #181F1D",
"Y}+	c #12191C",
"Z}+	c #131A1A",
"`}+	c #19211E",
" |+	c #1A2420",
".|+	c #1B2421",
"+|+	c #1A2524",
"@|+	c #192828",
"#|+	c #1A2928",
"$|+	c #1D2D28",
"%|+	c #1A3024",
"&|+	c #1C2A24",
"*|+	c #212A23",
"=|+	c #202720",
"-|+	c #1E2A1E",
";|+	c #36433E",
">|+	c #606462",
",|+	c #7C8279",
"'|+	c #8D8F7F",
")|+	c #949787",
"!|+	c #919485",
"~|+	c #858679",
"{|+	c #75766A",
"]|+	c #7C7C70",
"^|+	c #7B7C71",
"/|+	c #6D6F66",
"(|+	c #68695F",
"_|+	c #6F7169",
":|+	c #696B63",
"<|+	c #686962",
"[|+	c #767669",
"}|+	c #61625A",
"||+	c #666A4C",
"1|+	c #6B7150",
"2|+	c #888E88",
"3|+	c #8E938C",
"4|+	c #929381",
"5|+	c #B6B49C",
"6|+	c #A8A58B",
"7|+	c #9D9D8D",
"8|+	c #424041",
"9|+	c #4C4B4A",
"0|+	c #535556",
"a|+	c #3F4045",
"b|+	c #2F2F34",
"c|+	c #373735",
"d|+	c #7D7E71",
"e|+	c #575755",
"f|+	c #4C4C4D",
"g|+	c #4E5050",
"h|+	c #555858",
"i|+	c #48494B",
"j|+	c #4C4E4E",
"k|+	c #3C3E45",
"l|+	c #39383E",
"m|+	c #B7B9AB",
"n|+	c #A6A692",
"o|+	c #A09F8B",
"p|+	c #9F9F89",
"q|+	c #949584",
"r|+	c #929281",
"s|+	c #8C8C77",
"t|+	c #92927F",
"u|+	c #8F8F7C",
"v|+	c #7A7A64",
"w|+	c #717063",
"x|+	c #6A685D",
"y|+	c #6F716B",
"z|+	c #72736A",
"A|+	c #767870",
"B|+	c #888B7F",
"C|+	c #91968A",
"D|+	c #9A9D8F",
"E|+	c #939687",
"F|+	c #979A8C",
"G|+	c #9C9F8F",
"H|+	c #A4A692",
"I|+	c #B8B69F",
"J|+	c #C2BFA1",
"K|+	c #B3B194",
"L|+	c #BBB89B",
"M|+	c #9DA08E",
"N|+	c #989D8E",
"O|+	c #A8AA9A",
"P|+	c #ACAFA5",
"Q|+	c #606461",
"R|+	c #55595A",
"S|+	c #3A4957",
"T|+	c #192A3C",
"U|+	c #15232C",
"V|+	c #15222A",
"W|+	c #152022",
"X|+	c #141E21",
"Y|+	c #162227",
"Z|+	c #141C23",
"`|+	c #172225",
" 1+	c #152025",
".1+	c #121A23",
"+1+	c #121925",
"@1+	c #111A26",
"#1+	c #131B2B",
"$1+	c #0F1622",
"%1+	c #11121E",
"&1+	c #0F1620",
"*1+	c #0D1520",
"=1+	c #0C111D",
"-1+	c #080E19",
";1+	c #0A101A",
">1+	c #0C111C",
",1+	c #0F1824",
"'1+	c #111A28",
")1+	c #121B28",
"!1+	c #0E1623",
"~1+	c #121013",
"{1+	c #151912",
"]1+	c #181E17",
"^1+	c #181D16",
"/1+	c #171D16",
"(1+	c #151812",
"_1+	c #18221F",
":1+	c #17211E",
"<1+	c #13191A",
"[1+	c #161D18",
"}1+	c #1A251D",
"|1+	c #1A221F",
"11+	c #192824",
"21+	c #1A2C27",
"31+	c #192722",
"41+	c #192522",
"51+	c #192623",
"61+	c #1B2825",
"71+	c #213127",
"81+	c #213428",
"91+	c #223528",
"01+	c #1C3228",
"a1+	c #193024",
"b1+	c #1E2620",
"c1+	c #1E2820",
"d1+	c #1D241C",
"e1+	c #1B231D",
"f1+	c #273129",
"g1+	c #49514F",
"h1+	c #717A7C",
"i1+	c #878E88",
"j1+	c #8C8E81",
"k1+	c #7F7F6C",
"l1+	c #7A7966",
"m1+	c #7F7F72",
"n1+	c #7A7B71",
"o1+	c #74766D",
"p1+	c #686961",
"q1+	c #66655C",
"r1+	c #64635B",
"s1+	c #68685E",
"t1+	c #6A6A60",
"u1+	c #4F504B",
"v1+	c #43433D",
"w1+	c #5D5C4E",
"x1+	c #6C6F5F",
"y1+	c #757B7E",
"z1+	c #7B8184",
"A1+	c #858C89",
"B1+	c #91958B",
"C1+	c #979887",
"D1+	c #BEBB9B",
"E1+	c #3F3C3D",
"F1+	c #525351",
"G1+	c #494B44",
"H1+	c #424044",
"I1+	c #333337",
"J1+	c #272729",
"K1+	c #373637",
"L1+	c #7C7E72",
"M1+	c #62635D",
"N1+	c #4C4C4C",
"O1+	c #505354",
"P1+	c #49484A",
"Q1+	c #3A3940",
"R1+	c #B6B7A7",
"S1+	c #B2B19C",
"T1+	c #A1A189",
"U1+	c #9D9D86",
"V1+	c #A5A38B",
"W1+	c #7C7D70",
"X1+	c #605F52",
"Y1+	c #68685C",
"Z1+	c #69685D",
"`1+	c #625F55",
" 2+	c #706F66",
".2+	c #797C77",
"+2+	c #747771",
"@2+	c #76786F",
"#2+	c #7C7E77",
"$2+	c #7C8076",
"%2+	c #80837A",
"&2+	c #91958A",
"*2+	c #B4B49E",
"=2+	c #B9B79A",
"-2+	c #B5B397",
";2+	c #B8B79F",
">2+	c #A9AA96",
",2+	c #9BA091",
"'2+	c #A4A797",
")2+	c #929484",
"!2+	c #73756D",
"~2+	c #5F6463",
"{2+	c #122030",
"]2+	c #141E29",
"^2+	c #15212C",
"/2+	c #121A20",
"(2+	c #162025",
"_2+	c #141D23",
":2+	c #101721",
"<2+	c #101620",
"[2+	c #0E1522",
"}2+	c #10121D",
"|2+	c #0F131E",
"12+	c #151D28",
"22+	c #11161D",
"32+	c #11171E",
"42+	c #111B24",
"52+	c #0E1823",
"62+	c #0E141F",
"72+	c #0D151F",
"82+	c #0E1721",
"92+	c #0F1927",
"02+	c #101928",
"a2+	c #0D1621",
"b2+	c #0B131E",
"c2+	c #202621",
"d2+	c #191E17",
"e2+	c #131214",
"f2+	c #131410",
"g2+	c #161811",
"h2+	c #171D15",
"i2+	c #151611",
"j2+	c #161712",
"k2+	c #182118",
"l2+	c #161813",
"m2+	c #151511",
"n2+	c #161612",
"o2+	c #171713",
"p2+	c #1C281E",
"q2+	c #141C19",
"r2+	c #151D16",
"s2+	c #182319",
"t2+	c #17211A",
"u2+	c #1B281C",
"v2+	c #1B271B",
"w2+	c #18201D",
"x2+	c #172021",
"y2+	c #192A23",
"z2+	c #182922",
"A2+	c #192721",
"B2+	c #19281F",
"C2+	c #172F26",
"D2+	c #182E25",
"E2+	c #1A2E25",
"F2+	c #28362C",
"G2+	c #243A2C",
"H2+	c #213728",
"I2+	c #1A3028",
"J2+	c #1B2E25",
"K2+	c #1C231C",
"L2+	c #212922",
"M2+	c #3D4643",
"N2+	c #6D736E",
"O2+	c #8B9087",
"P2+	c #94988A",
"Q2+	c #878A7C",
"R2+	c #858471",
"S2+	c #707062",
"T2+	c #77766A",
"U2+	c #7D7E72",
"V2+	c #777970",
"W2+	c #747770",
"X2+	c #6B6D66",
"Y2+	c #5F6258",
"Z2+	c #66665B",
"`2+	c #66635A",
" 3+	c #656459",
".3+	c #51524B",
"+3+	c #464840",
"@3+	c #676862",
"#3+	c #797F7C",
"$3+	c #727876",
"%3+	c #808684",
"&3+	c #91978D",
"*3+	c #97998A",
"=3+	c #C4BF9A",
"-3+	c #BBB694",
";3+	c #D2CEB7",
">3+	c #959688",
",3+	c #3C383B",
"'3+	c #535351",
")3+	c #4B4C48",
"!3+	c #444345",
"~3+	c #39383A",
"{3+	c #302F32",
"]3+	c #2A292C",
"^3+	c #383737",
"/3+	c #73756B",
"(3+	c #646561",
"_3+	c #5A5B58",
":3+	c #515252",
"<3+	c #505351",
"[3+	c #505353",
"}3+	c #3F424A",
"|3+	c #B7B7A4",
"13+	c #B1AF95",
"23+	c #A1A28D",
"33+	c #A5A58E",
"43+	c #808276",
"53+	c #79796E",
"63+	c #737465",
"73+	c #535147",
"83+	c #454340",
"93+	c #62625B",
"03+	c #615E58",
"a3+	c #6D6E69",
"b3+	c #80847E",
"c3+	c #737670",
"d3+	c #787B74",
"e3+	c #797D78",
"f3+	c #767973",
"g3+	c #81857E",
"h3+	c #90948A",
"i3+	c #9A9D8C",
"j3+	c #B1B19A",
"k3+	c #AFAC8F",
"l3+	c #B0AF96",
"m3+	c #B6B49A",
"n3+	c #A6A793",
"o3+	c #A5A694",
"p3+	c #979B8C",
"q3+	c #959786",
"r3+	c #959787",
"s3+	c #989A89",
"t3+	c #929382",
"u3+	c #6A6D6A",
"v3+	c #172739",
"w3+	c #152432",
"x3+	c #141F24",
"y3+	c #151F26",
"z3+	c #121A22",
"A3+	c #121A24",
"B3+	c #10131D",
"C3+	c #111B27",
"D3+	c #131B25",
"E3+	c #10141D",
"F3+	c #12181D",
"G3+	c #121C23",
"H3+	c #0E1825",
"I3+	c #111A25",
"J3+	c #0F1722",
"K3+	c #101823",
"L3+	c #101923",
"M3+	c #0E1722",
"N3+	c #121C26",
"O3+	c #131C28",
"P3+	c #0F1827",
"Q3+	c #131D2A",
"R3+	c #0C1520",
"S3+	c #0C141E",
"T3+	c #0E151F",
"U3+	c #181B18",
"V3+	c #191B1A",
"W3+	c #1A1C19",
"X3+	c #131819",
"Y3+	c #151616",
"Z3+	c #151713",
"`3+	c #131411",
" 4+	c #11110E",
".4+	c #13130F",
"+4+	c #171A13",
"@4+	c #181914",
"#4+	c #151811",
"$4+	c #161911",
"%4+	c #141510",
"&4+	c #182217",
"*4+	c #181E16",
"=4+	c #181D1C",
"-4+	c #151D19",
";4+	c #18221C",
">4+	c #1D291F",
",4+	c #1A271D",
"'4+	c #202A22",
")4+	c #1B251F",
"!4+	c #1A2520",
"~4+	c #1C2923",
"{4+	c #1A2924",
"]4+	c #172A23",
"^4+	c #182920",
"/4+	c #18291E",
"(4+	c #182A23",
"_4+	c #172E26",
":4+	c #173026",
"<4+	c #172F28",
"[4+	c #192B26",
"}4+	c #1A2422",
"|4+	c #1C241E",
"14+	c #1E261F",
"24+	c #303B34",
"34+	c #666C67",
"44+	c #81867B",
"54+	c #8A8D80",
"64+	c #868775",
"74+	c #7C7C64",
"84+	c #767761",
"94+	c #757567",
"04+	c #7A7D73",
"a4+	c #777A75",
"b4+	c #707268",
"c4+	c #6D6D61",
"d4+	c #787866",
"e4+	c #7B7966",
"f4+	c #6C6C60",
"g4+	c #5A5C54",
"h4+	c #4C4E4C",
"i4+	c #494946",
"j4+	c #585750",
"k4+	c #999E94",
"l4+	c #939688",
"m4+	c #B9B592",
"n4+	c #8D8C7D",
"o4+	c #3E3E3C",
"p4+	c #585A59",
"q4+	c #4A4B49",
"r4+	c #39393B",
"s4+	c #343335",
"t4+	c #343337",
"u4+	c #3D3B3D",
"v4+	c #4B4D47",
"w4+	c #6C6C63",
"x4+	c #656560",
"y4+	c #626562",
"z4+	c #545656",
"A4+	c #525658",
"B4+	c #46474A",
"C4+	c #515150",
"D4+	c #BCBCAB",
"E4+	c #A8A894",
"F4+	c #A3A592",
"G4+	c #9FA292",
"H4+	c #6F726E",
"I4+	c #75766E",
"J4+	c #676853",
"K4+	c #5C5C4E",
"L4+	c #3D3E3A",
"M4+	c #525350",
"N4+	c #767871",
"O4+	c #747772",
"P4+	c #70736E",
"Q4+	c #6D706D",
"R4+	c #777971",
"S4+	c #838780",
"T4+	c #84877C",
"U4+	c #7E8179",
"V4+	c #82857C",
"W4+	c #A0A290",
"X4+	c #A9A995",
"Y4+	c #969885",
"Z4+	c #989A8A",
"`4+	c #989A86",
" 5+	c #777A71",
".5+	c #656A67",
"+5+	c #5A5F5F",
"@5+	c #595F62",
"#5+	c #515C65",
"$5+	c #2B3D4E",
"%5+	c #152537",
"&5+	c #142532",
"*5+	c #16242C",
"=5+	c #151E25",
"-5+	c #162127",
";5+	c #162026",
">5+	c #0D1623",
",5+	c #101621",
"'5+	c #141B23",
")5+	c #13151E",
"!5+	c #0F1926",
"~5+	c #101925",
"{5+	c #151F25",
"]5+	c #141D29",
"^5+	c #0F1924",
"/5+	c #101A24",
"(5+	c #0E1824",
"_5+	c #0D1723",
":5+	c #0E1826",
"<5+	c #121C25",
"[5+	c #0E1927",
"}5+	c #0F1A28",
"|5+	c #0F1B26",
"15+	c #0D1622",
"25+	c #161A17",
"35+	c #1D221D",
"45+	c #192018",
"55+	c #151112",
"65+	c #1A1D18",
"75+	c #171A14",
"85+	c #161812",
"95+	c #161B12",
"05+	c #171C14",
"a5+	c #161D14",
"b5+	c #191F17",
"c5+	c #131715",
"d5+	c #19241B",
"e5+	c #191E1C",
"f5+	c #191F20",
"g5+	c #191E1D",
"h5+	c #151C19",
"i5+	c #1B271E",
"j5+	c #1B271D",
"k5+	c #1A2220",
"l5+	c #1B2521",
"m5+	c #1B2822",
"n5+	c #1A2622",
"o5+	c #18251E",
"p5+	c #19251D",
"q5+	c #192725",
"r5+	c #182121",
"s5+	c #1A2424",
"t5+	c #1B2524",
"u5+	c #1A231B",
"v5+	c #1C231B",
"w5+	c #1F251F",
"x5+	c #283529",
"y5+	c #565F5D",
"z5+	c #777D77",
"A5+	c #909489",
"B5+	c #909383",
"C5+	c #898C7C",
"D5+	c #818069",
"E5+	c #737759",
"F5+	c #7C7B69",
"G5+	c #7F8378",
"H5+	c #7B7E76",
"I5+	c #7F7E6F",
"J5+	c #848371",
"K5+	c #8A8874",
"L5+	c #85836F",
"M5+	c #5B5E5C",
"N5+	c #50534D",
"O5+	c #5C5B55",
"P5+	c #6F7065",
"Q5+	c #82867E",
"R5+	c #A1A69C",
"S5+	c #BDB997",
"T5+	c #C1BC96",
"U5+	c #CFCAA8",
"V5+	c #68675A",
"W5+	c #4A4B48",
"X5+	c #545655",
"Y5+	c #525452",
"Z5+	c #3E3E42",
"`5+	c #4B4A4A",
" 6+	c #74766C",
".6+	c #6B6B62",
"+6+	c #676864",
"@6+	c #606361",
"#6+	c #5F6362",
"$6+	c #595B5A",
"%6+	c #505355",
"&6+	c #49494B",
"*6+	c #C0BB9E",
"=6+	c #9EA293",
"-6+	c #A29F84",
";6+	c #7D7F74",
">6+	c #717061",
",6+	c #6C6A61",
"'6+	c #616058",
")6+	c #6D6D63",
"!6+	c #6C6E67",
"~6+	c #70726A",
"{6+	c #7B7D73",
"]6+	c #787B70",
"^6+	c #74756B",
"/6+	c #75766C",
"(6+	c #7A7C70",
"_6+	c #7F8177",
":6+	c #898C83",
"<6+	c #797A71",
"[6+	c #939483",
"}6+	c #A9AA94",
"|6+	c #ACAD97",
"16+	c #A0A391",
"26+	c #9E9F8A",
"36+	c #838678",
"46+	c #525554",
"56+	c #525556",
"66+	c #575D5E",
"76+	c #5C6363",
"86+	c #5C6364",
"96+	c #596061",
"06+	c #596162",
"a6+	c #485A65",
"b6+	c #213343",
"c6+	c #162638",
"d6+	c #162634",
"e6+	c #162124",
"f6+	c #141E25",
"g6+	c #18232A",
"h6+	c #121E28",
"i6+	c #152227",
"j6+	c #152026",
"k6+	c #15222D",
"l6+	c #111C28",
"m6+	c #111923",
"n6+	c #10161F",
"o6+	c #0F151F",
"p6+	c #101927",
"q6+	c #121E2D",
"r6+	c #101C2D",
"s6+	c #131D29",
"t6+	c #0E1822",
"u6+	c #0E1725",
"v6+	c #0D1725",
"w6+	c #121C2A",
"x6+	c #101A2A",
"y6+	c #151F2D",
"z6+	c #0F1721",
"A6+	c #0D131B",
"B6+	c #141714",
"C6+	c #161B14",
"D6+	c #191C17",
"E6+	c #191D17",
"F6+	c #1A1E17",
"G6+	c #191D16",
"H6+	c #1D2019",
"I6+	c #191E15",
"J6+	c #1A2018",
"K6+	c #181C16",
"L6+	c #141616",
"M6+	c #1A1A1D",
"N6+	c #1C271E",
"O6+	c #18211C",
"P6+	c #1B281F",
"Q6+	c #1E2A20",
"R6+	c #1D2623",
"S6+	c #182222",
"T6+	c #1A2525",
"U6+	c #192724",
"V6+	c #1C2B26",
"W6+	c #212A27",
"X6+	c #1B261D",
"Y6+	c #1A211A",
"Z6+	c #202C21",
"`6+	c #434C45",
" 7+	c #696F6B",
".7+	c #8B9086",
"+7+	c #9BA090",
"@7+	c #989B8A",
"#7+	c #797B65",
"$7+	c #7C7E6E",
"%7+	c #7F8275",
"&7+	c #858575",
"*7+	c #7F7F6F",
"=7+	c #888773",
"-7+	c #868470",
";7+	c #787769",
">7+	c #6F7066",
",7+	c #646560",
"'7+	c #6E705F",
")7+	c #86897E",
"!7+	c #93968A",
"~7+	c #B6B292",
"{7+	c #BEB991",
"]7+	c #CBC59F",
"^7+	c #636253",
"/7+	c #505150",
"(7+	c #4B4D4C",
"_7+	c #474849",
":7+	c #474548",
"<7+	c #73746A",
"[7+	c #61635D",
"}7+	c #5F6261",
"|7+	c #595D5C",
"17+	c #505352",
"27+	c #47484B",
"37+	c #4E4D4C",
"47+	c #B7B49A",
"57+	c #BEBDAA",
"67+	c #B0B09F",
"77+	c #A6A898",
"87+	c #93937D",
"97+	c #8B8A72",
"07+	c #868570",
"a7+	c #6F6F64",
"b7+	c #797A6D",
"c7+	c #78796C",
"d7+	c #696B64",
"e7+	c #7E837C",
"f7+	c #83877C",
"g7+	c #848677",
"h7+	c #848574",
"i7+	c #7F7E70",
"j7+	c #838576",
"k7+	c #939584",
"l7+	c #A1A492",
"m7+	c #A5A695",
"n7+	c #9C9E8B",
"o7+	c #8D8F7E",
"p7+	c #818479",
"q7+	c #666964",
"r7+	c #4E5150",
"s7+	c #4F524F",
"t7+	c #585B59",
"u7+	c #566065",
"v7+	c #3B4C5C",
"w7+	c #152734",
"x7+	c #182936",
"y7+	c #152525",
"z7+	c #131B1E",
"A7+	c #162126",
"B7+	c #152127",
"C7+	c #15242B",
"D7+	c #13222A",
"E7+	c #121D27",
"F7+	c #121E26",
"G7+	c #13242A",
"H7+	c #14242C",
"I7+	c #10171D",
"J7+	c #0F161C",
"K7+	c #121A1E",
"L7+	c #0F181F",
"M7+	c #121924",
"N7+	c #111A23",
"O7+	c #0F1925",
"P7+	c #101A25",
"Q7+	c #141F26",
"R7+	c #0D151D",
"S7+	c #0C1521",
"T7+	c #17232E",
"U7+	c #121E2A",
"V7+	c #131D27",
"W7+	c #0E161E",
"X7+	c #0C1219",
"Y7+	c #1B1B19",
"Z7+	c #1A1918",
"`7+	c #1C201A",
" 8+	c #1C2419",
".8+	c #1D261C",
"+8+	c #192017",
"@8+	c #191F16",
"#8+	c #171E16",
"$8+	c #192016",
"%8+	c #161C1B",
"&8+	c #171F16",
"*8+	c #191F1E",
"=8+	c #181E1D",
"-8+	c #191D1E",
";8+	c #1B261B",
">8+	c #1B281E",
",8+	c #1C2521",
"'8+	c #192320",
")8+	c #1C2520",
"!8+	c #1F2D24",
"~8+	c #1F2E25",
"{8+	c #212F24",
"]8+	c #253628",
"^8+	c #263A28",
"/8+	c #243327",
"(8+	c #202C25",
"_8+	c #19221B",
":8+	c #1B231B",
"<8+	c #1D251F",
"[8+	c #36403B",
"}8+	c #606763",
"|8+	c #7B8077",
"18+	c #84897D",
"28+	c #919384",
"38+	c #8A8976",
"48+	c #7E7F6E",
"58+	c #838472",
"68+	c #7C7D73",
"78+	c #77786E",
"88+	c #7F7F6A",
"98+	c #84836F",
"08+	c #848271",
"a8+	c #78786A",
"b8+	c #707168",
"c8+	c #6D6F68",
"d8+	c #5F6260",
"e8+	c #6C705A",
"f8+	c #838674",
"g8+	c #999C8E",
"h8+	c #8A8E83",
"i8+	c #D1CAA7",
"j8+	c #706E5D",
"k8+	c #4B4C4B",
"l8+	c #464845",
"m8+	c #5A5C5A",
"n8+	c #7D7F72",
"o8+	c #64655F",
"p8+	c #606260",
"q8+	c #646663",
"r8+	c #505454",
"s8+	c #4B4C4C",
"t8+	c #B0B09C",
"u8+	c #A5A48C",
"v8+	c #9E9F8D",
"w8+	c #94947C",
"x8+	c #90907D",
"y8+	c #848675",
"z8+	c #858674",
"A8+	c #7B7D70",
"B8+	c #6E6F66",
"C8+	c #71736B",
"D8+	c #818A89",
"E8+	c #7B7C6E",
"F8+	c #878674",
"G8+	c #838171",
"H8+	c #A2A28F",
"I8+	c #B0B09A",
"J8+	c #9D9E8C",
"K8+	c #71746E",
"L8+	c #656865",
"M8+	c #5A5E5E",
"N8+	c #4F5251",
"O8+	c #4D504D",
"P8+	c #65675A",
"Q8+	c #5A6262",
"R8+	c #505961",
"S8+	c #15262C",
"T8+	c #172A33",
"U8+	c #152228",
"V8+	c #141C1F",
"W8+	c #162226",
"X8+	c #121F27",
"Y8+	c #15222B",
"Z8+	c #131E28",
"`8+	c #131E29",
" 9+	c #151E27",
".9+	c #131C23",
"+9+	c #152128",
"@9+	c #15232E",
"#9+	c #131D28",
"$9+	c #121D26",
"%9+	c #121F2B",
"&9+	c #121C22",
"*9+	c #0F151D",
"=9+	c #0F131B",
"-9+	c #0E131B",
";9+	c #101820",
">9+	c #0E171F",
",9+	c #121A21",
"'9+	c #131C22",
")9+	c #101922",
"!9+	c #12191F",
"~9+	c #111A22",
"{9+	c #0F1922",
"]9+	c #111B23",
"^9+	c #0F1820",
"/9+	c #10181D",
"(9+	c #0B121A",
"_9+	c #0E141A",
":9+	c #1F261E",
"<9+	c #1C251B",
"[9+	c #1D251C",
"}9+	c #1C251D",
"|9+	c #1C201D",
"19+	c #1B1B1D",
"29+	c #19191B",
"39+	c #1B211A",
"49+	c #182119",
"59+	c #1C211B",
"69+	c #1A1F1A",
"79+	c #1C211A",
"89+	c #1B201A",
"99+	c #1B2019",
"09+	c #1C201B",
"a9+	c #1E261E",
"b9+	c #1D231B",
"c9+	c #1E291B",
"d9+	c #1F2C1C",
"e9+	c #1E271C",
"f9+	c #1C241A",
"g9+	c #1E261C",
"h9+	c #212A1F",
"i9+	c #1D291B",
"j9+	c #1C2719",
"k9+	c #233123",
"l9+	c #212D1F",
"m9+	c #1E291D",
"n9+	c #1D271D",
"o9+	c #1B241B",
"p9+	c #1A221C",
"q9+	c #1D241D",
"r9+	c #1D271E",
"s9+	c #1B241E",
"t9+	c #1C261E",
"u9+	c #151614",
"v9+	c #19231F",
"w9+	c #171E1B",
"x9+	c #181E1C",
"y9+	c #19201D",
"z9+	c #181F1B",
"A9+	c #151D18",
"B9+	c #181E1B",
"C9+	c #1B2522",
"D9+	c #1E2A23",
"E9+	c #1D2621",
"F9+	c #1F2824",
"G9+	c #1E2B23",
"H9+	c #232E26",
"I9+	c #223025",
"J9+	c #212D26",
"K9+	c #1E2925",
"L9+	c #1D2B25",
"M9+	c #1A2724",
"N9+	c #1A2621",
"O9+	c #1D261E",
"P9+	c #272E28",
"Q9+	c #525B58",
"R9+	c #686D67",
"S9+	c #7A7D72",
"T9+	c #A0A493",
"U9+	c #929483",
"V9+	c #8C8B76",
"W9+	c #908F76",
"X9+	c #8E8C75",
"Y9+	c #9D987C",
"Z9+	c #939076",
"`9+	c #8E8A70",
" 0+	c #8F8D74",
".0+	c #686A60",
"+0+	c #7D7F70",
"@0+	c #8F9286",
"#0+	c #969A8A",
"$0+	c #B9B491",
"%0+	c #C9C2A0",
"&0+	c #636354",
"*0+	c #616158",
"=0+	c #434340",
"-0+	c #484848",
";0+	c #4C4D4C",
">0+	c #80806B",
",0+	c #5C5C56",
"'0+	c #5C5F5D",
")0+	c #45494D",
"!0+	c #C4BF9B",
"~0+	c #BDBA9C",
"{0+	c #9E9F8B",
"]0+	c #888A79",
"^0+	c #7E8073",
"/0+	c #818274",
"(0+	c #838376",
"_0+	c #75766D",
":0+	c #828982",
"<0+	c #848B84",
"[0+	c #878B7F",
"}0+	c #94947D",
"|0+	c #97957B",
"10+	c #898873",
"20+	c #828373",
"30+	c #918F77",
"40+	c #A0A191",
"50+	c #A4A594",
"60+	c #919383",
"70+	c #828578",
"80+	c #656864",
"90+	c #626560",
"00+	c #5A5E5D",
"a0+	c #5D6047",
"b0+	c #6A752F",
"c0+	c #646951",
"d0+	c #636765",
"e0+	c #5F6360",
"f0+	c #5B6364",
"g0+	c #414F5E",
"h0+	c #1F3B56",
"i0+	c #173041",
"j0+	c #172930",
"k0+	c #172426",
"l0+	c #152125",
"m0+	c #141F27",
"n0+	c #162024",
"o0+	c #152029",
"p0+	c #15212B",
"q0+	c #0F1821",
"r0+	c #121B23",
"s0+	c #101017",
"t0+	c #121219",
"u0+	c #0D151C",
"v0+	c #0F171F",
"w0+	c #111921",
"x0+	c #121B22",
"y0+	c #0F171E",
"z0+	c #0D151B",
"A0+	c #0B1119",
"B0+	c #1F2B1D",
"C0+	c #212E1F",
"D0+	c #223222",
"E0+	c #212D20",
"F0+	c #202E1E",
"G0+	c #1D281D",
"H0+	c #1E271F",
"I0+	c #1A201C",
"J0+	c #1D231D",
"K0+	c #1E281D",
"L0+	c #1C261B",
"M0+	c #1D291C",
"N0+	c #1C271C",
"O0+	c #20281F",
"P0+	c #1E271B",
"Q0+	c #1F291C",
"R0+	c #1D271A",
"S0+	c #1E281C",
"T0+	c #1C241B",
"U0+	c #1C261C",
"V0+	c #1E271D",
"W0+	c #1F2B1F",
"X0+	c #1A2019",
"Y0+	c #1F281E",
"Z0+	c #1F291D",
"`0+	c #1A241B",
" a+	c #1A241C",
".a+	c #19211C",
"+a+	c #1C2320",
"@a+	c #1F2720",
"#a+	c #141114",
"$a+	c #131512",
"%a+	c #1B2620",
"&a+	c #1E2B1F",
"*a+	c #1C281F",
"=a+	c #1A231E",
"-a+	c #1B241D",
";a+	c #1A231F",
">a+	c #1C241F",
",a+	c #1B2422",
"'a+	c #1B2624",
")a+	c #1A2423",
"!a+	c #1A251F",
"~a+	c #1E2623",
"{a+	c #28332A",
"]a+	c #394842",
"^a+	c #5D6460",
"/a+	c #A7A898",
"(a+	c #A2A087",
"_a+	c #ADA889",
":a+	c #A49F82",
"<a+	c #9E9B82",
"[a+	c #7F8072",
"}a+	c #6B6C64",
"|a+	c #7E8077",
"1a+	c #AAA88F",
"2a+	c #C0BB9D",
"3a+	c #5D5D52",
"4a+	c #585752",
"5a+	c #464545",
"6a+	c #555653",
"7a+	c #7A7B70",
"8a+	c #7A7A6B",
"9a+	c #4D4E4B",
"0a+	c #616563",
"aa+	c #4A4C4C",
"ba+	c #474949",
"ca+	c #43464A",
"da+	c #42454A",
"ea+	c #42454B",
"fa+	c #6A6B62",
"ga+	c #B8B596",
"ha+	c #BFBCA1",
"ia+	c #C3BFA0",
"ja+	c #AEAD94",
"ka+	c #B1AE93",
"la+	c #8C8F80",
"ma+	c #8B8D7E",
"na+	c #9B9C88",
"oa+	c #A39F83",
"pa+	c #949176",
"qa+	c #84877B",
"ra+	c #8D9082",
"sa+	c #A6A286",
"ta+	c #92927D",
"ua+	c #92917A",
"va+	c #848578",
"wa+	c #86897F",
"xa+	c #888B7E",
"ya+	c #87897B",
"za+	c #83867A",
"Aa+	c #85897F",
"Ba+	c #8E9183",
"Ca+	c #8E9082",
"Da+	c #757870",
"Ea+	c #7A7C72",
"Fa+	c #6D716C",
"Ga+	c #656862",
"Ha+	c #5D5E5A",
"Ia+	c #5A6048",
"Ja+	c #697431",
"Ka+	c #787237",
"La+	c #666B52",
"Ma+	c #666864",
"Na+	c #616664",
"Oa+	c #33455A",
"Pa+	c #173A5A",
"Qa+	c #163652",
"Ra+	c #172833",
"Sa+	c #17252E",
"Ta+	c #121D29",
"Ua+	c #121C21",
"Va+	c #141D24",
"Wa+	c #131D24",
"Xa+	c #111A21",
"Ya+	c #131C21",
"Za+	c #0E151B",
"`a+	c #111920",
" b+	c #121B21",
".b+	c #101117",
"+b+	c #111117",
"@b+	c #11131A",
"#b+	c #101921",
"$b+	c #0E161C",
"%b+	c #0E171D",
"&b+	c #0F171C",
"*b+	c #0D141A",
"=b+	c #0E161F",
"-b+	c #0D1721",
";b+	c #0C131A",
">b+	c #10171F",
",b+	c #1F2A1F",
"'b+	c #222D20",
")b+	c #202C22",
"!b+	c #1E291F",
"~b+	c #1F2920",
"{b+	c #202A20",
"]b+	c #202C1E",
"^b+	c #1D221C",
"/b+	c #181A19",
"(b+	c #161818",
"_b+	c #181E1A",
":b+	c #171817",
"<b+	c #1D281C",
"[b+	c #17191A",
"}b+	c #1B2220",
"|b+	c #161919",
"1b+	c #1F2921",
"2b+	c #202E21",
"3b+	c #202D1D",
"4b+	c #223021",
"5b+	c #202D24",
"6b+	c #202A24",
"7b+	c #19211F",
"8b+	c #1E2A25",
"9b+	c #1C2824",
"0b+	c #213025",
"ab+	c #1F2E26",
"bb+	c #1E2D23",
"cb+	c #1F2B24",
"db+	c #1D2821",
"eb+	c #212D24",
"fb+	c #202B22",
"gb+	c #202925",
"hb+	c #232F26",
"ib+	c #2B382B",
"jb+	c #3B4B49",
"kb+	c #595E5C",
"lb+	c #797D74",
"mb+	c #81867D",
"nb+	c #898F88",
"ob+	c #979C92",
"pb+	c #A1A496",
"qb+	c #9A9880",
"rb+	c #8E8F7E",
"sb+	c #949480",
"tb+	c #878879",
"ub+	c #72746D",
"vb+	c #797B72",
"wb+	c #8D9188",
"xb+	c #8B8D80",
"yb+	c #9E9F8C",
"zb+	c #5E5E51",
"Ab+	c #4F4F4F",
"Bb+	c #4E4F4E",
"Cb+	c #454748",
"Db+	c #413E41",
"Eb+	c #67685F",
"Fb+	c #B8B9AB",
"Gb+	c #B1B1A2",
"Hb+	c #545851",
"Ib+	c #4F504F",
"Jb+	c #3E464B",
"Kb+	c #3D4148",
"Lb+	c #373D49",
"Mb+	c #3E4148",
"Nb+	c #7E7E6E",
"Ob+	c #B8B493",
"Pb+	c #CDC8A6",
"Qb+	c #BFBDA5",
"Rb+	c #BAB8A0",
"Sb+	c #939586",
"Tb+	c #838679",
"Ub+	c #A5A184",
"Vb+	c #9D9C84",
"Wb+	c #91927F",
"Xb+	c #8D8E7E",
"Yb+	c #959887",
"Zb+	c #A09D84",
"`b+	c #8E8D77",
" c+	c #7E7D6F",
".c+	c #7F7F71",
"+c+	c #848676",
"@c+	c #838476",
"#c+	c #7B7C73",
"$c+	c #7B8383",
"%c+	c #798386",
"&c+	c #787D7D",
"*c+	c #767A77",
"=c+	c #787C74",
"-c+	c #696D68",
";c+	c #696C69",
">c+	c #656966",
",c+	c #585A58",
"'c+	c #808475",
")c+	c #898874",
"!c+	c #85886F",
"~c+	c #786552",
"{c+	c #6E4D43",
"]c+	c #62524B",
"^c+	c #6A534A",
"/c+	c #68584E",
"(c+	c #76554C",
"_c+	c #774B43",
":c+	c #73423E",
"<c+	c #4E3138",
"[c+	c #1D3A56",
"}c+	c #192E3A",
"|c+	c #13232F",
"1c+	c #131C20",
"2c+	c #11191F",
"3c+	c #141E24",
"4c+	c #0D1419",
"5c+	c #0E151A",
"6c+	c #151F23",
"7c+	c #11121B",
"8c+	c #10111A",
"9c+	c #131B20",
"0c+	c #111A1F",
"ac+	c #131B21",
"bc+	c #0E161D",
"cc+	c #0F161E",
"dc+	c #0F171D",
"ec+	c #0D161F",
"fc+	c #0D1720",
"gc+	c #1C241C",
"hc+	c #1F2D1F",
"ic+	c #223121",
"jc+	c #1E2A1D",
"kc+	c #1D251D",
"lc+	c #222621",
"mc+	c #1E241F",
"nc+	c #191D1D",
"oc+	c #1A2017",
"pc+	c #1C281B",
"qc+	c #202A1E",
"rc+	c #212B20",
"sc+	c #1B251A",
"tc+	c #20291E",
"uc+	c #1F2B1C",
"vc+	c #1A241A",
"wc+	c #1C221B",
"xc+	c #1E2A1B",
"yc+	c #1D281A",
"zc+	c #1C281C",
"Ac+	c #202722",
"Bc+	c #202A21",
"Cc+	c #232E22",
"Dc+	c #1E291E",
"Ec+	c #1C251E",
"Fc+	c #1C2720",
"Gc+	c #1F2C21",
"Hc+	c #1C2421",
"Ic+	c #181B1C",
"Jc+	c #121216",
"Kc+	c #1D211E",
"Lc+	c #222E23",
"Mc+	c #213123",
"Nc+	c #1C2A21",
"Oc+	c #1A2823",
"Pc+	c #1B271F",
"Qc+	c #1D2922",
"Rc+	c #1D2624",
"Sc+	c #1D2723",
"Tc+	c #1B2722",
"Uc+	c #1C2626",
"Vc+	c #1B2622",
"Wc+	c #1C2524",
"Xc+	c #1E2B24",
"Yc+	c #1F3127",
"Zc+	c #1E2E27",
"`c+	c #1F2D26",
" d+	c #1C2A26",
".d+	c #213126",
"+d+	c #223226",
"@d+	c #203025",
"#d+	c #213125",
"$d+	c #202F26",
"%d+	c #202E26",
"&d+	c #1E2826",
"*d+	c #1A2121",
"=d+	c #1D2724",
"-d+	c #1E2A26",
";d+	c #313E33",
">d+	c #3F4C4B",
",d+	c #5D6361",
"'d+	c #6C716D",
")d+	c #747874",
"!d+	c #797F7D",
"~d+	c #75828C",
"{d+	c #818A8C",
"]d+	c #9FA08A",
"^d+	c #93937E",
"/d+	c #818275",
"(d+	c #929280",
"_d+	c #818177",
":d+	c #878678",
"<d+	c #8A8B7E",
"[d+	c #A7A78F",
"}d+	c #BBB492",
"|d+	c #535049",
"1d+	c #4B4847",
"2d+	c #494846",
"3d+	c #414040",
"4d+	c #343439",
"5d+	c #818279",
"6d+	c #C4C3B1",
"7d+	c #A6A695",
"8d+	c #6C6D66",
"9d+	c #696B67",
"0d+	c #666967",
"ad+	c #4A4B4B",
"bd+	c #37383E",
"cd+	c #35353A",
"dd+	c #35383A",
"ed+	c #969582",
"fd+	c #C9C399",
"gd+	c #C5C1A0",
"hd+	c #B6B5A1",
"id+	c #8F9385",
"jd+	c #A09F8A",
"kd+	c #ADAC93",
"ld+	c #AAA88C",
"md+	c #8E8F7F",
"nd+	c #7C7C6F",
"od+	c #999B87",
"pd+	c #949583",
"qd+	c #8E8E7A",
"rd+	c #808072",
"sd+	c #808175",
"td+	c #808172",
"ud+	c #7E8072",
"vd+	c #6B706F",
"wd+	c #727777",
"xd+	c #575B5A",
"yd+	c #575A59",
"zd+	c #5E605B",
"Ad+	c #898E88",
"Bd+	c #8D9492",
"Cd+	c #8E938B",
"Dd+	c #90958D",
"Ed+	c #945844",
"Fd+	c #8C2819",
"Gd+	c #8F2817",
"Hd+	c #8A2919",
"Id+	c #8B2919",
"Jd+	c #85291B",
"Kd+	c #1E2D39",
"Ld+	c #152730",
"Md+	c #13202E",
"Nd+	c #141F21",
"Od+	c #10191F",
"Pd+	c #131E24",
"Qd+	c #162129",
"Rd+	c #121A1D",
"Sd+	c #10171C",
"Td+	c #151E22",
"Ud+	c #131E23",
"Vd+	c #161F24",
"Wd+	c #131D23",
"Xd+	c #0F1219",
"Yd+	c #0F151B",
"Zd+	c #10161B",
"`d+	c #0F171B",
" e+	c #0E161B",
".e+	c #101822",
"+e+	c #111B21",
"@e+	c #152024",
"#e+	c #141919",
"$e+	c #1C261D",
"%e+	c #1E2A1C",
"&e+	c #1D2A1E",
"*e+	c #1D291E",
"=e+	c #1D291D",
"-e+	c #1C221D",
";e+	c #191B1D",
">e+	c #191A1C",
",e+	c #1F261D",
"'e+	c #202B1E",
")e+	c #1F2C1D",
"!e+	c #1F2A1D",
"~e+	c #23301E",
"{e+	c #263521",
"]e+	c #24341F",
"^e+	c #202B1B",
"/e+	c #1A1A15",
"(e+	c #1A1915",
"_e+	c #191C14",
":e+	c #212E1E",
"<e+	c #212F1E",
"[e+	c #212D1D",
"}e+	c #202D1C",
"|e+	c #213020",
"1e+	c #212F1F",
"2e+	c #223120",
"3e+	c #1F2D1E",
"4e+	c #1F2E1F",
"5e+	c #213222",
"6e+	c #213120",
"7e+	c #212D21",
"8e+	c #222C22",
"9e+	c #202822",
"0e+	c #1B231F",
"ae+	c #1A1E1D",
"be+	c #171B18",
"ce+	c #181D19",
"de+	c #1A1D1B",
"ee+	c #191C1D",
"fe+	c #20221F",
"ge+	c #1D211B",
"he+	c #1E241D",
"ie+	c #1D2920",
"je+	c #1F2E24",
"ke+	c #1F2A23",
"le+	c #1D2A22",
"me+	c #192625",
"ne+	c #1B2523",
"oe+	c #1E2722",
"pe+	c #213227",
"qe+	c #212F25",
"re+	c #203026",
"se+	c #233127",
"te+	c #223127",
"ue+	c #233327",
"ve+	c #1E3126",
"we+	c #1C2726",
"xe+	c #1C2424",
"ye+	c #1D2628",
"ze+	c #25302C",
"Ae+	c #324038",
"Be+	c #3B4C4A",
"Ce+	c #4F585A",
"De+	c #6E7370",
"Ee+	c #7C8385",
"Fe+	c #778186",
"Ge+	c #868675",
"He+	c #82847A",
"Ie+	c #818276",
"Je+	c #8B7560",
"Ke+	c #9F543D",
"Le+	c #BF6041",
"Me+	c #C56A4E",
"Ne+	c #CA6B52",
"Oe+	c #C47055",
"Pe+	c #C66648",
"Qe+	c #C86141",
"Re+	c #B95339",
"Se+	c #AC4129",
"Te+	c #784F43",
"Ue+	c #444143",
"Ve+	c #302E31",
"We+	c #9DA096",
"Xe+	c #C3C4B3",
"Ye+	c #BEBBA0",
"Ze+	c #A3A085",
"`e+	c #575956",
" f+	c #434244",
".f+	c #282629",
"+f+	c #9EA19A",
"@f+	c #C4C2A9",
"#f+	c #AFAF9A",
"$f+	c #B3B195",
"%f+	c #7F7D6F",
"&f+	c #9A9A87",
"*f+	c #9D9E8B",
"=f+	c #ABAB96",
"-f+	c #949686",
";f+	c #858676",
">f+	c #7D8076",
",f+	c #75776D",
"'f+	c #797B74",
")f+	c #7B807C",
"!f+	c #717A7E",
"~f+	c #6F7372",
"{f+	c #4D5050",
"]f+	c #8F938B",
"^f+	c #95998D",
"/f+	c #924C38",
"(f+	c #8A291A",
"_f+	c #89291A",
":f+	c #952815",
"<f+	c #1D2933",
"[f+	c #152632",
"}f+	c #12212A",
"|f+	c #101B27",
"1f+	c #152229",
"2f+	c #141E20",
"3f+	c #0E151D",
"4f+	c #151E23",
"5f+	c #141D21",
"6f+	c #131B1F",
"7f+	c #10181C",
"8f+	c #121B20",
"9f+	c #151E24",
"0f+	c #131E27",
"af+	c #111318",
"bf+	c #101419",
"cf+	c #111317",
"df+	c #10181B",
"ef+	c #0F1419",
"ff+	c #11141A",
"gf+	c #0E141B",
"hf+	c #121921",
"if+	c #0E141C",
"jf+	c #111820",
"kf+	c #0F161B",
"lf+	c #131A20",
"mf+	c #1E291C",
"nf+	c #1C251C",
"of+	c #1F2A20",
"pf+	c #1D271B",
"qf+	c #202D1E",
"rf+	c #212E20",
"sf+	c #212F20",
"tf+	c #253522",
"uf+	c #263821",
"vf+	c #273721",
"wf+	c #263522",
"xf+	c #232C20",
"yf+	c #20291D",
"zf+	c #232D1E",
"Af+	c #253421",
"Bf+	c #222C1F",
"Cf+	c #222E1E",
"Df+	c #202C1D",
"Ef+	c #22311F",
"Ff+	c #202E20",
"Gf+	c #1B261C",
"Hf+	c #1E2920",
"If+	c #1F2A25",
"Jf+	c #202B23",
"Kf+	c #213023",
"Lf+	c #212F22",
"Mf+	c #223022",
"Nf+	c #1E2822",
"Of+	c #1C2723",
"Pf+	c #1D2622",
"Qf+	c #202920",
"Rf+	c #21281F",
"Sf+	c #1D221B",
"Tf+	c #21251F",
"Uf+	c #202520",
"Vf+	c #1B221D",
"Wf+	c #1B2320",
"Xf+	c #1B2221",
"Yf+	c #1B2322",
"Zf+	c #1D2422",
"`f+	c #1C2622",
" g+	c #1C2722",
".g+	c #1B2723",
"+g+	c #1A2624",
"@g+	c #1D2421",
"#g+	c #1B261F",
"$g+	c #1D2C22",
"%g+	c #1D2C24",
"&g+	c #1B2A26",
"*g+	c #181F1E",
"=g+	c #1D2B27",
"-g+	c #233328",
";g+	c #28372E",
">g+	c #314839",
",g+	c #384A49",
"'g+	c #455153",
")g+	c #535B5E",
"!g+	c #646C6C",
"~g+	c #686E6D",
"{g+	c #697071",
"]g+	c #6E7270",
"^g+	c #707471",
"/g+	c #757B7A",
"(g+	c #7C8485",
"_g+	c #81857F",
":g+	c #868676",
"<g+	c #8C8E7C",
"[g+	c #858678",
"}g+	c #8F9081",
"|g+	c #75756D",
"1g+	c #936E59",
"2g+	c #C3200A",
"3g+	c #D01C06",
"4g+	c #994937",
"5g+	c #403D3E",
"6g+	c #24221F",
"7g+	c #C8C4AD",
"8g+	c #BFB997",
"9g+	c #ADAB8C",
"0g+	c #403F42",
"ag+	c #211F1F",
"bg+	c #61635F",
"cg+	c #C6C5B0",
"dg+	c #8C9083",
"eg+	c #939482",
"fg+	c #9A9A86",
"gg+	c #9C9D88",
"hg+	c #9C9E8D",
"ig+	c #898C7F",
"jg+	c #757871",
"kg+	c #4B4D4D",
"lg+	c #4E5255",
"mg+	c #818885",
"ng+	c #92988D",
"og+	c #93978B",
"pg+	c #95998B",
"qg+	c #94988C",
"rg+	c #913E2D",
"sg+	c #942815",
"tg+	c #8C2919",
"ug+	c #1E2B34",
"vg+	c #152732",
"wg+	c #13202C",
"xg+	c #14222B",
"yg+	c #131E25",
"zg+	c #11191D",
"Ag+	c #0F161A",
"Bg+	c #12191B",
"Cg+	c #162125",
"Dg+	c #182328",
"Eg+	c #0F181E",
"Fg+	c #101920",
"Gg+	c #10151A",
"Hg+	c #101318",
"Ig+	c #0F1318",
"Jg+	c #0E0F17",
"Kg+	c #12181E",
"Lg+	c #0E1419",
"Mg+	c #1C291D",
"Ng+	c #191F1D",
"Og+	c #161917",
"Pg+	c #202C1F",
"Qg+	c #1C271A",
"Rg+	c #222F1E",
"Sg+	c #23301F",
"Tg+	c #212E1C",
"Ug+	c #232F1E",
"Vg+	c #253220",
"Wg+	c #243420",
"Xg+	c #253123",
"Yg+	c #223221",
"Zg+	c #243422",
"`g+	c #23311F",
" h+	c #25351E",
".h+	c #253523",
"+h+	c #243322",
"@h+	c #1E2B1C",
"#h+	c #1D291A",
"$h+	c #1C271F",
"%h+	c #1D2A1F",
"&h+	c #1F2D20",
"*h+	c #213022",
"=h+	c #243424",
"-h+	c #233424",
";h+	c #223424",
">h+	c #233524",
",h+	c #27362A",
"'h+	c #223024",
")h+	c #212E24",
"!h+	c #232D26",
"~h+	c #212D23",
"{h+	c #1E2A22",
"]h+	c #1E2C21",
"^h+	c #232F24",
"/h+	c #202F22",
"(h+	c #202C20",
"_h+	c #222921",
":h+	c #1B1E1A",
"<h+	c #1A1F1E",
"[h+	c #1D2223",
"}h+	c #1A1F21",
"|h+	c #1B251D",
"1h+	c #1E2821",
"2h+	c #1C2820",
"3h+	c #1D2B22",
"4h+	c #1F2D23",
"5h+	c #1F2F25",
"6h+	c #1E3025",
"7h+	c #1B2D26",
"8h+	c #121215",
"9h+	c #263827",
"0h+	c #253827",
"ah+	c #273F27",
"bh+	c #273827",
"ch+	c #293C29",
"dh+	c #2F4639",
"eh+	c #334844",
"fh+	c #3A4B52",
"gh+	c #4B565F",
"hh+	c #545E66",
"ih+	c #566168",
"jh+	c #596569",
"kh+	c #686D6C",
"lh+	c #707573",
"mh+	c #77786F",
"nh+	c #878878",
"oh+	c #A3A28A",
"ph+	c #9F9F8A",
"qh+	c #9B7B62",
"rh+	c #CC1C07",
"sh+	c #D01905",
"th+	c #B97F62",
"uh+	c #85816D",
"vh+	c #666558",
"wh+	c #878576",
"xh+	c #B3B29F",
"yh+	c #BBBBAB",
"zh+	c #BAB9A5",
"Ah+	c #C1BDA5",
"Bh+	c #999D91",
"Ch+	c #2E2C2E",
"Dh+	c #C7C9BB",
"Eh+	c #9EA091",
"Fh+	c #A5A48B",
"Gh+	c #959682",
"Hh+	c #929380",
"Ih+	c #9FA18E",
"Jh+	c #A1A18D",
"Kh+	c #82857B",
"Lh+	c #54585A",
"Mh+	c #4A4F54",
"Nh+	c #464A50",
"Oh+	c #3B434B",
"Ph+	c #3A3F4A",
"Qh+	c #3B3F4A",
"Rh+	c #424247",
"Sh+	c #8B9089",
"Th+	c #91968C",
"Uh+	c #96998B",
"Vh+	c #969889",
"Wh+	c #823F31",
"Xh+	c #932816",
"Yh+	c #932815",
"Zh+	c #962814",
"`h+	c #882C22",
" i+	c #1D2A37",
".i+	c #13222F",
"+i+	c #14232D",
"@i+	c #16252C",
"#i+	c #131D25",
"$i+	c #101E2F",
"%i+	c #101A22",
"&i+	c #12181B",
"*i+	c #141D1F",
"=i+	c #182426",
"-i+	c #121E24",
";i+	c #141D22",
">i+	c #0F1418",
",i+	c #11121A",
"'i+	c #111217",
")i+	c #111319",
"!i+	c #151722",
"~i+	c #12131C",
"{i+	c #12141D",
"]i+	c #212F23",
"^i+	c #191F19",
"/i+	c #1B1F19",
"(i+	c #202820",
"_i+	c #1A1D1F",
":i+	c #1B1F1E",
"<i+	c #1D241F",
"[i+	c #1F271F",
"}i+	c #1D271C",
"|i+	c #1F291F",
"1i+	c #1F271D",
"2i+	c #212B1D",
"3i+	c #222C1E",
"4i+	c #212B1E",
"5i+	c #1D2519",
"6i+	c #222C20",
"7i+	c #233022",
"8i+	c #222F1F",
"9i+	c #273824",
"0i+	c #263824",
"ai+	c #1D251A",
"bi+	c #203021",
"ci+	c #253127",
"di+	c #253426",
"ei+	c #243524",
"fi+	c #233425",
"gi+	c #263627",
"hi+	c #233223",
"ii+	c #1F3123",
"ji+	c #202D22",
"ki+	c #20241F",
"li+	c #1C231D",
"mi+	c #212822",
"ni+	c #1F2821",
"oi+	c #212F21",
"pi+	c #243823",
"qi+	c #243724",
"ri+	c #243624",
"si+	c #243522",
"ti+	c #243623",
"ui+	c #233423",
"vi+	c #213021",
"wi+	c #1B2720",
"xi+	c #1D2822",
"yi+	c #1F2B21",
"zi+	c #1D281F",
"Ai+	c #1C2921",
"Bi+	c #1C2721",
"Ci+	c #1F3020",
"Di+	c #203421",
"Ei+	c #243625",
"Fi+	c #233725",
"Gi+	c #233626",
"Hi+	c #213026",
"Ii+	c #253826",
"Ji+	c #273D27",
"Ki+	c #2C4629",
"Li+	c #33493F",
"Mi+	c #34484C",
"Ni+	c #374854",
"Oi+	c #424E58",
"Pi+	c #405160",
"Qi+	c #48545F",
"Ri+	c #4A535A",
"Si+	c #515557",
"Ti+	c #545B5D",
"Ui+	c #6F736E",
"Vi+	c #858372",
"Wi+	c #A9795E",
"Xi+	c #D01805",
"Yi+	c #D21805",
"Zi+	c #D31805",
"`i+	c #D11805",
" j+	c #D21B06",
".j+	c #D11C07",
"+j+	c #CE9171",
"@j+	c #B7B292",
"#j+	c #BFBCA5",
"$j+	c #C5C4AF",
"%j+	c #B8B9A9",
"&j+	c #B5B4A4",
"*j+	c #C1BEA8",
"=j+	c #BFBEAD",
"-j+	c #9EA092",
";j+	c #A2A49B",
">j+	c #BCBDB1",
",j+	c #CBCCBE",
"'j+	c #D7D4BF",
")j+	c #D1CCB0",
"!j+	c #C7C1A3",
"~j+	c #C4BFA1",
"{j+	c #9B9B86",
"]j+	c #8C8E7E",
"^j+	c #8D9186",
"/j+	c #81857B",
"(j+	c #38373A",
"_j+	c #313339",
":j+	c #30323C",
"<j+	c #2D3039",
"[j+	c #2B313D",
"}j+	c #2C3545",
"|j+	c #464F59",
"1j+	c #676966",
"2j+	c #5E615E",
"3j+	c #888C85",
"4j+	c #94988D",
"5j+	c #8B4734",
"6j+	c #88291A",
"7j+	c #7D2A1F",
"8j+	c #1F2936",
"9j+	c #14232F",
"0j+	c #152430",
"aj+	c #16282B",
"bj+	c #16232A",
"cj+	c #111D2C",
"dj+	c #15232B",
"ej+	c #111D29",
"fj+	c #11181C",
"gj+	c #111316",
"hj+	c #151E20",
"ij+	c #111418",
"jj+	c #121A1F",
"kj+	c #111519",
"lj+	c #0F1117",
"mj+	c #0F1319",
"nj+	c #101219",
"oj+	c #11131D",
"pj+	c #111219",
"qj+	c #1F2820",
"rj+	c #242F23",
"sj+	c #222C21",
"tj+	c #212C23",
"uj+	c #222A23",
"vj+	c #1E281F",
"wj+	c #1B241A",
"xj+	c #1E271E",
"yj+	c #1E241B",
"zj+	c #1E251C",
"Aj+	c #1A2118",
"Bj+	c #1B1A15",
"Cj+	c #1D1D19",
"Dj+	c #1A1A17",
"Ej+	c #1A1B18",
"Fj+	c #1B1C19",
"Gj+	c #20251C",
"Hj+	c #21291C",
"Ij+	c #222B1E",
"Jj+	c #212A1D",
"Kj+	c #1F241B",
"Lj+	c #1E2C20",
"Mj+	c #213121",
"Nj+	c #213024",
"Oj+	c #1F2E22",
"Pj+	c #232C26",
"Qj+	c #212E23",
"Rj+	c #232E20",
"Sj+	c #20241C",
"Tj+	c #1D201A",
"Uj+	c #1E241C",
"Vj+	c #212C20",
"Wj+	c #1F2C1F",
"Xj+	c #1E2B1E",
"Yj+	c #253724",
"Zj+	c #213522",
"`j+	c #213321",
" k+	c #223322",
".k+	c #233723",
"+k+	c #1F2F20",
"@k+	c #1C2A1F",
"#k+	c #1C2B1C",
"$k+	c #1E2E1F",
"%k+	c #203020",
"&k+	c #223422",
"*k+	c #223223",
"=k+	c #233323",
"-k+	c #223324",
";k+	c #1F311F",
">k+	c #233624",
",k+	c #233525",
"'k+	c #253726",
")k+	c #253926",
"!k+	c #263D27",
"~k+	c #28412B",
"{k+	c #2C402D",
"]k+	c #2C4131",
"^k+	c #28362B",
"/k+	c #2C3C30",
"(k+	c #314448",
"_k+	c #354756",
":k+	c #384856",
"<k+	c #3F4B55",
"[k+	c #474C4F",
"}k+	c #484C4E",
"|k+	c #454A4D",
"1k+	c #494B4D",
"2k+	c #5B5E5D",
"3k+	c #7B7F78",
"4k+	c #91907C",
"5k+	c #A56752",
"6k+	c #D11C06",
"7k+	c #D41805",
"8k+	c #CE8764",
"9k+	c #B9B393",
"0k+	c #C6C6B5",
"ak+	c #C2C0AD",
"bk+	c #C1BEA7",
"ck+	c #BDBBA6",
"dk+	c #C5C4B1",
"ek+	c #C6C4B1",
"fk+	c #B7B6A3",
"gk+	c #C0C1B1",
"hk+	c #CFCDBC",
"ik+	c #D4D2BF",
"jk+	c #DDD6BB",
"kk+	c #C9C2A4",
"lk+	c #A9A993",
"mk+	c #ABAC9D",
"nk+	c #949581",
"ok+	c #8A8A79",
"pk+	c #9D9D87",
"qk+	c #8E9284",
"rk+	c #868D89",
"sk+	c #868A80",
"tk+	c #757973",
"uk+	c #616766",
"vk+	c #404145",
"wk+	c #202630",
"xk+	c #151E2D",
"yk+	c #111A2C",
"zk+	c #112036",
"Ak+	c #4D5B65",
"Bk+	c #676A67",
"Ck+	c #5F615E",
"Dk+	c #5A5D5B",
"Ek+	c #989C8E",
"Fk+	c #93988C",
"Gk+	c #94988B",
"Hk+	c #909589",
"Ik+	c #909284",
"Jk+	c #884837",
"Kk+	c #922816",
"Lk+	c #962714",
"Mk+	c #992712",
"Nk+	c #812B21",
"Ok+	c #1E2B37",
"Pk+	c #16252E",
"Qk+	c #16252D",
"Rk+	c #182A2F",
"Sk+	c #152333",
"Tk+	c #142130",
"Uk+	c #0F1D2B",
"Vk+	c #101216",
"Wk+	c #131B1D",
"Xk+	c #162322",
"Yk+	c #111013",
"Zk+	c #0E1216",
"`k+	c #101316",
" l+	c #0F141A",
".l+	c #0F1216",
"+l+	c #0E1318",
"@l+	c #0E1519",
"#l+	c #0E1217",
"$l+	c #0E1218",
"%l+	c #0F141C",
"&l+	c #10141B",
"*l+	c #100F14",
"=l+	c #0F1019",
"-l+	c #11151F",
";l+	c #0F131A",
">l+	c #1F2B1E",
",l+	c #212C21",
"'l+	c #223122",
")l+	c #243224",
"!l+	c #243325",
"~l+	c #253525",
"{l+	c #233224",
"]l+	c #232F23",
"^l+	c #1D2A1D",
"/l+	c #1B1F18",
"(l+	c #1B1F17",
"_l+	c #1D1F1A",
":l+	c #21291E",
"<l+	c #1F2D21",
"[l+	c #202F1F",
"}l+	c #233222",
"|l+	c #202E22",
"1l+	c #202B21",
"2l+	c #1E2520",
"3l+	c #212E21",
"4l+	c #243622",
"5l+	c #223123",
"6l+	c #1F2F1F",
"7l+	c #223220",
"8l+	c #223623",
"9l+	c #233523",
"0l+	c #213421",
"al+	c #223423",
"bl+	c #203221",
"cl+	c #1E301F",
"dl+	c #1F301F",
"el+	c #1E301D",
"fl+	c #202E1C",
"gl+	c #223420",
"hl+	c #1E2C1D",
"il+	c #1E2B1D",
"jl+	c #243725",
"kl+	c #203420",
"ll+	c #233724",
"ml+	c #203323",
"nl+	c #253625",
"ol+	c #263A26",
"pl+	c #273928",
"ql+	c #243826",
"rl+	c #243427",
"sl+	c #26332B",
"tl+	c #2D4330",
"ul+	c #324942",
"vl+	c #314747",
"wl+	c #31474C",
"xl+	c #374857",
"yl+	c #404A51",
"zl+	c #494C4C",
"Al+	c #45484C",
"Bl+	c #46484A",
"Cl+	c #83867C",
"Dl+	c #999A86",
"El+	c #979580",
"Fl+	c #AC5A43",
"Gl+	c #D32207",
"Hl+	c #D21A06",
"Il+	c #D11A06",
"Jl+	c #CF9C77",
"Kl+	c #D0CCB7",
"Ll+	c #B1B097",
"Ml+	c #C0C0B0",
"Nl+	c #C6C6B4",
"Ol+	c #C8C9B8",
"Pl+	c #CCCDC0",
"Ql+	c #B9B494",
"Rl+	c #BBB695",
"Sl+	c #B5B298",
"Tl+	c #B2B3A2",
"Ul+	c #959685",
"Vl+	c #90917F",
"Wl+	c #808682",
"Xl+	c #828A87",
"Yl+	c #797C75",
"Zl+	c #0E121A",
"`l+	c #1E191A",
" m+	c #281A17",
".m+	c #281B18",
"+m+	c #241D1E",
"@m+	c #636663",
"#m+	c #646662",
"$m+	c #5F615D",
"%m+	c #585A5A",
"&m+	c #6C6F6A",
"*m+	c #939587",
"=m+	c #8B6A4F",
"-m+	c #8F4C22",
";m+	c #925025",
">m+	c #8F4C21",
",m+	c #964F25",
"'m+	c #904C21",
")m+	c #954F26",
"!m+	c #954323",
"~m+	c #98684F",
"{m+	c #1B2632",
"]m+	c #15232D",
"^m+	c #15252D",
"/m+	c #15232A",
"(m+	c #142031",
"_m+	c #142233",
":m+	c #0F1D31",
"<m+	c #0D1724",
"[m+	c #111619",
"}m+	c #111114",
"|m+	c #162123",
"1m+	c #162224",
"2m+	c #111012",
"3m+	c #121214",
"4m+	c #111216",
"5m+	c #100E11",
"6m+	c #0D1117",
"7m+	c #101519",
"8m+	c #0F1317",
"9m+	c #0E1014",
"0m+	c #0E1016",
"am+	c #0E0E12",
"bm+	c #111014",
"cm+	c #100F13",
"dm+	c #101115",
"em+	c #101016",
"fm+	c #0F1116",
"gm+	c #0C1318",
"hm+	c #202F21",
"im+	c #253224",
"jm+	c #263626",
"km+	c #273925",
"lm+	c #243425",
"mm+	c #253624",
"nm+	c #202F20",
"om+	c #202E1D",
"pm+	c #222F20",
"qm+	c #222F21",
"rm+	c #223023",
"sm+	c #243222",
"tm+	c #1A2219",
"um+	c #1A1E16",
"vm+	c #1D2119",
"wm+	c #1E261D",
"xm+	c #223020",
"ym+	c #1F2C20",
"zm+	c #1C2A1C",
"Am+	c #222F22",
"Bm+	c #1E221D",
"Cm+	c #1D2521",
"Dm+	c #243525",
"Em+	c #233421",
"Fm+	c #213122",
"Gm+	c #223323",
"Hm+	c #243523",
"Im+	c #1F331F",
"Jm+	c #233521",
"Km+	c #1F2E1D",
"Lm+	c #213622",
"Mm+	c #213422",
"Nm+	c #253626",
"Om+	c #243824",
"Pm+	c #233824",
"Qm+	c #213621",
"Rm+	c #223723",
"Sm+	c #223622",
"Tm+	c #223722",
"Um+	c #253825",
"Vm+	c #223224",
"Wm+	c #233623",
"Xm+	c #223621",
"Ym+	c #233823",
"Zm+	c #191D1C",
"`m+	c #1E2B21",
" n+	c #213426",
".n+	c #233527",
"+n+	c #232E28",
"@n+	c #243228",
"#n+	c #2B3D2B",
"$n+	c #33493D",
"%n+	c #2F4836",
"&n+	c #2B453E",
"*n+	c #2D4446",
"=n+	c #32464D",
"-n+	c #3E4850",
";n+	c #454A4E",
">n+	c #434A4F",
",n+	c #525854",
"'n+	c #747873",
")n+	c #A09E88",
"!n+	c #9A9884",
"~n+	c #AC5F44",
"{n+	c #D31C06",
"]n+	c #D11905",
"^n+	c #CDA481",
"/n+	c #C3BB97",
"(n+	c #C3BEA3",
"_n+	c #D1CCB5",
":n+	c #B3B3A2",
"<n+	c #C9CBBF",
"[n+	c #CBCCC0",
"}n+	c #D7CFAD",
"|n+	c #B2AB8B",
"1n+	c #B5B091",
"2n+	c #8B8E7E",
"3n+	c #7F8279",
"4n+	c #81847B",
"5n+	c #5D6161",
"6n+	c #4B4E51",
"7n+	c #303236",
"8n+	c #0C1118",
"9n+	c #251A19",
"0n+	c #311912",
"an+	c #321A13",
"bn+	c #362620",
"cn+	c #686967",
"dn+	c #6E7371",
"en+	c #5D605E",
"fn+	c #565858",
"gn+	c #565856",
"hn+	c #585B5A",
"in+	c #6A6D68",
"jn+	c #959A8D",
"kn+	c #95998A",
"ln+	c #969680",
"mn+	c #8F7E58",
"nn+	c #947930",
"on+	c #96732D",
"pn+	c #96772B",
"qn+	c #967B2B",
"rn+	c #92862E",
"sn+	c #958634",
"tn+	c #9C7F2C",
"un+	c #A69F5C",
"vn+	c #162735",
"wn+	c #15252B",
"xn+	c #142328",
"yn+	c #141F25",
"zn+	c #15242C",
"An+	c #152230",
"Bn+	c #0F1C2E",
"Cn+	c #11181D",
"Dn+	c #121112",
"En+	c #142024",
"Fn+	c #151F21",
"Gn+	c #100E12",
"Hn+	c #0F0D0F",
"In+	c #0F0E11",
"Jn+	c #0F0F12",
"Kn+	c #101014",
"Ln+	c #233122",
"Mn+	c #223124",
"Nn+	c #1F2F21",
"On+	c #243023",
"Pn+	c #191815",
"Qn+	c #191816",
"Rn+	c #1B1C18",
"Sn+	c #1D2B1E",
"Tn+	c #202D23",
"Un+	c #1F2D22",
"Vn+	c #222C24",
"Wn+	c #1F2B22",
"Xn+	c #1F2923",
"Yn+	c #21321F",
"Zn+	c #212B1F",
"`n+	c #1B221C",
" o+	c #1F2521",
".o+	c #243326",
"+o+	c #223321",
"@o+	c #223421",
"#o+	c #213221",
"$o+	c #203321",
"%o+	c #233622",
"&o+	c #223522",
"*o+	c #223523",
"=o+	c #243A24",
"-o+	c #233924",
";o+	c #253B25",
">o+	c #203720",
",o+	c #253C25",
"'o+	c #1F371F",
")o+	c #243A25",
"!o+	c #253A26",
"~o+	c #263E26",
"{o+	c #203023",
"]o+	c #253725",
"^o+	c #213722",
"/o+	c #212B24",
"(o+	c #1F2C24",
"_o+	c #233326",
":o+	c #263528",
"<o+	c #30482B",
"[o+	c #2D462A",
"}o+	c #2E482E",
"|o+	c #2A452D",
"1o+	c #263F2C",
"2o+	c #294132",
"3o+	c #30423D",
"4o+	c #3B484B",
"5o+	c #41484F",
"6o+	c #485050",
"7o+	c #616A58",
"8o+	c #61665C",
"9o+	c #656964",
"0o+	c #757A74",
"ao+	c #9B9983",
"bo+	c #9D9982",
"co+	c #B6634C",
"do+	c #CE1F08",
"eo+	c #B89977",
"fo+	c #929384",
"go+	c #919588",
"ho+	c #CBCABA",
"io+	c #CBC9B6",
"jo+	c #BFBCA7",
"ko+	c #BFBDAB",
"lo+	c #C9C7AF",
"mo+	c #CDC8AA",
"no+	c #D1CAA6",
"oo+	c #BDB693",
"po+	c #B2AD8C",
"qo+	c #ACA98C",
"ro+	c #999A85",
"so+	c #7B7B6F",
"to+	c #959888",
"uo+	c #919281",
"vo+	c #7F8074",
"wo+	c #7D8380",
"xo+	c #7E8076",
"yo+	c #575C5B",
"zo+	c #383A3F",
"Ao+	c #131820",
"Bo+	c #0D1019",
"Co+	c #291916",
"Do+	c #331A12",
"Eo+	c #341A12",
"Fo+	c #40302D",
"Go+	c #6C7271",
"Ho+	c #6C7170",
"Io+	c #606563",
"Jo+	c #5C5E5C",
"Ko+	c #6E716E",
"Lo+	c #949789",
"Mo+	c #949785",
"No+	c #939481",
"Oo+	c #97967E",
"Po+	c #937A53",
"Qo+	c #97752B",
"Ro+	c #957C2E",
"So+	c #94822F",
"To+	c #91892F",
"Uo+	c #928A30",
"Vo+	c #908E31",
"Wo+	c #C2B821",
"Xo+	c #BAB33D",
"Yo+	c #182630",
"Zo+	c #14222A",
"`o+	c #142229",
" p+	c #132023",
".p+	c #162528",
"+p+	c #121D25",
"@p+	c #15222E",
"#p+	c #142223",
"$p+	c #131C1F",
"%p+	c #152023",
"&p+	c #13202B",
"*p+	c #142126",
"=p+	c #142227",
"-p+	c #100F12",
";p+	c #0E1418",
">p+	c #0F1115",
",p+	c #0F1013",
"'p+	c #101418",
")p+	c #0F0D11",
"!p+	c #111011",
"~p+	c #0F1014",
"{p+	c #0F0D10",
"]p+	c #0E0C0D",
"^p+	c #202C23",
"/p+	c #233324",
"(p+	c #223225",
"_p+	c #213224",
":p+	c #203024",
"<p+	c #253126",
"[p+	c #263426",
"}p+	c #1A1B17",
"|p+	c #1A1C17",
"1p+	c #1F301D",
"2p+	c #1B2017",
"3p+	c #1E231A",
"4p+	c #20271E",
"5p+	c #242D24",
"6p+	c #233024",
"7p+	c #243825",
"8p+	c #233625",
"9p+	c #213420",
"0p+	c #1F3021",
"ap+	c #203022",
"bp+	c #263726",
"cp+	c #243925",
"dp+	c #243C24",
"ep+	c #243B24",
"fp+	c #233A23",
"gp+	c #223923",
"hp+	c #243726",
"ip+	c #253925",
"jp+	c #243226",
"kp+	c #233526",
"lp+	c #223325",
"mp+	c #243527",
"np+	c #213225",
"op+	c #222F24",
"pp+	c #222E25",
"qp+	c #212E26",
"rp+	c #293F2A",
"sp+	c #273E27",
"tp+	c #263D26",
"up+	c #284328",
"vp+	c #284327",
"wp+	c #283928",
"xp+	c #344644",
"yp+	c #4C4F4F",
"zp+	c #545C52",
"Ap+	c #5F6B52",
"Bp+	c #707364",
"Cp+	c #828780",
"Dp+	c #8C8D7F",
"Ep+	c #A4A087",
"Fp+	c #A7A184",
"Gp+	c #C3865D",
"Hp+	c #CF2008",
"Ip+	c #D1240B",
"Jp+	c #CA2009",
"Kp+	c #926F59",
"Lp+	c #7D837F",
"Mp+	c #888F8B",
"Np+	c #8E9287",
"Op+	c #CACABA",
"Pp+	c #CDCAB8",
"Qp+	c #C8C5B1",
"Rp+	c #B5B39B",
"Sp+	c #BDBAA2",
"Tp+	c #C3C0AA",
"Up+	c #C7C2A7",
"Vp+	c #C3BC95",
"Wp+	c #AFA98A",
"Xp+	c #AEAA8B",
"Yp+	c #828479",
"Zp+	c #757873",
"`p+	c #3C3F46",
" q+	c #202430",
".q+	c #2D1914",
"+q+	c #4E3C39",
"@q+	c #6C7272",
"#q+	c #636562",
"$q+	c #5F615F",
"%q+	c #5D605F",
"&q+	c #989C8B",
"*q+	c #979885",
"=q+	c #979884",
"-q+	c #8C7B49",
";q+	c #94762B",
">q+	c #957D2D",
",q+	c #94812E",
"'q+	c #948730",
")q+	c #8F9133",
"!q+	c #9B972B",
"~q+	c #DECF0B",
"{q+	c #B7B245",
"]q+	c #192530",
"^q+	c #121C20",
"/q+	c #131E26",
"(q+	c #152426",
"_q+	c #162027",
":q+	c #101113",
"<q+	c #100D0F",
"[q+	c #100D0E",
"}q+	c #101417",
"|q+	c #0F1825",
"1q+	c #0F0D0E",
"2q+	c #100E0F",
"3q+	c #0F0E12",
"4q+	c #1E2B22",
"5q+	c #253526",
"6q+	c #243526",
"7q+	c #233221",
"8q+	c #233121",
"9q+	c #182219",
"0q+	c #1A251C",
"aq+	c #253425",
"bq+	c #273627",
"cq+	c #243324",
"dq+	c #243423",
"eq+	c #212E22",
"fq+	c #202B20",
"gq+	c #1F2A1E",
"hq+	c #222D1F",
"iq+	c #233422",
"jq+	c #273428",
"kq+	c #203621",
"lq+	c #1F3420",
"mq+	c #253B26",
"nq+	c #253A25",
"oq+	c #213721",
"pq+	c #263B26",
"qq+	c #233B23",
"rq+	c #253B24",
"sq+	c #263C27",
"tq+	c #1F2E21",
"uq+	c #202A1D",
"vq+	c #243225",
"wq+	c #212D25",
"xq+	c #1F2F22",
"yq+	c #202F25",
"zq+	c #273F26",
"Aq+	c #273B27",
"Bq+	c #294128",
"Cq+	c #2A4328",
"Dq+	c #294228",
"Eq+	c #284127",
"Fq+	c #273829",
"Gq+	c #354634",
"Hq+	c #515754",
"Iq+	c #6F6A63",
"Jq+	c #933B29",
"Kq+	c #A23B27",
"Lq+	c #A63B27",
"Mq+	c #A83B27",
"Nq+	c #AA3E27",
"Oq+	c #B44F35",
"Pq+	c #C8593F",
"Qq+	c #C85F3D",
"Rq+	c #D0713D",
"Sq+	c #E19E0E",
"Tq+	c #E4A911",
"Uq+	c #E5A00C",
"Vq+	c #E1A20E",
"Wq+	c #E2A00C",
"Xq+	c #E5990D",
"Yq+	c #E1950D",
"Zq+	c #DD890F",
"`q+	c #D68B1C",
" r+	c #927B59",
".r+	c #7A7E7C",
"+r+	c #82887E",
"@r+	c #CECDBB",
"#r+	c #C5C2AF",
"$r+	c #BDBBA5",
"%r+	c #CBC6A9",
"&r+	c #C3BEA0",
"*r+	c #C7C1A1",
"=r+	c #AAA485",
"-r+	c #B2AD8E",
";r+	c #B5B294",
">r+	c #BBB9A2",
",r+	c #878979",
"'r+	c #85877A",
")r+	c #77776C",
"!r+	c #3E444C",
"~r+	c #2E2E30",
"{r+	c #2F3037",
"]r+	c #222836",
"^r+	c #2A1A16",
"/r+	c #351B13",
"(r+	c #5E5652",
"_r+	c #7A7E77",
":r+	c #72766F",
"<r+	c #6B6D67",
"[r+	c #626460",
"}r+	c #666762",
"|r+	c #5C5E5D",
"1r+	c #9C9F8E",
"2r+	c #9D9D88",
"3r+	c #959681",
"4r+	c #949276",
"5r+	c #95763E",
"6r+	c #947F2C",
"7r+	c #91882E",
"8r+	c #908F34",
"9r+	c #928C2E",
"0r+	c #C3B91B",
"ar+	c #E5D611",
"br+	c #B9B456",
"cr+	c #1B292C",
"dr+	c #111C25",
"er+	c #162022",
"fr+	c #0F1A26",
"gr+	c #0E1926",
"hr+	c #172229",
"ir+	c #11171C",
"jr+	c #110E10",
"kr+	c #10171A",
"lr+	c #0E1116",
"mr+	c #101114",
"nr+	c #222F23",
"or+	c #202F24",
"pr+	c #203123",
"qr+	c #233522",
"rr+	c #243223",
"sr+	c #20271C",
"tr+	c #20211C",
"ur+	c #201A18",
"vr+	c #1C1615",
"wr+	c #1A1715",
"xr+	c #192319",
"yr+	c #1D2B1C",
"zr+	c #1C291C",
"Ar+	c #1E2B20",
"Br+	c #1E2D1E",
"Cr+	c #1E321D",
"Dr+	c #1E311D",
"Er+	c #1E2F1F",
"Fr+	c #1D2E1F",
"Gr+	c #1E321C",
"Hr+	c #1E2F1C",
"Ir+	c #20341F",
"Jr+	c #223524",
"Kr+	c #243924",
"Lr+	c #263926",
"Mr+	c #222D23",
"Nr+	c #212C22",
"Or+	c #283E27",
"Pr+	c #263C26",
"Qr+	c #294328",
"Rr+	c #294428",
"Sr+	c #284228",
"Tr+	c #293E2B",
"Ur+	c #314434",
"Vr+	c #5F635B",
"Wr+	c #9B846F",
"Xr+	c #C2210B",
"Yr+	c #CE1C07",
"Zr+	c #CC1B06",
"`r+	c #D01906",
" s+	c #CE520E",
".s+	c #ECD707",
"+s+	c #DFD115",
"@s+	c #8A8454",
"#s+	c #72787A",
"$s+	c #788184",
"%s+	c #AEAD9A",
"&s+	c #D9D5C0",
"*s+	c #C3BFA9",
"=s+	c #C0BDA8",
"-s+	c #C2C0AC",
";s+	c #BCB99C",
">s+	c #BCB68D",
",s+	c #C1BC9D",
"'s+	c #C3BE9B",
")s+	c #B9B390",
"!s+	c #A6A082",
"~s+	c #AEA889",
"{s+	c #9D9A80",
"]s+	c #8F8F7A",
"^s+	c #828171",
"/s+	c #7D7D70",
"(s+	c #6C6D64",
"_s+	c #6A6D6B",
":s+	c #4F5050",
"<s+	c #3A3B3A",
"[s+	c #2F2F2F",
"}s+	c #3E4142",
"|s+	c #343D46",
"1s+	c #1D2637",
"2s+	c #0A172D",
"3s+	c #281A19",
"4s+	c #3A2926",
"5s+	c #636463",
"6s+	c #757F88",
"7s+	c #989B8E",
"8s+	c #666A66",
"9s+	c #5E6363",
"0s+	c #989B89",
"as+	c #9A9B85",
"bs+	c #979577",
"cs+	c #947E3E",
"ds+	c #94802D",
"es+	c #928A32",
"fs+	c #8E9030",
"gs+	c #919134",
"hs+	c #A5A129",
"is+	c #E3D30D",
"js+	c #E8D711",
"ks+	c #B6B54E",
"ls+	c #222C31",
"ms+	c #131F27",
"ns+	c #142129",
"os+	c #172226",
"ps+	c #10161A",
"qs+	c #182425",
"rs+	c #19262A",
"ss+	c #142021",
"ts+	c #121D23",
"us+	c #10191D",
"vs+	c #0E1317",
"ws+	c #0F1217",
"xs+	c #101217",
"ys+	c #0E1117",
"zs+	c #0D1015",
"As+	c #0E1015",
"Bs+	c #232D25",
"Cs+	c #1D2921",
"Ds+	c #233124",
"Es+	c #263025",
"Fs+	c #1A1A18",
"Gs+	c #1C1817",
"Hs+	c #1A1615",
"Is+	c #181614",
"Js+	c #1D261D",
"Ks+	c #233322",
"Ls+	c #202D20",
"Ms+	c #203121",
"Ns+	c #203521",
"Os+	c #1D321E",
"Ps+	c #1D321D",
"Qs+	c #1E301E",
"Rs+	c #1D2F1D",
"Ss+	c #1B2C1B",
"Ts+	c #1D2D1B",
"Us+	c #1C2B1B",
"Vs+	c #20321E",
"Ws+	c #1F3520",
"Xs+	c #203120",
"Ys+	c #233325",
"Zs+	c #243923",
"`s+	c #253D25",
" t+	c #273E26",
".t+	c #284027",
"+t+	c #283F27",
"@t+	c #284128",
"#t+	c #2B4529",
"$t+	c #284227",
"%t+	c #274027",
"&t+	c #253727",
"*t+	c #314631",
"=t+	c #616558",
"-t+	c #A78C72",
";t+	c #CE1D07",
">t+	c #CB480D",
",t+	c #ECD906",
"'t+	c #DDD025",
")t+	c #7D805D",
"!t+	c #6D7372",
"~t+	c #767F82",
"{t+	c #D3D1C0",
"]t+	c #C6C6B3",
"^t+	c #BEBBA3",
"/t+	c #BBB9A4",
"(t+	c #B8B7A0",
"_t+	c #C3BB95",
":t+	c #A59F82",
"<t+	c #A6A387",
"[t+	c #918F7A",
"}t+	c #7E7D6E",
"|t+	c #7C7C71",
"1t+	c #7B796A",
"2t+	c #4B4E4D",
"3t+	c #373738",
"4t+	c #3A3E43",
"5t+	c #343941",
"6t+	c #141E32",
"7t+	c #281919",
"8t+	c #36211D",
"9t+	c #4B4A48",
"0t+	c #98A0A0",
"at+	c #A8AA9F",
"bt+	c #95947A",
"ct+	c #8E8D79",
"dt+	c #999D8D",
"et+	c #969988",
"ft+	c #9A9779",
"gt+	c #96763D",
"ht+	c #908B2F",
"it+	c #91912F",
"jt+	c #95932E",
"kt+	c #979631",
"lt+	c #CFC21F",
"mt+	c #BBB64D",
"nt+	c #283633",
"ot+	c #141F29",
"pt+	c #162023",
"qt+	c #162223",
"rt+	c #172324",
"st+	c #162122",
"tt+	c #111416",
"ut+	c #121E27",
"vt+	c #111214",
"wt+	c #1E2A21",
"xt+	c #1E2C1E",
"yt+	c #1D281E",
"zt+	c #1E2A1F",
"At+	c #242E24",
"Bt+	c #202E23",
"Ct+	c #1E2F1D",
"Dt+	c #1E2D1F",
"Et+	c #1E2F1E",
"Ft+	c #1C331B",
"Gt+	c #1F3220",
"Ht+	c #213322",
"It+	c #283B28",
"Jt+	c #233923",
"Kt+	c #263826",
"Lt+	c #2C4529",
"Mt+	c #294028",
"Nt+	c #2A4429",
"Ot+	c #2A4428",
"Pt+	c #263927",
"Qt+	c #56644B",
"Rt+	c #9D8E72",
"St+	c #CD1C08",
"Tt+	c #CD430C",
"Ut+	c #EBD709",
"Vt+	c #F1DF02",
"Wt+	c #EFDE02",
"Xt+	c #D4C928",
"Yt+	c #777661",
"Zt+	c #768082",
"`t+	c #B8B49A",
" u+	c #BCBAA6",
".u+	c #AEAD99",
"+u+	c #B9B9A5",
"@u+	c #C0BCA1",
"#u+	c #A3A593",
"$u+	c #A49D7E",
"%u+	c #A29D83",
"&u+	c #9FA191",
"*u+	c #9D9C87",
"=u+	c #94937A",
"-u+	c #878471",
";u+	c #757466",
">u+	c #76766A",
",u+	c #8D8A75",
"'u+	c #727165",
")u+	c #545554",
"!u+	c #383838",
"~u+	c #303032",
"{u+	c #37393E",
"]u+	c #2E3946",
"^u+	c #0C1933",
"/u+	c #2A2026",
"(u+	c #464441",
"_u+	c #91917B",
":u+	c #7F8277",
"<u+	c #989A85",
"[u+	c #9E9D86",
"}u+	c #977840",
"|u+	c #94912F",
"1u+	c #94922D",
"2u+	c #969638",
"3u+	c #B5AF2F",
"4u+	c #E7D50B",
"5u+	c #EFDD04",
"6u+	c #E7D714",
"7u+	c #BFB94D",
"8u+	c #2D393A",
"9u+	c #182226",
"0u+	c #11181B",
"au+	c #172120",
"bu+	c #182526",
"cu+	c #182629",
"du+	c #132026",
"eu+	c #12171A",
"fu+	c #121E29",
"gu+	c #121115",
"hu+	c #100E10",
"iu+	c #0E1115",
"ju+	c #0D0F14",
"ku+	c #101317",
"lu+	c #1F261F",
"mu+	c #1B1C1B",
"nu+	c #1A1816",
"ou+	c #1C1D19",
"pu+	c #1E251E",
"qu+	c #1C2620",
"ru+	c #20251F",
"su+	c #1C201C",
"tu+	c #1C1E1A",
"uu+	c #1E211C",
"vu+	c #212621",
"wu+	c #222823",
"xu+	c #1F2620",
"yu+	c #1C231E",
"zu+	c #1A221D",
"Au+	c #1A201B",
"Bu+	c #1A261D",
"Cu+	c #1D2C1D",
"Du+	c #1B291D",
"Eu+	c #1D2D1E",
"Fu+	c #1D2C1E",
"Gu+	c #273C27",
"Hu+	c #2D452A",
"Iu+	c #2C472A",
"Ju+	c #2C4729",
"Ku+	c #2D472A",
"Lu+	c #2B4429",
"Mu+	c #2A4228",
"Nu+	c #2B4229",
"Ou+	c #2A4028",
"Pu+	c #2C4429",
"Qu+	c #2A4628",
"Ru+	c #2A4529",
"Su+	c #263F26",
"Tu+	c #213124",
"Uu+	c #273B26",
"Vu+	c #273A27",
"Wu+	c #576145",
"Xu+	c #A89376",
"Yu+	c #C9200B",
"Zu+	c #CD430D",
"`u+	c #E6D307",
" v+	c #EEDD04",
".v+	c #F2DF03",
"+v+	c #D3C936",
"@v+	c #6C6A5B",
"#v+	c #6D7271",
"$v+	c #8F9287",
"%v+	c #D1CEBA",
"&v+	c #B8B7A4",
"*v+	c #B2B3A1",
"=v+	c #C3C1AA",
"-v+	c #A29D7F",
";v+	c #B1AF99",
">v+	c #8D8C75",
",v+	c #A6A99B",
"'v+	c #969A8D",
")v+	c #807C6B",
"!v+	c #75756A",
"~v+	c #838071",
"{v+	c #6D6B62",
"]v+	c #545654",
"^v+	c #5E605E",
"/v+	c #403F40",
"(v+	c #3B3D3B",
"_v+	c #34373B",
":v+	c #31323A",
"<v+	c #0A1D3D",
"[v+	c #393C41",
"}v+	c #5D5F5B",
"|v+	c #C4C7BC",
"1v+	c #B3B5A8",
"2v+	c #979579",
"3v+	c #8D8D78",
"4v+	c #797B71",
"5v+	c #6A6E6A",
"6v+	c #8A8C7D",
"7v+	c #9F9B78",
"8v+	c #958040",
"9v+	c #959531",
"0v+	c #99992F",
"av+	c #ACAA2E",
"bv+	c #E5D318",
"cv+	c #E9D806",
"dv+	c #C5C04B",
"ev+	c #2C3939",
"fv+	c #1C2929",
"gv+	c #1D2A28",
"hv+	c #172625",
"iv+	c #172928",
"jv+	c #1A2F2A",
"kv+	c #152A28",
"lv+	c #162724",
"mv+	c #152323",
"nv+	c #13232C",
"ov+	c #142430",
"pv+	c #121E2B",
"qv+	c #111E2D",
"rv+	c #10212E",
"sv+	c #13222C",
"tv+	c #101A26",
"uv+	c #11181F",
"vv+	c #0E151C",
"wv+	c #0F151C",
"xv+	c #101619",
"yv+	c #0D1116",
"zv+	c #223026",
"Av+	c #1B1F1D",
"Bv+	c #1B201B",
"Cv+	c #1D251E",
"Dv+	c #202D1F",
"Ev+	c #20291F",
"Fv+	c #21241F",
"Gv+	c #1F251E",
"Hv+	c #202B1F",
"Iv+	c #212A20",
"Jv+	c #212A21",
"Kv+	c #202D21",
"Lv+	c #1D2A20",
"Mv+	c #1E2622",
"Nv+	c #1E2422",
"Ov+	c #151718",
"Pv+	c #1D2820",
"Qv+	c #1B2520",
"Rv+	c #294528",
"Sv+	c #2A4528",
"Tv+	c #2F482C",
"Uv+	c #2D482A",
"Vv+	c #2E472A",
"Wv+	c #2B4528",
"Xv+	c #2B4629",
"Yv+	c #284026",
"Zv+	c #223425",
"`v+	c #4C5A3F",
" w+	c #A3906E",
".w+	c #CB1E08",
"+w+	c #CE390A",
"@w+	c #ECD408",
"#w+	c #F3E003",
"$w+	c #D0C92D",
"%w+	c #6C6F59",
"&w+	c #7C8482",
"*w+	c #C8C8B5",
"=w+	c #B4B094",
"-w+	c #B4B5A3",
";w+	c #C4C0A6",
">w+	c #ACAEA2",
",w+	c #ACAA92",
"'w+	c #A49E7F",
")w+	c #959276",
"!w+	c #878774",
"~w+	c #8E8D78",
"{w+	c #68675B",
"]w+	c #828174",
"^w+	c #69685F",
"/w+	c #5A5856",
"(w+	c #5E5D59",
"_w+	c #585854",
":w+	c #454545",
"<w+	c #41463F",
"[w+	c #2B303C",
"}w+	c #0F2647",
"|w+	c #464C4F",
"1w+	c #717369",
"2w+	c #B1B4A6",
"3w+	c #99967D",
"4w+	c #96957D",
"5w+	c #8D8B74",
"6w+	c #87897E",
"7w+	c #8B8E80",
"8w+	c #9A9C89",
"9w+	c #9B9C89",
"0w+	c #A6A489",
"aw+	c #9D9976",
"bw+	c #949444",
"cw+	c #989832",
"dw+	c #BAB141",
"ew+	c #E0D023",
"fw+	c #EAD905",
"gw+	c #EDDD07",
"hw+	c #EBDA06",
"iw+	c #C7BF45",
"jw+	c #141D20",
"kw+	c #182726",
"lw+	c #1A2B29",
"mw+	c #172827",
"nw+	c #162825",
"ow+	c #172723",
"pw+	c #162524",
"qw+	c #111213",
"rw+	c #132025",
"sw+	c #111D27",
"tw+	c #142028",
"uw+	c #11191C",
"vw+	c #212B25",
"ww+	c #1E2322",
"xw+	c #161214",
"yw+	c #232B24",
"zw+	c #222D21",
"Aw+	c #21301F",
"Bw+	c #1F2822",
"Cw+	c #1E2720",
"Dw+	c #1D241E",
"Ew+	c #1F281F",
"Fw+	c #1C221C",
"Gw+	c #1D201B",
"Hw+	c #202C24",
"Iw+	c #1E2C22",
"Jw+	c #1C2B1E",
"Kw+	c #1F2823",
"Lw+	c #1C2621",
"Mw+	c #1E221B",
"Nw+	c #1F221F",
"Ow+	c #212C24",
"Pw+	c #202723",
"Qw+	c #1E2624",
"Rw+	c #253027",
"Sw+	c #252E27",
"Tw+	c #1C2922",
"Uw+	c #233225",
"Vw+	c #2C462A",
"Ww+	c #2B4729",
"Xw+	c #283C27",
"Yw+	c #263B25",
"Zw+	c #243621",
"`w+	c #21311F",
" x+	c #435238",
".x+	c #9E906A",
"+x+	c #C81F09",
"@x+	c #CC3109",
"#x+	c #EDD408",
"$x+	c #D0C727",
"%x+	c #6D7156",
"&x+	c #7B817C",
"*x+	c #BCB898",
"=x+	c #B7B293",
"-x+	c #B5B399",
";x+	c #B3B4A6",
">x+	c #B3B196",
",x+	c #A4A080",
"'x+	c #A19C7A",
")x+	c #B1B2A4",
"!x+	c #ABA688",
"~x+	c #989477",
"{x+	c #858370",
"]x+	c #8A8A77",
"^x+	c #666358",
"/x+	c #6D695F",
"(x+	c #79796C",
"_x+	c #7B7D75",
":x+	c #62625D",
"<x+	c #545451",
"[x+	c #4C4E4A",
"}x+	c #484C4D",
"|x+	c #484C47",
"1x+	c #262F40",
"2x+	c #0B2546",
"3x+	c #37424F",
"4x+	c #4E504E",
"5x+	c #808170",
"6x+	c #BBBBA6",
"7x+	c #CBCEC4",
"8x+	c #B3B5A6",
"9x+	c #96967D",
"0x+	c #7C7E73",
"ax+	c #B1AB8B",
"bx+	c #AFAA7F",
"cx+	c #BDBC4D",
"dx+	c #D1CB42",
"ex+	c #E0D342",
"fx+	c #E7D60C",
"gx+	c #EBDA08",
"hx+	c #EEDC0E",
"ix+	c #C3BE47",
"jx+	c #141E22",
"kx+	c #121B1E",
"lx+	c #162823",
"mx+	c #162523",
"nx+	c #152522",
"ox+	c #172423",
"px+	c #141C1D",
"qx+	c #111A20",
"rx+	c #151F22",
"sx+	c #0D151A",
"tx+	c #0D1319",
"ux+	c #1F221E",
"vx+	c #1B1D1C",
"wx+	c #1F2C22",
"xx+	c #243026",
"yx+	c #24321E",
"zx+	c #232D21",
"Ax+	c #1E231D",
"Bx+	c #1D231E",
"Cx+	c #202921",
"Dx+	c #202721",
"Ex+	c #1F241C",
"Fx+	c #21291F",
"Gx+	c #233226",
"Hx+	c #233126",
"Ix+	c #1C2E1C",
"Jx+	c #1D2B20",
"Kx+	c #1E2D21",
"Lx+	c #1D2B1D",
"Mx+	c #253527",
"Nx+	c #233426",
"Ox+	c #202A23",
"Px+	c #232E25",
"Qx+	c #274026",
"Rx+	c #2A4629",
"Sx+	c #253623",
"Tx+	c #233220",
"Ux+	c #284126",
"Vx+	c #354A2E",
"Wx+	c #A28E6F",
"Xx+	c #CB200B",
"Yx+	c #D03909",
"Zx+	c #ECD508",
"`x+	c #ECDB05",
" y+	c #CAC136",
".y+	c #6B6A5D",
"+y+	c #777C76",
"@y+	c #838982",
"#y+	c #BCBCA9",
"$y+	c #C4C1AB",
"%y+	c #ABAEA3",
"&y+	c #ACAA86",
"*y+	c #9D987A",
"=y+	c #BCBDAA",
"-y+	c #B3B198",
";y+	c #A29E80",
">y+	c #959273",
",y+	c #999D90",
"'y+	c #818373",
")y+	c #6C6C61",
"!y+	c #666258",
"~y+	c #656159",
"{y+	c #616360",
"]y+	c #595754",
"^y+	c #464745",
"/y+	c #474B4C",
"(y+	c #494D4D",
"_y+	c #0B1D3C",
":y+	c #2C384A",
"<y+	c #4D5150",
"[y+	c #5B5D5A",
"}y+	c #BBBCA7",
"|y+	c #C6C8BB",
"1y+	c #97967D",
"2y+	c #8E8E7C",
"3y+	c #888D83",
"4y+	c #7F8379",
"5y+	c #A5A48E",
"6y+	c #D0CBB5",
"7y+	c #D1CBB2",
"8y+	c #CFC9AE",
"9y+	c #D7D0B8",
"0y+	c #DAD045",
"ay+	c #E7D509",
"by+	c #EAD808",
"cy+	c #EAD50A",
"dy+	c #EDDB13",
"ey+	c #EDDA11",
"fy+	c #EADA05",
"gy+	c #E6D50D",
"hy+	c #C6BE49",
"iy+	c #37423F",
"jy+	c #192325",
"ky+	c #172624",
"ly+	c #172521",
"my+	c #172A22",
"ny+	c #182722",
"oy+	c #17231F",
"py+	c #152321",
"qy+	c #152021",
"ry+	c #101013",
"sy+	c #152123",
"ty+	c #1C1F1A",
"uy+	c #1A1A19",
"vy+	c #1C1F1C",
"wy+	c #202922",
"xy+	c #233025",
"yy+	c #253622",
"zy+	c #263724",
"Ay+	c #253423",
"By+	c #1F2B23",
"Cy+	c #1F2F23",
"Dy+	c #223126",
"Ey+	c #1F2A22",
"Fy+	c #233321",
"Gy+	c #203220",
"Hy+	c #213220",
"Iy+	c #253524",
"Jy+	c #202E1F",
"Ky+	c #1D2E1B",
"Ly+	c #1E2E1B",
"My+	c #1F2F1E",
"Ny+	c #1D2E1D",
"Oy+	c #1F321F",
"Py+	c #203520",
"Qy+	c #1E371E",
"Ry+	c #1F381E",
"Sy+	c #213822",
"Ty+	c #203721",
"Uy+	c #1E381F",
"Vy+	c #243426",
"Wy+	c #233726",
"Xy+	c #242F26",
"Yy+	c #2A4128",
"Zy+	c #2E482A",
"`y+	c #25371E",
" z+	c #24351F",
".z+	c #284125",
"+z+	c #2D4528",
"@z+	c #887A61",
"#z+	c #CD200A",
"$z+	c #D31905",
"%z+	c #D03D0C",
"&z+	c #E5D00B",
"*z+	c #F0DF03",
"=z+	c #EDDD04",
"-z+	c #CAC133",
";z+	c #686859",
">z+	c #606362",
",z+	c #777E7D",
"'z+	c #ABA990",
")z+	c #AAADA2",
"!z+	c #A2A079",
"~z+	c #969273",
"{z+	c #9D9B82",
"]z+	c #A9ACA0",
"^z+	c #B6B8AA",
"/z+	c #9A987D",
"(z+	c #8D8B71",
"_z+	c #797869",
":z+	c #8E8E7B",
"<z+	c #A9AA9B",
"[z+	c #666057",
"}z+	c #646058",
"|z+	c #5B5D59",
"1z+	c #565754",
"2z+	c #464647",
"3z+	c #1F3047",
"4z+	c #1C2B44",
"5z+	c #2B3646",
"6z+	c #4C5154",
"7z+	c #A5A388",
"8z+	c #959379",
"9z+	c #91917D",
"0z+	c #8A8F86",
"az+	c #E1DAC0",
"bz+	c #E2DABE",
"cz+	c #DFD7B9",
"dz+	c #E3D8AB",
"ez+	c #E9D804",
"fz+	c #EBD808",
"gz+	c #EEDD07",
"hz+	c #EADA04",
"iz+	c #E0D225",
"jz+	c #CAC54B",
"kz+	c #4D5247",
"lz+	c #172323",
"mz+	c #182623",
"nz+	c #192924",
"oz+	c #15201E",
"pz+	c #141E1E",
"qz+	c #172321",
"rz+	c #182923",
"sz+	c #162822",
"tz+	c #162C23",
"uz+	c #172B26",
"vz+	c #172B22",
"wz+	c #152520",
"xz+	c #131F1B",
"yz+	c #131617",
"zz+	c #142023",
"Az+	c #182627",
"Bz+	c #152222",
"Cz+	c #162323",
"Dz+	c #152624",
"Ez+	c #132221",
"Fz+	c #121F1F",
"Gz+	c #152223",
"Hz+	c #191A18",
"Iz+	c #1C2422",
"Jz+	c #1E2C23",
"Kz+	c #263527",
"Lz+	c #263825",
"Mz+	c #202B27",
"Nz+	c #202B26",
"Oz+	c #202E25",
"Pz+	c #1E2E1D",
"Qz+	c #1D2E1E",
"Rz+	c #1D2F1B",
"Sz+	c #1F2D1D",
"Tz+	c #1B291C",
"Uz+	c #1C2D1C",
"Vz+	c #1D341D",
"Wz+	c #1E381C",
"Xz+	c #21371F",
"Yz+	c #1F3920",
"Zz+	c #203821",
"`z+	c #223823",
" A+	c #253E25",
".A+	c #244024",
"+A+	c #274226",
"@A+	c #2C4829",
"#A+	c #2E482B",
"$A+	c #2E492B",
"%A+	c #283F28",
"&A+	c #263B27",
"*A+	c #84542E",
"=A+	c #E04206",
"-A+	c #E83E06",
";A+	c #E93D05",
">A+	c #E33A06",
",A+	c #E83D05",
"'A+	c #E63E05",
")A+	c #E53D06",
"!A+	c #E33E07",
"~A+	c #D74A0A",
"{A+	c #E9D407",
"]A+	c #E7D705",
"^A+	c #E2D306",
"/A+	c #CEC536",
"(A+	c #5E5E4C",
"_A+	c #777D7A",
":A+	c #858B84",
"<A+	c #A19D82",
"[A+	c #9FA295",
"}A+	c #949567",
"|A+	c #A8AA9D",
"1A+	c #AFB1A4",
"2A+	c #9C997E",
"3A+	c #989984",
"4A+	c #95937B",
"5A+	c #6A675C",
"6A+	c #655D55",
"7A+	c #615F5A",
"8A+	c #696B65",
"9A+	c #595955",
"0A+	c #515350",
"aA+	c #41403D",
"bA+	c #454646",
"cA+	c #4B4F4F",
"dA+	c #484D51",
"eA+	c #41474E",
"fA+	c #44484D",
"gA+	c #515453",
"hA+	c #7C8078",
"iA+	c #A8AB9C",
"jA+	c #959378",
"kA+	c #91927E",
"lA+	c #8B8E7F",
"mA+	c #84887E",
"nA+	c #848679",
"oA+	c #B9B59B",
"pA+	c #E1D9C0",
"qA+	c #E2DAC1",
"rA+	c #E2DAC0",
"sA+	c #E3DABA",
"tA+	c #E2D9BA",
"uA+	c #DED5AA",
"vA+	c #E2D42D",
"wA+	c #E2D31B",
"xA+	c #E2D31F",
"yA+	c #E8DA1A",
"zA+	c #E8D706",
"AA+	c #E5D710",
"BA+	c #D8CE30",
"CA+	c #CDC753",
"DA+	c #565E43",
"EA+	c #1E2D2A",
"FA+	c #1A2925",
"GA+	c #192C27",
"HA+	c #172622",
"IA+	c #1B2B24",
"JA+	c #152B22",
"KA+	c #142423",
"LA+	c #162325",
"MA+	c #162121",
"NA+	c #192925",
"OA+	c #162B24",
"PA+	c #182E27",
"QA+	c #172B23",
"RA+	c #172B25",
"SA+	c #152622",
"TA+	c #152722",
"UA+	c #172923",
"VA+	c #172825",
"WA+	c #131D1C",
"XA+	c #0F0C0E",
"YA+	c #121315",
"ZA+	c #172725",
"`A+	c #172425",
" B+	c #162924",
".B+	c #1A2D28",
"+B+	c #1D2E2A",
"@B+	c #172C28",
"#B+	c #182F27",
"$B+	c #192F27",
"%B+	c #192F26",
"&B+	c #212921",
"*B+	c #1C211C",
"=B+	c #1A201A",
"-B+	c #222E24",
";B+	c #243626",
">B+	c #213324",
",B+	c #263427",
"'B+	c #1E2922",
")B+	c #1F2A21",
"!B+	c #1D261F",
"~B+	c #1F2C25",
"{B+	c #1D2B24",
"]B+	c #20301F",
"^B+	c #202F1E",
"/B+	c #212E1D",
"(B+	c #213320",
"_B+	c #253723",
":B+	c #223822",
"<B+	c #223821",
"[B+	c #253B23",
"}B+	c #264025",
"|B+	c #253F24",
"1B+	c #284427",
"2B+	c #2C4628",
"3B+	c #2B4628",
"4B+	c #294327",
"5B+	c #294628",
"6B+	c #274127",
"7B+	c #284426",
"8B+	c #84441C",
"9B+	c #F25302",
"0B+	c #F55101",
"aB+	c #E25C08",
"bB+	c #EDD706",
"cB+	c #CCC341",
"dB+	c #676753",
"eB+	c #A9AB9F",
"fB+	c #898B7E",
"gB+	c #838375",
"hB+	c #A4A89B",
"iB+	c #AAADA4",
"jB+	c #9EA295",
"kB+	c #8D8E7C",
"lB+	c #8E8E78",
"mB+	c #908E76",
"nB+	c #635B54",
"oB+	c #5C5C58",
"pB+	c #5F605B",
"qB+	c #4F4F4E",
"rB+	c #444542",
"sB+	c #51514F",
"tB+	c #4E4F4D",
"uB+	c #515555",
"vB+	c #4C5055",
"wB+	c #878C85",
"xB+	c #95947F",
"yB+	c #98977F",
"zB+	c #979780",
"AB+	c #8F8F79",
"BB+	c #919382",
"CB+	c #92968B",
"DB+	c #7B7C70",
"EB+	c #C4BD93",
"FB+	c #E3D9BA",
"GB+	c #E0D7B8",
"HB+	c #E4D8B5",
"IB+	c #E1D6B2",
"JB+	c #DFD59C",
"KB+	c #E3D531",
"LB+	c #E4D30B",
"MB+	c #E0D323",
"NB+	c #E2D42C",
"OB+	c #DDD52D",
"PB+	c #DFD226",
"QB+	c #DCD22C",
"RB+	c #D6CD38",
"SB+	c #C0BF4F",
"TB+	c #47533E",
"UB+	c #233528",
"VB+	c #263A2E",
"WB+	c #233228",
"XB+	c #1E322A",
"YB+	c #1C3024",
"ZB+	c #1B2C24",
"`B+	c #172A21",
" C+	c #152B20",
".C+	c #142C21",
"+C+	c #121E1B",
"@C+	c #15221F",
"#C+	c #131C1C",
"$C+	c #172623",
"%C+	c #182B25",
"&C+	c #172E24",
"*C+	c #163021",
"=C+	c #172E25",
"-C+	c #162B23",
";C+	c #152C22",
">C+	c #172A25",
",C+	c #182724",
"'C+	c #192D24",
")C+	c #142820",
"!C+	c #141D1C",
"~C+	c #182622",
"{C+	c #1D2C27",
"]C+	c #1A2B25",
"^C+	c #1A3125",
"/C+	c #182C24",
"(C+	c #1A2F23",
"_C+	c #273926",
":C+	c #294129",
"<C+	c #2A3D28",
"[C+	c #233125",
"}C+	c #1E2D20",
"|C+	c #20301E",
"1C+	c #20321F",
"2C+	c #1E331E",
"3C+	c #21311E",
"4C+	c #243922",
"5C+	c #263925",
"6C+	c #273D25",
"7C+	c #2B4428",
"8C+	c #2A4327",
"9C+	c #2C482A",
"0C+	c #2F492B",
"aC+	c #2F482B",
"bC+	c #284522",
"cC+	c #67471E",
"dC+	c #E55404",
"eC+	c #F45202",
"fC+	c #F14E01",
"gC+	c #F25902",
"hC+	c #E85D06",
"iC+	c #E8D208",
"jC+	c #EEDD02",
"kC+	c #E5D505",
"lC+	c #E1D207",
"mC+	c #E0D008",
"nC+	c #D4C943",
"oC+	c #7A7961",
"pC+	c #787A73",
"qC+	c #7F8073",
"rC+	c #838270",
"sC+	c #838477",
"tC+	c #979A8D",
"uC+	c #878A7D",
"vC+	c #717269",
"wC+	c #848982",
"xC+	c #7D7F76",
"yC+	c #76776D",
"zC+	c #95957E",
"AC+	c #878773",
"BC+	c #737467",
"CC+	c #68655C",
"DC+	c #605954",
"EC+	c #5E5E5A",
"FC+	c #464842",
"GC+	c #3F3F3D",
"HC+	c #52534E",
"IC+	c #3E4041",
"JC+	c #5A6064",
"KC+	c #535657",
"LC+	c #B8B494",
"MC+	c #C7C7B6",
"NC+	c #A9AC9E",
"OC+	c #91917C",
"PC+	c #818369",
"QC+	c #C9C34E",
"RC+	c #E7D863",
"SC+	c #E6D967",
"TC+	c #E5D766",
"UC+	c #E5D774",
"VC+	c #E5D87C",
"WC+	c #E6D87B",
"XC+	c #E3D674",
"YC+	c #E7D134",
"ZC+	c #EAD618",
"`C+	c #E6D225",
" D+	c #E3D122",
".D+	c #DBCF2F",
"+D+	c #D8CF38",
"@D+	c #D6CD48",
"#D+	c #CEC84A",
"$D+	c #AEB254",
"%D+	c #48593C",
"&D+	c #2B3E2B",
"*D+	c #293D29",
"=D+	c #293A29",
"-D+	c #223526",
";D+	c #1B2D21",
">D+	c #1B2C20",
",D+	c #1A3120",
"'D+	c #1C3122",
")D+	c #1A2B1E",
"!D+	c #1B2E1E",
"~D+	c #1D3123",
"{D+	c #18241D",
"]D+	c #161F1E",
"^D+	c #1C3224",
"/D+	c #1D3526",
"(D+	c #163222",
"_D+	c #183423",
":D+	c #1F3726",
"<D+	c #1A3225",
"[D+	c #1D3426",
"}D+	c #1A3425",
"|D+	c #1B3224",
"1D+	c #162F24",
"2D+	c #162F25",
"3D+	c #1D3428",
"4D+	c #193324",
"5D+	c #183324",
"6D+	c #1B3527",
"7D+	c #1A2D21",
"8D+	c #16211C",
"9D+	c #18271C",
"0D+	c #1C2E21",
"aD+	c #1B3423",
"bD+	c #1F3526",
"cD+	c #1F3628",
"dD+	c #253C2C",
"eD+	c #263E27",
"fD+	c #243E27",
"gD+	c #2C422E",
"hD+	c #2B432E",
"iD+	c #2B402A",
"jD+	c #2B4329",
"kD+	c #2D432A",
"lD+	c #2C4229",
"mD+	c #2A3F28",
"nD+	c #293F28",
"oD+	c #283E28",
"pD+	c #273C26",
"qD+	c #232D23",
"rD+	c #253424",
"sD+	c #1E351E",
"tD+	c #1F331E",
"uD+	c #23361D",
"vD+	c #263A25",
"wD+	c #263A24",
"xD+	c #253924",
"yD+	c #2A3E29",
"zD+	c #263727",
"AD+	c #263924",
"BD+	c #263B24",
"CD+	c #2D4529",
"DD+	c #2B4427",
"ED+	c #284226",
"FD+	c #294527",
"GD+	c #314A2C",
"HD+	c #30492B",
"ID+	c #324B2C",
"JD+	c #324C2C",
"KD+	c #2E492A",
"LD+	c #2A4923",
"MD+	c #4D491D",
"ND+	c #E35204",
"OD+	c #F44F01",
"PD+	c #E86106",
"QD+	c #E6D208",
"RD+	c #E4D406",
"SD+	c #E0D23C",
"TD+	c #85816B",
"UD+	c #555752",
"VD+	c #636360",
"WD+	c #868678",
"XD+	c #797B75",
"YD+	c #78796E",
"ZD+	c #81837A",
"`D+	c #74756A",
" E+	c #696A62",
".E+	c #63645C",
"+E+	c #64655E",
"@E+	c #656660",
"#E+	c #646661",
"$E+	c #6A6C65",
"%E+	c #747368",
"&E+	c #7D7D6E",
"*E+	c #828272",
"=E+	c #858574",
"-E+	c #6B6B61",
";E+	c #5C5954",
">E+	c #5E5F5B",
",E+	c #565753",
"'E+	c #545251",
")E+	c #434443",
"!E+	c #727774",
"~E+	c #6B7477",
"{E+	c #9FA290",
"]E+	c #C4C3AC",
"^E+	c #C7C8B8",
"/E+	c #A9AC9D",
"(E+	c #818477",
"_E+	c #8E8D76",
":E+	c #858677",
"<E+	c #88875C",
"[E+	c #C9BF1D",
"}E+	c #EBD905",
"|E+	c #EEDC05",
"1E+	c #EAD80F",
"2E+	c #ECDA36",
"3E+	c #EAD82F",
"4E+	c #E6C82F",
"5E+	c #EB6A08",
"6E+	c #EC5F06",
"7E+	c #EB6106",
"8E+	c #EB6B07",
"9E+	c #EB7811",
"0E+	c #EB790F",
"aE+	c #EC7A1C",
"bE+	c #E5761D",
"cE+	c #B17134",
"dE+	c #3D4D34",
"eE+	c #374932",
"fE+	c #334A2E",
"gE+	c #293E28",
"hE+	c #253823",
"iE+	c #1E2F20",
"jE+	c #1C2F1F",
"kE+	c #203620",
"lE+	c #223922",
"mE+	c #1E381E",
"nE+	c #1E331F",
"oE+	c #18271F",
"pE+	c #17241B",
"qE+	c #1C3820",
"rE+	c #1A3623",
"sE+	c #16341D",
"tE+	c #17351C",
"uE+	c #1C3720",
"vE+	c #1B3A21",
"wE+	c #1B3623",
"xE+	c #1D3922",
"yE+	c #1E3721",
"zE+	c #213D22",
"AE+	c #223D24",
"BE+	c #1F3D25",
"CE+	c #26422B",
"DE+	c #224125",
"EE+	c #1D3D24",
"FE+	c #244029",
"GE+	c #1E3C26",
"HE+	c #1F3C23",
"IE+	c #214026",
"JE+	c #214127",
"KE+	c #1E3F23",
"LE+	c #23422B",
"ME+	c #27472A",
"NE+	c #29482B",
"OE+	c #31542B",
"PE+	c #2C4D2A",
"QE+	c #31532C",
"RE+	c #365631",
"SE+	c #355130",
"TE+	c #3B522E",
"UE+	c #38552F",
"VE+	c #35532C",
"WE+	c #37562D",
"XE+	c #39572D",
"YE+	c #3C5A30",
"ZE+	c #3C5A2E",
"`E+	c #425832",
" F+	c #40562F",
".F+	c #3D542E",
"+F+	c #39502C",
"@F+	c #3A522D",
"#F+	c #344C29",
"$F+	c #37502D",
"%F+	c #36502A",
"&F+	c #344E2A",
"*F+	c #314C2A",
"=F+	c #364F2C",
"-F+	c #3A522B",
";F+	c #374F2A",
">F+	c #344727",
",F+	c #374E2A",
"'F+	c #355027",
")F+	c #335027",
"!F+	c #375329",
"~F+	c #345329",
"{F+	c #2E4C25",
"]F+	c #2A4527",
"^F+	c #2A4324",
"/F+	c #2D4A22",
"(F+	c #2D4A24",
"_F+	c #2D4826",
":F+	c #284123",
"<F+	c #253C1F",
"[F+	c #263E22",
"}F+	c #273D21",
"|F+	c #283F1F",
"1F+	c #273F1E",
"2F+	c #284422",
"3F+	c #2C4624",
"4F+	c #304A28",
"5F+	c #2F4D26",
"6F+	c #2F4E27",
"7F+	c #325227",
"8F+	c #315025",
"9F+	c #355226",
"0F+	c #385625",
"aF+	c #395428",
"bF+	c #375527",
"cF+	c #365029",
"dF+	c #334E28",
"eF+	c #354F28",
"fF+	c #37532A",
"gF+	c #39552B",
"hF+	c #364F28",
"iF+	c #354F2D",
"jF+	c #2E4526",
"kF+	c #2C4727",
"lF+	c #2E4728",
"mF+	c #314D2A",
"nF+	c #2E4B27",
"oF+	c #2F4C26",
"pF+	c #375728",
"qF+	c #345629",
"rF+	c #335626",
"sF+	c #315128",
"tF+	c #334F2A",
"uF+	c #334E2B",
"vF+	c #37512D",
"wF+	c #344D2C",
"xF+	c #324F2B",
"yF+	c #304C2A",
"zF+	c #304A2A",
"AF+	c #324C2B",
"BF+	c #334F2C",
"CF+	c #35542C",
"DF+	c #36562D",
"EF+	c #35562D",
"FF+	c #3A572E",
"GF+	c #37582D",
"HF+	c #35552C",
"IF+	c #35592C",
"JF+	c #365A2C",
"KF+	c #36592C",
"LF+	c #36582D",
"MF+	c #34542B",
"NF+	c #32522A",
"OF+	c #33532C",
"PF+	c #31512A",
"QF+	c #31502A",
"RF+	c #2F4D29",
"SF+	c #2D4D28",
"TF+	c #2E4C28",
"UF+	c #2E4D27",
"VF+	c #2F4F29",
"WF+	c #315027",
"XF+	c #345227",
"YF+	c #35542A",
"ZF+	c #345228",
"`F+	c #345127",
" G+	c #345326",
".G+	c #335321",
"+G+	c #315021",
"@G+	c #325321",
"#G+	c #365723",
"$G+	c #3C5C24",
"%G+	c #46692A",
"&G+	c #42662D",
"*G+	c #45692A",
"=G+	c #5D6C2C",
"-G+	c #D55812",
";G+	c #F15602",
">G+	c #E66A07",
",G+	c #E4D307",
"'G+	c #E6D606",
")G+	c #DDD02A",
"!G+	c #82816B",
"~G+	c #5B5D58",
"{G+	c #4E504A",
"]G+	c #A5A799",
"^G+	c #6B6A63",
"/G+	c #A6A89C",
"(G+	c #959788",
"_G+	c #6A6A61",
":G+	c #525451",
"<G+	c #4F514C",
"[G+	c #57584D",
"}G+	c #808274",
"|G+	c #555751",
"1G+	c #686960",
"2G+	c #777769",
"3G+	c #61615A",
"4G+	c #545652",
"5G+	c #545752",
"6G+	c #6B685E",
"7G+	c #484946",
"8G+	c #433F42",
"9G+	c #66665C",
"0G+	c #4F514E",
"aG+	c #525553",
"bG+	c #737876",
"cG+	c #5B6366",
"dG+	c #798285",
"eG+	c #969B8C",
"fG+	c #868B81",
"gG+	c #8A8B79",
"hG+	c #898875",
"iG+	c #878877",
"jG+	c #8C8757",
"kG+	c #CFC316",
"lG+	c #E9D905",
"mG+	c #EDDB10",
"nG+	c #EBD832",
"oG+	c #E2BA2C",
"pG+	c #EF5502",
"qG+	c #EF5102",
"rG+	c #F05001",
"sG+	c #C65812",
"tG+	c #41522C",
"uG+	c #3D532A",
"vG+	c #42542C",
"wG+	c #375026",
"xG+	c #364D26",
"yG+	c #2C4425",
"zG+	c #213B20",
"AG+	c #223C21",
"BG+	c #20391F",
"CG+	c #22381D",
"DG+	c #233C1F",
"EG+	c #253B1F",
"FG+	c #21391E",
"GG+	c #1E361E",
"HG+	c #1C371C",
"IG+	c #1D371B",
"JG+	c #1D381B",
"KG+	c #21381F",
"LG+	c #223B21",
"MG+	c #20381E",
"NG+	c #1F381F",
"OG+	c #214122",
"PG+	c #1D4422",
"QG+	c #1D4524",
"RG+	c #234727",
"SG+	c #1C4622",
"TG+	c #214824",
"UG+	c #204924",
"VG+	c #234D25",
"WG+	c #1F4923",
"XG+	c #214B24",
"YG+	c #204B24",
"ZG+	c #1D4824",
"`G+	c #214C25",
" H+	c #255125",
".H+	c #255025",
"+H+	c #2A5528",
"@H+	c #2C5829",
"#H+	c #305E2A",
"$H+	c #325F2B",
"%H+	c #335D2B",
"&H+	c #3E642E",
"*H+	c #3E672E",
"=H+	c #3E672D",
"-H+	c #40672A",
";H+	c #3F692D",
">H+	c #44692B",
",H+	c #51762F",
"'H+	c #5D7D38",
")H+	c #5F7D37",
"!H+	c #628135",
"~H+	c #607F33",
"{H+	c #5D7E32",
"]H+	c #5A7C31",
"^H+	c #5B7C31",
"/H+	c #5B7B30",
"(H+	c #597A34",
"_H+	c #5B7B34",
":H+	c #5C7B32",
"<H+	c #57782E",
"[H+	c #57782F",
"}H+	c #56772E",
"|H+	c #54782E",
"1H+	c #51712E",
"2H+	c #547433",
"3H+	c #547331",
"4H+	c #50712D",
"5H+	c #4D6F2D",
"6H+	c #486A2F",
"7H+	c #45662C",
"8H+	c #426529",
"9H+	c #3B6427",
"0H+	c #3B6325",
"aH+	c #396228",
"bH+	c #3B6328",
"cH+	c #3A5F29",
"dH+	c #396227",
"eH+	c #385F28",
"fH+	c #396026",
"gH+	c #3A6027",
"hH+	c #3E622A",
"iH+	c #3C6329",
"jH+	c #3A632A",
"kH+	c #3C6529",
"lH+	c #3D6527",
"mH+	c #406728",
"nH+	c #3F6528",
"oH+	c #426726",
"pH+	c #4A6E29",
"qH+	c #51762D",
"rH+	c #567931",
"sH+	c #53782E",
"tH+	c #557831",
"uH+	c #577B34",
"vH+	c #5A7E33",
"wH+	c #608431",
"xH+	c #5F8234",
"yH+	c #5C8034",
"zH+	c #5C8234",
"AH+	c #5A7E32",
"BH+	c #5D8234",
"CH+	c #5D8232",
"DH+	c #618635",
"EH+	c #5E8235",
"FH+	c #5A7F2F",
"GH+	c #608234",
"HH+	c #5E8236",
"IH+	c #5D8235",
"JH+	c #588137",
"KH+	c #537C36",
"LH+	c #4A712F",
"MH+	c #487031",
"NH+	c #4B7235",
"OH+	c #497230",
"PH+	c #4A7336",
"QH+	c #497136",
"RH+	c #4A7436",
"SH+	c #497135",
"TH+	c #487135",
"UH+	c #486F35",
"VH+	c #4A7236",
"WH+	c #4A7235",
"XH+	c #4A7335",
"YH+	c #4B7336",
"ZH+	c #4A7237",
"`H+	c #4C7437",
" I+	c #4C7436",
".I+	c #4D7537",
"+I+	c #4E7637",
"@I+	c #4B7437",
"#I+	c #487337",
"$I+	c #456E33",
"%I+	c #44682D",
"&I+	c #40612A",
"*I+	c #3F6027",
"=I+	c #3F6224",
"-I+	c #3E6022",
";I+	c #3D6023",
">I+	c #3B5F1F",
",I+	c #3B5D21",
"'I+	c #3E6124",
")I+	c #3F5F23",
"!I+	c #3E611F",
"~I+	c #3D611F",
"{I+	c #385B1B",
"]I+	c #395D1B",
"^I+	c #3A5D1D",
"/I+	c #3A5C1B",
"(I+	c #3A5E1C",
"_I+	c #446721",
":I+	c #4A7023",
"<I+	c #4D7423",
"[I+	c #58812B",
"}I+	c #689037",
"|I+	c #6E9536",
"1I+	c #7D9337",
"2I+	c #DF580D",
"3I+	c #E65E06",
"4I+	c #E9D904",
"5I+	c #E1D107",
"6I+	c #DCD02A",
"7I+	c #61635E",
"8I+	c #86877A",
"9I+	c #66655F",
"0I+	c #5E5F5A",
"aI+	c #5C5F56",
"bI+	c #4D5046",
"cI+	c #5A5B4F",
"dI+	c #9C9B88",
"eI+	c #575753",
"fI+	c #63635C",
"gI+	c #515449",
"hI+	c #4F514A",
"iI+	c #6E6F69",
"jI+	c #4A4944",
"kI+	c #484745",
"lI+	c #515452",
"mI+	c #565956",
"nI+	c #7A807D",
"oI+	c #6B7273",
"pI+	c #CDCCBA",
"qI+	c #9FA294",
"rI+	c #808478",
"sI+	c #8B8A73",
"tI+	c #8B8971",
"uI+	c #928D4E",
"vI+	c #D7C911",
"wI+	c #EEDC02",
"xI+	c #E8D517",
"yI+	c #E3B927",
"zI+	c #EC5503",
"AI+	c #ED4D01",
"BI+	c #EE5101",
"CI+	c #C65410",
"DI+	c #3E5422",
"EI+	c #355123",
"FI+	c #385225",
"GI+	c #395221",
"HI+	c #3A5122",
"II+	c #355020",
"JI+	c #2B4520",
"KI+	c #243D20",
"LI+	c #253E22",
"MI+	c #264120",
"NI+	c #263D1D",
"OI+	c #253C1E",
"PI+	c #23381D",
"QI+	c #20381C",
"RI+	c #21371B",
"SI+	c #22381E",
"TI+	c #24371D",
"UI+	c #1E371C",
"VI+	c #22381F",
"WI+	c #1F381D",
"XI+	c #1F381B",
"YI+	c #21371C",
"ZI+	c #1E3B1C",
"`I+	c #1E3E1E",
" J+	c #214322",
".J+	c #1E4520",
"+J+	c #1E461C",
"@J+	c #1E4720",
"#J+	c #1E451E",
"$J+	c #204621",
"%J+	c #1F4523",
"&J+	c #1F4722",
"*J+	c #1E4622",
"=J+	c #1F4721",
"-J+	c #244923",
";J+	c #224A20",
">J+	c #234B1F",
",J+	c #214C23",
"'J+	c #204725",
")J+	c #3D662B",
"!J+	c #40682E",
"~J+	c #3D672C",
"{J+	c #3E672B",
"]J+	c #416A2B",
"^J+	c #567A30",
"/J+	c #62852F",
"(J+	c #658731",
"_J+	c #648630",
":J+	c #648733",
"<J+	c #62862E",
"[J+	c #63872F",
"}J+	c #648830",
"|J+	c #668A30",
"1J+	c #628630",
"2J+	c #5F8332",
"3J+	c #5F8431",
"4J+	c #638730",
"5J+	c #5D832B",
"6J+	c #5C812F",
"7J+	c #5A7F2D",
"8J+	c #60832E",
"9J+	c #608131",
"0J+	c #5A7D32",
"aJ+	c #53782F",
"bJ+	c #4C712A",
"cJ+	c #466929",
"dJ+	c #436828",
"eJ+	c #416728",
"fJ+	c #406729",
"gJ+	c #3F6729",
"hJ+	c #3B6629",
"iJ+	c #3C662A",
"jJ+	c #406629",
"kJ+	c #3E6629",
"lJ+	c #42682B",
"mJ+	c #416729",
"nJ+	c #426728",
"oJ+	c #456927",
"pJ+	c #486F29",
"qJ+	c #51772C",
"rJ+	c #557A31",
"sJ+	c #597E32",
"tJ+	c #577B2F",
"uJ+	c #567A31",
"vJ+	c #55792E",
"wJ+	c #597D30",
"xJ+	c #5E8431",
"yJ+	c #5E8230",
"zJ+	c #628635",
"AJ+	c #5C8131",
"BJ+	c #5C8331",
"CJ+	c #5F8531",
"DJ+	c #5E8532",
"EJ+	c #5C8330",
"FJ+	c #5E8534",
"GJ+	c #5D8531",
"HJ+	c #5E8632",
"IJ+	c #5C8434",
"JJ+	c #5B8436",
"KJ+	c #4C772D",
"LJ+	c #48712A",
"MJ+	c #48712F",
"NJ+	c #497133",
"OJ+	c #497335",
"PJ+	c #497330",
"QJ+	c #4C7635",
"RJ+	c #4C7534",
"SJ+	c #4B7732",
"TJ+	c #4B7636",
"UJ+	c #4B7535",
"VJ+	c #4C7633",
"WJ+	c #4D7631",
"XJ+	c #4F7836",
"YJ+	c #4F7837",
"ZJ+	c #517937",
"`J+	c #507937",
" K+	c #517936",
".K+	c #517A37",
"+K+	c #4F7738",
"@K+	c #44692C",
"#K+	c #416424",
"$K+	c #3B601D",
"%K+	c #3E621F",
"&K+	c #3E611E",
"*K+	c #496520",
"=K+	c #41611D",
"-K+	c #3E5E1D",
";K+	c #3D631E",
">K+	c #3C611D",
",K+	c #3B5E1D",
"'K+	c #406420",
")K+	c #406521",
"!K+	c #3D5F1C",
"~K+	c #3C5F1D",
"{K+	c #446725",
"]K+	c #476B27",
"^K+	c #4A7129",
"/K+	c #59852D",
"(K+	c #618E33",
"_K+	c #679134",
":K+	c #7C8F33",
"<K+	c #E75405",
"[K+	c #F45102",
"}K+	c #F54D01",
"|K+	c #E85904",
"1K+	c #E6CE0A",
"2K+	c #E8D904",
"3K+	c #DCCF29",
"4K+	c #7D7E6A",
"5K+	c #676B67",
"6K+	c #54564E",
"7K+	c #68675E",
"8K+	c #6A6B64",
"9K+	c #9D9F90",
"0K+	c #BABAA8",
"aK+	c #8F9183",
"bK+	c #727166",
"cK+	c #43463C",
"dK+	c #53534B",
"eK+	c #94927A",
"fK+	c #72746E",
"gK+	c #5A5B57",
"hK+	c #50524F",
"iK+	c #676861",
"jK+	c #9A9C8C",
"kK+	c #55554F",
"lK+	c #8C9086",
"mK+	c #787971",
"nK+	c #4C4D49",
"oK+	c #4E504C",
"pK+	c #4A4A48",
"qK+	c #62645F",
"rK+	c #676C6C",
"sK+	c #757C7B",
"tK+	c #8C928B",
"uK+	c #989E90",
"vK+	c #CCCCBB",
"wK+	c #B6B7A5",
"xK+	c #9DA194",
"yK+	c #8D8D7C",
"zK+	c #9C973F",
"AK+	c #DFD00F",
"BK+	c #E9D50A",
"CK+	c #E5C327",
"DK+	c #F24F01",
"EK+	c #C15714",
"FK+	c #395223",
"GK+	c #324E27",
"HK+	c #345123",
"IK+	c #34521D",
"JK+	c #36511E",
"KK+	c #365120",
"LK+	c #344D1F",
"MK+	c #263F1E",
"NK+	c #233C20",
"OK+	c #23391E",
"PK+	c #253B20",
"QK+	c #243B1E",
"RK+	c #253C1C",
"SK+	c #243A1F",
"TK+	c #23391C",
"UK+	c #253A1F",
"VK+	c #243C1F",
"WK+	c #20371D",
"XK+	c #20381F",
"YK+	c #21381D",
"ZK+	c #23371E",
"`K+	c #253920",
" L+	c #1F3D1E",
".L+	c #20461E",
"+L+	c #20481C",
"@L+	c #224B21",
"#L+	c #1D471E",
"$L+	c #1D471D",
"%L+	c #214722",
"&L+	c #204520",
"*L+	c #1E461F",
"=L+	c #1D461F",
"-L+	c #204A21",
";L+	c #224B22",
">L+	c #264B24",
",L+	c #23491E",
"'L+	c #234923",
")L+	c #224820",
"!L+	c #214725",
"~L+	c #40672B",
"{L+	c #44692A",
"]L+	c #486D2B",
"^L+	c #51752F",
"/L+	c #5F8331",
"(L+	c #658830",
"_L+	c #638530",
":L+	c #668833",
"<L+	c #668934",
"[L+	c #698C34",
"}L+	c #698D33",
"|L+	c #688C31",
"1L+	c #668B31",
"2L+	c #668A31",
"3L+	c #61852F",
"4L+	c #5C8232",
"5L+	c #5C8334",
"6L+	c #5C8333",
"7L+	c #5C8130",
"8L+	c #5A7F31",
"9L+	c #5C8134",
"0L+	c #5D7F32",
"aL+	c #597C30",
"bL+	c #52782C",
"cL+	c #4B722B",
"dL+	c #466928",
"eL+	c #456829",
"fL+	c #44682A",
"gL+	c #416829",
"hL+	c #3F672A",
"iL+	c #416928",
"jL+	c #436825",
"kL+	c #456A27",
"lL+	c #446829",
"mL+	c #446A2A",
"nL+	c #41672A",
"oL+	c #43692A",
"pL+	c #426727",
"qL+	c #486E28",
"rL+	c #4B7029",
"sL+	c #51762B",
"tL+	c #56792E",
"uL+	c #547A2E",
"vL+	c #557B30",
"wL+	c #587C33",
"xL+	c #587C34",
"yL+	c #587E32",
"zL+	c #587D32",
"AL+	c #5B8034",
"BL+	c #5B8133",
"CL+	c #5E8435",
"DL+	c #5A8232",
"EL+	c #628734",
"FL+	c #5F8535",
"GL+	c #608633",
"HL+	c #5F8430",
"IL+	c #5D842F",
"JL+	c #5B8535",
"KL+	c #5B8536",
"LL+	c #578036",
"ML+	c #4D7635",
"NL+	c #497332",
"OL+	c #4B7433",
"PL+	c #497334",
"QL+	c #4A7433",
"RL+	c #4B7633",
"SL+	c #4C7734",
"TL+	c #4C7736",
"UL+	c #4B7737",
"VL+	c #4D7937",
"WL+	c #4F7A36",
"XL+	c #547D37",
"YL+	c #577E39",
"ZL+	c #557D37",
"`L+	c #587F39",
" M+	c #577F37",
".M+	c #587F38",
"+M+	c #567E3A",
"@M+	c #557E3A",
"#M+	c #527939",
"$M+	c #486F30",
"%M+	c #406321",
"&M+	c #406023",
"*M+	c #3C601E",
"=M+	c #3F621D",
"-M+	c #3D5E20",
";M+	c #3E6120",
">M+	c #3C601D",
",M+	c #426622",
"'M+	c #416422",
")M+	c #395C1C",
"!M+	c #3D601D",
"~M+	c #3B5F1D",
"{M+	c #3E631E",
"]M+	c #426522",
"^M+	c #4A6F21",
"/M+	c #547F2B",
"(M+	c #578933",
"_M+	c #608F35",
":M+	c #699235",
"<M+	c #7E9037",
"[M+	c #E65606",
"}M+	c #F35102",
"|M+	c #E85503",
"1M+	c #E7C809",
"2M+	c #EBDB02",
"3M+	c #EDDE03",
"4M+	c #D8CD2B",
"5M+	c #717470",
"6M+	c #A2A496",
"7M+	c #C2C2AF",
"8M+	c #807F71",
"9M+	c #4F504A",
"0M+	c #5E6054",
"aM+	c #A5A592",
"bM+	c #BFBFAE",
"cM+	c #4F524A",
"dM+	c #6F7068",
"eM+	c #9E9F8E",
"fM+	c #89876F",
"gM+	c #5B5C4E",
"hM+	c #989B91",
"iM+	c #808177",
"jM+	c #55534E",
"kM+	c #535250",
"lM+	c #525250",
"mM+	c #ADAFA0",
"nM+	c #696C65",
"oM+	c #969A90",
"pM+	c #CBCAB6",
"qM+	c #C8C8B4",
"rM+	c #C8C6AD",
"sM+	c #989C91",
"tM+	c #898976",
"uM+	c #898A78",
"vM+	c #908E75",
"wM+	c #7B7C6D",
"xM+	c #7F8174",
"yM+	c #72746A",
"zM+	c #787A70",
"AM+	c #767564",
"BM+	c #A6A327",
"CM+	c #E4D308",
"DM+	c #E9D706",
"EM+	c #EAD519",
"FM+	c #EAD40E",
"GM+	c #E9C125",
"HM+	c #EB5402",
"IM+	c #B95714",
"JM+	c #244120",
"KM+	c #1E411D",
"LM+	c #1E3C1D",
"MM+	c #1F3A1B",
"NM+	c #1C391A",
"OM+	c #1C381A",
"PM+	c #19341A",
"QM+	c #19361A",
"RM+	c #19371A",
"SM+	c #22391D",
"TM+	c #23381B",
"UM+	c #1F381C",
"VM+	c #22391F",
"WM+	c #25391C",
"XM+	c #263B20",
"YM+	c #22381C",
"ZM+	c #24371C",
"`M+	c #21391D",
" N+	c #21381E",
".N+	c #223820",
"+N+	c #233A21",
"@N+	c #23371D",
"#N+	c #23371F",
"$N+	c #23371C",
"%N+	c #203C1B",
"&N+	c #24451D",
"*N+	c #21461E",
"=N+	c #1F461C",
"-N+	c #214820",
";N+	c #234723",
">N+	c #204720",
",N+	c #214A23",
"'N+	c #224C23",
")N+	c #234C23",
"!N+	c #22471D",
"~N+	c #264D22",
"{N+	c #204824",
"]N+	c #4C6E2C",
"^N+	c #587730",
"/N+	c #577A2E",
"(N+	c #55782D",
"_N+	c #56792D",
":N+	c #56782E",
"<N+	c #567930",
"[N+	c #577933",
"}N+	c #5A7D2F",
"|N+	c #5B802F",
"1N+	c #587B2F",
"2N+	c #587A31",
"3N+	c #597B2F",
"4N+	c #597C31",
"5N+	c #587B32",
"6N+	c #557A30",
"7N+	c #557830",
"8N+	c #53772C",
"9N+	c #55792D",
"0N+	c #4E752E",
"aN+	c #4B722D",
"bN+	c #4A7229",
"cN+	c #4D722D",
"dN+	c #4C702F",
"eN+	c #4C712D",
"fN+	c #4C722B",
"gN+	c #4D712D",
"hN+	c #4B732C",
"iN+	c #4A712A",
"jN+	c #497129",
"kN+	c #4E742A",
"lN+	c #4C722D",
"mN+	c #4E752D",
"nN+	c #4C732D",
"oN+	c #4C712B",
"pN+	c #486F2B",
"qN+	c #476928",
"rN+	c #4B6E29",
"sN+	c #4F702F",
"tN+	c #4B6D2A",
"uN+	c #496E2A",
"vN+	c #4E702C",
"wN+	c #50722E",
"xN+	c #51762E",
"yN+	c #50742D",
"zN+	c #4E702E",
"AN+	c #4D712C",
"BN+	c #4A6E28",
"CN+	c #4A702D",
"DN+	c #4B702D",
"EN+	c #4E732D",
"FN+	c #4E722C",
"GN+	c #4F722B",
"HN+	c #51732A",
"IN+	c #51742D",
"JN+	c #4D7531",
"KN+	c #4D7636",
"LN+	c #4A7537",
"MN+	c #4B7637",
"NN+	c #4D7736",
"ON+	c #4E7737",
"PN+	c #4C7737",
"QN+	c #4F743E",
"RN+	c #4E763A",
"SN+	c #51753F",
"TN+	c #4F733F",
"UN+	c #52753F",
"VN+	c #51743F",
"WN+	c #507241",
"XN+	c #527243",
"YN+	c #4F773B",
"ZN+	c #52783A",
"`N+	c #4F7A37",
" O+	c #4E743E",
".O+	c #477034",
"+O+	c #3E672A",
"@O+	c #3E6125",
"#O+	c #3D6124",
"$O+	c #3E6323",
"%O+	c #3E6122",
"&O+	c #3E6023",
"*O+	c #3B5F20",
"=O+	c #3D6120",
"-O+	c #3E6321",
";O+	c #3F6220",
">O+	c #3D611E",
",O+	c #3A5F1E",
"'O+	c #3D631F",
")O+	c #395D1C",
"!O+	c #3D641E",
"~O+	c #436722",
"{O+	c #4D7426",
"]O+	c #5C8A31",
"^O+	c #588D34",
"/O+	c #588C34",
"(O+	c #618D33",
"_O+	c #7B9434",
":O+	c #E1590A",
"<O+	c #EE5002",
"[O+	c #E95803",
"}O+	c #E7C90B",
"|O+	c #E9D903",
"1O+	c #DACE2C",
"2O+	c #878770",
"3O+	c #727267",
"4O+	c #B1B09D",
"5O+	c #C1C2AF",
"6O+	c #7F7F73",
"7O+	c #545450",
"8O+	c #696A5F",
"9O+	c #BEBEAC",
"0O+	c #A6A592",
"aO+	c #74766E",
"bO+	c #9A9F92",
"cO+	c #898871",
"dO+	c #5E6056",
"eO+	c #575855",
"fO+	c #7C7F76",
"gO+	c #504F4D",
"hO+	c #595A56",
"iO+	c #5D615F",
"jO+	c #70736C",
"kO+	c #83867D",
"lO+	c #B3B6A5",
"mO+	c #D0CEBA",
"nO+	c #838370",
"oO+	c #77786A",
"pO+	c #6B6D68",
"qO+	c #7A7C55",
"rO+	c #B3AD21",
"sO+	c #E7D50E",
"tO+	c #E6D508",
"uO+	c #E9D413",
"vO+	c #E1B727",
"wO+	c #EE5602",
"xO+	c #BD4C12",
"yO+	c #213F1D",
"zO+	c #1E3E1B",
"AO+	c #1B391A",
"BO+	c #183619",
"CO+	c #143419",
"DO+	c #153519",
"EO+	c #153419",
"FO+	c #173319",
"GO+	c #1B371B",
"HO+	c #23411E",
"IO+	c #25461B",
"JO+	c #23421B",
"KO+	c #243E1E",
"LO+	c #243D1F",
"MO+	c #25401E",
"NO+	c #243E1D",
"OO+	c #233C1D",
"PO+	c #284221",
"QO+	c #243F1F",
"RO+	c #233E1D",
"SO+	c #23401E",
"TO+	c #23401C",
"UO+	c #223C1D",
"VO+	c #263D20",
"WO+	c #223B1D",
"XO+	c #254021",
"YO+	c #24401F",
"ZO+	c #26451D",
"`O+	c #23421C",
" P+	c #23471D",
".P+	c #22461E",
"+P+	c #1D461E",
"@P+	c #204522",
"#P+	c #224822",
"$P+	c #224A22",
"%P+	c #1F4521",
"&P+	c #204620",
"*P+	c #20471E",
"=P+	c #1F4820",
"-P+	c #21481C",
";P+	c #224B20",
">P+	c #244C25",
",P+	c #607B33",
"'P+	c #638135",
")P+	c #597A2F",
"!P+	c #51772E",
"~P+	c #54772E",
"{P+	c #567830",
"]P+	c #54782F",
"^P+	c #577930",
"/P+	c #57792F",
"(P+	c #57792E",
"_P+	c #567832",
":P+	c #577831",
"<P+	c #557931",
"[P+	c #537330",
"}P+	c #53742F",
"|P+	c #4F772F",
"1P+	c #53772D",
"2P+	c #4E762F",
"3P+	c #4F762C",
"4P+	c #4F762E",
"5P+	c #507631",
"6P+	c #52772F",
"7P+	c #52772C",
"8P+	c #53772E",
"9P+	c #537830",
"0P+	c #527730",
"aP+	c #527832",
"bP+	c #54782C",
"cP+	c #50762C",
"dP+	c #51772F",
"eP+	c #50772B",
"fP+	c #50772E",
"gP+	c #496D29",
"hP+	c #4A6C28",
"iP+	c #486929",
"jP+	c #4C6C2B",
"kP+	c #4C6E2B",
"lP+	c #496E29",
"mP+	c #496D28",
"nP+	c #4A6D29",
"oP+	c #496A2A",
"pP+	c #466927",
"qP+	c #496A29",
"rP+	c #466829",
"sP+	c #466828",
"tP+	c #466827",
"uP+	c #496B28",
"vP+	c #43682C",
"wP+	c #486D34",
"xP+	c #4A6F39",
"yP+	c #4A7337",
"zP+	c #4A7338",
"AP+	c #4A7239",
"BP+	c #497236",
"CP+	c #4A7437",
"DP+	c #4B7537",
"EP+	c #4C7637",
"FP+	c #4A7637",
"GP+	c #4A7438",
"HP+	c #4C733A",
"IP+	c #4B7538",
"JP+	c #4F763C",
"KP+	c #507738",
"LP+	c #4E7739",
"MP+	c #457035",
"NP+	c #3F6A30",
"OP+	c #406A2F",
"PP+	c #41682B",
"QP+	c #3F6628",
"RP+	c #436727",
"SP+	c #406727",
"TP+	c #406626",
"UP+	c #3E6424",
"VP+	c #3E6526",
"WP+	c #3F6727",
"XP+	c #406627",
"YP+	c #3F6624",
"ZP+	c #446827",
"`P+	c #466A27",
" Q+	c #466C27",
".Q+	c #497029",
"+Q+	c #507A2C",
"@Q+	c #51802F",
"#Q+	c #507E2F",
"$Q+	c #50812F",
"%Q+	c #56832F",
"&Q+	c #678430",
"*Q+	c #D35912",
"=Q+	c #EC5001",
"-Q+	c #ED5202",
";Q+	c #EE4E01",
">Q+	c #EF4D01",
",Q+	c #E75804",
"'Q+	c #E6C30E",
")Q+	c #EBDC03",
"!Q+	c #939279",
"~Q+	c #939588",
"{Q+	c #BCBDAF",
"]Q+	c #777566",
"^Q+	c #5B5C54",
"/Q+	c #AAA891",
"(Q+	c #7E7E71",
"_Q+	c #9A9E91",
":Q+	c #979B8D",
"<Q+	c #868674",
"[Q+	c #666760",
"}Q+	c #5B5E5A",
"|Q+	c #9BA094",
"1Q+	c #6E7068",
"2Q+	c #4C4D47",
"3Q+	c #5B5954",
"4Q+	c #5F5F59",
"5Q+	c #7A7969",
"6Q+	c #8F9282",
"7Q+	c #C3C3B1",
"8Q+	c #CDCCB9",
"9Q+	c #D0CEB9",
"0Q+	c #C9C7AD",
"aQ+	c #8F9387",
"bQ+	c #81816D",
"cQ+	c #7B7D72",
"dQ+	c #7F7F6E",
"eQ+	c #757668",
"fQ+	c #656866",
"gQ+	c #8B8143",
"hQ+	c #C3B821",
"iQ+	c #E6D50B",
"jQ+	c #E7D604",
"kQ+	c #E8D608",
"lQ+	c #E7D30B",
"mQ+	c #DDAB24",
"nQ+	c #E05505",
"oQ+	c #BC4B10",
"pQ+	c #1F3A1C",
"qQ+	c #1E3C1C",
"rQ+	c #18371A",
"sQ+	c #18361A",
"tQ+	c #163519",
"uQ+	c #163619",
"vQ+	c #17361A",
"wQ+	c #19381B",
"xQ+	c #21421C",
"yQ+	c #26491E",
"zQ+	c #24461B",
"AQ+	c #24461C",
"BQ+	c #25491E",
"CQ+	c #264A1E",
"DQ+	c #274B21",
"EQ+	c #294D1F",
"FQ+	c #264A1F",
"GQ+	c #24461E",
"HQ+	c #24471C",
"IQ+	c #24471D",
"JQ+	c #23461B",
"KQ+	c #23461C",
"LQ+	c #21431D",
"MQ+	c #264920",
"NQ+	c #274C21",
"OQ+	c #22411D",
"PQ+	c #25481C",
"QQ+	c #22491C",
"RQ+	c #285323",
"SQ+	c #275224",
"TQ+	c #2D5A28",
"UQ+	c #265225",
"VQ+	c #265124",
"WQ+	c #2A5525",
"XQ+	c #2B5625",
"YQ+	c #2C5827",
"ZQ+	c #295424",
"`Q+	c #2B5726",
" R+	c #2F5C28",
".R+	c #2A5526",
"+R+	c #678433",
"@R+	c #597C2F",
"#R+	c #527533",
"$R+	c #4C7233",
"%R+	c #4A712E",
"&R+	c #4D722E",
"*R+	c #50742F",
"=R+	c #52762F",
"-R+	c #547831",
";R+	c #51752D",
">R+	c #53752F",
",R+	c #527531",
"'R+	c #51742E",
")R+	c #506D32",
"!R+	c #507430",
"~R+	c #4F7534",
"{R+	c #4D7533",
"]R+	c #4E7636",
"^R+	c #4F7631",
"/R+	c #4F7630",
"(R+	c #4F752F",
"_R+	c #517531",
":R+	c #50762D",
"<R+	c #517630",
"[R+	c #50762B",
"}R+	c #4F772C",
"|R+	c #537831",
"1R+	c #517732",
"2R+	c #52782F",
"3R+	c #52782E",
"4R+	c #4F772E",
"5R+	c #4D762C",
"6R+	c #4E762C",
"7R+	c #4E742C",
"8R+	c #476927",
"9R+	c #4A6929",
"0R+	c #476726",
"aR+	c #446627",
"bR+	c #456828",
"cR+	c #466A28",
"dR+	c #446729",
"eR+	c #456728",
"fR+	c #46682A",
"gR+	c #496929",
"hR+	c #476828",
"iR+	c #476A28",
"jR+	c #476E32",
"kR+	c #4A7137",
"lR+	c #497235",
"mR+	c #4D7737",
"nR+	c #4D7837",
"oR+	c #4E7936",
"pR+	c #4C7636",
"qR+	c #467133",
"rR+	c #39682E",
"sR+	c #3B682D",
"tR+	c #41692A",
"uR+	c #41682A",
"vR+	c #41692B",
"wR+	c #42682A",
"xR+	c #406829",
"yR+	c #416726",
"zR+	c #456B29",
"AR+	c #446A28",
"BR+	c #426826",
"CR+	c #426828",
"DR+	c #4B7428",
"ER+	c #4B7729",
"FR+	c #4D7C31",
"GR+	c #49752E",
"HR+	c #47702F",
"IR+	c #4A752A",
"JR+	c #55762D",
"KR+	c #D35915",
"LR+	c #EC4D01",
"MR+	c #EA5503",
"NR+	c #E6C60B",
"OR+	c #E8D804",
"PR+	c #DDD027",
"QR+	c #9C997C",
"RR+	c #98998B",
"SR+	c #C3C3B3",
"TR+	c #807F73",
"UR+	c #787567",
"VR+	c #B6B49E",
"WR+	c #C6C6B2",
"XR+	c #828274",
"YR+	c #626157",
"ZR+	c #A3A595",
"`R+	c #B1B099",
" S+	c #858473",
".S+	c #8D8D7D",
"+S+	c #75776E",
"@S+	c #74756D",
"#S+	c #919589",
"$S+	c #696A63",
"%S+	c #585956",
"&S+	c #93968B",
"*S+	c #8A8D81",
"=S+	c #484546",
"-S+	c #716E61",
";S+	c #9A9883",
">S+	c #8B8B7A",
",S+	c #929383",
"'S+	c #A5A693",
")S+	c #C5C4B0",
"!S+	c #C2C2AD",
"~S+	c #BDBBA3",
"{S+	c #9EA292",
"]S+	c #7C7D6D",
"^S+	c #797969",
"/S+	c #696D69",
"(S+	c #918F36",
"_S+	c #CEC62F",
":S+	c #DBD043",
"<S+	c #DBD038",
"[S+	c #E5D523",
"}S+	c #E5D41F",
"|S+	c #E5D41B",
"1S+	c #E3D322",
"2S+	c #D9AA27",
"3S+	c #EA5302",
"4S+	c #E95402",
"5S+	c #E45404",
"6S+	c #BF4C10",
"7S+	c #21401C",
"8S+	c #1D3B1C",
"9S+	c #18381A",
"0S+	c #19391A",
"aS+	c #25441B",
"bS+	c #294C1D",
"cS+	c #284C1E",
"dS+	c #2B5022",
"eS+	c #274A21",
"fS+	c #23471B",
"gS+	c #22451C",
"hS+	c #22471C",
"iS+	c #264B20",
"jS+	c #25471D",
"kS+	c #25471E",
"lS+	c #254620",
"mS+	c #25451F",
"nS+	c #21411E",
"oS+	c #25471F",
"pS+	c #24471E",
"qS+	c #254A1F",
"rS+	c #2A5424",
"sS+	c #295527",
"tS+	c #2A5626",
"uS+	c #2A5627",
"vS+	c #2D5927",
"wS+	c #315F29",
"xS+	c #2D5A27",
"yS+	c #2E5B28",
"zS+	c #325F2A",
"AS+	c #35612C",
"BS+	c #3D692D",
"CS+	c #39672C",
"DS+	c #38662C",
"ES+	c #39642B",
"FS+	c #3A652C",
"GS+	c #39622C",
"HS+	c #3A642A",
"IS+	c #3A652B",
"JS+	c #3B632A",
"KS+	c #3E662D",
"LS+	c #3D652C",
"MS+	c #3E652D",
"NS+	c #3A642B",
"OS+	c #39642A",
"PS+	c #3A662E",
"QS+	c #3D652D",
"RS+	c #456A31",
"SS+	c #486F34",
"TS+	c #4D7234",
"US+	c #4E7435",
"VS+	c #4C7536",
"WS+	c #4C7336",
"XS+	c #4E7236",
"YS+	c #527338",
"ZS+	c #507437",
"`S+	c #517339",
" T+	c #507533",
".T+	c #4E7534",
"+T+	c #517534",
"@T+	c #4E7434",
"#T+	c #507535",
"$T+	c #4D7433",
"%T+	c #4C7333",
"&T+	c #507534",
"*T+	c #4F742F",
"=T+	c #55762E",
"-T+	c #4F6E2B",
";T+	c #4B6C29",
">T+	c #476A27",
",T+	c #466A26",
"'T+	c #456929",
")T+	c #4A6E23",
"!T+	c #4B6E25",
"~T+	c #4B6E27",
"{T+	c #4B6F23",
"]T+	c #496E25",
"^T+	c #4C7123",
"/T+	c #496F27",
"(T+	c #4C7024",
"_T+	c #4D7023",
":T+	c #4C7126",
"<T+	c #4F7326",
"[T+	c #507323",
"}T+	c #527521",
"|T+	c #4F731F",
"1T+	c #4B6D24",
"2T+	c #476C26",
"3T+	c #4B7126",
"4T+	c #537A2B",
"5T+	c #588033",
"6T+	c #5B8434",
"7T+	c #598237",
"8T+	c #578235",
"9T+	c #588235",
"0T+	c #598139",
"aT+	c #598034",
"bT+	c #5A8235",
"cT+	c #588035",
"dT+	c #578035",
"eT+	c #567D36",
"fT+	c #567E38",
"gT+	c #5A833B",
"hT+	c #588036",
"iT+	c #588037",
"jT+	c #567E35",
"kT+	c #588434",
"lT+	c #547F34",
"mT+	c #497733",
"nT+	c #406C30",
"oT+	c #416A29",
"pT+	c #446928",
"qT+	c #426829",
"rT+	c #436829",
"sT+	c #456A28",
"tT+	c #446B29",
"uT+	c #426928",
"vT+	c #456B27",
"wT+	c #476F29",
"xT+	c #436A2B",
"yT+	c #43682A",
"zT+	c #42692A",
"AT+	c #466B29",
"BT+	c #456E29",
"CT+	c #47722B",
"DT+	c #48752E",
"ET+	c #456E2F",
"FT+	c #446C31",
"GT+	c #476E2D",
"HT+	c #47712C",
"IT+	c #5D7732",
"JT+	c #D6570F",
"KT+	c #EE5001",
"LT+	c #E95804",
"MT+	c #EACC0A",
"NT+	c #949074",
"OT+	c #5A5C58",
"PT+	c #8B8D84",
"QT+	c #BABAAB",
"RT+	c #828173",
"ST+	c #6F6B5D",
"TT+	c #B5B39C",
"UT+	c #888879",
"VT+	c #68685D",
"WT+	c #7D8078",
"XT+	c #919181",
"YT+	c #78786F",
"ZT+	c #979B8E",
"`T+	c #595956",
" U+	c #4D4D49",
".U+	c #717169",
"+U+	c #86877B",
"@U+	c #5A5752",
"#U+	c #6D695D",
"$U+	c #928E77",
"%U+	c #B6B297",
"&U+	c #928F78",
"*U+	c #5F5E57",
"=U+	c #707065",
"-U+	c #90917E",
";U+	c #D0CFBC",
">U+	c #D0CDB7",
",U+	c #9DA293",
"'U+	c #898B79",
")U+	c #797A69",
"!U+	c #7B7E74",
"~U+	c #8E8D75",
"{U+	c #727266",
"]U+	c #8C9050",
"^U+	c #9E9F57",
"/U+	c #9B9F57",
"(U+	c #999E5A",
"_U+	c #959C55",
":U+	c #989D51",
"<U+	c #929C4E",
"[U+	c #8F9D46",
"}U+	c #919E43",
"|U+	c #959035",
"1U+	c #BB5D14",
"2U+	c #C25C11",
"3U+	c #C85612",
"4U+	c #CC5610",
"5U+	c #C85C13",
"6U+	c #C85C16",
"7U+	c #CD5712",
"8U+	c #D1560E",
"9U+	c #B6631A",
"0U+	c #2F5020",
"aU+	c #24481C",
"bU+	c #24461D",
"cU+	c #20431A",
"dU+	c #20451B",
"eU+	c #25481D",
"fU+	c #1F451B",
"gU+	c #1F431C",
"hU+	c #21451D",
"iU+	c #21481E",
"jU+	c #274F20",
"kU+	c #2D4F1D",
"lU+	c #2D4D1D",
"mU+	c #2A4D1E",
"nU+	c #2C4E20",
"oU+	c #22441C",
"pU+	c #20421B",
"qU+	c #23431F",
"rU+	c #23461D",
"sU+	c #22461B",
"tU+	c #23471A",
"uU+	c #274A20",
"vU+	c #25481E",
"wU+	c #2A4E23",
"xU+	c #284A20",
"yU+	c #25491D",
"zU+	c #274A1D",
"AU+	c #254B1F",
"BU+	c #2B5626",
"CU+	c #34622C",
"DU+	c #32602A",
"EU+	c #326029",
"FU+	c #33612A",
"GU+	c #34612A",
"HU+	c #305D29",
"IU+	c #2F5D29",
"JU+	c #315E29",
"KU+	c #39662C",
"LU+	c #37642B",
"MU+	c #37632A",
"NU+	c #37632B",
"OU+	c #37622B",
"PU+	c #37622A",
"QU+	c #386329",
"RU+	c #38622A",
"SU+	c #37612B",
"TU+	c #355F29",
"UU+	c #355E29",
"VU+	c #35602A",
"WU+	c #366029",
"XU+	c #38632B",
"YU+	c #385E2A",
"ZU+	c #406832",
"`U+	c #496F35",
" V+	c #4C7036",
".V+	c #507337",
"+V+	c #517235",
"@V+	c #4F7336",
"#V+	c #507039",
"$V+	c #4F743A",
"%V+	c #51753A",
"&V+	c #4F743B",
"*V+	c #4B723A",
"=V+	c #4D7136",
"-V+	c #497037",
";V+	c #4B7035",
">V+	c #4A6D34",
",V+	c #4C6F36",
"'V+	c #496D36",
")V+	c #4A6D35",
"!V+	c #4A6C35",
"~V+	c #4B6A2F",
"{V+	c #4F6F33",
"]V+	c #53722D",
"^V+	c #557726",
"/V+	c #547622",
"(V+	c #537620",
"_V+	c #52761D",
":V+	c #517518",
"<V+	c #53771A",
"[V+	c #587C1B",
"}V+	c #587C1E",
"|V+	c #557A1D",
"1V+	c #527619",
"2V+	c #587D21",
"3V+	c #577B19",
"4V+	c #587C19",
"5V+	c #5B7F19",
"6V+	c #5C8118",
"7V+	c #5E821A",
"8V+	c #5D801E",
"9V+	c #668519",
"0V+	c #648414",
"aV+	c #587C17",
"bV+	c #577B1B",
"cV+	c #55791B",
"dV+	c #608327",
"eV+	c #688C2F",
"fV+	c #678D30",
"gV+	c #678E33",
"hV+	c #699034",
"iV+	c #6A9137",
"jV+	c #6A9236",
"kV+	c #6B9138",
"lV+	c #668D37",
"mV+	c #6A9136",
"nV+	c #6D9337",
"oV+	c #6A9034",
"pV+	c #678E35",
"qV+	c #668E35",
"rV+	c #658D36",
"sV+	c #608839",
"tV+	c #5F873A",
"uV+	c #618839",
"vV+	c #648C37",
"wV+	c #648F34",
"xV+	c #5B8835",
"yV+	c #497A32",
"zV+	c #3D6B2C",
"AV+	c #416A2A",
"BV+	c #43692C",
"CV+	c #466E29",
"DV+	c #446C29",
"EV+	c #466C29",
"FV+	c #476F2B",
"GV+	c #476F2A",
"HV+	c #456B2A",
"IV+	c #436928",
"JV+	c #466D28",
"KV+	c #487029",
"LV+	c #436B2C",
"MV+	c #41692D",
"NV+	c #40672C",
"OV+	c #41682C",
"PV+	c #3F6827",
"QV+	c #406A29",
"RV+	c #436E2A",
"SV+	c #487231",
"TV+	c #497333",
"UV+	c #476C30",
"VV+	c #456C30",
"WV+	c #466C30",
"XV+	c #486E2B",
"YV+	c #607630",
"ZV+	c #D9570F",
"`V+	c #F04E01",
" W+	c #F15202",
".W+	c #EB5E04",
"+W+	c #EBD408",
"@W+	c #E3D429",
"#W+	c #7F7D65",
"$W+	c #636662",
"%W+	c #565957",
"&W+	c #5D5E5B",
"*W+	c #9C9D8F",
"=W+	c #969788",
"-W+	c #777568",
";W+	c #59594D",
">W+	c #A4A391",
",W+	c #C0BFAB",
"'W+	c #C1C0A7",
")W+	c #A19F8A",
"!W+	c #79796B",
"~W+	c #6E6F64",
"{W+	c #BABAA6",
"]W+	c #545553",
"^W+	c #919180",
"/W+	c #45473F",
"(W+	c #807D6B",
"_W+	c #BEBCA8",
":W+	c #848375",
"<W+	c #686964",
"[W+	c #86816C",
"}W+	c #585852",
"|W+	c #6E6F67",
"1W+	c #918F79",
"2W+	c #C0BA9B",
"3W+	c #D6D2BC",
"4W+	c #C9C5A7",
"5W+	c #797B6C",
"6W+	c #878771",
"7W+	c #6D6E64",
"8W+	c #696B5F",
"9W+	c #666A60",
"0W+	c #666963",
"aW+	c #555853",
"bW+	c #4C5247",
"cW+	c #43563B",
"dW+	c #38582C",
"eW+	c #355728",
"fW+	c #2D5225",
"gW+	c #2C4E1D",
"hW+	c #2F4E1A",
"iW+	c #314F1A",
"jW+	c #364D1B",
"kW+	c #37501A",
"lW+	c #3A531A",
"mW+	c #50571A",
"nW+	c #55551A",
"oW+	c #41571C",
"pW+	c #2B5322",
"qW+	c #2C5020",
"rW+	c #2F511F",
"sW+	c #2B4D1D",
"tW+	c #274B1D",
"uW+	c #2A4C1C",
"vW+	c #24471A",
"wW+	c #264A1C",
"xW+	c #294E1F",
"yW+	c #264E20",
"zW+	c #2A5221",
"AW+	c #2F5B27",
"BW+	c #2C5524",
"CW+	c #2C5121",
"DW+	c #274C20",
"EW+	c #26461C",
"FW+	c #24441B",
"GW+	c #26471D",
"HW+	c #284822",
"IW+	c #23471F",
"JW+	c #24491D",
"KW+	c #254A1C",
"LW+	c #23481C",
"MW+	c #24491B",
"NW+	c #24481B",
"OW+	c #24481D",
"PW+	c #24491F",
"QW+	c #254A1D",
"RW+	c #26481C",
"SW+	c #26481B",
"TW+	c #284D20",
"UW+	c #264E1F",
"VW+	c #2F5521",
"WW+	c #336028",
"XW+	c #35622A",
"YW+	c #2D5926",
"ZW+	c #2D5725",
"`W+	c #2C5626",
" X+	c #3C672E",
".X+	c #3A662D",
"+X+	c #39662B",
"@X+	c #39662D",
"#X+	c #37612A",
"$X+	c #365F2A",
"%X+	c #375E29",
"&X+	c #355D28",
"*X+	c #365F29",
"=X+	c #38622B",
"-X+	c #3C632C",
";X+	c #466934",
">X+	c #486D35",
",X+	c #486E35",
"'X+	c #4A6D36",
")X+	c #4B6F38",
"!X+	c #4D7037",
"~X+	c #4F6F38",
"{X+	c #4E7139",
"]X+	c #4D733A",
"^X+	c #4E7437",
"/X+	c #50733A",
"(X+	c #4D7338",
"_X+	c #4E7235",
":X+	c #4C7136",
"<X+	c #4A6F34",
"[X+	c #4B7136",
"}X+	c #4A7035",
"|X+	c #4A6E35",
"1X+	c #4E6E31",
"2X+	c #53732B",
"3X+	c #557724",
"4X+	c #527618",
"5X+	c #51751A",
"6X+	c #51751B",
"7X+	c #52751E",
"8X+	c #547720",
"9X+	c #577B17",
"0X+	c #567A15",
"aX+	c #547817",
"bX+	c #537816",
"cX+	c #567A16",
"dX+	c #55791E",
"eX+	c #577A1E",
"fX+	c #587C1C",
"gX+	c #587D17",
"hX+	c #5B7F16",
"iX+	c #5C7F17",
"jX+	c #5D8016",
"kX+	c #5D8017",
"lX+	c #577B18",
"mX+	c #587C1D",
"nX+	c #648828",
"oX+	c #63882C",
"pX+	c #678C33",
"qX+	c #688D37",
"rX+	c #688D35",
"sX+	c #668E34",
"tX+	c #658C38",
"uX+	c #668D35",
"vX+	c #688F37",
"wX+	c #6B9237",
"xX+	c #6F9436",
"yX+	c #719434",
"zX+	c #749735",
"AX+	c #739737",
"BX+	c #729836",
"CX+	c #6E9334",
"DX+	c #6D9336",
"EX+	c #689135",
"FX+	c #689036",
"GX+	c #699136",
"HX+	c #6B9337",
"IX+	c #598B35",
"JX+	c #497830",
"KX+	c #447130",
"LX+	c #447431",
"MX+	c #447131",
"NX+	c #416E32",
"OX+	c #447031",
"PX+	c #45702B",
"QX+	c #436E2E",
"RX+	c #467030",
"SX+	c #46702E",
"TX+	c #456F2B",
"UX+	c #446C2C",
"VX+	c #466F2A",
"WX+	c #446C2A",
"XX+	c #416B2E",
"YX+	c #456E32",
"ZX+	c #426B31",
"`X+	c #416C2D",
" Y+	c #436F2A",
".Y+	c #44722C",
"+Y+	c #48772F",
"@Y+	c #4A7532",
"#Y+	c #4B7332",
"$Y+	c #497030",
"%Y+	c #496F2C",
"&Y+	c #4A732A",
"*Y+	c #63762F",
"=Y+	c #DB570E",
"-Y+	c #EC4E01",
";Y+	c #EB4C01",
">Y+	c #E8CA0A",
",Y+	c #E7D605",
"'Y+	c #DFD12B",
")Y+	c #868568",
"!Y+	c #555551",
"~Y+	c #585953",
"{Y+	c #4F4F4A",
"]Y+	c #403E3C",
"^Y+	c #908F7C",
"/Y+	c #807E6E",
"(Y+	c #716F63",
"_Y+	c #626256",
":Y+	c #3D3D3E",
"<Y+	c #7C7E76",
"[Y+	c #6E7169",
"}Y+	c #454643",
"|Y+	c #2D2D2D",
"1Y+	c #3B3B38",
"2Y+	c #79796D",
"3Y+	c #6E6B60",
"4Y+	c #57554E",
"5Y+	c #525249",
"6Y+	c #8A8672",
"7Y+	c #B9B69E",
"8Y+	c #7C7B6B",
"9Y+	c #61615E",
"0Y+	c #98957E",
"aY+	c #74735F",
"bY+	c #585A56",
"cY+	c #84836C",
"dY+	c #ADA883",
"eY+	c #B3AE8D",
"fY+	c #B3AF8C",
"gY+	c #D2CBA9",
"hY+	c #AAAB94",
"iY+	c #73766C",
"jY+	c #74766A",
"kY+	c #7A7B6E",
"lY+	c #747565",
"mY+	c #61655A",
"nY+	c #6A6D65",
"oY+	c #606658",
"pY+	c #676A66",
"qY+	c #616658",
"rY+	c #5F625E",
"sY+	c #535653",
"tY+	c #505450",
"uY+	c #3B4A3B",
"vY+	c #284627",
"wY+	c #284626",
"xY+	c #284C23",
"yY+	c #2D5325",
"zY+	c #335723",
"AY+	c #355720",
"BY+	c #34571D",
"CY+	c #35571F",
"DY+	c #33551F",
"EY+	c #35591E",
"FY+	c #335823",
"GY+	c #315524",
"HY+	c #325625",
"IY+	c #325624",
"JY+	c #325626",
"KY+	c #325524",
"LY+	c #335625",
"MY+	c #305526",
"NY+	c #315425",
"OY+	c #315526",
"PY+	c #2F5626",
"QY+	c #2C5225",
"RY+	c #2F5526",
"SY+	c #305727",
"TY+	c #315429",
"UY+	c #295023",
"VY+	c #2B5021",
"WY+	c #2A4D1F",
"XY+	c #284B20",
"YY+	c #294B22",
"ZY+	c #26481F",
"`Y+	c #284E20",
" Z+	c #294F1F",
".Z+	c #274E1F",
"+Z+	c #2A5123",
"@Z+	c #295121",
"#Z+	c #2A5121",
"$Z+	c #2A4E1E",
"%Z+	c #22471A",
"&Z+	c #25481A",
"*Z+	c #2C4D1C",
"=Z+	c #32541F",
"-Z+	c #2F5722",
";Z+	c #325F29",
">Z+	c #2D5826",
",Z+	c #275023",
"'Z+	c #264E22",
")Z+	c #274F23",
"!Z+	c #284F25",
"~Z+	c #4E7033",
"{Z+	c #4F7232",
"]Z+	c #527333",
"^Z+	c #537533",
"/Z+	c #517230",
"(Z+	c #4E732F",
"_Z+	c #4A6E30",
":Z+	c #4B6D30",
"<Z+	c #4A6E2E",
"[Z+	c #496D2F",
"}Z+	c #4A6F31",
"|Z+	c #4A6D2F",
"1Z+	c #4D6F31",
"2Z+	c #476C31",
"3Z+	c #3E672F",
"4Z+	c #3B652E",
"5Z+	c #3A632D",
"6Z+	c #3C652F",
"7Z+	c #3A622D",
"8Z+	c #3C632E",
"9Z+	c #416534",
"0Z+	c #416932",
"aZ+	c #466B37",
"bZ+	c #466C36",
"cZ+	c #4B6F3A",
"dZ+	c #486C37",
"eZ+	c #466C35",
"fZ+	c #456D33",
"gZ+	c #456E34",
"hZ+	c #456F33",
"iZ+	c #436D32",
"jZ+	c #467033",
"kZ+	c #446933",
"lZ+	c #466A33",
"mZ+	c #4E6C30",
"nZ+	c #537529",
"oZ+	c #517521",
"pZ+	c #4F731E",
"qZ+	c #4F7421",
"rZ+	c #4E7325",
"sZ+	c #51751E",
"tZ+	c #52771E",
"uZ+	c #51761C",
"vZ+	c #51771D",
"wZ+	c #537819",
"xZ+	c #507418",
"yZ+	c #50761F",
"zZ+	c #577C24",
"AZ+	c #577C1E",
"BZ+	c #587D1E",
"CZ+	c #50751C",
"DZ+	c #557921",
"EZ+	c #64872C",
"FZ+	c #5C812C",
"GZ+	c #5C8132",
"HZ+	c #5D8331",
"IZ+	c #608632",
"JZ+	c #668B33",
"KZ+	c #618735",
"LZ+	c #618734",
"MZ+	c #668939",
"NZ+	c #698B3D",
"OZ+	c #658B36",
"PZ+	c #6E9337",
"QZ+	c #709536",
"RZ+	c #739634",
"SZ+	c #709332",
"TZ+	c #6E9333",
"UZ+	c #6F9437",
"VZ+	c #719537",
"WZ+	c #608A35",
"XZ+	c #658D39",
"YZ+	c #678F36",
"ZZ+	c #608C33",
"`Z+	c #538533",
" `+	c #4D7E31",
".`+	c #4E8033",
"+`+	c #4A7B33",
"@`+	c #497B30",
"#`+	c #4A7C30",
"$`+	c #4D8030",
"%`+	c #497C30",
"&`+	c #4B7C30",
"*`+	c #49782E",
"=`+	c #497930",
"-`+	c #477431",
";`+	c #416F30",
">`+	c #47762E",
",`+	c #4C7E2F",
"'`+	c #47762F",
")`+	c #41702E",
"!`+	c #437130",
"~`+	c #41702F",
"{`+	c #42702D",
"]`+	c #407030",
"^`+	c #497933",
"/`+	c #4D792F",
"(`+	c #547B2F",
"_`+	c #4D752C",
":`+	c #4B742B",
"<`+	c #4A722A",
"[`+	c #4C752A",
"}`+	c #5A772D",
"|`+	c #DA580F",
"1`+	c #E95302",
"2`+	c #E4C40C",
"3`+	c #DBCF27",
"4`+	c #87866B",
"5`+	c #8E8F84",
"6`+	c #646258",
"7`+	c #4A4A43",
"8`+	c #4F4E45",
"9`+	c #4D4D41",
"0`+	c #6F6D5B",
"a`+	c #464641",
"b`+	c #555650",
"c`+	c #88897D",
"d`+	c #A4A595",
"e`+	c #515149",
"f`+	c #636259",
"g`+	c #9F9F8F",
"h`+	c #AAAA98",
"i`+	c #A2A193",
"j`+	c #909082",
"k`+	c #69665C",
"l`+	c #787668",
"m`+	c #68675F",
"n`+	c #908D76",
"o`+	c #6F6E5E",
"p`+	c #62625A",
"q`+	c #B9B594",
"r`+	c #B1AD8A",
"s`+	c #ABA67F",
"t`+	c #8E9389",
"u`+	c #7B7D6E",
"v`+	c #666D58",
"w`+	c #65695D",
"x`+	c #676B61",
"y`+	c #61645A",
"z`+	c #60625A",
"A`+	c #586351",
"B`+	c #575C55",
"C`+	c #595B59",
"D`+	c #51594E",
"E`+	c #51584F",
"F`+	c #494F47",
"G`+	c #3D4C38",
"H`+	c #2A4727",
"I`+	c #274526",
"J`+	c #2B4A28",
"K`+	c #294927",
"L`+	c #2A4A23",
"M`+	c #395E2A",
"N`+	c #3B602A",
"O`+	c #395D28",
"P`+	c #365926",
"Q`+	c #375C27",
"R`+	c #365A28",
"S`+	c #365929",
"T`+	c #375A2A",
"U`+	c #375C2A",
"V`+	c #365C29",
"W`+	c #335C29",
"X`+	c #325A28",
"Y`+	c #355A29",
"Z`+	c #345B29",
"``+	c #335A28",
"  @	c #325827",
". @	c #325628",
"+ @	c #315428",
"@ @	c #2F5525",
"# @	c #2F5627",
"$ @	c #325528",
"% @	c #2E5324",
"& @	c #2C5021",
"* @	c #284C20",
"= @	c #2B5224",
"- @	c #2C5625",
"; @	c #26471C",
"> @	c #284A1C",
", @	c #27491B",
"' @	c #25481B",
") @	c #254B1D",
"! @	c #274A1B",
"~ @	c #2A4B1B",
"{ @	c #2B4C1B",
"] @	c #28491A",
"^ @	c #27481A",
"/ @	c #26491B",
"( @	c #234A1F",
"_ @	c #244B1E",
": @	c #254C1E",
"< @	c #254B20",
"[ @	c #274E24",
"} @	c #5B7735",
"| @	c #647F35",
"1 @	c #688235",
"2 @	c #6A8336",
"3 @	c #6D8637",
"4 @	c #6A8634",
"5 @	c #698831",
"6 @	c #688333",
"7 @	c #6A8532",
"8 @	c #6A8433",
"9 @	c #6A8533",
"0 @	c #6A8133",
"a @	c #638035",
"b @	c #567732",
"c @	c #496E2F",
"d @	c #366129",
"e @	c #325D28",
"f @	c #315B28",
"g @	c #315C28",
"h @	c #305C27",
"i @	c #2C5826",
"j @	c #2D5827",
"k @	c #2C5726",
"l @	c #305A27",
"m @	c #305B27",
"n @	c #2F5A27",
"o @	c #305C28",
"p @	c #2E5A27",
"q @	c #335C28",
"r @	c #3B642D",
"s @	c #41682F",
"t @	c #43692E",
"u @	c #42692E",
"v @	c #456A30",
"w @	c #456B31",
"x @	c #40682C",
"y @	c #456B30",
"z @	c #446A2D",
"A @	c #436C2B",
"B @	c #486E2E",
"C @	c #487030",
"D @	c #49702B",
"E @	c #4D732B",
"F @	c #4B762D",
"G @	c #4D752F",
"H @	c #50782F",
"I @	c #4C752B",
"J @	c #4A712B",
"K @	c #52772E",
"L @	c #4E7430",
"M @	c #4E7131",
"N @	c #4E712E",
"O @	c #4A6F2E",
"P @	c #4F732F",
"Q @	c #4C6E2E",
"R @	c #4C6F2D",
"S @	c #4F7230",
"T @	c #4F712D",
"U @	c #51712F",
"V @	c #4E712F",
"W @	c #54742F",
"X @	c #54762F",
"Y @	c #547933",
"Z @	c #517532",
"` @	c #4C7434",
" .@	c #4D7333",
"..@	c #5D8532",
"+.@	c #588731",
"@.@	c #558833",
"#.@	c #578834",
"$.@	c #568932",
"%.@	c #588B34",
"&.@	c #558B34",
"*.@	c #548A34",
"=.@	c #568A35",
"-.@	c #558835",
";.@	c #5A8D34",
">.@	c #598C33",
",.@	c #598D34",
"'.@	c #518633",
").@	c #4E8231",
"!.@	c #538835",
"~.@	c #518434",
"{.@	c #4D8232",
"].@	c #4F8332",
"^.@	c #508532",
"/.@	c #528632",
"(.@	c #538934",
"_.@	c #4E8233",
":.@	c #528834",
"<.@	c #568832",
"[.@	c #50802F",
"}.@	c #4D7A2D",
"|.@	c #4B772D",
"1.@	c #EF5001",
"2.@	c #EB5302",
"3.@	c #E2BC0E",
"4.@	c #DED028",
"5.@	c #83826C",
"6.@	c #565755",
"7.@	c #BDBDAD",
"8.@	c #8A8774",
"9.@	c #807B6A",
"0.@	c #68695C",
"a.@	c #9EA196",
"b.@	c #959585",
"c.@	c #7C7D75",
"d.@	c #78796F",
"e.@	c #BCBBAA",
"f.@	c #8F8F80",
"g.@	c #605F56",
"h.@	c #C5C5B5",
"i.@	c #ACAFA2",
"j.@	c #83877E",
"k.@	c #67665F",
"l.@	c #A2A088",
"m.@	c #707063",
"n.@	c #575856",
"o.@	c #878575",
"p.@	c #868270",
"q.@	c #878572",
"r.@	c #888776",
"s.@	c #A7A279",
"t.@	c #B4AE8D",
"u.@	c #DAD2B2",
"v.@	c #C8C2A3",
"w.@	c #C3C3AF",
"x.@	c #8C9185",
"y.@	c #74786D",
"z.@	c #848473",
"A.@	c #797A66",
"B.@	c #686E5E",
"C.@	c #64695A",
"D.@	c #5E6657",
"E.@	c #5B6055",
"F.@	c #5E6456",
"G.@	c #5B6454",
"H.@	c #5C6554",
"I.@	c #55634E",
"J.@	c #505B49",
"K.@	c #4E5747",
"L.@	c #424D3B",
"M.@	c #2B4726",
"N.@	c #294627",
"O.@	c #264626",
"P.@	c #264725",
"Q.@	c #274824",
"R.@	c #2A4A25",
"S.@	c #355726",
"T.@	c #395929",
"U.@	c #375E2A",
"V.@	c #3B5F2D",
"W.@	c #3C602D",
"X.@	c #426735",
"Y.@	c #3A5F2E",
"Z.@	c #3B632F",
"`.@	c #3A642E",
" +@	c #38622C",
".+@	c #385F2E",
"++@	c #355B29",
"@+@	c #355A28",
"#+@	c #345A28",
"$+@	c #335928",
"%+@	c #325928",
"&+@	c #305828",
"*+@	c #325728",
"=+@	c #335829",
"-+@	c #345428",
";+@	c #325526",
">+@	c #2F5324",
",+@	c #2D4D21",
"'+@	c #294B1C",
")+@	c #284A1F",
"!+@	c #284B1E",
"~+@	c #27491C",
"{+@	c #27461B",
"]+@	c #22421B",
"^+@	c #22441A",
"/+@	c #28491B",
"(+@	c #26471A",
"_+@	c #294A1A",
":+@	c #2B4B1A",
"<+@	c #34551D",
"[+@	c #304F1A",
"}+@	c #2C4C1A",
"|+@	c #2E4E1A",
"1+@	c #284B1A",
"2+@	c #25471C",
"3+@	c #23481B",
"4+@	c #234B1E",
"5+@	c #21491D",
"6+@	c #224622",
"7+@	c #627D37",
"8+@	c #688536",
"9+@	c #6B8836",
"0+@	c #6E8636",
"a+@	c #6B8733",
"b+@	c #698630",
"c+@	c #6B8631",
"d+@	c #6A8534",
"e+@	c #607B32",
"f+@	c #4D7031",
"g+@	c #3F682C",
"h+@	c #376129",
"i+@	c #36602A",
"j+@	c #305B28",
"k+@	c #2E5927",
"l+@	c #36632B",
"m+@	c #3B682F",
"n+@	c #426A33",
"o+@	c #426A34",
"p+@	c #426933",
"q+@	c #436A34",
"r+@	c #456B35",
"s+@	c #466D35",
"t+@	c #466C33",
"u+@	c #466D32",
"v+@	c #487034",
"w+@	c #487032",
"x+@	c #476F33",
"y+@	c #476E34",
"z+@	c #497036",
"A+@	c #497033",
"B+@	c #4D7536",
"C+@	c #4F7831",
"D+@	c #537B34",
"E+@	c #486E2C",
"F+@	c #486F32",
"G+@	c #486F33",
"H+@	c #4B7132",
"I+@	c #4A6E31",
"J+@	c #496E30",
"K+@	c #486D2E",
"L+@	c #46682B",
"M+@	c #496D30",
"N+@	c #4F712F",
"O+@	c #4C6E2D",
"P+@	c #4A6D2C",
"Q+@	c #496C2C",
"R+@	c #4C6E30",
"S+@	c #4C6C2F",
"T+@	c #4C6E2F",
"U+@	c #486A2E",
"V+@	c #4B6C2E",
"W+@	c #4A6B31",
"X+@	c #4A6C2F",
"Y+@	c #4D6E34",
"Z+@	c #4B6E32",
"`+@	c #608531",
" @@	c #618F34",
".@@	c #578C34",
"+@@	c #5C8D34",
"@@@	c #5D8E34",
"#@@	c #5D8E37",
"$@@	c #5E8E36",
"%@@	c #5E8F35",
"&@@	c #5C8D37",
"*@@	c #639137",
"=@@	c #689237",
"-@@	c #639135",
";@@	c #5A8E35",
">@@	c #598D38",
",@@	c #588D36",
"'@@	c #5A8D38",
")@@	c #5B8D39",
"!@@	c #5E8E38",
"~@@	c #699337",
"{@@	c #649135",
"]@@	c #5F8F36",
"^@@	c #5A8D36",
"/@@	c #5B8E36",
"(@@	c #558A34",
"_@@	c #558733",
":@@	c #538732",
"<@@	c #558731",
"[@@	c #4D7E2E",
"}@@	c #527F2D",
"|@@	c #677D2C",
"1@@	c #DC550D",
"2@@	c #E94F02",
"3@@	c #E1BD0F",
"4@@	c #E0D108",
"5@@	c #E3D306",
"6@@	c #E4D306",
"7@@	c #E4D506",
"8@@	c #858668",
"9@@	c #51504F",
"0@@	c #C5C1A7",
"a@@	c #8A8975",
"b@@	c #C8C9BC",
"c@@	c #C8C8B8",
"d@@	c #B8B7A2",
"e@@	c #7A7A6E",
"f@@	c #DBDBCD",
"g@@	c #828377",
"h@@	c #61605A",
"i@@	c #7A786C",
"j@@	c #C4C4B4",
"k@@	c #7D8077",
"l@@	c #615F59",
"m@@	c #828070",
"n@@	c #A8A690",
"o@@	c #969278",
"p@@	c #6F6C5F",
"q@@	c #5E5E57",
"r@@	c #6E6C61",
"s@@	c #868372",
"t@@	c #7D7B6D",
"u@@	c #A6A076",
"v@@	c #ABA78A",
"w@@	c #C1BCA1",
"x@@	c #CFC9A9",
"y@@	c #BDBCA2",
"z@@	c #A7A892",
"A@@	c #878A7E",
"B@@	c #7E806E",
"C@@	c #86876F",
"D@@	c #6F765D",
"E@@	c #5E6655",
"F@@	c #616957",
"G@@	c #5B6652",
"H@@	c #63685B",
"I@@	c #5F6657",
"J@@	c #5F6656",
"K@@	c #5E6853",
"L@@	c #58684F",
"M@@	c #525C4D",
"N@@	c #465140",
"O@@	c #364C2E",
"P@@	c #2C4828",
"Q@@	c #254526",
"R@@	c #234524",
"S@@	c #234523",
"T@@	c #254622",
"U@@	c #274721",
"V@@	c #274821",
"W@@	c #314E22",
"X@@	c #385325",
"Y@@	c #3A602D",
"Z@@	c #39612D",
"`@@	c #426734",
" #@	c #385C2C",
".#@	c #38602C",
"+#@	c #365D2A",
"@#@	c #355C29",
"##@	c #345928",
"$#@	c #315727",
"%#@	c #345A29",
"&#@	c #315928",
"*#@	c #325828",
"=#@	c #2F5427",
"-#@	c #2E5325",
";#@	c #2B4F20",
">#@	c #2B4D23",
",#@	c #2A4D21",
"'#@	c #2B4E21",
")#@	c #2B5123",
"!#@	c #2A4F22",
"~#@	c #21421D",
"{#@	c #22431B",
"]#@	c #23441B",
"^#@	c #23421A",
"/#@	c #25461A",
"(#@	c #22431A",
"_#@	c #24441A",
":#@	c #26461A",
"<#@	c #30501B",
"[#@	c #31501B",
"}#@	c #2E4D1B",
"|#@	c #2A4A1B",
"1#@	c #2B5222",
"2#@	c #274F21",
"3#@	c #294E24",
"4#@	c #647D37",
"5#@	c #6A8537",
"6#@	c #6C8537",
"7#@	c #6B8635",
"8#@	c #6D8837",
"9#@	c #6A8837",
"0#@	c #6D8737",
"a#@	c #678436",
"b#@	c #658335",
"c#@	c #5D7B33",
"d#@	c #4F7030",
"e#@	c #466B2E",
"f#@	c #3B662D",
"g#@	c #376229",
"h#@	c #36612A",
"i#@	c #356029",
"j#@	c #345F29",
"k#@	c #325E29",
"l#@	c #2F5B28",
"m#@	c #37642C",
"n#@	c #3C6930",
"o#@	c #426B33",
"p#@	c #436B34",
"q#@	c #476C36",
"r#@	c #476D36",
"s#@	c #476D35",
"t#@	c #496E33",
"u#@	c #486E2F",
"v#@	c #497134",
"w#@	c #4A7134",
"x#@	c #4A7334",
"y#@	c #4A7133",
"z#@	c #40682D",
"A#@	c #43692B",
"B#@	c #476D30",
"C#@	c #486E30",
"D#@	c #486E2D",
"E#@	c #486B2D",
"F#@	c #486C2A",
"G#@	c #496E2E",
"H#@	c #496D2E",
"I#@	c #476D2E",
"J#@	c #456A2A",
"K#@	c #486B2B",
"L#@	c #496F2A",
"M#@	c #4D702B",
"N#@	c #4A6B2B",
"O#@	c #4F6E2D",
"P#@	c #4B6D2E",
"Q#@	c #496C33",
"R#@	c #496F32",
"S#@	c #4D6F33",
"T#@	c #4D7133",
"U#@	c #577D33",
"V#@	c #648E33",
"W#@	c #638F34",
"X#@	c #5D8D33",
"Y#@	c #5F8F35",
"Z#@	c #5C8E35",
"`#@	c #5A8D37",
" $@	c #5D8E35",
".$@	c #649036",
"+$@	c #5C8E36",
"@$@	c #5A8D35",
"#$@	c #5D8E38",
"$$@	c #5F8F37",
"%$@	c #669137",
"&$@	c #6C9537",
"*$@	c #6E9737",
"=$@	c #6A9436",
"-$@	c #629035",
";$@	c #649137",
">$@	c #5B8B37",
",$@	c #538834",
"'$@	c #518034",
")$@	c #508030",
"!$@	c #518132",
"~$@	c #4B7A2D",
"{$@	c #558330",
"]$@	c #6F8934",
"^$@	c #DCA222",
"/$@	c #E9870E",
"($@	c #EA870E",
"_$@	c #E39318",
":$@	c #E28F13",
"<$@	c #E57F10",
"[$@	c #E58414",
"}$@	c #E68E12",
"|$@	c #E9810F",
"1$@	c #E3B925",
"2$@	c #DCCE1C",
"3$@	c #DACE1A",
"4$@	c #CFC624",
"5$@	c #D9CD1C",
"6$@	c #DACD21",
"7$@	c #DACD16",
"8$@	c #DED018",
"9$@	c #D9CD29",
"0$@	c #998A54",
"a$@	c #826E5E",
"b$@	c #897863",
"c$@	c #938668",
"d$@	c #BCAD8B",
"e$@	c #CBBB9B",
"f$@	c #D2C5A2",
"g$@	c #D1C29B",
"h$@	c #D3C9A2",
"i$@	c #9F9A7C",
"j$@	c #C2C1B0",
"k$@	c #CDCBB9",
"l$@	c #A6A999",
"m$@	c #A1A08A",
"n$@	c #676965",
"o$@	c #C0C0AF",
"p$@	c #BCBCA8",
"q$@	c #A5A696",
"r$@	c #5E5A55",
"s$@	c #817F6E",
"t$@	c #918D78",
"u$@	c #89856F",
"v$@	c #676657",
"w$@	c #8C8B7C",
"x$@	c #848477",
"y$@	c #8D8C7E",
"z$@	c #9E9B7C",
"A$@	c #C2BE9E",
"B$@	c #ADA887",
"C$@	c #BDBDA7",
"D$@	c #A1A28E",
"E$@	c #909385",
"F$@	c #85866B",
"G$@	c #7A7D64",
"H$@	c #6F7961",
"I$@	c #606657",
"J$@	c #626858",
"K$@	c #606856",
"L$@	c #65695C",
"M$@	c #63685A",
"N$@	c #5C6255",
"O$@	c #616657",
"P$@	c #545C4F",
"Q$@	c #444E40",
"R$@	c #314935",
"S$@	c #2C4C28",
"T$@	c #264827",
"U$@	c #244526",
"V$@	c #224625",
"W$@	c #214323",
"X$@	c #1D4221",
"Y$@	c #1F4422",
"Z$@	c #224422",
"`$@	c #224421",
" %@	c #274921",
".%@	c #2C4B25",
"+%@	c #335326",
"@%@	c #37572A",
"#%@	c #39592C",
"$%@	c #416432",
"%%@	c #3E6031",
"&%@	c #3C6131",
"*%@	c #365E2B",
"=%@	c #355C2A",
"-%@	c #345C29",
";%@	c #335828",
">%@	c #315827",
",%@	c #305627",
"'%@	c #2F5827",
")%@	c #2A4F25",
"!%@	c #2A4C24",
"~%@	c #294D21",
"{%@	c #284D1E",
"]%@	c #274822",
"^%@	c #1F3C1B",
"/%@	c #1D3C1A",
"(%@	c #1B3A1A",
"_%@	c #1F3D1A",
":%@	c #24431A",
"<%@	c #27471B",
"[%@	c #2D4C1A",
"}%@	c #32511C",
"|%@	c #31511C",
"1%@	c #32521B",
"2%@	c #31501A",
"3%@	c #34541C",
"4%@	c #33531A",
"5%@	c #375920",
"6%@	c #3C6226",
"7%@	c #456C2A",
"8%@	c #537130",
"9%@	c #5A7935",
"0%@	c #5E7D35",
"a%@	c #5A7B33",
"b%@	c #5C7A32",
"c%@	c #5B7A35",
"d%@	c #597A31",
"e%@	c #557633",
"f%@	c #4E7230",
"g%@	c #456B2F",
"h%@	c #42692F",
"i%@	c #3F692E",
"j%@	c #436A32",
"k%@	c #3E6831",
"l%@	c #426931",
"m%@	c #3F682F",
"n%@	c #3B642E",
"o%@	c #3B642C",
"p%@	c #36622A",
"q%@	c #335D28",
"r%@	c #295323",
"s%@	c #275122",
"t%@	c #264F20",
"u%@	c #285222",
"v%@	c #2B5725",
"w%@	c #305D28",
"x%@	c #38632A",
"y%@	c #3C682F",
"z%@	c #3D692F",
"A%@	c #416931",
"B%@	c #3F6930",
"C%@	c #446B34",
"D%@	c #406931",
"E%@	c #426A31",
"F%@	c #446B33",
"G%@	c #446A32",
"H%@	c #456C32",
"I%@	c #436A2F",
"J%@	c #466D31",
"K%@	c #466C34",
"L%@	c #466B2F",
"M%@	c #456A2D",
"N%@	c #4A6F35",
"O%@	c #4A7232",
"P%@	c #476C2E",
"Q%@	c #4D7326",
"R%@	c #4C7328",
"S%@	c #4B7127",
"T%@	c #4D7123",
"U%@	c #4F7425",
"V%@	c #4D7324",
"W%@	c #4C7128",
"X%@	c #49702A",
"Y%@	c #4A6C29",
"Z%@	c #486D29",
"`%@	c #496C26",
" &@	c #4B6E26",
".&@	c #4A6B27",
"+&@	c #4C6F22",
"@&@	c #4D6F23",
"#&@	c #4F702A",
"$&@	c #4B6E2B",
"%&@	c #4C6C2C",
"&&@	c #4D6E2D",
"*&@	c #4A6F2C",
"=&@	c #4C6F31",
"-&@	c #4B6F33",
";&@	c #527230",
">&@	c #577D34",
",&@	c #628C34",
"'&@	c #5E8C33",
")&@	c #5C8C34",
"!&@	c #598C34",
"~&@	c #5B8D34",
"{&@	c #5F8F34",
"]&@	c #628F34",
"^&@	c #598C36",
"/&@	c #5C8E34",
"(&@	c #629038",
"_&@	c #629135",
":&@	c #619036",
"<&@	c #5A8E36",
"[&@	c #5C8D3A",
"}&@	c #649235",
"|&@	c #6D9638",
"1&@	c #6B9536",
"2&@	c #5F9035",
"3&@	c #5F8E35",
"4&@	c #558633",
"5&@	c #518033",
"6&@	c #538434",
"7&@	c #507E33",
"8&@	c #43722E",
"9&@	c #4E7A2F",
"0&@	c #6A8832",
"a&@	c #E4D51F",
"b&@	c #EDD914",
"c&@	c #EDD711",
"d&@	c #EBD60A",
"e&@	c #EBD611",
"f&@	c #EBD720",
"g&@	c #E8D30F",
"h&@	c #E6CC10",
"i&@	c #E2D15E",
"j&@	c #DBD18B",
"k&@	c #DAD18F",
"l&@	c #DBD394",
"m&@	c #D6D092",
"n&@	c #D4CE96",
"o&@	c #D5CF96",
"p&@	c #DBD28E",
"q&@	c #DCBC6F",
"r&@	c #E15B0A",
"s&@	c #E3570B",
"t&@	c #E4580C",
"u&@	c #E65B0F",
"v&@	c #EB5C14",
"w&@	c #EB6321",
"x&@	c #E97038",
"y&@	c #E96D2B",
"z&@	c #E17E48",
"A&@	c #AB976D",
"B&@	c #BFBDAA",
"C&@	c #B9B79F",
"D&@	c #909488",
"E&@	c #B1B1A1",
"F&@	c #838275",
"G&@	c #737776",
"H&@	c #76776E",
"I&@	c #B3B2A0",
"J&@	c #B7B6A1",
"K&@	c #787A6F",
"L&@	c #575652",
"M&@	c #82806F",
"N&@	c #837F6D",
"O&@	c #807E69",
"P&@	c #747260",
"Q&@	c #838170",
"R&@	c #9A977D",
"S&@	c #9C987A",
"T&@	c #BBB697",
"U&@	c #C6C1A4",
"V&@	c #CAC7B1",
"W&@	c #8A8D7E",
"X&@	c #81836B",
"Y&@	c #84846D",
"Z&@	c #777C61",
"`&@	c #6B745B",
" *@	c #5D6357",
".*@	c #5E6358",
"+*@	c #5F6958",
"@*@	c #64685A",
"#*@	c #5E6953",
"$*@	c #5C6453",
"%*@	c #586252",
"&*@	c #474E4C",
"**@	c #304737",
"=*@	c #1A4021",
"-*@	c #194222",
";*@	c #173F20",
">*@	c #143B1D",
",*@	c #173F21",
"'*@	c #173D1F",
")*@	c #173E20",
"!*@	c #1A3F20",
"~*@	c #193E1F",
"{*@	c #193F1F",
"]*@	c #204523",
"^*@	c #2C4C27",
"/*@	c #3A552A",
"(*@	c #3C5C2E",
"_*@	c #3B602F",
":*@	c #355D2A",
"<*@	c #365E2A",
"[*@	c #335B29",
"}*@	c #335A29",
"|*@	c #325929",
"1*@	c #305827",
"2*@	c #2F5727",
"3*@	c #305728",
"4*@	c #2E5627",
"5*@	c #2D5627",
"6*@	c #2B5225",
"7*@	c #274920",
"8*@	c #26491F",
"9*@	c #264A21",
"0*@	c #264623",
"a*@	c #1F411D",
"b*@	c #1D3D1B",
"c*@	c #21421B",
"d*@	c #26451B",
"e*@	c #2D4E1D",
"f*@	c #2E4E1B",
"g*@	c #2C4C1C",
"h*@	c #2D4F1E",
"i*@	c #34561F",
"j*@	c #355822",
"k*@	c #365B21",
"l*@	c #3C6121",
"m*@	c #3B6226",
"n*@	c #3E6627",
"o*@	c #436D29",
"p*@	c #497229",
"q*@	c #4A742C",
"r*@	c #496A33",
"s*@	c #4A6D31",
"t*@	c #4A6F30",
"u*@	c #496F30",
"v*@	c #486C2F",
"w*@	c #476D2F",
"x*@	c #496F2D",
"y*@	c #4C7232",
"z*@	c #4D7233",
"A*@	c #4F7531",
"B*@	c #507633",
"C*@	c #527736",
"D*@	c #537439",
"E*@	c #537838",
"F*@	c #53753A",
"G*@	c #52763B",
"H*@	c #54753D",
"I*@	c #4F733A",
"J*@	c #4D7439",
"K*@	c #4D7438",
"L*@	c #4D7335",
"M*@	c #4C7335",
"N*@	c #446D33",
"O*@	c #3D6A30",
"P*@	c #3C672F",
"Q*@	c #3C652E",
"R*@	c #3C682E",
"S*@	c #36642A",
"T*@	c #3D672B",
"U*@	c #476E2B",
"V*@	c #4B722F",
"W*@	c #4B7430",
"X*@	c #4C742D",
"Y*@	c #51782F",
"Z*@	c #507731",
"`*@	c #4F7731",
" =@	c #537832",
".=@	c #577B30",
"+=@	c #597E34",
"@=@	c #577C31",
"#=@	c #557A2F",
"$=@	c #597E30",
"%=@	c #5B7F31",
"&=@	c #5B7F32",
"*=@	c #5B7D32",
"==@	c #5C8031",
"-=@	c #5A7E2E",
";=@	c #547822",
">=@	c #537721",
",=@	c #54771F",
"'=@	c #4E741E",
")=@	c #4F741E",
"!=@	c #4D7319",
"~=@	c #4B711C",
"{=@	c #4C7220",
"]=@	c #54781F",
"^=@	c #577B1F",
"/=@	c #557919",
"(=@	c #54771D",
"_=@	c #52761B",
":=@	c #51751F",
"<=@	c #4F741C",
"[=@	c #4C7428",
"}=@	c #527827",
"|=@	c #50782E",
"1=@	c #4E7833",
"2=@	c #507934",
"3=@	c #527C33",
"4=@	c #557F33",
"5=@	c #588234",
"6=@	c #557F35",
"7=@	c #527E36",
"8=@	c #527E33",
"9=@	c #548034",
"0=@	c #568234",
"a=@	c #588336",
"b=@	c #568338",
"c=@	c #578638",
"d=@	c #588634",
"e=@	c #5E8936",
"f=@	c #638B36",
"g=@	c #648C3B",
"h=@	c #5D8838",
"i=@	c #648D3A",
"j=@	c #588935",
"k=@	c #578837",
"l=@	c #618C36",
"m=@	c #578532",
"n=@	c #538030",
"o=@	c #4C7A2F",
"p=@	c #4C7A30",
"q=@	c #4B7831",
"r=@	c #4D7A2E",
"s=@	c #5C812A",
"t=@	c #E3D61A",
"u=@	c #EAD805",
"v=@	c #EDDC05",
"w=@	c #E6D405",
"x=@	c #DBCF67",
"y=@	c #D6CEAE",
"z=@	c #DCD5BA",
"A=@	c #DBD4B7",
"B=@	c #DAD2B5",
"C=@	c #D7CFB2",
"D=@	c #DED5B6",
"E=@	c #DFB985",
"F=@	c #E45203",
"G=@	c #BCA06B",
"H=@	c #C9C5AF",
"I=@	c #40403A",
"J=@	c #9A9984",
"K=@	c #737979",
"L=@	c #5A5E5A",
"M=@	c #6E6D62",
"N=@	c #595854",
"O=@	c #7C7B6D",
"P=@	c #777365",
"Q=@	c #777560",
"R=@	c #85826B",
"S=@	c #9D9C86",
"T=@	c #BFC0B0",
"U=@	c #98957A",
"V=@	c #989475",
"W=@	c #B5B08F",
"X=@	c #B6B08D",
"Y=@	c #BAB492",
"Z=@	c #B3B4A0",
"`=@	c #A7A488",
" -@	c #838675",
".-@	c #798064",
"+-@	c #80826D",
"@-@	c #757D5E",
"#-@	c #5F6B51",
"$-@	c #5B6254",
"%-@	c #565A53",
"&-@	c #606A55",
"*-@	c #58684D",
"=-@	c #596550",
"--@	c #4E514D",
";-@	c #344836",
">-@	c #1B3C22",
",-@	c #194323",
"'-@	c #174020",
")-@	c #163F20",
"!-@	c #153C1E",
"~-@	c #12381C",
"{-@	c #163D1F",
"]-@	c #143A1E",
"^-@	c #133A1D",
"/-@	c #163E1D",
"(-@	c #143A1D",
"_-@	c #163E20",
":-@	c #183F20",
"<-@	c #1B4221",
"[-@	c #254924",
"}-@	c #2F4D2A",
"|-@	c #325328",
"1-@	c #315A28",
"2-@	c #345B2A",
"3-@	c #315B29",
"4-@	c #375A2C",
"5-@	c #2E5626",
"6-@	c #2D5527",
"7-@	c #2A4E27",
"8-@	c #274825",
"9-@	c #295025",
"0-@	c #25481F",
"a-@	c #24431F",
"b-@	c #21431B",
"c-@	c #2D4E1C",
"d-@	c #2E4F1C",
"e-@	c #2F511E",
"f-@	c #30501C",
"g-@	c #2D4E1B",
"h-@	c #30501E",
"i-@	c #33541E",
"j-@	c #375A20",
"k-@	c #395F21",
"l-@	c #3C6728",
"m-@	c #406E2D",
"n-@	c #406D2C",
"o-@	c #436F2B",
"p-@	c #467029",
"q-@	c #49722C",
"r-@	c #49732A",
"s-@	c #4D6C31",
"t-@	c #4C6F32",
"u-@	c #496A2D",
"v-@	c #486A2C",
"w-@	c #49692C",
"x-@	c #486B2C",
"y-@	c #4F722D",
"z-@	c #567532",
"A-@	c #567533",
"B-@	c #577935",
"C-@	c #597936",
"D-@	c #5B7D36",
"E-@	c #5B7D37",
"F-@	c #5B7F3A",
"G-@	c #5C7B39",
"H-@	c #5A783C",
"I-@	c #5B793C",
"J-@	c #5A7A3B",
"K-@	c #597A3B",
"L-@	c #5F7B42",
"M-@	c #5D7A3F",
"N-@	c #59783D",
"O-@	c #5C783F",
"P-@	c #5D7E3D",
"Q-@	c #597B3E",
"R-@	c #577A39",
"S-@	c #567A38",
"T-@	c #557A39",
"U-@	c #486E34",
"V-@	c #486D2F",
"W-@	c #486F2F",
"X-@	c #4E7632",
"Y-@	c #587D2F",
"Z-@	c #577C32",
"`-@	c #5F8330",
" ;@	c #61852D",
".;@	c #60842D",
"+;@	c #5F832D",
"@;@	c #5D812D",
"#;@	c #608331",
"$;@	c #5E8231",
"%;@	c #5D8033",
"&;@	c #5D8030",
"*;@	c #5D8134",
"=;@	c #5E8233",
"-;@	c #5E8132",
";;@	c #5C7E2E",
">;@	c #567A22",
",;@	c #52761E",
"';@	c #577C25",
");@	c #527622",
"!;@	c #4C721F",
"~;@	c #4C7017",
"{;@	c #4E731B",
"];@	c #4F7318",
"^;@	c #517516",
"/;@	c #547819",
"(;@	c #53761A",
"_;@	c #52751F",
":;@	c #53761D",
"<;@	c #52751D",
"[;@	c #55781E",
"};@	c #51751D",
"|;@	c #4E731A",
"1;@	c #496E22",
"2;@	c #4E7322",
"3;@	c #4A6F24",
"4;@	c #466B31",
"5;@	c #4C7134",
"6;@	c #496E35",
"7;@	c #496E34",
"8;@	c #4B7237",
"9;@	c #4B7238",
"0;@	c #497137",
"a;@	c #497234",
"b;@	c #4B7434",
"c;@	c #4C7235",
"d;@	c #4E7535",
"e;@	c #517735",
"f;@	c #547B34",
"g;@	c #5C8533",
"h;@	c #5B8332",
"i;@	c #5C832F",
"j;@	c #598131",
"k;@	c #578130",
"l;@	c #537D31",
"m;@	c #527C30",
"n;@	c #59802E",
"o;@	c #5A822B",
"p;@	c #E1D417",
"q;@	c #E6D605",
"r;@	c #E7D408",
"s;@	c #DFD265",
"t;@	c #DAD2B1",
"u;@	c #DBD4B8",
"v;@	c #DBD4BA",
"w;@	c #DBD3B7",
"x;@	c #DAD3B7",
"y;@	c #DED7BC",
"z;@	c #DCD3B7",
"A;@	c #DDB88E",
"B;@	c #EF4E01",
"C;@	c #F55202",
"D;@	c #EC5402",
"E;@	c #E15306",
"F;@	c #C3A97F",
"G;@	c #8B8F83",
"H;@	c #464541",
"I;@	c #8A8873",
"J;@	c #6B7376",
"K;@	c #4C4E4D",
"L;@	c #A0A18C",
"M;@	c #A7A897",
"N;@	c #5E5D55",
"O;@	c #7F7E6C",
"P;@	c #7F7D67",
"Q;@	c #77765D",
"R;@	c #908E74",
"S;@	c #BDBCA9",
"T;@	c #BCBDAC",
"U;@	c #9A977B",
"V;@	c #ACA686",
"W;@	c #B1AB8A",
"X;@	c #AAA480",
"Y;@	c #B8B38C",
"Z;@	c #CFCAB3",
"`;@	c #C9C7B5",
" >@	c #B2B3A3",
".>@	c #7D7F6F",
"+>@	c #7D7F65",
"@>@	c #7F816E",
"#>@	c #6E7461",
"$>@	c #576450",
"%>@	c #5A6453",
"&>@	c #525E4C",
"*>@	c #5D6855",
"=>@	c #616955",
"->@	c #54634D",
";>@	c #4D5447",
">>@	c #38483B",
",>@	c #193B1F",
"'>@	c #153D1F",
")>@	c #143B1E",
"!>@	c #153C1F",
"~>@	c #163E1F",
"{>@	c #15391C",
"]>@	c #15391D",
"^>@	c #183E1F",
"/>@	c #1E4422",
"(>@	c #284C25",
"_>@	c #2F5326",
":>@	c #315627",
"<>@	c #2F5728",
"[>@	c #305A28",
"}>@	c #315728",
"|>@	c #2D5727",
"1>@	c #2C5327",
"2>@	c #2B5227",
"3>@	c #2B5127",
"4>@	c #2C5427",
"5>@	c #305428",
"6>@	c #2C4F28",
"7>@	c #2B5326",
"8>@	c #285021",
"9>@	c #294C21",
"0>@	c #27491F",
"a>@	c #23431B",
"b>@	c #284A1B",
"c>@	c #2A4B1A",
"d>@	c #2D4D1A",
"e>@	c #2D4E1E",
"f>@	c #45652A",
"g>@	c #416628",
"h>@	c #3E6827",
"i>@	c #406C2A",
"j>@	c #3F6D2C",
"k>@	c #3E6C2C",
"l>@	c #426F2B",
"m>@	c #467229",
"n>@	c #477127",
"o>@	c #4A762C",
"p>@	c #4A752B",
"q>@	c #4D6A2F",
"r>@	c #516B30",
"s>@	c #567032",
"t>@	c #597631",
"u>@	c #617D36",
"v>@	c #617D37",
"w>@	c #618137",
"x>@	c #608037",
"y>@	c #5E7F38",
"z>@	c #5F7E38",
"A>@	c #5F7D3C",
"B>@	c #5D7A41",
"C>@	c #5F7D3E",
"D>@	c #5D7A3E",
"E>@	c #5D793E",
"F>@	c #5E7E3C",
"G>@	c #5E7C3C",
"H>@	c #5D7B3E",
"I>@	c #607B3F",
"J>@	c #5E7B3C",
"K>@	c #627F3D",
"L>@	c #5F7F3B",
"M>@	c #5F7F38",
"N>@	c #5B7E38",
"O>@	c #5B7B3B",
"P>@	c #4F7137",
"Q>@	c #476D32",
"R>@	c #4C752E",
"S>@	c #517631",
"T>@	c #537733",
"U>@	c #577B31",
"V>@	c #597E2F",
"W>@	c #5A7E31",
"X>@	c #5D8034",
"Y>@	c #5E812B",
"Z>@	c #60832F",
"`>@	c #5D812E",
" ,@	c #5D8131",
".,@	c #5C8032",
"+,@	c #5F8231",
"@,@	c #5E8031",
"#,@	c #5F8134",
"$,@	c #618334",
"%,@	c #628530",
"&,@	c #52761F",
"*,@	c #4F7316",
"=,@	c #4C7118",
"-,@	c #4D7117",
";,@	c #4B7018",
">,@	c #4C711A",
",,@	c #4C7117",
"',@	c #507415",
"),@	c #507419",
"!,@	c #507417",
"~,@	c #507318",
"{,@	c #4F741D",
"],@	c #4F7317",
"^,@	c #4F7315",
"/,@	c #4E7319",
"(,@	c #4D721A",
"_,@	c #4D7024",
":,@	c #476E2F",
"<,@	c #4B6F34",
"[,@	c #496F36",
"},@	c #4B7134",
"|,@	c #4E7134",
"1,@	c #4B7236",
"2,@	c #4C7132",
"3,@	c #4F7235",
"4,@	c #507433",
"5,@	c #587E33",
"6,@	c #5D8434",
"7,@	c #5F8532",
"8,@	c #5C8430",
"9,@	c #5C822D",
"0,@	c #5F8228",
"a,@	c #DED116",
"b,@	c #EAD803",
"c,@	c #DDD169",
"d,@	c #D8D0B6",
"e,@	c #DAD3B9",
"f,@	c #DED7BF",
"g,@	c #DDD6BD",
"h,@	c #F05403",
"i,@	c #E55D19",
"j,@	c #C1B182",
"k,@	c #B9B48F",
"l,@	c #86887C",
"m,@	c #504E48",
"n,@	c #797665",
"o,@	c #9C9E8C",
"p,@	c #5D5E59",
"q,@	c #696860",
"r,@	c #999884",
"s,@	c #797C76",
"t,@	c #6E6E66",
"u,@	c #888672",
"v,@	c #999173",
"w,@	c #928E6B",
"x,@	c #9F9A79",
"y,@	c #BAB9A0",
"z,@	c #B1AF96",
"A,@	c #918F73",
"B,@	c #9F997A",
"C,@	c #ADA786",
"D,@	c #A8A282",
"E,@	c #ACA882",
"F,@	c #989578",
"G,@	c #8A8B74",
"H,@	c #797B66",
"I,@	c #7F806A",
"J,@	c #737A62",
"K,@	c #60645B",
"L,@	c #50574B",
"M,@	c #52604B",
"N,@	c #626B59",
"O,@	c #5A6651",
"P,@	c #4B5247",
"Q,@	c #374835",
"R,@	c #1B3F22",
"S,@	c #174121",
"T,@	c #174021",
"U,@	c #143C1E",
"V,@	c #13381C",
"W,@	c #14381C",
"X,@	c #12361B",
"Y,@	c #16391C",
"Z,@	c #14391C",
"`,@	c #16391B",
" '@	c #1A4020",
".'@	c #1E4521",
"+'@	c #274D26",
"@'@	c #2A5127",
"#'@	c #2D5528",
"$'@	c #305927",
"%'@	c #305928",
"&'@	c #2E5628",
"*'@	c #2D5427",
"='@	c #2B5427",
"-'@	c #295026",
";'@	c #2A5026",
">'@	c #284E25",
",'@	c #2B4E28",
"''@	c #2C5227",
")'@	c #2B4F27",
"!'@	c #2D5228",
"~'@	c #2A5425",
"{'@	c #2E5525",
"]'@	c #2E5323",
"^'@	c #2B4D21",
"/'@	c #305020",
"('@	c #325520",
"_'@	c #2B4C1C",
":'@	c #2E4F1E",
"<'@	c #395B27",
"['@	c #436A2D",
"}'@	c #3F6B2C",
"|'@	c #406B28",
"1'@	c #3B692A",
"2'@	c #3F6D2D",
"3'@	c #41712E",
"4'@	c #40712E",
"5'@	c #416F2C",
"6'@	c #46722A",
"7'@	c #49752B",
"8'@	c #467129",
"9'@	c #48752B",
"0'@	c #49642B",
"a'@	c #576C2E",
"b'@	c #627A31",
"c'@	c #768A37",
"d'@	c #768F3D",
"e'@	c #748D3E",
"f'@	c #758E41",
"g'@	c #708B3E",
"h'@	c #708E3F",
"i'@	c #6F8B42",
"j'@	c #6F8A44",
"k'@	c #6A8642",
"l'@	c #668240",
"m'@	c #668144",
"n'@	c #667F44",
"o'@	c #657F43",
"p'@	c #637E3F",
"q'@	c #657E42",
"r'@	c #647F41",
"s'@	c #607D40",
"t'@	c #627F3E",
"u'@	c #5F7E3B",
"v'@	c #617D3E",
"w'@	c #63813D",
"x'@	c #65823E",
"y'@	c #63813A",
"z'@	c #5E7B38",
"A'@	c #587833",
"B'@	c #547730",
"C'@	c #507431",
"D'@	c #517431",
"E'@	c #527431",
"F'@	c #537630",
"G'@	c #577731",
"H'@	c #587932",
"I'@	c #5A7C30",
"J'@	c #5A7D2C",
"K'@	c #5D812F",
"L'@	c #5D8032",
"M'@	c #5D7F33",
"N'@	c #5F8130",
"O'@	c #5C7E32",
"P'@	c #5C7F35",
"Q'@	c #5C8033",
"R'@	c #5B7E31",
"S'@	c #5E8032",
"T'@	c #5F8033",
"U'@	c #5D7E30",
"V'@	c #658534",
"W'@	c #688537",
"X'@	c #5D7F2C",
"Y'@	c #547821",
"Z'@	c #537621",
"`'@	c #4F7319",
" )@	c #4E731C",
".)@	c #4D7218",
"+)@	c #52761C",
"@)@	c #51741A",
"#)@	c #4E7121",
"$)@	c #507521",
"%)@	c #486D23",
"&)@	c #4A701D",
"*)@	c #537528",
"=)@	c #456A29",
"-)@	c #466C2D",
";)@	c #4A7230",
">)@	c #4A7131",
",)@	c #4D7434",
"')@	c #517634",
"))@	c #4E7436",
"!)@	c #4E7532",
"~)@	c #4C7337",
"{)@	c #4E7232",
"])@	c #4D7432",
"^)@	c #4E7335",
"/)@	c #497035",
"()@	c #497034",
"_)@	c #4A7136",
":)@	c #4D7435",
"<)@	c #527633",
"[)@	c #567C33",
"})@	c #608635",
"|)@	c #5E8531",
"1)@	c #5D842E",
"2)@	c #5C8534",
"3)@	c #5E8536",
"4)@	c #5C8532",
"5)@	c #5D8329",
"6)@	c #628628",
"7)@	c #DED012",
"8)@	c #DDCF66",
"9)@	c #DCD4B8",
"0)@	c #DCD6BE",
"a)@	c #DFD8BE",
"b)@	c #E0B483",
"c)@	c #EF4F01",
"d)@	c #E75F1A",
"e)@	c #BAAA81",
"f)@	c #AEAC95",
"g)@	c #898B7F",
"h)@	c #96998D",
"i)@	c #74746B",
"j)@	c #6F6E60",
"k)@	c #A8A78D",
"l)@	c #77766B",
"m)@	c #8C8B79",
"n)@	c #A7A37C",
"o)@	c #A8A27D",
"p)@	c #ABA586",
"q)@	c #A4A186",
"r)@	c #918F74",
"s)@	c #979374",
"t)@	c #9A9577",
"u)@	c #B7B194",
"v)@	c #D0C9AF",
"w)@	c #BCBBA3",
"x)@	c #878870",
"y)@	c #787B64",
"z)@	c #757863",
"A)@	c #666C5D",
"B)@	c #485142",
"C)@	c #4F5949",
"D)@	c #5A6850",
"E)@	c #656D59",
"F)@	c #465541",
"G)@	c #3B4D33",
"H)@	c #324E2D",
"I)@	c #204722",
"J)@	c #1E4523",
"K)@	c #1D4122",
"L)@	c #1C4322",
"M)@	c #1C4220",
"N)@	c #1C4420",
"O)@	c #1B4220",
"P)@	c #1A4120",
"Q)@	c #1A4221",
"R)@	c #184020",
"S)@	c #17391C",
"T)@	c #1B3D1E",
"U)@	c #18391D",
"V)@	c #12371B",
"W)@	c #15381B",
"X)@	c #16381B",
"Y)@	c #173A1C",
"Z)@	c #1C4422",
"`)@	c #244B25",
" !@	c #285025",
".!@	c #275125",
"+!@	c #2A5326",
"@!@	c #295226",
"#!@	c #2B5624",
"$!@	c #285325",
"%!@	c #274C27",
"&!@	c #234B25",
"*!@	c #255024",
"=!@	c #234A20",
"-!@	c #234B1D",
";!@	c #234C20",
">!@	c #275022",
",!@	c #2A4F23",
"'!@	c #305726",
")!@	c #2F5726",
"!!@	c #2F5625",
"~!@	c #355E28",
"{!@	c #325824",
"]!@	c #305126",
"^!@	c #2F4E1E",
"/!@	c #31501C",
"(!@	c #32521C",
"_!@	c #3F652A",
":!@	c #446E2C",
"<!@	c #45742D",
"[!@	c #416D2A",
"}!@	c #45722A",
"|!@	c #4A772C",
"1!@	c #4C7A2C",
"2!@	c #44732C",
"3!@	c #47752C",
"4!@	c #4E7F2F",
"5!@	c #4E7D2D",
"6!@	c #49762A",
"7!@	c #4A772B",
"8!@	c #49762B",
"9!@	c #526731",
"0!@	c #677C32",
"a!@	c #809139",
"b!@	c #8A993A",
"c!@	c #879A3E",
"d!@	c #839941",
"e!@	c #859843",
"f!@	c #849945",
"g!@	c #809647",
"h!@	c #7D9549",
"i!@	c #7B9447",
"j!@	c #758F47",
"k!@	c #748E48",
"l!@	c #738F4B",
"m!@	c #748F49",
"n!@	c #758F49",
"o!@	c #748F4A",
"p!@	c #738D47",
"q!@	c #749046",
"r!@	c #718E47",
"s!@	c #6C8844",
"t!@	c #6C8841",
"u!@	c #6B8743",
"v!@	c #6F8C43",
"w!@	c #6D8942",
"x!@	c #708B40",
"y!@	c #6A8639",
"z!@	c #668239",
"A!@	c #618034",
"B!@	c #608035",
"C!@	c #668536",
"D!@	c #678739",
"E!@	c #6A8939",
"F!@	c #6C8A3B",
"G!@	c #69883A",
"H!@	c #66853A",
"I!@	c #6A8D37",
"J!@	c #6E9039",
"K!@	c #71933B",
"L!@	c #6F8F40",
"M!@	c #6F913E",
"N!@	c #6E9239",
"O!@	c #71923D",
"P!@	c #70933B",
"Q!@	c #72943E",
"R!@	c #73933C",
"S!@	c #71923B",
"T!@	c #71933D",
"U!@	c #70913D",
"V!@	c #6E8E38",
"W!@	c #6E8E3A",
"X!@	c #688935",
"Y!@	c #5E802E",
"Z!@	c #5C7E2F",
"`!@	c #5A7D2A",
" ~@	c #597C2A",
".~@	c #567928",
"+~@	c #587A2C",
"@~@	c #5A7B29",
"#~@	c #5C7F27",
"$~@	c #618329",
"%~@	c #5C7F25",
"&~@	c #5D7E2A",
"*~@	c #5A7C24",
"=~@	c #597B27",
"-~@	c #5B7C29",
";~@	c #5E802C",
">~@	c #5E7F2D",
",~@	c #60832C",
"'~@	c #60802F",
")~@	c #5F7F2D",
"!~@	c #53782C",
"~~@	c #587A2A",
"{~@	c #5A7D29",
"]~@	c #61832B",
"^~@	c #668829",
"/~@	c #64892F",
"(~@	c #678C34",
"_~@	c #678B32",
":~@	c #678B34",
"<~@	c #678B35",
"[~@	c #678A37",
"}~@	c #628735",
"|~@	c #5C8435",
"1~@	c #5F8632",
"2~@	c #608636",
"3~@	c #648738",
"4~@	c #5A8034",
"5~@	c #587F35",
"6~@	c #5B7F35",
"7~@	c #5E8234",
"8~@	c #5C8135",
"9~@	c #5B8032",
"0~@	c #597F32",
"a~@	c #577E32",
"b~@	c #5A7F33",
"c~@	c #5C7D31",
"d~@	c #557631",
"e~@	c #567B32",
"f~@	c #547D30",
"g~@	c #577E2E",
"h~@	c #65842A",
"i~@	c #E1D10D",
"j~@	c #E3D208",
"k~@	c #E3D10A",
"l~@	c #DCCE65",
"m~@	c #D9D0AF",
"n~@	c #DAD3BA",
"o~@	c #DCD5BD",
"p~@	c #DAD2BA",
"q~@	c #E1B67F",
"r~@	c #EF5403",
"s~@	c #F25101",
"t~@	c #F04F01",
"u~@	c #E6550E",
"v~@	c #B09E7A",
"w~@	c #B2B2A0",
"x~@	c #8C938E",
"y~@	c #BBBBA7",
"z~@	c #B6B195",
"A~@	c #7D7C6D",
"B~@	c #A4A38E",
"C~@	c #A5A594",
"D~@	c #97947D",
"E~@	c #C2BFA7",
"F~@	c #A19A78",
"G~@	c #A9A381",
"H~@	c #929074",
"I~@	c #95936F",
"J~@	c #979377",
"K~@	c #C5C0A6",
"L~@	c #9D9B7E",
"M~@	c #969375",
"N~@	c #83846E",
"O~@	c #767766",
"P~@	c #686E5A",
"Q~@	c #626B58",
"R~@	c #52594D",
"S~@	c #4C5A41",
"T~@	c #516347",
"U~@	c #5A6B4C",
"V~@	c #51653E",
"W~@	c #435B2E",
"X~@	c #42592B",
"Y~@	c #3C5B27",
"Z~@	c #385828",
"`~@	c #385826",
" {@	c #365726",
".{@	c #365826",
"+{@	c #325725",
"@{@	c #315726",
"#{@	c #305725",
"${@	c #2E5624",
"%{@	c #2D5525",
"&{@	c #2B4F24",
"*{@	c #254B22",
"={@	c #244A23",
"-{@	c #224721",
";{@	c #274A22",
">{@	c #264D23",
",{@	c #274D22",
"'{@	c #254921",
"){@	c #224623",
"!{@	c #1E4421",
"~{@	c #1E431D",
"{{@	c #1E441D",
"]{@	c #1D431C",
"^{@	c #1C441A",
"/{@	c #1D3F1E",
"({@	c #1B3D1C",
"_{@	c #193C1C",
":{@	c #1C3D1E",
"<{@	c #193B1D",
"[{@	c #1B3F1C",
"}{@	c #193C1A",
"|{@	c #1D411D",
"1{@	c #1C401B",
"2{@	c #21441E",
"3{@	c #21441D",
"4{@	c #294E20",
"5{@	c #30511F",
"6{@	c #34551F",
"7{@	c #3C5E22",
"8{@	c #5F8735",
"9{@	c #58832F",
"0{@	c #598530",
"a{@	c #5C8631",
"b{@	c #638A31",
"c{@	c #648A2C",
"d{@	c #62892D",
"e{@	c #6A9032",
"f{@	c #61892F",
"g{@	c #628A30",
"h{@	c #5C8229",
"i{@	c #59862F",
"j{@	c #527D2B",
"k{@	c #537F2F",
"l{@	c #657732",
"m{@	c #809439",
"n{@	c #899B39",
"o{@	c #8A9A3D",
"p{@	c #869942",
"q{@	c #839845",
"r{@	c #849944",
"s{@	c #849947",
"t{@	c #829849",
"u{@	c #82954C",
"v{@	c #81964D",
"w{@	c #7E954D",
"x{@	c #82964F",
"y{@	c #80954E",
"z{@	c #7D9550",
"A{@	c #81964F",
"B{@	c #7D954E",
"C{@	c #80964D",
"D{@	c #7F964C",
"E{@	c #7F964B",
"F{@	c #7E954B",
"G{@	c #7C9449",
"H{@	c #7C9549",
"I{@	c #7C9446",
"J{@	c #789146",
"K{@	c #758C40",
"L{@	c #708C3A",
"M{@	c #6B883D",
"N{@	c #678738",
"O{@	c #66863A",
"P{@	c #68883B",
"Q{@	c #698B37",
"R{@	c #6A893C",
"S{@	c #698B3C",
"T{@	c #6B8C3B",
"U{@	c #6C8D3E",
"V{@	c #709438",
"W{@	c #74963C",
"X{@	c #73953C",
"Y{@	c #73943F",
"Z{@	c #73953D",
"`{@	c #73963A",
" ]@	c #749839",
".]@	c #759839",
"+]@	c #77973F",
"@]@	c #77983D",
"#]@	c #76983C",
"$]@	c #75973D",
"%]@	c #78993C",
"&]@	c #77993D",
"*]@	c #749141",
"=]@	c #658635",
"-]@	c #61822E",
";]@	c #5F812D",
">]@	c #5C7F2D",
",]@	c #5B7E2B",
"']@	c #5D7E2B",
")]@	c #5C7E2A",
"!]@	c #5E7F2F",
"~]@	c #5F7F30",
"{]@	c #607F2F",
"]]@	c #5D7E2D",
"^]@	c #5E7D30",
"/]@	c #607E30",
"(]@	c #5F7F31",
"_]@	c #5F8031",
":]@	c #60832D",
"<]@	c #5F8133",
"[]@	c #5E8030",
"}]@	c #628332",
"|]@	c #618231",
"1]@	c #608432",
"2]@	c #5F8333",
"3]@	c #628432",
"4]@	c #608330",
"5]@	c #668A2D",
"6]@	c #729330",
"7]@	c #7E9C33",
"8]@	c #7E9B32",
"9]@	c #7C9C36",
"0]@	c #7A9936",
"a]@	c #759633",
"b]@	c #709434",
"c]@	c #6D9334",
"d]@	c #6D9234",
"e]@	c #6A9035",
"f]@	c #6A9036",
"g]@	c #698F35",
"h]@	c #699035",
"i]@	c #6B9035",
"j]@	c #6C9134",
"k]@	c #698E31",
"l]@	c #698E32",
"m]@	c #678D35",
"n]@	c #668C33",
"o]@	c #648B33",
"p]@	c #668B34",
"q]@	c #648836",
"r]@	c #628634",
"s]@	c #557630",
"t]@	c #5D7532",
"u]@	c #5F7733",
"v]@	c #5A7332",
"w]@	c #5F7532",
"x]@	c #55722F",
"y]@	c #51722E",
"z]@	c #7F8B30",
"A]@	c #E7D508",
"B]@	c #E9D608",
"C]@	c #E8D506",
"D]@	c #E1D00D",
"E]@	c #E2D011",
"F]@	c #D9C85B",
"G]@	c #D0C8A7",
"H]@	c #D6CEB1",
"I]@	c #DCD5BB",
"J]@	c #DBD3B9",
"K]@	c #DEAB78",
"L]@	c #EB5503",
"M]@	c #EA4B01",
"N]@	c #E65F1A",
"O]@	c #A99773",
"P]@	c #A4A799",
"Q]@	c #9FA396",
"R]@	c #C1C2B2",
"S]@	c #B2AE92",
"T]@	c #929078",
"U]@	c #AAA688",
"V]@	c #C8C4AB",
"W]@	c #98967B",
"X]@	c #9F9C80",
"Y]@	c #9C997D",
"Z]@	c #B7B294",
"`]@	c #C3BD9F",
" ^@	c #BCB796",
".^@	c #B9B599",
"+^@	c #9C987C",
"@^@	c #8D8B6F",
"#^@	c #787A63",
"$^@	c #707360",
"%^@	c #646D56",
"&^@	c #5F6955",
"*^@	c #50594A",
"=^@	c #495E3D",
"-^@	c #506944",
";^@	c #4F6840",
">^@	c #3F5D2D",
",^@	c #415E2A",
"'^@	c #416225",
")^@	c #3D5C27",
"!^@	c #385A24",
"~^@	c #3D5E25",
"{^@	c #395B25",
"]^@	c #385A25",
"^^@	c #365824",
"/^@	c #355826",
"(^@	c #335725",
"_^@	c #315625",
":^@	c #315624",
"<^@	c #335623",
"[^@	c #335726",
"}^@	c #305523",
"|^@	c #2F5423",
"1^@	c #2E5322",
"2^@	c #2D5224",
"3^@	c #2E5220",
"4^@	c #2A4F20",
"5^@	c #22481E",
"6^@	c #1C441C",
"7^@	c #1F451D",
"8^@	c #21461D",
"9^@	c #22451F",
"0^@	c #1D3D1C",
"a^@	c #1A3C1D",
"b^@	c #1A3A1B",
"c^@	c #1A391B",
"d^@	c #1A391C",
"e^@	c #1A381A",
"f^@	c #19381A",
"g^@	c #1A3A1A",
"h^@	c #1B391B",
"i^@	c #1D3B1D",
"j^@	c #1A391A",
"k^@	c #19391B",
"l^@	c #1B3D1B",
"m^@	c #20451D",
"n^@	c #31531F",
"o^@	c #56802E",
"p^@	c #62892E",
"q^@	c #6C902F",
"r^@	c #6D902F",
"s^@	c #6F9331",
"t^@	c #6E912F",
"u^@	c #70922C",
"v^@	c #6B8F30",
"w^@	c #6E9233",
"x^@	c #6C9132",
"y^@	c #698E2F",
"z^@	c #688C2C",
"A^@	c #688C2D",
"B^@	c #729235",
"C^@	c #6E8236",
"D^@	c #7E9139",
"E^@	c #859837",
"F^@	c #8A9C3A",
"G^@	c #83963A",
"H^@	c #819745",
"I^@	c #7F9746",
"J^@	c #819748",
"K^@	c #88994A",
"L^@	c #85974B",
"M^@	c #81964E",
"N^@	c #7E954F",
"O^@	c #7E9550",
"P^@	c #7D954F",
"Q^@	c #81954F",
"R^@	c #7F954E",
"S^@	c #7F954C",
"T^@	c #7E954A",
"U^@	c #799548",
"V^@	c #779043",
"W^@	c #6D883D",
"X^@	c #718A3C",
"Y^@	c #6E8D3D",
"Z^@	c #68883A",
"`^@	c #68873B",
" /@	c #67873A",
"./@	c #698A3A",
"+/@	c #6A8C39",
"@/@	c #6A8A3C",
"#/@	c #6A8C3C",
"$/@	c #6B8D3B",
"%/@	c #6B8E3B",
"&/@	c #6E913A",
"*/@	c #72953C",
"=/@	c #75973B",
"-/@	c #779740",
";/@	c #75973C",
">/@	c #76993A",
",/@	c #789740",
"'/@	c #77983C",
")/@	c #77993B",
"!/@	c #79993C",
"~/@	c #6F903C",
"{/@	c #668438",
"]/@	c #60812E",
"^/@	c #5C7F2A",
"//@	c #5D802C",
"(/@	c #5D7E2C",
"_/@	c #60812C",
":/@	c #607F2E",
"</@	c #637E34",
"[/@	c #5E7D2D",
"}/@	c #5F802C",
"|/@	c #5D802E",
"1/@	c #5E7D31",
"2/@	c #60822B",
"3/@	c #608030",
"4/@	c #60822E",
"5/@	c #628430",
"6/@	c #5F802F",
"7/@	c #608132",
"8/@	c #608434",
"9/@	c #62842E",
"0/@	c #65882E",
"a/@	c #70922E",
"b/@	c #7D9B31",
"c/@	c #7E9C34",
"d/@	c #7B9A34",
"e/@	c #759631",
"f/@	c #749531",
"g/@	c #729534",
"h/@	c #6E9232",
"i/@	c #6D9236",
"j/@	c #6B9236",
"k/@	c #6C9237",
"l/@	c #6A8F35",
"m/@	c #6B9133",
"n/@	c #698F33",
"o/@	c #6B9134",
"p/@	c #688E34",
"q/@	c #678D32",
"r/@	c #658B32",
"s/@	c #638934",
"t/@	c #608735",
"u/@	c #668A36",
"v/@	c #658B35",
"w/@	c #618430",
"x/@	c #607931",
"y/@	c #617732",
"z/@	c #607430",
"A/@	c #627430",
"B/@	c #697A33",
"C/@	c #657530",
"D/@	c #60772F",
"E/@	c #64782F",
"F/@	c #848C2B",
"G/@	c #EAD806",
"H/@	c #ECDA09",
"I/@	c #E4D209",
"J/@	c #DCCD58",
"K/@	c #E1D9BC",
"L/@	c #DBD4BB",
"M/@	c #D9D2B9",
"N/@	c #D8D0B3",
"O/@	c #D9B17C",
"P/@	c #E85606",
"Q/@	c #E84E02",
"R/@	c #E94E02",
"S/@	c #EB5D0F",
"T/@	c #8D7A67",
"U/@	c #7A8182",
"V/@	c #7D827F",
"W/@	c #7B8281",
"X/@	c #BEBFB2",
"Y/@	c #CFD0C2",
"Z/@	c #C9C9BB",
"`/@	c #B2AF98",
" (@	c #B9B7A1",
".(@	c #B0AA89",
"+(@	c #99967A",
"@(@	c #97957A",
"#(@	c #AFAB8D",
"$(@	c #78835C",
"%(@	c #757762",
"&(@	c #6A6F5B",
"*(@	c #646D54",
"=(@	c #5C6753",
"-(@	c #53614C",
";(@	c #526843",
">(@	c #446234",
",(@	c #3F5A2D",
"'(@	c #3F6026",
")(@	c #415F28",
"!(@	c #3B5A26",
"~(@	c #3B5C23",
"{(@	c #3D5D26",
"](@	c #3E5D28",
"^(@	c #385926",
"/(@	c #375924",
"((@	c #385924",
"_(@	c #355825",
":(@	c #345623",
"<(@	c #335523",
"[(@	c #305624",
"}(@	c #345726",
"|(@	c #305524",
"1(@	c #315523",
"2(@	c #335522",
"3(@	c #294E21",
"4(@	c #254722",
"5(@	c #24471F",
"6(@	c #234423",
"7(@	c #21441F",
"8(@	c #1F431F",
"9(@	c #1F421C",
"0(@	c #1C3E1C",
"a(@	c #1D3F1D",
"b(@	c #1C3D1B",
"c(@	c #1D3D1A",
"d(@	c #1D3A1C",
"e(@	c #1E3A1C",
"f(@	c #1E3C1B",
"g(@	c #1D3C1C",
"h(@	c #1F3E1D",
"i(@	c #1E3E1F",
"j(@	c #1C3F1D",
"k(@	c #1D431E",
"l(@	c #285122",
"m(@	c #3E6B29",
"n(@	c #3F6E2D",
"o(@	c #40702E",
"p(@	c #4A792C",
"q(@	c #60882C",
"r(@	c #6B9031",
"s(@	c #698D2B",
"t(@	c #6B8E2D",
"u(@	c #6C8F2C",
"v(@	c #71932E",
"w(@	c #6B8F2D",
"x(@	c #698D2C",
"y(@	c #6A8E2E",
"z(@	c #6C8F2F",
"A(@	c #6D902D",
"B(@	c #6D902E",
"C(@	c #6B902F",
"D(@	c #6B8339",
"E(@	c #79903C",
"F(@	c #7C9438",
"G(@	c #859B36",
"H(@	c #839B3E",
"I(@	c #849C43",
"J(@	c #839748",
"K(@	c #809748",
"L(@	c #829749",
"M(@	c #819650",
"N(@	c #7F9651",
"O(@	c #83964F",
"P(@	c #7E954E",
"Q(@	c #7F954D",
"R(@	c #7D954C",
"S(@	c #7D954B",
"T(@	c #7C954A",
"U(@	c #7E9648",
"V(@	c #788E43",
"W(@	c #6C863C",
"X(@	c #6C893B",
"Y(@	c #6C8A3D",
"Z(@	c #688839",
"`(@	c #698939",
" _@	c #6A8B3B",
"._@	c #6A8D3D",
"+_@	c #6A8E3B",
"@_@	c #6B8E37",
"#_@	c #6B8C3C",
"$_@	c #6C9037",
"%_@	c #719539",
"&_@	c #72943B",
"*_@	c #74953E",
"=_@	c #729639",
"-_@	c #75973E",
";_@	c #74963B",
">_@	c #749838",
",_@	c #76983B",
"'_@	c #76973C",
")_@	c #779839",
"!_@	c #739537",
"~_@	c #658730",
"{_@	c #5D7E2E",
"]_@	c #5F812B",
"^_@	c #60812B",
"/_@	c #61812F",
"(_@	c #61802F",
"__@	c #627F32",
":_@	c #5F802D",
"<_@	c #5F812A",
"[_@	c #60802D",
"}_@	c #5C7D2E",
"|_@	c #61832D",
"1_@	c #5F7F2E",
"2_@	c #61822D",
"3_@	c #5F822E",
"4_@	c #5E812E",
"5_@	c #618331",
"6_@	c #5F812E",
"7_@	c #6D8F2C",
"8_@	c #74952F",
"9_@	c #799830",
"0_@	c #7E9B34",
"a_@	c #75962F",
"b_@	c #72932D",
"c_@	c #739430",
"d_@	c #719536",
"e_@	c #6E9335",
"f_@	c #698F32",
"g_@	c #6B9036",
"h_@	c #698E35",
"i_@	c #698F34",
"j_@	c #6B9136",
"k_@	c #688D32",
"l_@	c #648A34",
"m_@	c #678D34",
"n_@	c #6C9031",
"o_@	c #617E30",
"p_@	c #66762F",
"q_@	c #75722D",
"r_@	c #83702C",
"s_@	c #7E702C",
"t_@	c #856F2D",
"u_@	c #856E2A",
"v_@	c #7F702F",
"w_@	c #78732E",
"x_@	c #76722D",
"y_@	c #86832D",
"z_@	c #E8D709",
"A_@	c #EAD906",
"B_@	c #EAD605",
"C_@	c #D8CA65",
"D_@	c #D3CBAB",
"E_@	c #E1DAC2",
"F_@	c #E0D9C3",
"G_@	c #E2DBC6",
"H_@	c #DFD8BF",
"I_@	c #DED6B9",
"J_@	c #DEC09A",
"K_@	c #E65A0B",
"L_@	c #E95603",
"M_@	c #EB5602",
"N_@	c #E65303",
"O_@	c #E55604",
"P_@	c #E85403",
"Q_@	c #E35504",
"R_@	c #8D6D57",
"S_@	c #737673",
"T_@	c #757A79",
"U_@	c #7B7F7E",
"V_@	c #ADAA91",
"W_@	c #A6A080",
"X_@	c #C3BFA7",
"Y_@	c #B0AC8A",
"Z_@	c #929076",
"`_@	c #9E9A7C",
" :@	c #9E9879",
".:@	c #A9A485",
"+:@	c #8F916E",
"@:@	c #757E5A",
"#:@	c #717462",
"$:@	c #626B54",
"%:@	c #626957",
"&:@	c #5B6950",
"*:@	c #56674B",
"=:@	c #3F5934",
"-:@	c #355627",
";:@	c #415D29",
">:@	c #3F6025",
",:@	c #3C5D22",
"':@	c #3E5928",
"):@	c #385A28",
"!:@	c #3A5C24",
"~:@	c #3D5E21",
"{:@	c #3E5D25",
"]:@	c #3A5928",
"^:@	c #355725",
"/:@	c #355724",
"(:@	c #355723",
"_:@	c #325523",
"::@	c #345828",
"<:@	c #345624",
"[:@	c #325422",
"}:@	c #2E5221",
"|:@	c #305625",
"1:@	c #305522",
"2:@	c #305322",
"3:@	c #284B1F",
"4:@	c #20451C",
"5:@	c #1D411B",
"6:@	c #20441F",
"7:@	c #1E401F",
"8:@	c #1B3C1C",
"9:@	c #1B3F1D",
"0:@	c #1B3F1B",
"a:@	c #1C3E1B",
"b:@	c #1D3B1A",
"c:@	c #1F3D1C",
"d:@	c #213D20",
"e:@	c #1E3D1C",
"f:@	c #203D1D",
"g:@	c #21401D",
"h:@	c #203F1F",
"i:@	c #1B401E",
"j:@	c #224A1F",
"k:@	c #366126",
"l:@	c #3D6C2C",
"m:@	c #41722E",
"n:@	c #46762D",
"o:@	c #4F7F2D",
"p:@	c #57832B",
"q:@	c #598128",
"r:@	c #5A832A",
"s:@	c #70922D",
"t:@	c #6C8F2B",
"u:@	c #6C8F2E",
"v:@	c #6D8F2A",
"w:@	c #6C8E2B",
"x:@	c #6A8F2E",
"y:@	c #6E873F",
"z:@	c #748D3F",
"A:@	c #7B9340",
"B:@	c #78923F",
"C:@	c #768F41",
"D:@	c #779145",
"E:@	c #748F45",
"F:@	c #748E46",
"G:@	c #748F48",
"H:@	c #748E49",
"I:@	c #77914D",
"J:@	c #79914D",
"K:@	c #77924E",
"L:@	c #77924D",
"M:@	c #79924A",
"N:@	c #7C944E",
"O:@	c #7B944E",
"P:@	c #799450",
"Q:@	c #789348",
"R:@	c #7F9747",
"S:@	c #758C3D",
"T:@	c #6E8838",
"U:@	c #698839",
"V:@	c #688739",
"W:@	c #668736",
"X:@	c #668834",
"Y:@	c #678836",
"Z:@	c #678935",
"`:@	c #698C37",
" <@	c #6A8C37",
".<@	c #6B8D38",
"+<@	c #6E903B",
"@<@	c #71943B",
"#<@	c #73953A",
"$<@	c #739638",
"%<@	c #709436",
"&<@	c #739534",
"*<@	c #719535",
"=<@	c #749738",
"-<@	c #749632",
";<@	c #729537",
"><@	c #6F912C",
",<@	c #73932C",
"'<@	c #61842C",
")<@	c #5C7E2B",
"!<@	c #5A7C2C",
"~<@	c #5F7F2F",
"{<@	c #5D7F2B",
"]<@	c #5E802B",
"^<@	c #5F7F2C",
"/<@	c #5E7E2E",
"(<@	c #5F8034",
"_<@	c #5D802D",
":<@	c #5E822B",
"<<@	c #60842A",
"[<@	c #61842B",
"}<@	c #5E7F31",
"|<@	c #698B2E",
"1<@	c #76962F",
"2<@	c #78972E",
"3<@	c #7A972E",
"4<@	c #7D9A31",
"5<@	c #77982F",
"6<@	c #74952D",
"7<@	c #74952C",
"8<@	c #71922C",
"9<@	c #6F9230",
"0<@	c #6A8F31",
"a<@	c #688E31",
"b<@	c #6A8F33",
"c<@	c #668A35",
"d<@	c #688C35",
"e<@	c #658B38",
"f<@	c #688D33",
"g<@	c #678B37",
"h<@	c #618835",
"i<@	c #608731",
"j<@	c #608733",
"k<@	c #5F8533",
"l<@	c #638933",
"m<@	c #678C31",
"n<@	c #6D8E2F",
"o<@	c #647C30",
"p<@	c #69732D",
"q<@	c #CA5A16",
"r<@	c #E35206",
"s<@	c #E35107",
"t<@	c #E74D02",
"u<@	c #E64D05",
"v<@	c #DC4D0A",
"w<@	c #DE4B0A",
"x<@	c #D56413",
"y<@	c #E5D218",
"z<@	c #E8D50A",
"A<@	c #E5D405",
"B<@	c #DFD174",
"C<@	c #E3D8B6",
"D<@	c #E0D8BB",
"E<@	c #E2DBC5",
"F<@	c #DFD7BB",
"G<@	c #DCCC7E",
"H<@	c #EBBD1C",
"I<@	c #EBC211",
"J<@	c #EEC20A",
"K<@	c #ECC10D",
"L<@	c #ECC20F",
"M<@	c #EBBE18",
"N<@	c #EBBB14",
"O<@	c #ECBB16",
"P<@	c #E2AF1E",
"Q<@	c #867554",
"R<@	c #727879",
"S<@	c #6F7474",
"T<@	c #9B9C8C",
"U<@	c #BCBBA9",
"V<@	c #C0BB99",
"W<@	c #9E9E87",
"X<@	c #999476",
"Y<@	c #8E8D7A",
"Z<@	c #97977F",
"`<@	c #9D997A",
" [@	c #A69F7E",
".[@	c #BEB898",
"+[@	c #B9B59A",
"@[@	c #A5A283",
"#[@	c #7D895D",
"$[@	c #70785C",
"%[@	c #656F53",
"&[@	c #5D6950",
"*[@	c #5F6A51",
"=[@	c #5D6A4D",
"-[@	c #405237",
";[@	c #254627",
">[@	c #3A5A27",
",[@	c #3A5B24",
"'[@	c #3D5C22",
")[@	c #3B5925",
"![@	c #3A5B25",
"~[@	c #395A23",
"{[@	c #395B23",
"][@	c #3C5C26",
"^[@	c #345622",
"/[@	c #325420",
"([@	c #2F5323",
"_[@	c #315623",
":[@	c #305626",
"<[@	c #2F5523",
"[[@	c #284B1C",
"}[@	c #1F441A",
"|[@	c #1B3B1C",
"1[@	c #1C3F1B",
"2[@	c #1C3C1B",
"3[@	c #1F3F1D",
"4[@	c #1F3F1C",
"5[@	c #22411E",
"6[@	c #213F1C",
"7[@	c #20401F",
"8[@	c #1D3E1D",
"9[@	c #1D411E",
"0[@	c #20491D",
"a[@	c #2F5A26",
"b[@	c #3C6A2B",
"c[@	c #43722C",
"d[@	c #44742D",
"e[@	c #4A7A2E",
"f[@	c #4F7C2A",
"g[@	c #527E28",
"h[@	c #537C26",
"i[@	c #577F24",
"j[@	c #5B8323",
"k[@	c #608625",
"l[@	c #618726",
"m[@	c #6E902C",
"n[@	c #6A8D2B",
"o[@	c #70912F",
"p[@	c #6F902C",
"q[@	c #6D902C",
"r[@	c #6B8E2C",
"s[@	c #688D2E",
"t[@	c #5E7842",
"u[@	c #657E48",
"v[@	c #668044",
"w[@	c #658246",
"x[@	c #678444",
"y[@	c #627D46",
"z[@	c #628146",
"A[@	c #5F7D46",
"B[@	c #5F7E45",
"C[@	c #617E46",
"D[@	c #627F48",
"E[@	c #688648",
"F[@	c #6D8A4A",
"G[@	c #718D4B",
"H[@	c #75914E",
"I[@	c #76914E",
"J[@	c #77904D",
"K[@	c #74904A",
"L[@	c #7B9347",
"M[@	c #6E8738",
"N[@	c #587922",
"O[@	c #587A26",
"P[@	c #597C25",
"Q[@	c #587B22",
"R[@	c #597D25",
"S[@	c #597C23",
"T[@	c #577A22",
"U[@	c #5B7E22",
"V[@	c #648622",
"W[@	c #628422",
"X[@	c #6A8D2A",
"Y[@	c #6E8E27",
"Z[@	c #6D8D25",
"`[@	c #6E8F26",
" }@	c #6A8B22",
".}@	c #688921",
"+}@	c #628520",
"@}@	c #62851C",
"#}@	c #67881F",
"$}@	c #61841D",
"%}@	c #618420",
"&}@	c #60831E",
"*}@	c #61841C",
"=}@	c #5B7F1B",
"-}@	c #608117",
";}@	c #608014",
">}@	c #618114",
",}@	c #5F801D",
"'}@	c #5C7F26",
")}@	c #5B7E27",
"!}@	c #5A7C28",
"~}@	c #5F8229",
"{}@	c #5D8029",
"]}@	c #5A7E29",
"^}@	c #5E8029",
"/}@	c #5C7F29",
"(}@	c #5C8027",
"_}@	c #5C7F28",
":}@	c #608229",
"<}@	c #5E8228",
"[}@	c #5D8028",
"}}@	c #60832A",
"|}@	c #5E8129",
"1}@	c #5E812D",
"2}@	c #5C7E2D",
"3}@	c #5D802A",
"4}@	c #587B28",
"5}@	c #587B29",
"6}@	c #64862A",
"7}@	c #719029",
"8}@	c #799426",
"9}@	c #799328",
"0}@	c #769226",
"a}@	c #799224",
"b}@	c #799221",
"c}@	c #779120",
"d}@	c #789324",
"e}@	c #72932B",
"f}@	c #6C9030",
"g}@	c #6E9132",
"h}@	c #6D9130",
"i}@	c #6E9231",
"j}@	c #6C9032",
"k}@	c #698D32",
"l}@	c #658936",
"m}@	c #678C35",
"n}@	c #658A32",
"o}@	c #678B2F",
"p}@	c #64892C",
"q}@	c #60862F",
"r}@	c #65882A",
"s}@	c #658826",
"t}@	c #65802D",
"u}@	c #66782F",
"v}@	c #7B732D",
"w}@	c #DB530B",
"x}@	c #F04C01",
"y}@	c #EC4C01",
"z}@	c #E45D06",
"A}@	c #E7D232",
"B}@	c #EBD90A",
"C}@	c #EBD807",
"D}@	c #E5D30D",
"E}@	c #E1D26B",
"F}@	c #DCD2B0",
"G}@	c #DFD7BC",
"H}@	c #DDD7C0",
"I}@	c #DFD8C0",
"J}@	c #E0D378",
"K}@	c #EEDE0A",
"L}@	c #E4D41D",
"M}@	c #808160",
"N}@	c #6B6F69",
"O}@	c #6A6D69",
"P}@	c #6A6C66",
"Q}@	c #B4B5A5",
"R}@	c #B6B59D",
"S}@	c #9F9F88",
"T}@	c #989886",
"U}@	c #A1A293",
"V}@	c #82806C",
"W}@	c #87836E",
"X}@	c #90907C",
"Y}@	c #8F9283",
"Z}@	c #9F9D85",
"`}@	c #ACA788",
" |@	c #AFAA85",
".|@	c #B1AD81",
"+|@	c #B6B190",
"@|@	c #ADAA8C",
"#|@	c #969675",
"$|@	c #737A58",
"%|@	c #6B7359",
"&|@	c #58684C",
"*|@	c #59674C",
"=|@	c #5A6C4B",
"-|@	c #455B3E",
";|@	c #2A4729",
">|@	c #264527",
",|@	c #274627",
"'|@	c #2F4E29",
")|@	c #345825",
"!|@	c #355926",
"~|@	c #365827",
"{|@	c #365928",
"]|@	c #355927",
"^|@	c #345926",
"/|@	c #335825",
"(|@	c #325622",
"_|@	c #325826",
":|@	c #325726",
"<|@	c #335624",
"[|@	c #305926",
"}|@	c #305724",
"||@	c #32531F",
"1|@	c #2D5120",
"2|@	c #20411F",
"3|@	c #1E4020",
"4|@	c #1F4222",
"5|@	c #1E411C",
"6|@	c #1F431B",
"7|@	c #20441D",
"8|@	c #23471C",
"9|@	c #2A5021",
"0|@	c #4C792A",
"a|@	c #4C7B2C",
"b|@	c #52822E",
"c|@	c #507E2B",
"d|@	c #55872F",
"e|@	c #57832A",
"f|@	c #527F2C",
"g|@	c #588329",
"h|@	c #598123",
"i|@	c #598024",
"j|@	c #5F8423",
"k|@	c #698B2B",
"l|@	c #6F9129",
"m|@	c #72932E",
"n|@	c #729431",
"o|@	c #73942F",
"p|@	c #557046",
"q|@	c #566E49",
"r|@	c #556F45",
"s|@	c #566F48",
"t|@	c #576D4A",
"u|@	c #566E48",
"v|@	c #556E48",
"w|@	c #556E47",
"x|@	c #576F4A",
"y|@	c #577048",
"z|@	c #5B7548",
"A|@	c #5E7C46",
"B|@	c #5F7C47",
"C|@	c #648444",
"D|@	c #66843E",
"E|@	c #628136",
"F|@	c #537525",
"G|@	c #507317",
"H|@	c #51741B",
"I|@	c #527715",
"J|@	c #587C16",
"K|@	c #5C7F15",
"L|@	c #5B7D15",
"M|@	c #5A7E16",
"N|@	c #5E7F15",
"O|@	c #5F8115",
"P|@	c #5C8016",
"Q|@	c #597C15",
"R|@	c #577A15",
"S|@	c #587B15",
"T|@	c #557815",
"U|@	c #527615",
"V|@	c #5A7D15",
"W|@	c #5A7B14",
"X|@	c #5C7D14",
"Y|@	c #5C8020",
"Z|@	c #5A7D25",
"`|@	c #5C7F23",
" 1@	c #5C8029",
".1@	c #5E8225",
"+1@	c #5D8128",
"@1@	c #5F8329",
"#1@	c #5D8121",
"$1@	c #608325",
"%1@	c #5F8321",
"&1@	c #5E831C",
"*1@	c #5E821E",
"=1@	c #60841F",
"-1@	c #5E821F",
";1@	c #5F831D",
">1@	c #61841E",
",1@	c #648518",
"'1@	c #5F821B",
")1@	c #587B21",
"!1@	c #547722",
"~1@	c #597B29",
"{1@	c #577926",
"]1@	c #577A23",
"^1@	c #64851E",
"/1@	c #6D8A16",
"(1@	c #6D8911",
"_1@	c #6E8910",
":1@	c #6F8910",
"<1@	c #6E8912",
"[1@	c #6F8A11",
"}1@	c #6E8911",
"|1@	c #6D8913",
"11@	c #6D8915",
"21@	c #6E8A15",
"31@	c #6E8A14",
"41@	c #6F8A15",
"51@	c #6D8A18",
"61@	c #6B891A",
"71@	c #6A8818",
"81@	c #6B8817",
"91@	c #708A11",
"01@	c #6F8911",
"a1@	c #718A11",
"b1@	c #658318",
"c1@	c #6D8B2C",
"d1@	c #7F8B32",
"e1@	c #DD540B",
"f1@	c #F25001",
"g1@	c #F04D01",
"h1@	c #E25D07",
"i1@	c #ECD728",
"j1@	c #EAD807",
"k1@	c #EBD904",
"l1@	c #DFD060",
"m1@	c #DAD2B8",
"n1@	c #DDD6BE",
"o1@	c #DBD3B6",
"p1@	c #DCD3B5",
"q1@	c #DDD6BA",
"r1@	c #E5D66B",
"s1@	c #E9DA16",
"t1@	c #818061",
"u1@	c #6B6C65",
"v1@	c #6C6B62",
"w1@	c #65625A",
"x1@	c #9B9B8A",
"y1@	c #A0A08C",
"z1@	c #9C9C88",
"A1@	c #959785",
"B1@	c #7C7A6B",
"C1@	c #878673",
"D1@	c #A29F85",
"E1@	c #A8A180",
"F1@	c #B3AD89",
"G1@	c #B8B387",
"H1@	c #B7B187",
"I1@	c #B1AC85",
"J1@	c #AEAB8F",
"K1@	c #7B8463",
"L1@	c #677151",
"M1@	c #586647",
"N1@	c #536249",
"O1@	c #5F6753",
"P1@	c #4F5F44",
"Q1@	c #234626",
"R1@	c #204526",
"S1@	c #244626",
"T1@	c #254626",
"U1@	c #2E5827",
"V1@	c #345D28",
"W1@	c #365E28",
"X1@	c #325B28",
"Y1@	c #325C28",
"Z1@	c #335A26",
"`1@	c #335B27",
" 2@	c #335A27",
".2@	c #315A27",
"+2@	c #325927",
"@2@	c #355C28",
"#2@	c #335F29",
"$2@	c #325D29",
"%2@	c #2E5926",
"&2@	c #2E5825",
"*2@	c #244920",
"=2@	c #22461D",
"-2@	c #264821",
";2@	c #244620",
">2@	c #2B4A1F",
",2@	c #284A23",
"'2@	c #2E5022",
")2@	c #345723",
"!2@	c #537931",
"~2@	c #5C812D",
"{2@	c #608628",
"]2@	c #5F8528",
"^2@	c #5F8524",
"/2@	c #62872A",
"(2@	c #62882A",
"_2@	c #61882C",
":2@	c #61872B",
"<2@	c #60862B",
"[2@	c #678B2A",
"}2@	c #5B8121",
"|2@	c #5D8327",
"12@	c #5D8326",
"22@	c #608422",
"32@	c #78952C",
"42@	c #779433",
"52@	c #769633",
"62@	c #719232",
"72@	c #6F9334",
"82@	c #729336",
"92@	c #729432",
"02@	c #6C9131",
"a2@	c #556D49",
"b2@	c #526D45",
"c2@	c #566D4A",
"d2@	c #576D4B",
"e2@	c #546C48",
"f2@	c #546C47",
"g2@	c #556D48",
"h2@	c #517142",
"i2@	c #597648",
"j2@	c #5A7947",
"k2@	c #5D7C40",
"l2@	c #587936",
"m2@	c #547724",
"n2@	c #4F7418",
"o2@	c #517515",
"p2@	c #547816",
"q2@	c #557916",
"r2@	c #557A16",
"s2@	c #597D16",
"t2@	c #567B16",
"u2@	c #537715",
"v2@	c #547715",
"w2@	c #5A7C15",
"x2@	c #648313",
"y2@	c #648517",
"z2@	c #5E8123",
"A2@	c #5C8023",
"B2@	c #5C8124",
"C2@	c #597D23",
"D2@	c #5E8229",
"E2@	c #5E8224",
"F2@	c #5F8322",
"G2@	c #5F8323",
"H2@	c #608526",
"I2@	c #618525",
"J2@	c #618424",
"K2@	c #628624",
"L2@	c #5F841F",
"M2@	c #5E821D",
"N2@	c #5A7E1D",
"O2@	c #5A7E18",
"P2@	c #5E8222",
"Q2@	c #5C8019",
"R2@	c #5B7F1D",
"S2@	c #597D20",
"T2@	c #5B7E24",
"U2@	c #597D1B",
"V2@	c #64851A",
"W2@	c #6C8812",
"X2@	c #708A10",
"Y2@	c #6D8910",
"Z2@	c #6D8810",
"`2@	c #6F8A10",
" 3@	c #698B27",
".3@	c #738C2D",
"+3@	c #DE560C",
"@3@	c #F14D01",
"#3@	c #E45E07",
"$3@	c #EEDA20",
"%3@	c #E1D25E",
"&3@	c #D8D0B0",
"*3@	c #D4CCB0",
"=3@	c #D7D0B7",
"-3@	c #DBD4BC",
";3@	c #DCCF76",
">3@	c #EDDC04",
",3@	c #ECDD04",
"'3@	c #E7D91B",
")3@	c #84855E",
"!3@	c #717268",
"~3@	c #63635B",
"{3@	c #9B9D8C",
"]3@	c #939382",
"^3@	c #818174",
"/3@	c #747366",
"(3@	c #AAA585",
"_3@	c #BBB592",
":3@	c #BEB790",
"<3@	c #B6B285",
"[3@	c #B8B28D",
"}3@	c #B2AC8B",
"|3@	c #A9A484",
"13@	c #8C8D76",
"23@	c #646F53",
"33@	c #59664C",
"43@	c #54604B",
"53@	c #57634F",
"63@	c #4F5B47",
"73@	c #2F482D",
"83@	c #1A4323",
"93@	c #1D4323",
"03@	c #214525",
"a3@	c #224324",
"b3@	c #1E4524",
"c3@	c #1F4925",
"d3@	c #2F5927",
"e3@	c #355F28",
"f3@	c #335E29",
"g3@	c #315E28",
"h3@	c #345E29",
"i3@	c #35622B",
"j3@	c #34602A",
"k3@	c #34632C",
"l3@	c #35642C",
"m3@	c #35632C",
"n3@	c #35632B",
"o3@	c #37662D",
"p3@	c #36652C",
"q3@	c #346129",
"r3@	c #35612A",
"s3@	c #325B26",
"t3@	c #2F5222",
"u3@	c #33541F",
"v3@	c #345620",
"w3@	c #375922",
"x3@	c #416125",
"y3@	c #486628",
"z3@	c #557627",
"A3@	c #61822C",
"B3@	c #65862B",
"C3@	c #6D8E29",
"D3@	c #739124",
"E3@	c #729025",
"F3@	c #719025",
"G3@	c #759126",
"H3@	c #779125",
"I3@	c #789124",
"J3@	c #789227",
"K3@	c #759024",
"L3@	c #7A9122",
"M3@	c #7D9321",
"N3@	c #7A9220",
"O3@	c #7D9320",
"P3@	c #7D931E",
"Q3@	c #819218",
"R3@	c #809115",
"S3@	c #7C921C",
"T3@	c #7E942A",
"U3@	c #7A9636",
"V3@	c #73923E",
"W3@	c #759241",
"X3@	c #6B893F",
"Y3@	c #6E8D44",
"Z3@	c #748F42",
"`3@	c #758F43",
" 4@	c #526C44",
".4@	c #536C46",
"+4@	c #546D47",
"@4@	c #516C44",
"#4@	c #536D46",
"$4@	c #546E46",
"%4@	c #5A7C45",
"&4@	c #5B7F41",
"*4@	c #5B7C42",
"=4@	c #527515",
"-4@	c #5C7E15",
";4@	c #608114",
">4@	c #5E8015",
",4@	c #577B16",
"'4@	c #5C7E14",
")4@	c #4E7216",
"!4@	c #537615",
"~4@	c #5F7F14",
"{4@	c #628217",
"]4@	c #5E8118",
"^4@	c #60841E",
"/4@	c #5D811E",
"(4@	c #5F8422",
"_4@	c #597E26",
":4@	c #5E8227",
"<4@	c #5F8327",
"[4@	c #618528",
"}4@	c #628523",
"|4@	c #608423",
"14@	c #5C801D",
"24@	c #5E8121",
"34@	c #608424",
"44@	c #5A7F1E",
"54@	c #5B7F1C",
"64@	c #5C801B",
"74@	c #5D811D",
"84@	c #5B7E1E",
"94@	c #597E1B",
"04@	c #5D801C",
"a4@	c #688619",
"b4@	c #698511",
"c4@	c #6B8711",
"d4@	c #6C8810",
"e4@	c #668313",
"f4@	c #69881D",
"g4@	c #678A2A",
"h4@	c #768D2D",
"i4@	c #DA5B10",
"j4@	c #F14C01",
"k4@	c #EE4C01",
"l4@	c #ED4B01",
"m4@	c #E74F05",
"n4@	c #EBD62B",
"o4@	c #EBD804",
"p4@	c #E2D465",
"q4@	c #DDD3AF",
"r4@	c #D9D0B3",
"s4@	c #DAD5BD",
"t4@	c #D8D3BC",
"u4@	c #D9D2BA",
"v4@	c #D9CE79",
"w4@	c #E5D71E",
"x4@	c #8C8D5E",
"y4@	c #747469",
"z4@	c #707167",
"A4@	c #9FA08D",
"B4@	c #A2A18E",
"C4@	c #838274",
"D4@	c #7B7B6E",
"E4@	c #A7A791",
"F4@	c #ACA687",
"G4@	c #9B977B",
"H4@	c #9B987C",
"I4@	c #ABA585",
"J4@	c #B6B08B",
"K4@	c #B3AE86",
"L4@	c #BCB591",
"M4@	c #B6B18D",
"N4@	c #A6A27C",
"O4@	c #5F6851",
"P4@	c #515A49",
"Q4@	c #536048",
"R4@	c #4F5D48",
"S4@	c #31492E",
"T4@	c #224425",
"U4@	c #1A4121",
"V4@	c #1F4223",
"W4@	c #1C4424",
"X4@	c #1B4524",
"Y4@	c #1D4623",
"Z4@	c #275225",
"`4@	c #355D29",
" 5@	c #36642C",
".5@	c #37652C",
"+5@	c #33612B",
"@5@	c #37672D",
"#5@	c #38682E",
"$5@	c #37672E",
"%5@	c #3C6B2D",
"&5@	c #437331",
"*5@	c #497C32",
"=5@	c #4E7A30",
"-5@	c #53762F",
";5@	c #668826",
">5@	c #6B8B25",
",5@	c #6F8F28",
"'5@	c #718F21",
")5@	c #6D8E27",
"!5@	c #6C8D27",
"~5@	c #739126",
"{5@	c #779025",
"]5@	c #779020",
"^5@	c #77901F",
"/5@	c #758E1C",
"(5@	c #78901E",
"_5@	c #7E9321",
":5@	c #7E931D",
"<5@	c #81931C",
"[5@	c #7B9220",
"}5@	c #83951F",
"|5@	c #879416",
"15@	c #849315",
"25@	c #839214",
"35@	c #829215",
"45@	c #7E9117",
"55@	c #7C9529",
"65@	c #789238",
"75@	c #768F40",
"85@	c #728C43",
"95@	c #718C41",
"05@	c #6E8C44",
"a5@	c #6C8943",
"b5@	c #546D48",
"c5@	c #536E46",
"d5@	c #547344",
"e5@	c #5E803B",
"f5@	c #5A7C2D",
"g5@	c #5E7F14",
"h5@	c #608115",
"i5@	c #587C15",
"j5@	c #577915",
"k5@	c #4D7116",
"l5@	c #6A8713",
"m5@	c #65871D",
"n5@	c #608321",
"o5@	c #5E8221",
"p5@	c #5E8226",
"q5@	c #5D8126",
"r5@	c #5E8324",
"s5@	c #5F831E",
"t5@	c #5E831D",
"u5@	c #628623",
"v5@	c #5F8320",
"w5@	c #638625",
"x5@	c #5F8223",
"y5@	c #5E8220",
"z5@	c #5D8119",
"A5@	c #5B7F1A",
"B5@	c #597E17",
"C5@	c #5B7F21",
"D5@	c #5C7F1D",
"E5@	c #5F8218",
"F5@	c #6A8711",
"G5@	c #688411",
"H5@	c #6A8611",
"I5@	c #618012",
"J5@	c #668312",
"K5@	c #678411",
"L5@	c #668314",
"M5@	c #6A8B25",
"N5@	c #688B27",
"O5@	c #77902B",
"P5@	c #CC6316",
"Q5@	c #F45302",
"R5@	c #EB4A02",
"S5@	c #E94A02",
"T5@	c #E44F06",
"U5@	c #E6CE30",
"V5@	c #E6D506",
"W5@	c #E0D366",
"X5@	c #D9D1B4",
"Y5@	c #D8D3BD",
"Z5@	c #D4CEB6",
"`5@	c #D1CBB5",
" 6@	c #CBC5AC",
".6@	c #CAC373",
"+6@	c #E5D622",
"@6@	c #8D8D64",
"#6@	c #64645C",
"$6@	c #9C9E8E",
"%6@	c #939381",
"&6@	c #898877",
"*6@	c #939788",
"=6@	c #A5A289",
"-6@	c #ACA683",
";6@	c #ACA87F",
">6@	c #AFAB84",
",6@	c #B9B489",
"'6@	c #C6BE98",
")6@	c #A49F80",
"!6@	c #9B997D",
"~6@	c #919078",
"{6@	c #747767",
"]6@	c #6A6D5C",
"^6@	c #4F5D3E",
"/6@	c #4E5B41",
"(6@	c #46553C",
"_6@	c #2B4228",
":6@	c #224024",
"<6@	c #1C4021",
"[6@	c #1A3F1F",
"}6@	c #194121",
"|6@	c #224B24",
"16@	c #335E28",
"26@	c #345F28",
"36@	c #36622C",
"46@	c #345D29",
"56@	c #356129",
"66@	c #34632B",
"76@	c #37682E",
"86@	c #39692F",
"96@	c #427131",
"06@	c #4B7C33",
"a6@	c #4C8031",
"b6@	c #558933",
"c6@	c #5D8B34",
"d6@	c #648F35",
"e6@	c #679135",
"f6@	c #6C9234",
"g6@	c #6E9234",
"h6@	c #71932C",
"i6@	c #729329",
"j6@	c #739228",
"k6@	c #729126",
"l6@	c #729024",
"m6@	c #719127",
"n6@	c #6F8E23",
"o6@	c #709026",
"p6@	c #749025",
"q6@	c #789122",
"r6@	c #789024",
"s6@	c #749024",
"t6@	c #779123",
"u6@	c #7A9222",
"v6@	c #7B911B",
"w6@	c #79901C",
"x6@	c #7E921C",
"y6@	c #80931E",
"z6@	c #80921A",
"A6@	c #809218",
"B6@	c #7B8E13",
"C6@	c #7D9013",
"D6@	c #819114",
"E6@	c #859315",
"F6@	c #819116",
"G6@	c #81931E",
"H6@	c #7B9229",
"I6@	c #718C34",
"J6@	c #728B3E",
"K6@	c #728D43",
"L6@	c #6C8941",
"M6@	c #6D8944",
"N6@	c #547341",
"O6@	c #557242",
"P6@	c #4F703F",
"Q6@	c #527143",
"R6@	c #537342",
"S6@	c #547342",
"T6@	c #537440",
"U6@	c #557A3C",
"V6@	c #567541",
"W6@	c #54783C",
"X6@	c #56793E",
"Y6@	c #54763C",
"Z6@	c #55793D",
"`6@	c #5A793C",
" 7@	c #4D7216",
".7@	c #4E7215",
"+7@	c #557915",
"@7@	c #567815",
"#7@	c #698613",
"$7@	c #688920",
"%7@	c #608420",
"&7@	c #5C801C",
"*7@	c #5D811C",
"=7@	c #5E821C",
"-7@	c #5C8021",
";7@	c #658822",
">7@	c #618422",
",7@	c #62851D",
"'7@	c #67881D",
")7@	c #638624",
"!7@	c #658724",
"~7@	c #5F821E",
"{7@	c #5D811B",
"]7@	c #6C8A1A",
"^7@	c #658619",
"/7@	c #5D8122",
"(7@	c #5B7F1F",
"_7@	c #688615",
":7@	c #628012",
"<7@	c #698611",
"[7@	c #688511",
"}7@	c #6C8710",
"|7@	c #6D8811",
"17@	c #678826",
"27@	c #67892E",
"37@	c #6A8C32",
"47@	c #7A9033",
"57@	c #CB6F1A",
"67@	c #F15001",
"77@	c #F34E02",
"87@	c #F14B01",
"97@	c #EF4C01",
"07@	c #EA4902",
"a7@	c #E94803",
"b7@	c #E35406",
"c7@	c #E6CB20",
"d7@	c #E6D318",
"e7@	c #E4D668",
"f7@	c #DDD5BB",
"g7@	c #DBD5BF",
"h7@	c #DCD5BF",
"i7@	c #D8D1B9",
"j7@	c #D5CEB3",
"k7@	c #DACD72",
"l7@	c #EBDB18",
"m7@	c #8B8D62",
"n7@	c #60615E",
"o7@	c #62635E",
"p7@	c #7B7E77",
"q7@	c #B0AF9B",
"r7@	c #A5A38F",
"s7@	c #9A9C8A",
"t7@	c #94937F",
"u7@	c #908F78",
"v7@	c #8A8877",
"w7@	c #8D8A72",
"x7@	c #9A967A",
"y7@	c #A49F7C",
"z7@	c #BEB791",
"A7@	c #BBB58D",
"B7@	c #BCB68E",
"C7@	c #CAC39E",
"D7@	c #A29E82",
"E7@	c #909073",
"F7@	c #7A7E6E",
"G7@	c #626657",
"H7@	c #5D6353",
"I7@	c #515C48",
"J7@	c #404F36",
"K7@	c #284028",
"L7@	c #1C4123",
"M7@	c #1B4020",
"N7@	c #194322",
"O7@	c #184122",
"P7@	c #1A4524",
"Q7@	c #275126",
"R7@	c #2D5726",
"S7@	c #34622B",
"T7@	c #33622B",
"U7@	c #396A2F",
"V7@	c #437231",
"W7@	c #4F8233",
"X7@	c #578A36",
"Y7@	c #618C37",
"Z7@	c #658F33",
"`7@	c #659035",
" 8@	c #6B9234",
".8@	c #6D9436",
"+8@	c #719636",
"@8@	c #779935",
"#8@	c #749328",
"$8@	c #789228",
"%8@	c #738F21",
"&8@	c #78911F",
"*8@	c #779122",
"=8@	c #7E9427",
"-8@	c #7C9226",
";8@	c #7A911F",
">8@	c #7C911B",
",8@	c #7D9220",
"'8@	c #809425",
")8@	c #7A9224",
"!8@	c #7E9220",
"~8@	c #7C9220",
"{8@	c #7E9118",
"]8@	c #839318",
"^8@	c #7E9119",
"/8@	c #7E9013",
"(8@	c #7D8F13",
"_8@	c #7B8F14",
":8@	c #7F9017",
"<8@	c #829128",
"[8@	c #83932D",
"}8@	c #778F3A",
"|8@	c #6F8B3F",
"18@	c #6D8A44",
"28@	c #6C8947",
"38@	c #64843B",
"48@	c #597B37",
"58@	c #567A36",
"68@	c #557C34",
"78@	c #577E35",
"88@	c #597F35",
"98@	c #5B8135",
"08@	c #5A8035",
"a8@	c #598135",
"b8@	c #5A8136",
"c8@	c #567C36",
"d8@	c #577C35",
"e8@	c #5C7F32",
"f8@	c #53771D",
"g8@	c #56791C",
"h8@	c #537717",
"i8@	c #577B1D",
"j8@	c #55791A",
"k8@	c #577B1A",
"l8@	c #5C7E1B",
"m8@	c #63841B",
"n8@	c #668516",
"o8@	c #5C7E16",
"p8@	c #618218",
"q8@	c #5E8016",
"r8@	c #5A7C16",
"s8@	c #5A7C18",
"t8@	c #547815",
"u8@	c #5D7F16",
"v8@	c #5E8122",
"w8@	c #5D811F",
"x8@	c #618521",
"y8@	c #638622",
"z8@	c #5C801E",
"A8@	c #5D8123",
"B8@	c #5E811F",
"C8@	c #608320",
"D8@	c #608421",
"E8@	c #5D8021",
"F8@	c #62841C",
"G8@	c #638417",
"H8@	c #61831C",
"I8@	c #5D8020",
"J8@	c #608322",
"K8@	c #5D8025",
"L8@	c #5A7D28",
"M8@	c #5E8223",
"N8@	c #698617",
"O8@	c #698616",
"P8@	c #638019",
"Q8@	c #5D7D16",
"R8@	c #638119",
"S8@	c #658216",
"T8@	c #607C1C",
"U8@	c #5D7B1C",
"V8@	c #637E20",
"W8@	c #5F7D1E",
"X8@	c #65811E",
"Y8@	c #627D1D",
"Z8@	c #66821C",
"`8@	c #67801C",
" 9@	c #69821D",
".9@	c #647F1F",
"+9@	c #607D1A",
"@9@	c #5B7918",
"#9@	c #5A7719",
"$9@	c #5F7B18",
"%9@	c #5F7D17",
"&9@	c #627C1D",
"*9@	c #617B23",
"=9@	c #647E1E",
"-9@	c #6A831D",
";9@	c #6F8719",
">9@	c #6D8712",
",9@	c #6E8811",
"'9@	c #6B8613",
")9@	c #6E8A1E",
"!9@	c #64872A",
"~9@	c #678B30",
"{9@	c #6B8E31",
"]9@	c #779131",
"^9@	c #C76D1C",
"/9@	c #EC4B02",
"(9@	c #EA4A02",
"_9@	c #EB4B02",
":9@	c #EC4A01",
"<9@	c #ED4C01",
"[9@	c #E94902",
"}9@	c #E55506",
"|9@	c #E9CC1D",
"19@	c #E7D505",
"29@	c #E2D214",
"39@	c #E4D660",
"49@	c #DDD5B7",
"59@	c #E1D9C1",
"69@	c #DFD9C1",
"79@	c #D9D1B3",
"89@	c #DBD073",
"99@	c #E6D612",
"09@	c #8D8E5C",
"a9@	c #636764",
"b9@	c #5D605D",
"c9@	c #7F837A",
"d9@	c #80847D",
"e9@	c #A0A396",
"f9@	c #A0A292",
"g9@	c #7D7969",
"h9@	c #86826D",
"i9@	c #9A9578",
"j9@	c #A59E7B",
"k9@	c #C0B991",
"l9@	c #C2BB93",
"m9@	c #C6BF96",
"n9@	c #8C8C73",
"o9@	c #7E846D",
"p9@	c #636856",
"q9@	c #51584B",
"r9@	c #4B5444",
"s9@	c #2A4229",
"t9@	c #1E3E24",
"u9@	c #1E3E22",
"v9@	c #1A4222",
"w9@	c #1A4322",
"x9@	c #194020",
"y9@	c #1B4021",
"z9@	c #173E1F",
"A9@	c #1C4624",
"B9@	c #244C26",
"C9@	c #346029",
"D9@	c #336029",
"E9@	c #33602A",
"F9@	c #34622A",
"G9@	c #37662E",
"H9@	c #427431",
"I9@	c #4E8133",
"J9@	c #588A36",
"K9@	c #659037",
"L9@	c #6C933A",
"M9@	c #6D9335",
"N9@	c #729636",
"O9@	c #729632",
"P9@	c #739532",
"Q9@	c #7A9A33",
"R9@	c #7A9A32",
"S9@	c #749630",
"T9@	c #769429",
"U9@	c #7B9324",
"V9@	c #778F1A",
"W9@	c #7C9120",
"X9@	c #829322",
"Y9@	c #7F9325",
"Z9@	c #758F1E",
"`9@	c #788F1D",
" 0@	c #778F1E",
".0@	c #7B9122",
"+0@	c #769225",
"@0@	c #7B9224",
"#0@	c #788F1C",
"$0@	c #7D9016",
"%0@	c #829216",
"&0@	c #7C8F13",
"*0@	c #809114",
"=0@	c #829214",
"-0@	c #7F9219",
";0@	c #7B9125",
">0@	c #769026",
",0@	c #778F27",
"'0@	c #748D34",
")0@	c #6D8941",
"!0@	c #6B8745",
"~0@	c #567D30",
"{0@	c #567E32",
"]0@	c #58802F",
"^0@	c #598132",
"/0@	c #598030",
"(0@	c #5D8330",
"_0@	c #598232",
":0@	c #537B31",
"<0@	c #577E30",
"[0@	c #567B30",
"}0@	c #56792B",
"|0@	c #61832C",
"10@	c #61852B",
"20@	c #63872B",
"30@	c #698B30",
"40@	c #6B8C30",
"50@	c #688D2F",
"60@	c #6B9032",
"70@	c #6E902E",
"80@	c #6F912E",
"90@	c #71912E",
"00@	c #789631",
"a0@	c #76952B",
"b0@	c #709129",
"c0@	c #6F902A",
"d0@	c #6E902B",
"e0@	c #6F8F25",
"f0@	c #6C8E28",
"g0@	c #70912A",
"h0@	c #73942D",
"i0@	c #6D8E2A",
"j0@	c #5D8120",
"k0@	c #597E27",
"l0@	c #597E29",
"m0@	c #5B7F2C",
"n0@	c #597D2A",
"o0@	c #587D29",
"p0@	c #577D28",
"q0@	c #587D2A",
"r0@	c #557A28",
"s0@	c #567C2C",
"t0@	c #567C29",
"u0@	c #587C2A",
"v0@	c #567B28",
"w0@	c #537A28",
"x0@	c #547A2A",
"y0@	c #557A29",
"z0@	c #557A27",
"A0@	c #557A25",
"B0@	c #5A7E25",
"C0@	c #5A7F28",
"D0@	c #5A7E2A",
"E0@	c #557A26",
"F0@	c #547A27",
"G0@	c #527A27",
"H0@	c #517729",
"I0@	c #527929",
"J0@	c #537928",
"K0@	c #597D28",
"L0@	c #5E7F2B",
"M0@	c #5B7930",
"N0@	c #58782C",
"O0@	c #58772E",
"P0@	c #56762F",
"Q0@	c #58772D",
"R0@	c #557331",
"S0@	c #55732E",
"T0@	c #54722C",
"U0@	c #57712E",
"V0@	c #54722F",
"W0@	c #57742F",
"X0@	c #58752D",
"Y0@	c #59752B",
"Z0@	c #60792D",
"`0@	c #5B762E",
" a@	c #5A7530",
".a@	c #597532",
"+a@	c #59732E",
"@a@	c #5A742D",
"#a@	c #566F2F",
"$a@	c #53712F",
"%a@	c #556F33",
"&a@	c #567330",
"*a@	c #59762B",
"=a@	c #5D752D",
"-a@	c #5A722D",
";a@	c #59732B",
">a@	c #54722A",
",a@	c #62802F",
"'a@	c #668A2E",
")a@	c #688C30",
"!a@	c #748F31",
"~a@	c #C2802F",
"{a@	c #E47311",
"]a@	c #E0630E",
"^a@	c #E55407",
"/a@	c #E45A08",
"(a@	c #E45707",
"_a@	c #E74C07",
":a@	c #E14E06",
"<a@	c #D76227",
"[a@	c #E3CD43",
"}a@	c #E2D20F",
"|a@	c #E5D406",
"1a@	c #E3D65C",
"2a@	c #DDD3B5",
"3a@	c #E1DBC5",
"4a@	c #E1DBC6",
"5a@	c #DFD9C4",
"6a@	c #DED285",
"7a@	c #F0DD0C",
"8a@	c #E7D616",
"9a@	c #989763",
"0a@	c #666E73",
"aa@	c #747D81",
"ba@	c #7F827A",
"ca@	c #C8C7B6",
"da@	c #86846C",
"ea@	c #5A594A",
"fa@	c #605E53",
"ga@	c #747265",
"ha@	c #8D8A6F",
"ia@	c #A9A280",
"ja@	c #B8B38E",
"ka@	c #BBB68D",
"la@	c #81826E",
"ma@	c #747764",
"na@	c #59694D",
"oa@	c #525B49",
"pa@	c #4C5348",
"qa@	c #2B432A",
"ra@	c #1C3F21",
"sa@	c #1B3F21",
"ta@	c #1D4222",
"ua@	c #2C5527",
"va@	c #406D30",
"wa@	c #517D36",
"xa@	c #5E8938",
"ya@	c #6A9235",
"za@	c #6E9436",
"Aa@	c #72963A",
"Ba@	c #719436",
"Ca@	c #719635",
"Da@	c #6F9435",
"Ea@	c #759732",
"Fa@	c #749631",
"Ga@	c #789A32",
"Ha@	c #759731",
"Ia@	c #77972E",
"Ja@	c #78952B",
"Ka@	c #7D9424",
"La@	c #7D9328",
"Ma@	c #7D9425",
"Na@	c #7D911C",
"Oa@	c #7C9225",
"Pa@	c #7F921B",
"Qa@	c #84962A",
"Ra@	c #7E952D",
"Sa@	c #819322",
"Ta@	c #7F9014",
"Ua@	c #7F9115",
"Va@	c #879415",
"Wa@	c #869415",
"Xa@	c #829317",
"Ya@	c #859419",
"Za@	c #7C9122",
"`a@	c #7E9021",
" b@	c #7E911F",
".b@	c #7F9225",
"+b@	c #788F2E",
"@b@	c #738A42",
"#b@	c #587F31",
"$b@	c #5A802F",
"%b@	c #5A8331",
"&b@	c #598231",
"*b@	c #598031",
"=b@	c #517930",
"-b@	c #557B2E",
";b@	c #577C2E",
">b@	c #597C2B",
",b@	c #678A33",
"'b@	c #688C32",
")b@	c #698C31",
"!b@	c #6C8B35",
"~b@	c #6E8D36",
"{b@	c #6F8D34",
"]b@	c #6D8D32",
"^b@	c #6A8F32",
"/b@	c #6F9333",
"(b@	c #719432",
"_b@	c #749736",
":b@	c #729532",
"<b@	c #739633",
"[b@	c #759734",
"}b@	c #779734",
"|b@	c #759632",
"1b@	c #789834",
"2b@	c #799935",
"3b@	c #7F9D35",
"4b@	c #809D34",
"5b@	c #799932",
"6b@	c #7C9B32",
"7b@	c #779832",
"8b@	c #74952E",
"9b@	c #5B8131",
"0b@	c #587F2B",
"ab@	c #547B2A",
"bb@	c #547B2C",
"cb@	c #537C2B",
"db@	c #4D7629",
"eb@	c #4F772A",
"fb@	c #4E772A",
"gb@	c #4F7628",
"hb@	c #557B2A",
"ib@	c #507829",
"jb@	c #507827",
"kb@	c #517928",
"lb@	c #4F782A",
"mb@	c #527A29",
"nb@	c #4E7629",
"ob@	c #507729",
"pb@	c #4C7628",
"qb@	c #50792A",
"rb@	c #4B7529",
"sb@	c #4C7528",
"tb@	c #537A26",
"ub@	c #4D7727",
"vb@	c #517826",
"wb@	c #577E28",
"xb@	c #577B29",
"yb@	c #5E7E2D",
"zb@	c #5A7B30",
"Ab@	c #597932",
"Bb@	c #587933",
"Cb@	c #5A7831",
"Db@	c #557133",
"Eb@	c #55732F",
"Fb@	c #577333",
"Gb@	c #587434",
"Hb@	c #587431",
"Ib@	c #53712E",
"Jb@	c #58742E",
"Kb@	c #56702F",
"Lb@	c #54712F",
"Mb@	c #52702E",
"Nb@	c #547030",
"Ob@	c #546E32",
"Pb@	c #536D31",
"Qb@	c #556F32",
"Rb@	c #557031",
"Sb@	c #547032",
"Tb@	c #546F31",
"Ub@	c #566F33",
"Vb@	c #546B31",
"Wb@	c #536C31",
"Xb@	c #4F6A2E",
"Yb@	c #567531",
"Zb@	c #5F832E",
"`b@	c #668831",
" c@	c #678A30",
".c@	c #6B8E33",
"+c@	c #75942E",
"@c@	c #C6C032",
"#c@	c #E8D51A",
"$c@	c #E8D512",
"%c@	c #EAD012",
"&c@	c #E9CD0A",
"*c@	c #EACB0D",
"=c@	c #E8C70E",
"-c@	c #E8C70F",
";c@	c #E4CE31",
">c@	c #DACF8B",
",c@	c #E1D594",
"'c@	c #E0D68A",
")c@	c #E2D579",
"!c@	c #E2D583",
"~c@	c #E1D36C",
"{c@	c #E4D456",
"]c@	c #E5D541",
"^c@	c #E5D65D",
"/c@	c #E5D68E",
"(c@	c #DAD4BE",
"_c@	c #D0C577",
":c@	c #EDDD0D",
"<c@	c #E4D51B",
"[c@	c #8F9265",
"}c@	c #707678",
"|c@	c #727674",
"1c@	c #727A82",
"2c@	c #747D82",
"3c@	c #A8AAA0",
"4c@	c #D4D4C6",
"5c@	c #DCDBCC",
"6c@	c #CECEBE",
"7c@	c #B4B095",
"8c@	c #848268",
"9c@	c #646054",
"0c@	c #747061",
"ac@	c #88846F",
"bc@	c #979560",
"cc@	c #B4AC7F",
"dc@	c #BCB590",
"ec@	c #B7B18D",
"fc@	c #A5A387",
"gc@	c #737765",
"hc@	c #666E59",
"ic@	c #5E654E",
"jc@	c #52574E",
"kc@	c #364933",
"lc@	c #1A3E1F",
"mc@	c #1B4222",
"nc@	c #1B4121",
"oc@	c #1C4122",
"pc@	c #1B4323",
"qc@	c #1B4424",
"rc@	c #1C4222",
"sc@	c #1A4223",
"tc@	c #1A4423",
"uc@	c #254926",
"vc@	c #36632C",
"wc@	c #4A7833",
"xc@	c #598339",
"yc@	c #658E3B",
"zc@	c #6C9338",
"Ac@	c #709435",
"Bc@	c #6E9435",
"Cc@	c #70943A",
"Dc@	c #719439",
"Ec@	c #739736",
"Fc@	c #739635",
"Gc@	c #729637",
"Hc@	c #769732",
"Ic@	c #7C9B33",
"Jc@	c #799A33",
"Kc@	c #779834",
"Lc@	c #79982F",
"Mc@	c #79952C",
"Nc@	c #819424",
"Oc@	c #799020",
"Pc@	c #799025",
"Qc@	c #77902C",
"Rc@	c #7A932D",
"Sc@	c #7F952E",
"Tc@	c #7D942B",
"Uc@	c #7E9127",
"Vc@	c #81921A",
"Wc@	c #839215",
"Xc@	c #86931C",
"Yc@	c #89951A",
"Zc@	c #899515",
"`c@	c #899518",
" d@	c #8A9619",
".d@	c #829217",
"+d@	c #7D911B",
"@d@	c #819220",
"#d@	c #7F9125",
"$d@	c #768E34",
"%d@	c #577C2D",
"&d@	c #5B822F",
"*d@	c #608631",
"=d@	c #5B8432",
"-d@	c #5A8332",
";d@	c #5A8132",
">d@	c #537A30",
",d@	c #597E31",
"'d@	c #648730",
")d@	c #65872F",
"!d@	c #678832",
"~d@	c #6C8F35",
"{d@	c #6F9037",
"]d@	c #6E8D38",
"^d@	c #6E8E35",
"/d@	c #6F8E34",
"(d@	c #729036",
"_d@	c #6F9336",
":d@	c #6F9332",
"<d@	c #749635",
"[d@	c #779937",
"}d@	c #769735",
"|d@	c #7B9933",
"1d@	c #7A9932",
"2d@	c #789833",
"3d@	c #789835",
"4d@	c #799931",
"5d@	c #799933",
"6d@	c #77972F",
"7d@	c #789B34",
"8d@	c #719433",
"9d@	c #567D2D",
"0d@	c #517A2C",
"ad@	c #52792A",
"bd@	c #537B2B",
"cd@	c #517829",
"dd@	c #4C7529",
"ed@	c #4F7729",
"fd@	c #4F7727",
"gd@	c #547C2C",
"hd@	c #4B7429",
"id@	c #517A29",
"jd@	c #4B752A",
"kd@	c #50782A",
"ld@	c #527926",
"md@	c #507724",
"nd@	c #567C27",
"od@	c #587C2D",
"pd@	c #57792A",
"qd@	c #5B7D2C",
"rd@	c #5D7C2F",
"sd@	c #59792F",
"td@	c #58782F",
"ud@	c #557530",
"vd@	c #587734",
"wd@	c #587531",
"xd@	c #506E2E",
"yd@	c #557232",
"zd@	c #557532",
"Ad@	c #547131",
"Bd@	c #567434",
"Cd@	c #557134",
"Dd@	c #567333",
"Ed@	c #536E31",
"Fd@	c #547033",
"Gd@	c #557033",
"Hd@	c #536D32",
"Id@	c #546C32",
"Jd@	c #546F32",
"Kd@	c #526B30",
"Ld@	c #4D6B2D",
"Md@	c #506C2F",
"Nd@	c #567731",
"Od@	c #628531",
"Pd@	c #668932",
"Qd@	c #6D9032",
"Rd@	c #799731",
"Sd@	c #CDC319",
"Td@	c #E8D607",
"Ud@	c #E3D228",
"Vd@	c #DDD293",
"Wd@	c #DED6BC",
"Xd@	c #E1D9BF",
"Yd@	c #E1D8BC",
"Zd@	c #E4DCC1",
"`d@	c #DFD8BD",
" e@	c #DDD5B6",
".e@	c #E1DBC7",
"+e@	c #DED8C3",
"@e@	c #DBD1AE",
"#e@	c #DCD07B",
"$e@	c #EFDE06",
"%e@	c #E9D906",
"&e@	c #E4D321",
"*e@	c #919267",
"=e@	c #747775",
"-e@	c #70777C",
";e@	c #6E767D",
">e@	c #7A7E78",
",e@	c #717A80",
"'e@	c #6B7276",
")e@	c #B1B5AE",
"!e@	c #CFCEBC",
"~e@	c #CCCAB7",
"{e@	c #95947E",
"]e@	c #8E8970",
"^e@	c #8E886D",
"/e@	c #A19B74",
"(e@	c #C1BC90",
"_e@	c #C6BF99",
":e@	c #B3AE88",
"<e@	c #A29D7C",
"[e@	c #828472",
"}e@	c #6F7363",
"|e@	c #5D674D",
"1e@	c #51584A",
"2e@	c #404C38",
"3e@	c #2E442B",
"4e@	c #264427",
"5e@	c #234124",
"6e@	c #274427",
"7e@	c #244225",
"8e@	c #224326",
"9e@	c #204123",
"0e@	c #244426",
"ae@	c #234324",
"be@	c #254326",
"ce@	c #254426",
"de@	c #204525",
"ee@	c #264627",
"fe@	c #2A4D27",
"ge@	c #3C692F",
"he@	c #557F3B",
"ie@	c #658C3B",
"je@	c #6A8E3C",
"ke@	c #6C9238",
"le@	c #729638",
"me@	c #71943A",
"ne@	c #769441",
"oe@	c #74923E",
"pe@	c #76933F",
"qe@	c #72943A",
"re@	c #74963A",
"se@	c #719538",
"te@	c #769635",
"ue@	c #779637",
"ve@	c #769737",
"we@	c #749533",
"xe@	c #739533",
"ye@	c #779635",
"ze@	c #719331",
"Ae@	c #6D9133",
"Be@	c #729433",
"Ce@	c #899C39",
"De@	c #7D932F",
"Ee@	c #789533",
"Fe@	c #789537",
"Ge@	c #769337",
"He@	c #748F3A",
"Ie@	c #7D963A",
"Je@	c #8A9A37",
"Ke@	c #869830",
"Le@	c #82942E",
"Me@	c #889825",
"Ne@	c #84941B",
"Oe@	c #829321",
"Pe@	c #899626",
"Qe@	c #899625",
"Re@	c #85941D",
"Se@	c #85931B",
"Te@	c #85931C",
"Ue@	c #8D9718",
"Ve@	c #8B9618",
"We@	c #899516",
"Xe@	c #869315",
"Ye@	c #86941E",
"Ze@	c #889627",
"`e@	c #8B952D",
" f@	c #587F2F",
".f@	c #5B822D",
"+f@	c #5D832D",
"@f@	c #5B812D",
"#f@	c #5B822B",
"$f@	c #597F2C",
"%f@	c #567D2B",
"&f@	c #52792D",
"*f@	c #5D8031",
"=f@	c #64872F",
"-f@	c #688B33",
";f@	c #6D8F34",
">f@	c #6E9031",
",f@	c #6E8F35",
"'f@	c #6C8F33",
")f@	c #6E9030",
"!f@	c #6F8F31",
"~f@	c #739530",
"{f@	c #72942F",
"]f@	c #739531",
"^f@	c #799834",
"/f@	c #759730",
"(f@	c #789830",
"_f@	c #779733",
":f@	c #769733",
"<f@	c #789831",
"[f@	c #719333",
"}f@	c #5A7E2D",
"|f@	c #587D30",
"1f@	c #567D2E",
"2f@	c #52792B",
"3f@	c #547B2D",
"4f@	c #4E7729",
"5f@	c #517828",
"6f@	c #4E7628",
"7f@	c #537A2A",
"8f@	c #4B7629",
"9f@	c #4A7529",
"0f@	c #557A2A",
"af@	c #527A26",
"bf@	c #4C7629",
"cf@	c #4F7829",
"df@	c #587E2A",
"ef@	c #587B2B",
"ff@	c #597A2B",
"gf@	c #597B2D",
"hf@	c #5F7D31",
"if@	c #597A30",
"jf@	c #58792E",
"kf@	c #56752F",
"lf@	c #52712F",
"mf@	c #516E2E",
"nf@	c #526F30",
"of@	c #536F2F",
"pf@	c #516F2E",
"qf@	c #547230",
"rf@	c #557132",
"sf@	c #51702F",
"tf@	c #53732E",
"uf@	c #52702F",
"vf@	c #516C31",
"wf@	c #526F2F",
"xf@	c #526D30",
"yf@	c #516D2F",
"zf@	c #506E2F",
"Af@	c #527031",
"Bf@	c #526C31",
"Cf@	c #516C30",
"Df@	c #546B32",
"Ef@	c #4F6C30",
"Ff@	c #5E7D34",
"Gf@	c #60842E",
"Hf@	c #658732",
"If@	c #698C32",
"Jf@	c #799431",
"Kf@	c #D5CA19",
"Lf@	c #E7D507",
"Mf@	c #EDDC02",
"Nf@	c #E9D713",
"Of@	c #DDD186",
"Pf@	c #DBD4B9",
"Qf@	c #E0D9C0",
"Rf@	c #E1DAC1",
"Sf@	c #E2DBC3",
"Tf@	c #E1DAC5",
"Uf@	c #E3DCC7",
"Vf@	c #E0DAC4",
"Wf@	c #DFD9C2",
"Xf@	c #DFD9C3",
"Yf@	c #E1DAC4",
"Zf@	c #E0D9C5",
"`f@	c #DBD5BE",
" g@	c #DBD0AD",
".g@	c #E2D56A",
"+g@	c #E0D329",
"@g@	c #8A8B6A",
"#g@	c #727B82",
"$g@	c #767D81",
"%g@	c #727C84",
"&g@	c #798183",
"*g@	c #B3B7B0",
"=g@	c #D0D1C5",
"-g@	c #D0CDBA",
";g@	c #D2CEBA",
">g@	c #CECCB8",
",g@	c #C6C6B8",
"'g@	c #BBB593",
")g@	c #CCC5A1",
"!g@	c #BBB590",
"~g@	c #B1AB84",
"{g@	c #A8A27F",
"]g@	c #797B6D",
"^g@	c #54554D",
"/g@	c #484F39",
"(g@	c #434B34",
"_g@	c #404D31",
":g@	c #34492C",
"<g@	c #2F4629",
"[g@	c #31492A",
"}g@	c #364B2C",
"|g@	c #33492C",
"1g@	c #32532A",
"2g@	c #3A612B",
"3g@	c #416B30",
"4g@	c #456F30",
"5g@	c #507B34",
"6g@	c #6B8E38",
"7g@	c #6F9036",
"8g@	c #739336",
"9g@	c #678C30",
"0g@	c #6E9236",
"ag@	c #70923C",
"bg@	c #71903D",
"cg@	c #6E8E39",
"dg@	c #6E8F38",
"eg@	c #6A8D35",
"fg@	c #668A2F",
"gg@	c #6B9132",
"hg@	c #678C2E",
"ig@	c #6B8F2F",
"jg@	c #698D2E",
"kg@	c #6A8E2F",
"lg@	c #719330",
"mg@	c #6D8F2E",
"ng@	c #678B2E",
"og@	c #6D9030",
"pg@	c #749536",
"qg@	c #7D963C",
"rg@	c #7B963E",
"sg@	c #74903E",
"tg@	c #728E3C",
"ug@	c #718C3D",
"vg@	c #7B953D",
"wg@	c #77913E",
"xg@	c #77903A",
"yg@	c #769339",
"zg@	c #7F9836",
"Ag@	c #7B913B",
"Bg@	c #7A9339",
"Cg@	c #779138",
"Dg@	c #7B923A",
"Eg@	c #779335",
"Fg@	c #7A9137",
"Gg@	c #778F36",
"Hg@	c #7F9139",
"Ig@	c #819633",
"Jg@	c #829732",
"Kg@	c #7F932F",
"Lg@	c #80942C",
"Mg@	c #809228",
"Ng@	c #7C9126",
"Og@	c #7B902B",
"Pg@	c #7E9335",
"Qg@	c #839438",
"Rg@	c #7C8E39",
"Sg@	c #668A32",
"Tg@	c #618731",
"Ug@	c #5F852E",
"Vg@	c #5B812B",
"Wg@	c #5B832B",
"Xg@	c #577E2B",
"Yg@	c #537A2E",
"Zg@	c #5E8332",
"`g@	c #628431",
" h@	c #648831",
".h@	c #688A32",
"+h@	c #678B33",
"@h@	c #678C2F",
"#h@	c #678A32",
"$h@	c #75952F",
"%h@	c #799730",
"&h@	c #7A9833",
"*h@	c #749432",
"=h@	c #729334",
"-h@	c #769736",
";h@	c #7A992F",
">h@	c #849D34",
",h@	c #709331",
"'h@	c #5B802D",
")h@	c #587E2E",
"!h@	c #5B802C",
"~h@	c #5A802E",
"{h@	c #557C2A",
"]h@	c #547C2D",
"^h@	c #537B2D",
"/h@	c #537B2E",
"(h@	c #51782B",
"_h@	c #527829",
":h@	c #4C762B",
"<h@	c #4B7427",
"[h@	c #4C7526",
"}h@	c #517926",
"|h@	c #507929",
"1h@	c #527828",
"2h@	c #517929",
"3h@	c #597B2C",
"4h@	c #638235",
"5h@	c #5E7E34",
"6h@	c #628133",
"7h@	c #607C2F",
"8h@	c #5C782E",
"9h@	c #607D32",
"0h@	c #627932",
"ah@	c #607932",
"bh@	c #627A30",
"ch@	c #61792F",
"dh@	c #668033",
"eh@	c #677F32",
"fh@	c #6C8534",
"gh@	c #688132",
"hh@	c #607C31",
"ih@	c #597A33",
"jh@	c #5B7936",
"kh@	c #577834",
"lh@	c #536E30",
"mh@	c #516D31",
"nh@	c #526E31",
"oh@	c #516F30",
"ph@	c #5E8033",
"qh@	c #5F8433",
"rh@	c #648732",
"sh@	c #648631",
"th@	c #698935",
"uh@	c #889D32",
"vh@	c #DCCF14",
"wh@	c #F1DC02",
"xh@	c #E9D715",
"yh@	c #E0D482",
"zh@	c #DED8BD",
"Ah@	c #E0D9C2",
"Bh@	c #E1DBC4",
"Ch@	c #E0DAC2",
"Dh@	c #DAD4BF",
"Eh@	c #DBD5BD",
"Fh@	c #DFD7BE",
"Gh@	c #DDD2B1",
"Hh@	c #DED46E",
"Ih@	c #E9D70C",
"Jh@	c #EBDC07",
"Kh@	c #DDD02D",
"Lh@	c #888A6F",
"Mh@	c #757977",
"Nh@	c #70797D",
"Oh@	c #737D84",
"Ph@	c #757D81",
"Qh@	c #757D84",
"Rh@	c #80888B",
"Sh@	c #BABDB6",
"Th@	c #D8D6C3",
"Uh@	c #D3D2C1",
"Vh@	c #CDC9B4",
"Wh@	c #D1D0C1",
"Xh@	c #B4AE8C",
"Yh@	c #BCB691",
"Zh@	c #A8A181",
"`h@	c #A19C77",
" i@	c #949277",
".i@	c #888977",
"+i@	c #67675A",
"@i@	c #56564E",
"#i@	c #474D3C",
"$i@	c #3B4D2E",
"%i@	c #3B4D2B",
"&i@	c #374C2C",
"*i@	c #354C2E",
"=i@	c #394C2E",
"-i@	c #394D2C",
";i@	c #384E2B",
">i@	c #3D4F2D",
",i@	c #3E4F2C",
"'i@	c #3A4E2E",
")i@	c #394D2E",
"!i@	c #364B2E",
"~i@	c #334A2C",
"{i@	c #374B2E",
"]i@	c #354C2B",
"^i@	c #324A2C",
"/i@	c #3B522F",
"(i@	c #496535",
"_i@	c #557434",
":i@	c #5C7C35",
"<i@	c #638531",
"[i@	c #6A8C30",
"}i@	c #79952F",
"|i@	c #72922E",
"1i@	c #7A982F",
"2i@	c #698D2F",
"3i@	c #658B2F",
"4i@	c #668B32",
"5i@	c #64892D",
"6i@	c #62882D",
"7i@	c #64892A",
"8i@	c #658A29",
"9i@	c #709336",
"0i@	c #6E912C",
"ai@	c #668B2E",
"bi@	c #688D30",
"ci@	c #6F9231",
"di@	c #6F922F",
"ei@	c #6B8F32",
"fi@	c #739139",
"gi@	c #729339",
"hi@	c #76923E",
"ii@	c #78943C",
"ji@	c #6E9036",
"ki@	c #76913C",
"li@	c #77913B",
"mi@	c #75913C",
"ni@	c #748F3C",
"oi@	c #718E3A",
"pi@	c #79923F",
"qi@	c #799340",
"ri@	c #76923D",
"si@	c #789140",
"ti@	c #769041",
"ui@	c #748E41",
"vi@	c #718C3C",
"wi@	c #708D3C",
"xi@	c #6E8B3C",
"yi@	c #6F8B3B",
"zi@	c #6F8B3A",
"Ai@	c #718B3B",
"Bi@	c #728A3C",
"Ci@	c #728A3F",
"Di@	c #6F873C",
"Ei@	c #71883F",
"Fi@	c #678B31",
"Gi@	c #678C32",
"Hi@	c #658A33",
"Ii@	c #5D8431",
"Ji@	c #50782B",
"Ki@	c #496C28",
"Li@	c #4C6F29",
"Mi@	c #4B6D29",
"Ni@	c #4D6F2A",
"Oi@	c #4D712A",
"Pi@	c #52752C",
"Qi@	c #557A2B",
"Ri@	c #51772A",
"Si@	c #527729",
"Ti@	c #53782B",
"Ui@	c #587B2C",
"Vi@	c #5C7F2B",
"Wi@	c #61812C",
"Xi@	c #62822E",
"Yi@	c #61832E",
"Zi@	c #60822F",
"`i@	c #608031",
" j@	c #638133",
".j@	c #6A8A30",
"+j@	c #5E822C",
"@j@	c #63872E",
"#j@	c #5E822D",
"$j@	c #62872F",
"%j@	c #5C8030",
"&j@	c #5D8230",
"*j@	c #5E832D",
"=j@	c #5D8430",
"-j@	c #5A812F",
";j@	c #567D2F",
">j@	c #577E2C",
",j@	c #567D26",
"'j@	c #5A802A",
")j@	c #567D2C",
"!j@	c #587D2B",
"~j@	c #577D2B",
"{j@	c #4E772B",
"]j@	c #527A2C",
"^j@	c #537929",
"/j@	c #5F842A",
"(j@	c #6D9036",
"_j@	c #6F9337",
":j@	c #6E9237",
"<j@	c #6C9036",
"[j@	c #6E9138",
"}j@	c #749034",
"|j@	c #879D3A",
"1j@	c #829C3B",
"2j@	c #7E993B",
"3j@	c #839B3D",
"4j@	c #829A3D",
"5j@	c #81983C",
"6j@	c #839A3F",
"7j@	c #7E963B",
"8j@	c #789538",
"9j@	c #749437",
"0j@	c #6F8F36",
"aj@	c #698A36",
"bj@	c #698837",
"cj@	c #698637",
"dj@	c #688538",
"ej@	c #688837",
"fj@	c #6D8B39",
"gj@	c #6D8C3B",
"hj@	c #6F8E39",
"ij@	c #718D3A",
"jj@	c #607F36",
"kj@	c #607D33",
"lj@	c #618234",
"mj@	c #72903E",
"nj@	c #728E40",
"oj@	c #768E42",
"pj@	c #7D9047",
"qj@	c #7A8E44",
"rj@	c #8D9C41",
"sj@	c #DFD11C",
"tj@	c #EADA18",
"uj@	c #E7D51C",
"vj@	c #E0D480",
"wj@	c #E0D7BC",
"xj@	c #E3DCC6",
"yj@	c #E2DBC4",
"zj@	c #E3D87C",
"Aj@	c #EAD818",
"Bj@	c #E9D60A",
"Cj@	c #E2D124",
"Dj@	c #838772",
"Ej@	c #73797B",
"Fj@	c #757B7B",
"Gj@	c #737E88",
"Hj@	c #7D8587",
"Ij@	c #898E8A",
"Jj@	c #BDC0B7",
"Kj@	c #CFD1C5",
"Lj@	c #DADAC9",
"Mj@	c #DCDBCA",
"Nj@	c #D7D3BC",
"Oj@	c #CDCFC5",
"Pj@	c #C0C1B3",
"Qj@	c #92917C",
"Rj@	c #A29F86",
"Sj@	c #B3AD8D",
"Tj@	c #C5BE96",
"Uj@	c #A49F7D",
"Vj@	c #9E9A7D",
"Wj@	c #8D8C71",
"Xj@	c #52544B",
"Yj@	c #464F38",
"Zj@	c #404E2F",
"`j@	c #354D24",
" k@	c #374D2B",
".k@	c #374B2C",
"+k@	c #394D2D",
"@k@	c #384F29",
"#k@	c #394E2A",
"$k@	c #3E4F2D",
"%k@	c #3F502E",
"&k@	c #384D2D",
"*k@	c #3B4E2C",
"=k@	c #3A4E2C",
"-k@	c #374D2E",
";k@	c #3F4F2E",
">k@	c #40522E",
",k@	c #42552E",
"'k@	c #455B34",
")k@	c #4C6537",
"!k@	c #516A3C",
"~k@	c #576D40",
"{k@	c #5D733D",
"]k@	c #637C35",
"^k@	c #65852F",
"/k@	c #67862F",
"(k@	c #65872E",
"_k@	c #68892E",
":k@	c #719231",
"<k@	c #6B9033",
"[k@	c #5E842B",
"}k@	c #668B2F",
"|k@	c #698B28",
"1k@	c #6A8E2D",
"2k@	c #668C31",
"3k@	c #678B2D",
"4k@	c #6B8F2E",
"5k@	c #688D31",
"6k@	c #76943B",
"7k@	c #739238",
"8k@	c #74913A",
"9k@	c #6F9237",
"0k@	c #7B943F",
"ak@	c #78953F",
"bk@	c #77943F",
"ck@	c #759242",
"dk@	c #77933F",
"ek@	c #779342",
"fk@	c #708C40",
"gk@	c #728D44",
"hk@	c #718E42",
"ik@	c #6F8C3F",
"jk@	c #708F3E",
"kk@	c #6F8C41",
"lk@	c #708E40",
"mk@	c #748F41",
"nk@	c #748E3E",
"ok@	c #7D9343",
"pk@	c #778F41",
"qk@	c #788F43",
"rk@	c #698F31",
"sk@	c #6D9131",
"tk@	c #597D2F",
"uk@	c #49692A",
"vk@	c #4A6B2A",
"wk@	c #496C29",
"xk@	c #48692A",
"yk@	c #486A28",
"zk@	c #486A29",
"Ak@	c #486C29",
"Bk@	c #486D28",
"Ck@	c #496F29",
"Dk@	c #496E28",
"Ek@	c #486C28",
"Fk@	c #486B29",
"Gk@	c #4C6E28",
"Hk@	c #4F7128",
"Ik@	c #50722A",
"Jk@	c #56772F",
"Kk@	c #648726",
"Lk@	c #6E9130",
"Mk@	c #6E902D",
"Nk@	c #658831",
"Ok@	c #648A2E",
"Pk@	c #62882E",
"Qk@	c #62872D",
"Rk@	c #638931",
"Sk@	c #628731",
"Tk@	c #60862E",
"Uk@	c #5F852C",
"Vk@	c #61862D",
"Wk@	c #5A822E",
"Xk@	c #5B812E",
"Yk@	c #597F2F",
"Zk@	c #58812F",
"`k@	c #5D852F",
" l@	c #588231",
".l@	c #567E2D",
"+l@	c #709230",
"@l@	c #779934",
"#l@	c #799936",
"$l@	c #7A9A36",
"%l@	c #769834",
"&l@	c #799A37",
"*l@	c #799B3B",
"=l@	c #799B38",
"-l@	c #7B9D39",
";l@	c #7D9B3A",
">l@	c #7D9C3A",
",l@	c #799B37",
"'l@	c #769936",
")l@	c #789B36",
"!l@	c #7D9E37",
"~l@	c #819E39",
"{l@	c #799A34",
"]l@	c #7B9C37",
"^l@	c #7C9B37",
"/l@	c #839E36",
"(l@	c #849E38",
"_l@	c #88A138",
":l@	c #87A138",
"<l@	c #8AA23A",
"[l@	c #8BA23F",
"}l@	c #8BA23E",
"|l@	c #869D40",
"1l@	c #8AA13C",
"2l@	c #87A139",
"3l@	c #87A03B",
"4l@	c #859E3D",
"5l@	c #8AA13E",
"6l@	c #7F9B3B",
"7l@	c #7F9A3F",
"8l@	c #7F9648",
"9l@	c #809448",
"0l@	c #86954C",
"al@	c #85944B",
"bl@	c #879446",
"cl@	c #DED019",
"dl@	c #E8DA25",
"el@	c #E9D50C",
"fl@	c #DFD533",
"gl@	c #DBD182",
"hl@	c #D9D0B0",
"il@	c #DFD9C0",
"jl@	c #DDD6BF",
"kl@	c #DED7C0",
"ll@	c #E1D9C3",
"ml@	c #DBD2B4",
"nl@	c #DCD271",
"ol@	c #E8D81C",
"pl@	c #DFD325",
"ql@	c #7E8272",
"rl@	c #747C82",
"sl@	c #707F8C",
"tl@	c #808888",
"ul@	c #969991",
"vl@	c #BEC1B8",
"wl@	c #D1D1C4",
"xl@	c #C5C6B7",
"yl@	c #BCB68B",
"zl@	c #BEB792",
"Al@	c #AAA67E",
"Bl@	c #9A9679",
"Cl@	c #8E8D71",
"Dl@	c #898870",
"El@	c #7E7F67",
"Fl@	c #5A5B4C",
"Gl@	c #3D4D2E",
"Hl@	c #364F21",
"Il@	c #334E21",
"Jl@	c #354A2C",
"Kl@	c #384C2F",
"Ll@	c #3A4D2E",
"Ml@	c #3C4E2E",
"Nl@	c #3C4E2D",
"Ol@	c #3D4E2C",
"Pl@	c #3C4F2C",
"Ql@	c #3F512F",
"Rl@	c #475C36",
"Sl@	c #4F653E",
"Tl@	c #566C45",
"Ul@	c #546B43",
"Vl@	c #566B3E",
"Wl@	c #556B3C",
"Xl@	c #566B3B",
"Yl@	c #586C3E",
"Zl@	c #5B6F40",
"`l@	c #607B39",
" m@	c #658432",
".m@	c #64872E",
"+m@	c #6D8D31",
"@m@	c #688931",
"#m@	c #6D9033",
"$m@	c #6B8E32",
"%m@	c #63892E",
"&m@	c #6A8E30",
"*m@	c #6E9131",
"=m@	c #71932F",
"-m@	c #71922E",
";m@	c #698D31",
">m@	c #6B8F31",
",m@	c #678D31",
"'m@	c #658A2E",
")m@	c #709334",
"!m@	c #698D36",
"~m@	c #708F3F",
"{m@	c #739041",
"]m@	c #729140",
"^m@	c #708F3C",
"/m@	c #7A983F",
"(m@	c #79953F",
"_m@	c #76943E",
":m@	c #789342",
"<m@	c #779142",
"[m@	c #779245",
"}m@	c #769045",
"|m@	c #738F43",
"1m@	c #708C43",
"2m@	c #6E8B42",
"3m@	c #6D8A41",
"4m@	c #6F8D40",
"5m@	c #6E8A40",
"6m@	c #708B41",
"7m@	c #718B41",
"8m@	c #708B3F",
"9m@	c #6F8A3F",
"0m@	c #738B3F",
"am@	c #738C3C",
"bm@	c #738C40",
"cm@	c #698D34",
"dm@	c #6B8E35",
"em@	c #668835",
"fm@	c #587832",
"gm@	c #4D722C",
"hm@	c #4B702A",
"im@	c #4A692A",
"jm@	c #4B6A2B",
"km@	c #4A692C",
"lm@	c #4A6A2B",
"mm@	c #4A6B29",
"nm@	c #476D28",
"om@	c #476B28",
"pm@	c #476C28",
"qm@	c #476B29",
"rm@	c #50722C",
"sm@	c #617C32",
"tm@	c #62842F",
"um@	c #6B8F33",
"vm@	c #6A8E34",
"wm@	c #628733",
"xm@	c #668C34",
"ym@	c #62882F",
"zm@	c #648A32",
"Am@	c #648930",
"Bm@	c #60862D",
"Cm@	c #61872E",
"Dm@	c #63882F",
"Em@	c #5E852F",
"Fm@	c #5F8731",
"Gm@	c #628933",
"Hm@	c #698E33",
"Im@	c #5B8732",
"Jm@	c #5C8531",
"Km@	c #5A822F",
"Lm@	c #54812F",
"Mm@	c #517D31",
"Nm@	c #7E9C35",
"Om@	c #7E9B37",
"Pm@	c #7B9B38",
"Qm@	c #7D9E38",
"Rm@	c #7A9B36",
"Sm@	c #779B37",
"Tm@	c #789C38",
"Um@	c #789B38",
"Vm@	c #7A9E39",
"Wm@	c #7B9D38",
"Xm@	c #779936",
"Ym@	c #769838",
"Zm@	c #7B9B39",
"`m@	c #7E9F39",
" n@	c #799C36",
".n@	c #7A9D38",
"+n@	c #7C9E37",
"@n@	c #83A137",
"#n@	c #87A13C",
"$n@	c #83A039",
"%n@	c #89A23C",
"&n@	c #88A139",
"*n@	c #8AA13D",
"=n@	c #8AA03D",
"-n@	c #89A139",
";n@	c #87A039",
">n@	c #88A03F",
",n@	c #88A13B",
"'n@	c #88A13D",
")n@	c #849F3B",
"!n@	c #869F3C",
"~n@	c #829942",
"{n@	c #849A47",
"]n@	c #849847",
"^n@	c #84944A",
"/n@	c #87964D",
"(n@	c #8A9645",
"_n@	c #DBCE1E",
":n@	c #E7D609",
"<n@	c #E5D533",
"[n@	c #E0D492",
"}n@	c #E0D5B5",
"|n@	c #E1D9BB",
"1n@	c #DCD4B6",
"2n@	c #D9D1B6",
"3n@	c #DCD4B9",
"4n@	c #DCD6BF",
"5n@	c #DBD4BD",
"6n@	c #DCD6BC",
"7n@	c #DCD6BD",
"8n@	c #E1D7B7",
"9n@	c #DFD285",
"0n@	c #E8D81D",
"an@	c #E1D526",
"bn@	c #7B7D6A",
"cn@	c #73797C",
"dn@	c #747A7D",
"en@	c #C8CBC2",
"fn@	c #D4D2BE",
"gn@	c #C4C1AA",
"hn@	c #C1BC9E",
"in@	c #B8B28C",
"jn@	c #B3AC86",
"kn@	c #A6A182",
"ln@	c #A19C7B",
"mn@	c #999674",
"nn@	c #939070",
"on@	c #84836B",
"pn@	c #5C5E4C",
"qn@	c #485037",
"rn@	c #3E4C2D",
"sn@	c #324C1E",
"tn@	c #364D27",
"un@	c #384C2E",
"vn@	c #374A2D",
"wn@	c #374C2E",
"xn@	c #384C2C",
"yn@	c #3A4D2D",
"zn@	c #3C4E2B",
"An@	c #43512E",
"Bn@	c #445530",
"Cn@	c #4A6038",
"Dn@	c #526841",
"En@	c #576C43",
"Fn@	c #5A6E48",
"Gn@	c #586C43",
"Hn@	c #586D45",
"In@	c #586C44",
"Jn@	c #566B3F",
"Kn@	c #566B3A",
"Ln@	c #5A6D41",
"Mn@	c #5B6E3D",
"Nn@	c #5D723C",
"On@	c #637F36",
"Pn@	c #648532",
"Qn@	c #6A8C31",
"Rn@	c #739332",
"Sn@	c #74932F",
"Tn@	c #70922F",
"Un@	c #6C8F2D",
"Vn@	c #6E912D",
"Wn@	c #6F912F",
"Xn@	c #6E912E",
"Yn@	c #72942E",
"Zn@	c #76962D",
"`n@	c #73952F",
" o@	c #6A8F30",
".o@	c #688C33",
"+o@	c #668B30",
"@o@	c #6D9132",
"#o@	c #698D2D",
"$o@	c #6A8E31",
"%o@	c #759143",
"&o@	c #739043",
"*o@	c #6B8941",
"=o@	c #69893D",
"-o@	c #6D8C3E",
";o@	c #6E8D40",
">o@	c #6F8D41",
",o@	c #6D8B41",
"'o@	c #778F46",
")o@	c #759043",
"!o@	c #769042",
"~o@	c #749244",
"{o@	c #758E44",
"]o@	c #6F8A43",
"^o@	c #708C45",
"/o@	c #718E43",
"(o@	c #718C46",
"_o@	c #798F47",
":o@	c #708C42",
"<o@	c #799040",
"[o@	c #79903F",
"}o@	c #798D42",
"|o@	c #678835",
"1o@	c #688B34",
"2o@	c #577934",
"3o@	c #55772E",
"4o@	c #4F702C",
"5o@	c #4D6B2C",
"6o@	c #506D2F",
"7o@	c #4C6A2E",
"8o@	c #4C692E",
"9o@	c #4A6B2C",
"0o@	c #4C6A2B",
"ao@	c #4A6A29",
"bo@	c #486B28",
"co@	c #496D2A",
"do@	c #466B28",
"eo@	c #476929",
"fo@	c #4B6E28",
"go@	c #4D7029",
"ho@	c #59782F",
"io@	c #63832F",
"jo@	c #5D8332",
"ko@	c #628830",
"lo@	c #628730",
"mo@	c #5E8533",
"no@	c #5D832E",
"oo@	c #5B8431",
"po@	c #5B8331",
"qo@	c #648A31",
"ro@	c #709236",
"so@	c #668B35",
"to@	c #618832",
"uo@	c #5F8631",
"vo@	c #5A8434",
"wo@	c #598233",
"xo@	c #5A8530",
"yo@	c #568431",
"zo@	c #598433",
"Ao@	c #588130",
"Bo@	c #557E31",
"Co@	c #547D31",
"Do@	c #628831",
"Eo@	c #779738",
"Fo@	c #7A9939",
"Go@	c #799A38",
"Ho@	c #7A9C38",
"Io@	c #7B9C39",
"Jo@	c #779A36",
"Ko@	c #759937",
"Lo@	c #759835",
"Mo@	c #769935",
"No@	c #7B9C36",
"Oo@	c #7B9D37",
"Po@	c #7C9E38",
"Qo@	c #7EA037",
"Ro@	c #7E9F38",
"So@	c #83A037",
"To@	c #84A137",
"Uo@	c #839F38",
"Vo@	c #82A039",
"Wo@	c #8CA33E",
"Xo@	c #8BA33C",
"Yo@	c #88A239",
"Zo@	c #85A03A",
"`o@	c #83A13E",
" p@	c #86A13C",
".p@	c #8AA33D",
"+p@	c #8A9F42",
"@p@	c #889C44",
"#p@	c #879948",
"$p@	c #85964B",
"%p@	c #86954B",
"&p@	c #8A9946",
"*p@	c #D8D133",
"=p@	c #E7D608",
"-p@	c #EEDC04",
";p@	c #E5D527",
">p@	c #D9CC94",
",p@	c #DDD4B6",
"'p@	c #DCD4B5",
")p@	c #DDD3B3",
"!p@	c #DED4B6",
"~p@	c #DCD5BE",
"{p@	c #DAD3BC",
"]p@	c #DBD3B8",
"^p@	c #DCD3B0",
"/p@	c #DACF83",
"(p@	c #E5D61F",
"_p@	c #E8D808",
":p@	c #E8D705",
"<p@	c #E7D706",
"[p@	c #E0D11D",
"}p@	c #7F8265",
"|p@	c #CBC7B1",
"1p@	c #CCC5A5",
"2p@	c #BDB790",
"3p@	c #B1AC7F",
"4p@	c #B2AD81",
"5p@	c #B0AC83",
"6p@	c #A7A27E",
"7p@	c #9A9771",
"8p@	c #A5A183",
"9p@	c #928F74",
"0p@	c #767B5B",
"ap@	c #54633F",
"bp@	c #425133",
"cp@	c #3D4F2C",
"dp@	c #3A4E29",
"ep@	c #384F28",
"fp@	c #364C2D",
"gp@	c #384B2D",
"hp@	c #3D4E2E",
"ip@	c #3B4E2F",
"jp@	c #415230",
"kp@	c #4A5B33",
"lp@	c #4F6538",
"mp@	c #586B3F",
"np@	c #586D44",
"op@	c #566D43",
"pp@	c #596E44",
"qp@	c #586C42",
"rp@	c #596D41",
"sp@	c #5A6D42",
"tp@	c #576C41",
"up@	c #576C40",
"vp@	c #576C3D",
"wp@	c #586C3C",
"xp@	c #5D6F3F",
"yp@	c #5C6E47",
"zp@	c #5F7538",
"Ap@	c #607D34",
"Bp@	c #66882D",
"Cp@	c #6A8B2F",
"Dp@	c #6E8F33",
"Ep@	c #708F33",
"Fp@	c #6E8F2B",
"Gp@	c #71922D",
"Hp@	c #6D8F2B",
"Ip@	c #6C8F2A",
"Jp@	c #6D8F29",
"Kp@	c #6A8C29",
"Lp@	c #6B9030",
"Mp@	c #709234",
"Np@	c #6B9034",
"Op@	c #658A30",
"Pp@	c #658A2F",
"Qp@	c #698D30",
"Rp@	c #6B8F36",
"Sp@	c #6D9039",
"Tp@	c #719040",
"Up@	c #749042",
"Vp@	c #6F8E41",
"Wp@	c #6E8B40",
"Xp@	c #718E45",
"Yp@	c #6F8B43",
"Zp@	c #728D45",
"`p@	c #6E8D41",
" q@	c #708B44",
".q@	c #718D43",
"+q@	c #718C44",
"@q@	c #738E44",
"#q@	c #718C45",
"$q@	c #728B44",
"%q@	c #769047",
"&q@	c #738C45",
"*q@	c #748D46",
"=q@	c #779040",
"-q@	c #788F3F",
";q@	c #7F9541",
">q@	c #7E9243",
",q@	c #678834",
"'q@	c #618332",
")q@	c #577A31",
"!q@	c #50752B",
"~q@	c #4E6F2B",
"{q@	c #516C2F",
"]q@	c #4F6C2F",
"^q@	c #4E6C2F",
"/q@	c #516F2F",
"(q@	c #4D6A2D",
"_q@	c #4A6A2A",
":q@	c #4C702A",
"<q@	c #476D27",
"[q@	c #456826",
"}q@	c #52732B",
"|q@	c #5E7F2E",
"1q@	c #64862F",
"2q@	c #638630",
"3q@	c #5D832C",
"4q@	c #60852C",
"5q@	c #60872D",
"6q@	c #588131",
"7q@	c #588132",
"8q@	c #5A832F",
"9q@	c #5B842E",
"0q@	c #648A33",
"aq@	c #658A31",
"bq@	c #5F862F",
"cq@	c #5E862F",
"dq@	c #5C8431",
"eq@	c #588332",
"fq@	c #578133",
"gq@	c #548032",
"hq@	c #588030",
"iq@	c #588233",
"jq@	c #537D30",
"kq@	c #527C2E",
"lq@	c #809D38",
"mq@	c #7D9C39",
"nq@	c #799D39",
"oq@	c #799B39",
"pq@	c #769937",
"qq@	c #779A38",
"rq@	c #759836",
"sq@	c #779833",
"tq@	c #7A9B37",
"uq@	c #799B36",
"vq@	c #7B9F38",
"wq@	c #7E9E38",
"xq@	c #809F37",
"yq@	c #81A039",
"zq@	c #7C9E3A",
"Aq@	c #88A13A",
"Bq@	c #8AA23C",
"Cq@	c #85A039",
"Dq@	c #89A13D",
"Eq@	c #85A03D",
"Fq@	c #819E3C",
"Gq@	c #88A237",
"Hq@	c #879D41",
"Iq@	c #879C44",
"Jq@	c #869748",
"Kq@	c #83934A",
"Lq@	c #87964C",
"Mq@	c #88964C",
"Nq@	c #89974D",
"Oq@	c #8C9748",
"Pq@	c #DEC433",
"Qq@	c #E7C819",
"Rq@	c #E4C519",
"Sq@	c #E5C219",
"Tq@	c #E8C612",
"Uq@	c #E9C70B",
"Vq@	c #E8CB0A",
"Wq@	c #E4CF1F",
"Xq@	c #E2D15B",
"Yq@	c #D0C48D",
"Zq@	c #DFD29E",
"`q@	c #DFD39C",
" r@	c #DED3A3",
".r@	c #DCD1A5",
"+r@	c #D7CDA6",
"@r@	c #D7CDA3",
"#r@	c #D3CB9F",
"$r@	c #D6CDA1",
"%r@	c #DAD1A5",
"&r@	c #DAD2AB",
"*r@	c #DED3AB",
"=r@	c #DBCFA3",
"-r@	c #DFCA67",
";r@	c #E6B919",
">r@	c #EBC615",
",r@	c #E7C40E",
"'r@	c #E9C010",
")r@	c #E7C321",
"!r@	c #E6C521",
"~r@	c #E7C61C",
"{r@	c #E9C221",
"]r@	c #DFBD31",
"^r@	c #887E5D",
"/r@	c #676963",
"(r@	c #676A68",
"_r@	c #696C6A",
":r@	c #6E716B",
"<r@	c #9D9F8D",
"[r@	c #C8C3AA",
"}r@	c #B5B089",
"|r@	c #ABA582",
"1r@	c #A7A17F",
"2r@	c #9B9771",
"3r@	c #A29E7D",
"4r@	c #989579",
"5r@	c #8D8D6C",
"6r@	c #6B774C",
"7r@	c #4E5F33",
"8r@	c #43532D",
"9r@	c #375121",
"0r@	c #3A5126",
"ar@	c #384C27",
"br@	c #314A29",
"cr@	c #3B4E2E",
"dr@	c #3F502D",
"er@	c #4B613B",
"fr@	c #4E683E",
"gr@	c #526C40",
"hr@	c #596D44",
"ir@	c #5A6F45",
"jr@	c #586E45",
"kr@	c #5A7042",
"lr@	c #5A6E45",
"mr@	c #5D6F48",
"nr@	c #5E6E44",
"or@	c #596D42",
"pr@	c #596D43",
"qr@	c #596C3E",
"rr@	c #566B3D",
"sr@	c #556A3D",
"tr@	c #5C6D40",
"ur@	c #5C6F3E",
"vr@	c #607A37",
"wr@	c #65862E",
"xr@	c #68892D",
"yr@	c #6F902D",
"zr@	c #6E8F2F",
"Ar@	c #6F9130",
"Br@	c #75952E",
"Cr@	c #7C9A32",
"Dr@	c #73932E",
"Er@	c #6C8E2A",
"Fr@	c #6B8D2A",
"Gr@	c #6F912D",
"Hr@	c #749534",
"Ir@	c #6F9232",
"Jr@	c #6E9230",
"Kr@	c #688C2E",
"Lr@	c #698E30",
"Mr@	c #698C36",
"Nr@	c #749140",
"Or@	c #728E44",
"Pr@	c #728E43",
"Qr@	c #749044",
"Rr@	c #738F44",
"Sr@	c #758F44",
"Tr@	c #748D43",
"Ur@	c #728D46",
"Vr@	c #768C43",
"Wr@	c #768E45",
"Xr@	c #738D42",
"Yr@	c #799048",
"Zr@	c #799043",
"`r@	c #7A9040",
" s@	c #79913D",
".s@	c #77903E",
"+s@	c #5A7A33",
"@s@	c #537030",
"#s@	c #4B6E2C",
"$s@	c #486928",
"%s@	c #526F31",
"&s@	c #516E30",
"*s@	c #506C31",
"=s@	c #506C30",
"-s@	c #517030",
";s@	c #547232",
">s@	c #547432",
",s@	c #506F2F",
"'s@	c #4E702B",
")s@	c #547630",
"!s@	c #52742F",
"~s@	c #4C6E2A",
"{s@	c #4D702A",
"]s@	c #4B6E2A",
"^s@	c #476B2A",
"/s@	c #496B2A",
"(s@	c #557729",
"_s@	c #64892E",
":s@	c #64882F",
"<s@	c #5A8330",
"[s@	c #57812F",
"}s@	c #5A822D",
"|s@	c #5E8530",
"1s@	c #618831",
"2s@	c #638A30",
"3s@	c #517A2F",
"4s@	c #527B32",
"5s@	c #4D7931",
"6s@	c #4D7833",
"7s@	c #537934",
"8s@	c #4E7830",
"9s@	c #507B2D",
"0s@	c #567F31",
"as@	c #59812F",
"bs@	c #658C31",
"cs@	c #7C9B35",
"ds@	c #7F9F37",
"es@	c #789A38",
"fs@	c #779A39",
"gs@	c #759837",
"hs@	c #769A38",
"is@	c #799B3A",
"js@	c #779938",
"ks@	c #759735",
"ls@	c #749633",
"ms@	c #749737",
"ns@	c #769836",
"os@	c #7B9D36",
"ps@	c #799C38",
"qs@	c #7D9E3C",
"rs@	c #7E9E39",
"ss@	c #83A038",
"ts@	c #85A137",
"us@	c #809E37",
"vs@	c #809D3C",
"ws@	c #829E39",
"xs@	c #87A13B",
"ys@	c #859F3C",
"zs@	c #86A03A",
"As@	c #89A03E",
"Bs@	c #87A03E",
"Cs@	c #849F3C",
"Ds@	c #86A03C",
"Es@	c #8CA33A",
"Fs@	c #869847",
"Gs@	c #85954C",
"Hs@	c #849449",
"Is@	c #89974C",
"Js@	c #89974E",
"Ks@	c #95984E",
"Ls@	c #E55A09",
"Ms@	c #EE5903",
"Ns@	c #ED5703",
"Os@	c #EC5702",
"Ps@	c #EC5604",
"Qs@	c #E8580A",
"Rs@	c #E45A11",
"Ss@	c #E3BC28",
"Ts@	c #ECD916",
"Us@	c #E6D414",
"Vs@	c #E5D42B",
"Ws@	c #E4D53E",
"Xs@	c #E2D045",
"Ys@	c #E0D22B",
"Zs@	c #DFD12E",
"`s@	c #DCCE20",
" t@	c #E0D01D",
".t@	c #D7CC3F",
"+t@	c #DCD13D",
"@t@	c #DBCF46",
"#t@	c #DED331",
"$t@	c #DCD046",
"%t@	c #E2D559",
"&t@	c #EAAC1B",
"*t@	c #EC5203",
"=t@	c #E95002",
"-t@	c #E74F04",
";t@	c #E85404",
">t@	c #E75704",
",t@	c #E85A05",
"'t@	c #E35707",
")t@	c #8E6A53",
"!t@	c #6C6E68",
"~t@	c #BBB89A",
"{t@	c #C0BA99",
"]t@	c #C4BD9B",
"^t@	c #AEAA82",
"/t@	c #A5A072",
"(t@	c #9D9777",
"_t@	c #9D9776",
":t@	c #979478",
"<t@	c #747C58",
"[t@	c #546634",
"}t@	c #465E29",
"|t@	c #435B28",
"1t@	c #3B5223",
"2t@	c #37511F",
"3t@	c #3B4E2A",
"4t@	c #3E512F",
"5t@	c #475935",
"6t@	c #4B6437",
"7t@	c #516B3D",
"8t@	c #546C40",
"9t@	c #586E43",
"0t@	c #597143",
"at@	c #5F7048",
"bt@	c #5B7047",
"ct@	c #617247",
"dt@	c #5F7343",
"et@	c #607242",
"ft@	c #5D7044",
"gt@	c #5E6E43",
"ht@	c #5C6E44",
"it@	c #5B6E43",
"jt@	c #566C40",
"kt@	c #566C43",
"lt@	c #576B3E",
"mt@	c #586C38",
"nt@	c #586C39",
"ot@	c #5B6E3F",
"pt@	c #5F7242",
"qt@	c #67813A",
"rt@	c #678635",
"st@	c #6F8D31",
"tt@	c #70902F",
"ut@	c #6D8F2D",
"vt@	c #76962E",
"wt@	c #71922A",
"xt@	c #72932F",
"yt@	c #72922C",
"zt@	c #6D902B",
"At@	c #739331",
"Bt@	c #739330",
"Ct@	c #709330",
"Dt@	c #6B8E2E",
"Et@	c #6E9133",
"Ft@	c #6C9033",
"Gt@	c #73913D",
"Ht@	c #758F40",
"It@	c #789244",
"Jt@	c #7A9145",
"Kt@	c #809648",
"Lt@	c #819648",
"Mt@	c #849948",
"Nt@	c #82964B",
"Ot@	c #7D924B",
"Pt@	c #78914B",
"Qt@	c #779048",
"Rt@	c #7F944B",
"St@	c #79914B",
"Tt@	c #768E49",
"Ut@	c #718B48",
"Vt@	c #6F8945",
"Wt@	c #758D48",
"Xt@	c #728B42",
"Yt@	c #708A3F",
"Zt@	c #718842",
"`t@	c #5A7C37",
" u@	c #577633",
".u@	c #537032",
"+u@	c #516E35",
"@u@	c #536C34",
"#u@	c #526C34",
"$u@	c #536E36",
"%u@	c #577137",
"&u@	c #587439",
"*u@	c #587437",
"=u@	c #5A7835",
"-u@	c #5D7C39",
";u@	c #5C7C39",
">u@	c #587835",
",u@	c #537633",
"'u@	c #547333",
")u@	c #547233",
"!u@	c #547631",
"~u@	c #4F6D2F",
"{u@	c #506B2F",
"]u@	c #4D6B2F",
"^u@	c #4D6B2E",
"/u@	c #4C6D2A",
"(u@	c #5A7B2D",
"_u@	c #62852B",
":u@	c #5D8530",
"<u@	c #5E8631",
"[u@	c #5F8630",
"}u@	c #5F862E",
"|u@	c #5C8432",
"1u@	c #5D8535",
"2u@	c #5D8432",
"3u@	c #547C30",
"4u@	c #517C32",
"5u@	c #517B34",
"6u@	c #4E7A2E",
"7u@	c #578033",
"8u@	c #577F30",
"9u@	c #5E8537",
"0u@	c #648834",
"au@	c #7D9B3B",
"bu@	c #7A9B38",
"cu@	c #769837",
"du@	c #729736",
"eu@	c #749836",
"fu@	c #849E3C",
"gu@	c #7F9E3B",
"hu@	c #85A238",
"iu@	c #89A236",
"ju@	c #88A238",
"ku@	c #86A13E",
"lu@	c #87A13F",
"mu@	c #819F3B",
"nu@	c #839E3C",
"ou@	c #839E3B",
"pu@	c #89A23D",
"qu@	c #87A13D",
"ru@	c #88A03E",
"su@	c #88A13C",
"tu@	c #88A23C",
"uu@	c #8CA042",
"vu@	c #859549",
"wu@	c #85954A",
"xu@	c #84944B",
"yu@	c #88954E",
"zu@	c #87954D",
"Au@	c #959448",
"Bu@	c #E64F03",
"Cu@	c #F65A02",
"Du@	c #E75203",
"Eu@	c #E7B20E",
"Fu@	c #E7D407",
"Gu@	c #EBD805",
"Hu@	c #E5D307",
"Iu@	c #E3D10D",
"Ju@	c #E4D407",
"Ku@	c #E7D50F",
"Lu@	c #E2D21A",
"Mu@	c #DFD123",
"Nu@	c #E5D324",
"Ou@	c #E6D52E",
"Pu@	c #DFD130",
"Qu@	c #E1D21A",
"Ru@	c #EBA20E",
"Su@	c #E15005",
"Tu@	c #91653E",
"Uu@	c #616659",
"Vu@	c #6B6E68",
"Wu@	c #737762",
"Xu@	c #B1AD88",
"Yu@	c #B7B18A",
"Zu@	c #B9B38B",
"`u@	c #ABA683",
" v@	c #999577",
".v@	c #A09979",
"+v@	c #999578",
"@v@	c #8E8D73",
"#v@	c #82846A",
"$v@	c #636C49",
"%v@	c #47592C",
"&v@	c #435C29",
"*v@	c #456129",
"=v@	c #425A27",
"-v@	c #436229",
";v@	c #4A6731",
">v@	c #556E37",
",v@	c #60793E",
"'v@	c #7C8A49",
")v@	c #798849",
"!v@	c #748847",
"~v@	c #6B8246",
"{v@	c #6F834A",
"]v@	c #6A8248",
"^v@	c #6C8649",
"/v@	c #698446",
"(v@	c #6A8246",
"_v@	c #6D8748",
":v@	c #708846",
"<v@	c #6B8441",
"[v@	c #657E45",
"}v@	c #617944",
"|v@	c #5D7443",
"1v@	c #637E43",
"2v@	c #627943",
"3v@	c #5E7440",
"4v@	c #576E42",
"5v@	c #5C713C",
"6v@	c #5E723D",
"7v@	c #60723E",
"8v@	c #627537",
"9v@	c #60733A",
"0v@	c #61733E",
"av@	c #5F7142",
"bv@	c #62783E",
"cv@	c #647F36",
"dv@	c #698832",
"ev@	c #688B30",
"fv@	c #6A8D2C",
"gv@	c #709131",
"hv@	c #729333",
"iv@	c #71912F",
"jv@	c #70912B",
"kv@	c #6C902E",
"lv@	c #709231",
"mv@	c #709232",
"nv@	c #73942E",
"ov@	c #789634",
"pv@	c #709433",
"qv@	c #668A2C",
"rv@	c #6A8E32",
"sv@	c #6B8A39",
"tv@	c #69873B",
"uv@	c #6C863F",
"vv@	c #6C8740",
"wv@	c #6B8542",
"xv@	c #65813F",
"yv@	c #6A8741",
"zv@	c #6F8943",
"Av@	c #6E8945",
"Bv@	c #6B8742",
"Cv@	c #6C8744",
"Dv@	c #688541",
"Ev@	c #668340",
"Fv@	c #678145",
"Gv@	c #657D45",
"Hv@	c #607A42",
"Iv@	c #617A41",
"Jv@	c #5C763A",
"Kv@	c #60773D",
"Lv@	c #657843",
"Mv@	c #72903D",
"Nv@	c #66863C",
"Ov@	c #69873E",
"Pv@	c #68873D",
"Qv@	c #6B8A3F",
"Rv@	c #708C44",
"Sv@	c #6E8947",
"Tv@	c #6F8A48",
"Uv@	c #6E8B47",
"Vv@	c #6C8946",
"Wv@	c #708C48",
"Xv@	c #708D46",
"Yv@	c #6E8A46",
"Zv@	c #6E8B48",
"`v@	c #708D49",
" w@	c #6C8948",
".w@	c #6B8946",
"+w@	c #6B8848",
"@w@	c #678246",
"#w@	c #668142",
"$w@	c #668243",
"%w@	c #678342",
"&w@	c #698344",
"*w@	c #688442",
"=w@	c #66823E",
"-w@	c #607E39",
";w@	c #607D3A",
">w@	c #6B863E",
",w@	c #6F9236",
"'w@	c #60852D",
")w@	c #5C8231",
"!w@	c #5F8530",
"~w@	c #668933",
"{w@	c #61862F",
"]w@	c #5D832F",
"^w@	c #60852F",
"/w@	c #5F852F",
"(w@	c #547B2E",
"_w@	c #567E30",
":w@	c #557A2E",
"<w@	c #557A2D",
"[w@	c #577C2F",
"}w@	c #587E30",
"|w@	c #587C2C",
"1w@	c #6C8A36",
"2w@	c #719137",
"3w@	c #6D9035",
"4w@	c #719437",
"5w@	c #719438",
"6w@	c #739639",
"7w@	c #739636",
"8w@	c #799A3B",
"9w@	c #829F3C",
"0w@	c #7E9E3B",
"aw@	c #809E3C",
"bw@	c #86A136",
"cw@	c #829F38",
"dw@	c #8BA340",
"ew@	c #8AA13F",
"fw@	c #89A13C",
"gw@	c #849E3D",
"hw@	c #819B3F",
"iw@	c #899E40",
"jw@	c #8A9D46",
"kw@	c #869946",
"lw@	c #849547",
"mw@	c #86964A",
"nw@	c #84934B",
"ow@	c #84924C",
"pw@	c #86954D",
"qw@	c #8A964D",
"rw@	c #9F9347",
"sw@	c #EB5003",
"tw@	c #E85103",
"uw@	c #E2A811",
"vw@	c #E8D40B",
"ww@	c #E6D409",
"xw@	c #EADA08",
"yw@	c #E5D518",
"zw@	c #E4D31C",
"Aw@	c #E8D612",
"Bw@	c #EBD90D",
"Cw@	c #E5D413",
"Dw@	c #EBA30A",
"Ew@	c #ED4E02",
"Fw@	c #F34F01",
"Gw@	c #F14F01",
"Hw@	c #EB5102",
"Iw@	c #E15305",
"Jw@	c #6D4F20",
"Kw@	c #405525",
"Lw@	c #525F46",
"Mw@	c #576350",
"Nw@	c #5A6450",
"Ow@	c #6A705D",
"Pw@	c #868979",
"Qw@	c #9C9979",
"Rw@	c #9E9B6F",
"Sw@	c #A39F6D",
"Tw@	c #A29E6E",
"Uw@	c #A7A471",
"Vw@	c #A6A271",
"Ww@	c #9D9971",
"Xw@	c #9F9D71",
"Yw@	c #97946F",
"Zw@	c #8E906B",
"`w@	c #7D815F",
" x@	c #6A754F",
".x@	c #4D6431",
"+x@	c #566E2F",
"@x@	c #6D833E",
"#x@	c #798E47",
"$x@	c #748C47",
"%x@	c #768B48",
"&x@	c #82954A",
"*x@	c #929F51",
"=x@	c #96A450",
"-x@	c #9DA954",
";x@	c #9CAA52",
">x@	c #9CA953",
",x@	c #9CA955",
"'x@	c #919F50",
")x@	c #90A150",
"!x@	c #86994B",
"~x@	c #84984A",
"{x@	c #85984C",
"]x@	c #84994C",
"^x@	c #859949",
"/x@	c #869949",
"(x@	c #839848",
"_x@	c #84994A",
":x@	c #7C9448",
"<x@	c #789246",
"[x@	c #799046",
"}x@	c #738947",
"|x@	c #6C873F",
"1x@	c #738C42",
"2x@	c #778E42",
"3x@	c #7A9044",
"4x@	c #778D46",
"5x@	c #728B41",
"6x@	c #738A43",
"7x@	c #748E3F",
"8x@	c #6F8D3A",
"9x@	c #6A8C35",
"0x@	c #6F8F35",
"ax@	c #749335",
"bx@	c #729437",
"cx@	c #6D9031",
"dx@	c #7A9838",
"ex@	c #709333",
"fx@	c #769833",
"gx@	c #6E9032",
"hx@	c #688E30",
"ix@	c #6C9034",
"jx@	c #6E9134",
"kx@	c #6C8E36",
"lx@	c #69843F",
"mx@	c #6D8843",
"nx@	c #67863F",
"ox@	c #678541",
"px@	c #6F8A42",
"qx@	c #688743",
"rx@	c #6A8545",
"sx@	c #647F3F",
"tx@	c #637F3F",
"ux@	c #658142",
"vx@	c #5F7942",
"wx@	c #5E7643",
"xx@	c #597240",
"yx@	c #5A7141",
"zx@	c #5A7044",
"Ax@	c #5F7741",
"Bx@	c #5C753D",
"Cx@	c #637842",
"Dx@	c #6F8B41",
"Ex@	c #6C893F",
"Fx@	c #6D8B44",
"Gx@	c #6F8D45",
"Hx@	c #718D47",
"Ix@	c #728D48",
"Jx@	c #6F8B46",
"Kx@	c #708C46",
"Lx@	c #739048",
"Mx@	c #708D4A",
"Nx@	c #6F8C49",
"Ox@	c #6E8B46",
"Px@	c #718E49",
"Qx@	c #728E49",
"Rx@	c #738F4A",
"Sx@	c #718E4B",
"Tx@	c #73904C",
"Ux@	c #73904B",
"Vx@	c #748F4B",
"Wx@	c #728F4A",
"Xx@	c #759348",
"Yx@	c #779248",
"Zx@	c #77934B",
"`x@	c #7B944A",
" y@	c #7C9646",
".y@	c #829948",
"+y@	c #779243",
"@y@	c #6C8B38",
"#y@	c #658833",
"$y@	c #638533",
"%y@	c #5A7D30",
"&y@	c #587C2F",
"*y@	c #587B2E",
"=y@	c #577B2D",
"-y@	c #577A2F",
";y@	c #567A2C",
">y@	c #597C2D",
",y@	c #567C2E",
"'y@	c #587E2B",
")y@	c #5A7F2B",
"!y@	c #587C29",
"~y@	c #5C802B",
"{y@	c #5C802D",
"]y@	c #597D2B",
"^y@	c #5A7D2D",
"/y@	c #597D2E",
"(y@	c #577A2C",
"_y@	c #57792D",
":y@	c #597931",
"<y@	c #5B7D2F",
"[y@	c #5B7C30",
"}y@	c #5C7D32",
"|y@	c #5B7C33",
"1y@	c #5B7B31",
"2y@	c #5D7E33",
"3y@	c #628433",
"4y@	c #638534",
"5y@	c #638632",
"6y@	c #658832",
"7y@	c #638732",
"8y@	c #6B8F34",
"9y@	c #729435",
"0y@	c #749637",
"ay@	c #789637",
"by@	c #79993A",
"cy@	c #7A953B",
"dy@	c #789539",
"ey@	c #779337",
"fy@	c #789439",
"gy@	c #7B973C",
"hy@	c #7A9738",
"iy@	c #789636",
"jy@	c #718F35",
"ky@	c #6D8938",
"ly@	c #708E39",
"my@	c #6C8C37",
"ny@	c #7C9142",
"oy@	c #7F9147",
"py@	c #7C8F49",
"qy@	c #809049",
"ry@	c #7F8E4B",
"sy@	c #7D8C4B",
"ty@	c #808E4B",
"uy@	c #818F4B",
"vy@	c #838F4B",
"wy@	c #8C8C49",
"xy@	c #D15A16",
"yy@	c #F14F02",
"zy@	c #E7A911",
"Ay@	c #EBD707",
"By@	c #E6D609",
"Cy@	c #E6D407",
"Dy@	c #E1D10C",
"Ey@	c #E8A00E",
"Fy@	c #EC5101",
"Gy@	c #E75002",
"Hy@	c #68521D",
"Iy@	c #35521A",
"Jy@	c #34521B",
"Ky@	c #395220",
"Ly@	c #3A571F",
"My@	c #3F5726",
"Ny@	c #616E49",
"Oy@	c #697751",
"Py@	c #888B64",
"Qy@	c #969769",
"Ry@	c #999B5D",
"Sy@	c #869151",
"Ty@	c #748349",
"Uy@	c #6A7D41",
"Vy@	c #6C7F3F",
"Wy@	c #6B7D3E",
"Xy@	c #697C3D",
"Yy@	c #6B7E3E",
"Zy@	c #718440",
"`y@	c #809247",
" z@	c #8C9C4F",
".z@	c #899950",
"+z@	c #87994D",
"@z@	c #83984C",
"#z@	c #889C4D",
"$z@	c #97A551",
"%z@	c #9EA955",
"&z@	c #9DAA53",
"*z@	c #9DAA54",
"=z@	c #A2AE55",
"-z@	c #9DAA52",
";z@	c #A2AE54",
">z@	c #A1AD54",
",z@	c #93A34F",
"'z@	c #96A551",
")z@	c #8FA04A",
"!z@	c #9AA950",
"~z@	c #97A74F",
"{z@	c #96A64E",
"]z@	c #97A74E",
"^z@	c #92A24C",
"/z@	c #8B9D49",
"(z@	c #8C9E48",
"_z@	c #829747",
":z@	c #8A9B4A",
"<z@	c #758C43",
"[z@	c #7F9445",
"}z@	c #7B9342",
"|z@	c #819646",
"1z@	c #859847",
"2z@	c #7E9645",
"3z@	c #7F9646",
"4z@	c #8B9E48",
"5z@	c #879C47",
"6z@	c #849A44",
"7z@	c #7A9540",
"8z@	c #709038",
"9z@	c #6C8F32",
"0z@	c #6D8E37",
"az@	c #6B8F35",
"bz@	c #6F9134",
"cz@	c #6D9237",
"dz@	c #6D9136",
"ez@	c #6D9233",
"fz@	c #6E9135",
"gz@	c #719435",
"hz@	c #6F9235",
"iz@	c #7E9B38",
"jz@	c #79963A",
"kz@	c #769637",
"lz@	c #729535",
"mz@	c #6E9235",
"nz@	c #6A8D34",
"oz@	c #6A8E33",
"pz@	c #6B8E36",
"qz@	c #658539",
"rz@	c #6B8A42",
"sz@	c #678443",
"tz@	c #658140",
"uz@	c #698342",
"vz@	c #617B41",
"wz@	c #637F40",
"xz@	c #627F41",
"yz@	c #627D43",
"zz@	c #607942",
"Az@	c #607B3D",
"Bz@	c #627D40",
"Cz@	c #5E7742",
"Dz@	c #5F7B40",
"Ez@	c #5B743E",
"Fz@	c #5D7445",
"Gz@	c #5D7542",
"Hz@	c #5E7644",
"Iz@	c #6C893E",
"Jz@	c #728E4B",
"Kz@	c #758F4C",
"Lz@	c #748F4C",
"Mz@	c #6F8B48",
"Nz@	c #6E8C48",
"Oz@	c #718D4A",
"Pz@	c #718D48",
"Qz@	c #718E4A",
"Rz@	c #74914B",
"Sz@	c #75914D",
"Tz@	c #749148",
"Uz@	c #759346",
"Vz@	c #799349",
"Wz@	c #789249",
"Xz@	c #7A9449",
"Yz@	c #779347",
"Zz@	c #718E41",
"`z@	c #608036",
" A@	c #587A30",
".A@	c #567A2E",
"+A@	c #56792A",
"@A@	c #56782B",
"#A@	c #57792C",
"$A@	c #587A2D",
"%A@	c #57792B",
"&A@	c #577A2B",
"*A@	c #56782C",
"=A@	c #54762E",
"-A@	c #54772C",
";A@	c #57782C",
">A@	c #557730",
",A@	c #57782D",
"'A@	c #587930",
")A@	c #5B7A2D",
"!A@	c #58772C",
"~A@	c #55742E",
"{A@	c #53732C",
"]A@	c #5A7A2F",
"^A@	c #5B7B2E",
"/A@	c #5C7D2F",
"(A@	c #587A32",
"_A@	c #587A2F",
":A@	c #5A7D31",
"<A@	c #597D31",
"[A@	c #678932",
"}A@	c #648430",
"|A@	c #62832F",
"1A@	c #5E802D",
"2A@	c #5E7B34",
"3A@	c #658435",
"4A@	c #6A8834",
"5A@	c #628033",
"6A@	c #648035",
"7A@	c #688635",
"8A@	c #648033",
"9A@	c #6A8139",
"0A@	c #6F823B",
"aA@	c #798B46",
"bA@	c #728344",
"cA@	c #6B7F3E",
"dA@	c #6C7D43",
"eA@	c #6D7E43",
"fA@	c #6B7C41",
"gA@	c #6F8142",
"hA@	c #7B8945",
"iA@	c #D45717",
"jA@	c #E95103",
"kA@	c #E7AB10",
"lA@	c #E4D20B",
"mA@	c #E7D516",
"nA@	c #EEDA15",
"oA@	c #E6D509",
"pA@	c #E0D10E",
"qA@	c #E3D406",
"rA@	c #E0D107",
"sA@	c #E2D207",
"tA@	c #E8A90E",
"uA@	c #EA5202",
"vA@	c #E64C03",
"wA@	c #EA4D02",
"xA@	c #EB4F02",
"yA@	c #E84B03",
"zA@	c #69561C",
"AA@	c #33501A",
"BA@	c #34521A",
"CA@	c #35521B",
"DA@	c #3C551C",
"EA@	c #51601D",
"FA@	c #6C7933",
"GA@	c #8E9352",
"HA@	c #9AA057",
"IA@	c #98A554",
"JA@	c #99A355",
"KA@	c #98A354",
"LA@	c #9AA256",
"MA@	c #99A255",
"NA@	c #94A052",
"OA@	c #93A150",
"PA@	c #95A152",
"QA@	c #909F50",
"RA@	c #8D9E4F",
"SA@	c #8C9C4E",
"TA@	c #90A050",
"UA@	c #8FA04E",
"VA@	c #93A350",
"WA@	c #91A050",
"XA@	c #95A650",
"YA@	c #96A650",
"ZA@	c #97A650",
"`A@	c #9FAC54",
" B@	c #A5AF55",
".B@	c #A7B155",
"+B@	c #A9B355",
"@B@	c #9EAB51",
"#B@	c #A5B054",
"$B@	c #A1AD55",
"%B@	c #9EAB52",
"&B@	c #99A850",
"*B@	c #A0AD53",
"=B@	c #96A54F",
"-B@	c #9BAA52",
";B@	c #94A34B",
">B@	c #91A34D",
",B@	c #899C49",
"'B@	c #829846",
")B@	c #819645",
"!B@	c #7E9443",
"~B@	c #899B48",
"{B@	c #8D9F4A",
"]B@	c #829646",
"^B@	c #859849",
"/B@	c #8FA24C",
"(B@	c #91A24E",
"_B@	c #8C9D4B",
":B@	c #849848",
"<B@	c #819743",
"[B@	c #7C953F",
"}B@	c #6D9135",
"|B@	c #6B8E34",
"1B@	c #6D8F36",
"2B@	c #6C9136",
"3B@	c #6E9137",
"4B@	c #739338",
"5B@	c #74933A",
"6B@	c #719235",
"7B@	c #739339",
"8B@	c #729236",
"9B@	c #6D9137",
"0B@	c #6D9235",
"aB@	c #6A8E35",
"bB@	c #6F9238",
"cB@	c #6D9037",
"dB@	c #77953E",
"eB@	c #76953F",
"fB@	c #74943D",
"gB@	c #729438",
"hB@	c #68873E",
"iB@	c #698643",
"jB@	c #65803F",
"kB@	c #678143",
"lB@	c #627C42",
"mB@	c #638041",
"nB@	c #647E44",
"oB@	c #647D45",
"pB@	c #617A42",
"qB@	c #5F7C40",
"rB@	c #617B42",
"sB@	c #617B44",
"tB@	c #5F7743",
"uB@	c #5D793F",
"vB@	c #5A7541",
"wB@	c #5B7241",
"xB@	c #5D7741",
"yB@	c #6F8948",
"zB@	c #718A49",
"AB@	c #708C4B",
"BB@	c #728C4A",
"CB@	c #728D49",
"DB@	c #6F8B49",
"EB@	c #728F4C",
"FB@	c #708C4A",
"GB@	c #718E48",
"HB@	c #76924B",
"IB@	c #7B9248",
"JB@	c #769049",
"KB@	c #77914B",
"LB@	c #75914A",
"MB@	c #76914A",
"NB@	c #77934A",
"OB@	c #769148",
"PB@	c #769349",
"QB@	c #819B47",
"RB@	c #759243",
"SB@	c #618136",
"TB@	c #5B7D31",
"UB@	c #587C2B",
"VB@	c #5C7F2E",
"WB@	c #56782D",
"XB@	c #56782A",
"YB@	c #55782B",
"ZB@	c #55772C",
"`B@	c #55762F",
" C@	c #53762C",
".C@	c #597A2E",
"+C@	c #597B2E",
"@C@	c #57782A",
"#C@	c #5C792D",
"$C@	c #5C782B",
"%C@	c #597630",
"&C@	c #52732E",
"*C@	c #5B7C2C",
"=C@	c #628031",
"-C@	c #5C7D2D",
";C@	c #5A7B2F",
">C@	c #567831",
",C@	c #5B7E34",
"'C@	c #5D822F",
")C@	c #5E8334",
"!C@	c #5E8133",
"~C@	c #63862F",
"{C@	c #61842E",
"]C@	c #5E822F",
"^C@	c #628231",
"/C@	c #688737",
"(C@	c #638332",
"_C@	c #628334",
":C@	c #607F34",
"<C@	c #638134",
"[C@	c #698039",
"}C@	c #708044",
"|C@	c #758646",
"1C@	c #6F7F45",
"2C@	c #6D7D44",
"3C@	c #6B7B46",
"4C@	c #6A7B42",
"5C@	c #718145",
"6C@	c #768842",
"7C@	c #757D43",
"8C@	c #E0550D",
"9C@	c #E7AA0E",
"0C@	c #E0D014",
"aC@	c #E4D40B",
"bC@	c #E6D613",
"cC@	c #E6D60B",
"dC@	c #E2D114",
"eC@	c #DCCF11",
"fC@	c #DDCF0C",
"gC@	c #E2AB17",
"hC@	c #EB4D01",
"iC@	c #E74A03",
"jC@	c #385220",
"kC@	c #3F561C",
"lC@	c #5E721C",
"mC@	c #839240",
"nC@	c #A0AA57",
"oC@	c #A3AD55",
"pC@	c #9BA655",
"qC@	c #A2AC57",
"rC@	c #9EA855",
"sC@	c #9AA654",
"tC@	c #9AA853",
"uC@	c #98A751",
"vC@	c #97A651",
"wC@	c #93A24F",
"xC@	c #93A250",
"yC@	c #9AA952",
"zC@	c #9EAB53",
"AC@	c #96A750",
"BC@	c #99A751",
"CC@	c #9AA852",
"DC@	c #9DAB52",
"EC@	c #A2AD56",
"FC@	c #A6B155",
"GC@	c #A3AF54",
"HC@	c #A0AD54",
"IC@	c #98A651",
"JC@	c #97A352",
"KC@	c #9BA951",
"LC@	c #94A34D",
"MC@	c #8D9E4B",
"NC@	c #8C9E4C",
"OC@	c #7E9148",
"PC@	c #899C4B",
"QC@	c #899C4A",
"RC@	c #90A24C",
"SC@	c #90A04C",
"TC@	c #91A04C",
"UC@	c #8F9E4E",
"VC@	c #8B9C49",
"WC@	c #8A9C4C",
"XC@	c #889C48",
"YC@	c #879B46",
"ZC@	c #819A40",
"`C@	c #688A35",
" D@	c #6C9035",
".D@	c #6F9438",
"+D@	c #709139",
"@D@	c #709239",
"#D@	c #73933B",
"$D@	c #72923F",
"%D@	c #6C8F38",
"&D@	c #70923A",
"*D@	c #709339",
"=D@	c #73953B",
"-D@	c #78953E",
";D@	c #799540",
">D@	c #76953C",
",D@	c #6F8F3D",
"'D@	c #68863F",
")D@	c #66843F",
"!D@	c #627E41",
"~D@	c #607D3F",
"{D@	c #627D42",
"]D@	c #617943",
"^D@	c #5E7841",
"/D@	c #5F7A41",
"(D@	c #5F7C3F",
"_D@	c #5E783F",
":D@	c #5E7942",
"<D@	c #5E7146",
"[D@	c #627447",
"}D@	c #6A8446",
"|D@	c #708649",
"1D@	c #738E4C",
"2D@	c #718C49",
"3D@	c #728D4B",
"4D@	c #738F4D",
"5D@	c #708D4B",
"6D@	c #6E8A47",
"7D@	c #728E4A",
"8D@	c #759047",
"9D@	c #759048",
"0D@	c #77924A",
"aD@	c #79934B",
"bD@	c #748F46",
"cD@	c #708D45",
"dD@	c #628239",
"eD@	c #597B31",
"fD@	c #5A7B31",
"gD@	c #5A7C2F",
"hD@	c #597C2C",
"iD@	c #577929",
"jD@	c #597A2C",
"kD@	c #5B7D2D",
"lD@	c #587A2B",
"mD@	c #58792C",
"nD@	c #5B7A2E",
"oD@	c #54762D",
"pD@	c #56782F",
"qD@	c #547530",
"rD@	c #4F732B",
"sD@	c #587A2E",
"tD@	c #58782B",
"uD@	c #5F7B2E",
"vD@	c #5E792D",
"wD@	c #617A30",
"xD@	c #557531",
"yD@	c #597730",
"zD@	c #5E7E2F",
"AD@	c #608230",
"BD@	c #5F802E",
"CD@	c #5A7B32",
"DD@	c #557731",
"ED@	c #577A32",
"FD@	c #597C33",
"GD@	c #577B32",
"HD@	c #62862F",
"ID@	c #638731",
"JD@	c #618533",
"KD@	c #628633",
"LD@	c #608235",
"MD@	c #618633",
"ND@	c #608231",
"OD@	c #5C7E31",
"PD@	c #608133",
"QD@	c #5E7F34",
"RD@	c #5E7F33",
"SD@	c #658333",
"TD@	c #6C833E",
"UD@	c #6D7D43",
"VD@	c #6F8242",
"WD@	c #6A7B43",
"XD@	c #6A7C44",
"YD@	c #677942",
"ZD@	c #667942",
"`D@	c #697945",
" E@	c #6F7F46",
".E@	c #768945",
"+E@	c #737D45",
"@E@	c #DE560E",
"#E@	c #F45001",
"$E@	c #F24E01",
"%E@	c #F44D01",
"&E@	c #E8A40C",
"*E@	c #E0D109",
"=E@	c #DED12C",
"-E@	c #E4D326",
";E@	c #ECDA1B",
">E@	c #EDDC1A",
",E@	c #F0DE24",
"'E@	c #E8D832",
")E@	c #E3D532",
"!E@	c #E5D41C",
"~E@	c #E0D111",
"{E@	c #E4D309",
"]E@	c #E8B423",
"^E@	c #EA4E02",
"/E@	c #E84704",
"(E@	c #674F1D",
"_E@	c #35531A",
":E@	c #41581B",
"<E@	c #637828",
"[E@	c #93A24A",
"}E@	c #9EAB54",
"|E@	c #A1AB57",
"1E@	c #9EAA56",
"2E@	c #9DAB53",
"3E@	c #9FAA55",
"4E@	c #A1AC55",
"5E@	c #9CA754",
"6E@	c #9FAC55",
"7E@	c #9BA754",
"8E@	c #9AA951",
"9E@	c #97A851",
"0E@	c #95A54F",
"aE@	c #9DAB51",
"bE@	c #99A652",
"cE@	c #9AA851",
"dE@	c #9CA854",
"eE@	c #9DA953",
"fE@	c #9BA556",
"gE@	c #99A851",
"hE@	c #93A44E",
"iE@	c #90A04D",
"jE@	c #92A24E",
"kE@	c #8D9F4D",
"lE@	c #8EA04D",
"mE@	c #869A4A",
"nE@	c #8A9D49",
"oE@	c #90A14C",
"pE@	c #94A34F",
"qE@	c #7D9241",
"rE@	c #8FA14D",
"sE@	c #919F51",
"tE@	c #97A64F",
"uE@	c #95A550",
"vE@	c #889C47",
"wE@	c #62852E",
"xE@	c #76963A",
"yE@	c #74953C",
"zE@	c #70923B",
"AE@	c #73943C",
"BE@	c #73943B",
"CE@	c #75953C",
"DE@	c #75963B",
"EE@	c #78973D",
"FE@	c #74933B",
"GE@	c #76933E",
"HE@	c #71933A",
"IE@	c #70933A",
"JE@	c #71933C",
"KE@	c #72933D",
"LE@	c #72913F",
"ME@	c #65843C",
"NE@	c #65833E",
"OE@	c #64823E",
"PE@	c #607E3F",
"QE@	c #607C3F",
"RE@	c #627C40",
"SE@	c #607744",
"TE@	c #617844",
"UE@	c #617942",
"VE@	c #627941",
"WE@	c #607A41",
"XE@	c #5C773E",
"YE@	c #5B7540",
"ZE@	c #5C7341",
"`E@	c #5E7242",
" F@	c #6F8947",
".F@	c #768E4B",
"+F@	c #77904C",
"@F@	c #78914D",
"#F@	c #758F4A",
"$F@	c #79914E",
"%F@	c #76904C",
"&F@	c #73904D",
"*F@	c #6E8B49",
"=F@	c #718C4B",
"-F@	c #74904C",
";F@	c #738F47",
">F@	c #738F46",
",F@	c #728E47",
"'F@	c #718D46",
")F@	c #729144",
"!F@	c #759146",
"~F@	c #769345",
"{F@	c #6F8E40",
"]F@	c #63833A",
"^F@	c #58792F",
"/F@	c #5B7B2F",
"(F@	c #5E7A2F",
"_F@	c #5A7A2D",
":F@	c #587A29",
"<F@	c #58792B",
"[F@	c #59782B",
"}F@	c #5A7931",
"|F@	c #4F6E2C",
"1F@	c #55752E",
"2F@	c #57782B",
"3F@	c #5D7A30",
"4F@	c #627B31",
"5F@	c #617832",
"6F@	c #5B7431",
"7F@	c #577730",
"8F@	c #5D7F2F",
"9F@	c #5D7D2F",
"0F@	c #5B7D30",
"aF@	c #5A8031",
"bF@	c #5B8231",
"cF@	c #608430",
"dF@	c #658931",
"eF@	c #638734",
"fF@	c #5C7F31",
"gF@	c #5D7E31",
"hF@	c #628233",
"iF@	c #688337",
"jF@	c #6B7F3F",
"kF@	c #687B43",
"lF@	c #687842",
"mF@	c #687B42",
"nF@	c #6A7847",
"oF@	c #6C7948",
"pF@	c #728145",
"qF@	c #788A40",
"rF@	c #768044",
"sF@	c #DD550F",
"tF@	c #EF5002",
"uF@	c #E8A50E",
"vF@	c #E7D621",
"wF@	c #E7D522",
"xF@	c #ECD91F",
"yF@	c #ECDB08",
"zF@	c #EDDC0D",
"AF@	c #EEDD13",
"BF@	c #EDDB2C",
"CF@	c #EBDA31",
"DF@	c #E1D550",
"EF@	c #DFD244",
"FF@	c #DFD43D",
"GF@	c #E0D449",
"HF@	c #E5D624",
"IF@	c #E7B125",
"JF@	c #805119",
"KF@	c #4F6B1A",
"LF@	c #718937",
"MF@	c #9AA753",
"NF@	c #9EAC52",
"OF@	c #A0AC54",
"PF@	c #9DA955",
"QF@	c #9FAA56",
"RF@	c #9CAA53",
"SF@	c #9FA956",
"TF@	c #9BA852",
"UF@	c #9AA752",
"VF@	c #99A852",
"WF@	c #97A751",
"XF@	c #96A550",
"YF@	c #98A64D",
"ZF@	c #9BA952",
"`F@	c #9CAA4F",
" G@	c #9CA952",
".G@	c #9CA658",
"+G@	c #A0A75D",
"@G@	c #99A752",
"#G@	c #98A753",
"$G@	c #90A14D",
"%G@	c #8A9C4B",
"&G@	c #8EA14D",
"*G@	c #91A14D",
"=G@	c #8E9F4C",
"-G@	c #8F9E47",
";G@	c #8FA04D",
">G@	c #94A350",
",G@	c #9CA951",
"'G@	c #9CA954",
")G@	c #94A44E",
"!G@	c #78943E",
"~G@	c #6D9134",
"{G@	c #638631",
"]G@	c #6E9136",
"^G@	c #77943D",
"/G@	c #6F9039",
"(G@	c #6D9238",
"_G@	c #72943C",
":G@	c #71923A",
"<G@	c #729539",
"[G@	c #70903D",
"}G@	c #76973D",
"|G@	c #76953E",
"1G@	c #76973B",
"2G@	c #6F903A",
"3G@	c #708E3C",
"4G@	c #6C8B3B",
"5G@	c #678341",
"6G@	c #647D44",
"7G@	c #5F7843",
"8G@	c #637F3E",
"9G@	c #677F44",
"0G@	c #688044",
"aG@	c #688043",
"bG@	c #637B42",
"cG@	c #647C41",
"dG@	c #63823D",
"eG@	c #637F3B",
"fG@	c #627E40",
"gG@	c #5E7740",
"hG@	c #5F7744",
"iG@	c #6F8848",
"jG@	c #758C4A",
"kG@	c #78914A",
"lG@	c #768F49",
"mG@	c #76904A",
"nG@	c #718C4A",
"oG@	c #74904D",
"pG@	c #739146",
"qG@	c #729045",
"rG@	c #728E48",
"sG@	c #728F45",
"tG@	c #6E8B44",
"uG@	c #6C8A44",
"vG@	c #769145",
"wG@	c #708D41",
"xG@	c #6D8B40",
"yG@	c #628436",
"zG@	c #577931",
"AG@	c #587A33",
"BG@	c #617E33",
"CG@	c #5F7C30",
"DG@	c #5E7C2F",
"EG@	c #5A7A2C",
"FG@	c #5A7B2A",
"GG@	c #5D7C2D",
"HG@	c #597B2A",
"IG@	c #59792A",
"JG@	c #52742C",
"KG@	c #52742B",
"LG@	c #557230",
"MG@	c #54752F",
"NG@	c #57762F",
"OG@	c #59782D",
"PG@	c #5C7B2E",
"QG@	c #61792E",
"RG@	c #667A34",
"SG@	c #5A7731",
"TG@	c #597930",
"UG@	c #567730",
"VG@	c #5A7B2E",
"WG@	c #5D7F2D",
"XG@	c #618031",
"YG@	c #5E8130",
"ZG@	c #5B8130",
"`G@	c #5C802F",
" H@	c #60852E",
".H@	c #60842F",
"+H@	c #61862E",
"@H@	c #63872D",
"#H@	c #5F822F",
"$H@	c #638333",
"%H@	c #6B8139",
"&H@	c #6B7D3D",
"*H@	c #6B7D42",
"=H@	c #687A42",
"-H@	c #697648",
";H@	c #687943",
">H@	c #677943",
",H@	c #6A7943",
"'H@	c #6D7E42",
")H@	c #6F8140",
"!H@	c #6E7C44",
"~H@	c #8F6F33",
"{H@	c #9D703A",
"]H@	c #9A7039",
"^H@	c #A46F33",
"/H@	c #AE692D",
"(H@	c #BB6529",
"_H@	c #BD6229",
":H@	c #BC6A30",
"<H@	c #B96931",
"[H@	c #BCAA37",
"}H@	c #C4BB1D",
"|H@	c #BEBA2C",
"1H@	c #BCB930",
"2H@	c #C0BC38",
"3H@	c #C5C249",
"4H@	c #C3BE45",
"5H@	c #C0BB38",
"6H@	c #C6C144",
"7H@	c #C9C23E",
"8H@	c #C0BC43",
"9H@	c #BBB844",
"0H@	c #BDB954",
"aH@	c #C4C055",
"bH@	c #C6C04B",
"cH@	c #C8C353",
"dH@	c #D0C83E",
"eH@	c #E1B532",
"fH@	c #E65C11",
"gH@	c #E95807",
"hH@	c #E65A09",
"iH@	c #E9570A",
"jH@	c #EB5206",
"kH@	c #EB5304",
"lH@	c #E14F04",
"mH@	c #8C5F23",
"nH@	c #819644",
"oH@	c #9BA953",
"pH@	c #A1AC57",
"qH@	c #A1AC56",
"rH@	c #A0AC56",
"sH@	c #98A553",
"tH@	c #9CA755",
"uH@	c #9FAB53",
"vH@	c #9BA755",
"wH@	c #9BA954",
"xH@	c #9DAB54",
"yH@	c #98A851",
"zH@	c #9EAC53",
"AH@	c #99A952",
"BH@	c #A0AC52",
"CH@	c #9AA750",
"DH@	c #9AA754",
"EH@	c #A7AF5A",
"FH@	c #9EA758",
"GH@	c #A1AA59",
"HH@	c #A2AA5C",
"IH@	c #A2AC59",
"JH@	c #92A24F",
"KH@	c #95A451",
"LH@	c #90A14E",
"MH@	c #87994B",
"NH@	c #8E9F4D",
"OH@	c #97A64E",
"PH@	c #98A650",
"QH@	c #91A04E",
"RH@	c #96A351",
"SH@	c #95A351",
"TH@	c #99A555",
"UH@	c #91A04D",
"VH@	c #95A44F",
"WH@	c #91A24C",
"XH@	c #859945",
"YH@	c #849B42",
"ZH@	c #769539",
"`H@	c #709537",
" I@	c #658932",
".I@	c #64882E",
"+I@	c #698C33",
"@I@	c #6D9034",
"#I@	c #6F9239",
"$I@	c #73933A",
"%I@	c #719339",
"&I@	c #749538",
"*I@	c #77973A",
"=I@	c #75953B",
"-I@	c #74953B",
";I@	c #70913A",
">I@	c #6F923A",
",I@	c #73933D",
"'I@	c #77973C",
")I@	c #75973A",
"!I@	c #74933C",
"~I@	c #71903C",
"{I@	c #688540",
"]I@	c #688441",
"^I@	c #64803F",
"/I@	c #63803D",
"(I@	c #627F3B",
"_I@	c #65813D",
":I@	c #66813E",
"<I@	c #668041",
"[I@	c #64803C",
"}I@	c #65833D",
"|I@	c #688241",
"1I@	c #617C40",
"2I@	c #647E43",
"3I@	c #607A44",
"4I@	c #6D8644",
"5I@	c #708A4A",
"6I@	c #768F4A",
"7I@	c #799049",
"8I@	c #6F8C48",
"9I@	c #738E48",
"0I@	c #6D8A46",
"aI@	c #739046",
"bI@	c #739047",
"cI@	c #6F8D44",
"dI@	c #708E48",
"eI@	c #6F8C45",
"fI@	c #6E8C45",
"gI@	c #6F8D42",
"hI@	c #709043",
"iI@	c #6D8A40",
"jI@	c #577932",
"kI@	c #5D7C2E",
"lI@	c #5F792E",
"mI@	c #617A32",
"nI@	c #5C7A2F",
"oI@	c #5E7C30",
"pI@	c #5A7A2E",
"qI@	c #53772B",
"rI@	c #597831",
"sI@	c #5B7831",
"tI@	c #687B32",
"uI@	c #5D7733",
"vI@	c #5C7A30",
"wI@	c #627F31",
"xI@	c #5A792E",
"yI@	c #5C7B31",
"zI@	c #5E7E32",
"AI@	c #608032",
"BI@	c #5D7D30",
"CI@	c #65892F",
"DI@	c #618631",
"EI@	c #5C822E",
"FI@	c #587F30",
"GI@	c #648832",
"HI@	c #63852F",
"II@	c #5D7F30",
"JI@	c #5E812F",
"KI@	c #5B7E2F",
"LI@	c #5A7D2E",
"MI@	c #5B7D33",
"NI@	c #5D7F31",
"OI@	c #607F31",
"PI@	c #687B3D",
"QI@	c #6F833F",
"RI@	c #6B7F40",
"SI@	c #6C7F42",
"TI@	c #677B40",
"UI@	c #697C42",
"VI@	c #6D8043",
"WI@	c #6B7B44",
"XI@	c #697842",
"YI@	c #6C7C44",
"ZI@	c #6A7D40",
"`I@	c #6C7D42",
" J@	c #6E823E",
".J@	c #6D7E45",
"+J@	c #6E8043",
"@J@	c #718244",
"#J@	c #718340",
"$J@	c #758844",
"%J@	c #6F8141",
"&J@	c #728441",
"*J@	c #738539",
"=J@	c #73853D",
"-J@	c #71833E",
";J@	c #708443",
">J@	c #718341",
",J@	c #708142",
"'J@	c #6E7F40",
")J@	c #70823F",
"!J@	c #72843F",
"~J@	c #70823E",
"{J@	c #728241",
"]J@	c #6F803E",
"^J@	c #8C9A42",
"/J@	c #9CA744",
"(J@	c #A29E4F",
"_J@	c #A59A4B",
":J@	c #A8994E",
"<J@	c #A59C48",
"[J@	c #B39F4A",
"}J@	c #BD9C4A",
"|J@	c #BF9747",
"1J@	c #BD8D42",
"2J@	c #B29046",
"3J@	c #9B9D50",
"4J@	c #9FAC53",
"5J@	c #9FAB54",
"6J@	c #9AA755",
"7J@	c #9CAB53",
"8J@	c #9EAC54",
"9J@	c #9FAC56",
"0J@	c #9CAB52",
"aJ@	c #A3AB5C",
"bJ@	c #A7AD63",
"cJ@	c #A5AE5A",
"dJ@	c #A0A85C",
"eJ@	c #A2AA5A",
"fJ@	c #9FA85B",
"gJ@	c #9FAB56",
"hJ@	c #9DA855",
"iJ@	c #909F4F",
"jJ@	c #95A352",
"kJ@	c #95A450",
"lJ@	c #96A451",
"mJ@	c #8D9E4C",
"nJ@	c #8E9D4C",
"oJ@	c #8FA04C",
"pJ@	c #92A14F",
"qJ@	c #97A453",
"rJ@	c #909F4D",
"sJ@	c #8C9B4A",
"tJ@	c #8E9F49",
"uJ@	c #92A04F",
"vJ@	c #8F9F4B",
"wJ@	c #8C9D4A",
"xJ@	c #7D9441",
"yJ@	c #849B44",
"zJ@	c #72923A",
"AJ@	c #6C8F34",
"BJ@	c #6A8F34",
"CJ@	c #70913C",
"DJ@	c #79963F",
"EJ@	c #72933C",
"FJ@	c #72953B",
"GJ@	c #6F913A",
"HJ@	c #75943A",
"IJ@	c #72933B",
"JJ@	c #74943E",
"KJ@	c #79973B",
"LJ@	c #73943E",
"MJ@	c #76943D",
"NJ@	c #74943A",
"OJ@	c #6E8C3C",
"PJ@	c #6D8844",
"QJ@	c #6C8945",
"RJ@	c #678640",
"SJ@	c #63843A",
"TJ@	c #64823C",
"UJ@	c #658340",
"VJ@	c #67813E",
"WJ@	c #68843F",
"XJ@	c #698541",
"YJ@	c #6C8343",
"ZJ@	c #697F45",
"`J@	c #748D49",
" K@	c #738C48",
".K@	c #708C47",
"+K@	c #6F8C47",
"@K@	c #708D48",
"#K@	c #6E8C46",
"$K@	c #738F45",
"%K@	c #6D8C44",
"&K@	c #6C8B43",
"*K@	c #6C8A43",
"=K@	c #749045",
"-K@	c #749242",
";K@	c #749147",
">K@	c #6B8A40",
",K@	c #638338",
"'K@	c #567B2F",
")K@	c #527733",
"!K@	c #547A34",
"~K@	c #517833",
"{K@	c #537933",
"]K@	c #5A7B34",
"^K@	c #577A30",
"/K@	c #52762E",
"(K@	c #54782D",
"_K@	c #52762D",
":K@	c #597432",
"<K@	c #567332",
"[K@	c #4F7031",
"}K@	c #5E7C31",
"|K@	c #618032",
"1K@	c #5F7E30",
"2K@	c #5D7C32",
"3K@	c #65892D",
"4K@	c #62862D",
"5K@	c #5F842D",
"6K@	c #618535",
"7K@	c #5D7E35",
"8K@	c #5D7D33",
"9K@	c #5E8034",
"0K@	c #5C7F2F",
"aK@	c #5F832C",
"bK@	c #607E33",
"cK@	c #6B8437",
"dK@	c #697F3B",
"eK@	c #687D39",
"fK@	c #677D3B",
"gK@	c #677A3F",
"hK@	c #687C3F",
"iK@	c #697D40",
"jK@	c #6B8042",
"kK@	c #697D43",
"lK@	c #6C813E",
"mK@	c #69803E",
"nK@	c #6B7D41",
"oK@	c #687C3D",
"pK@	c #6A7941",
"qK@	c #6A7D3F",
"rK@	c #6A7C42",
"sK@	c #6C7F43",
"tK@	c #6B7C42",
"uK@	c #6B7F41",
"vK@	c #6A7C40",
"wK@	c #697B40",
"xK@	c #6A7F3E",
"yK@	c #6A803C",
"zK@	c #6D8242",
"AK@	c #6D8140",
"BK@	c #718342",
"CK@	c #708340",
"DK@	c #738640",
"EK@	c #728541",
"FK@	c #758741",
"GK@	c #7B8D42",
"HK@	c #70833F",
"IK@	c #839241",
"JK@	c #93A14A",
"KK@	c #919F4C",
"LK@	c #8F9E4D",
"MK@	c #92A147",
"NK@	c #91A24A",
"OK@	c #9AA751",
"PK@	c #99A951",
"QK@	c #9CAA51",
"RK@	c #9DAA51",
"SK@	c #97A552",
"TK@	c #9FAA54",
"UK@	c #92A24D",
"VK@	c #A3AE51",
"WK@	c #A3AE57",
"XK@	c #ADB55A",
"YK@	c #ABB457",
"ZK@	c #A2AE52",
"`K@	c #A1AC54",
" L@	c #A2AB5C",
".L@	c #A2AB5A",
"+L@	c #A2AC5A",
"@L@	c #96A352",
"#L@	c #8C9A46",
"$L@	c #95A350",
"%L@	c #919F4E",
"&L@	c #97A54F",
"*L@	c #93A24E",
"=L@	c #95A54C",
"-L@	c #91A24D",
";L@	c #879C45",
">L@	c #819744",
",L@	c #7A963E",
"'L@	c #709337",
")L@	c #6C8F30",
"!L@	c #709235",
"~L@	c #6B8D37",
"{L@	c #6C8E37",
"]L@	c #6F9338",
"^L@	c #6D8D38",
"/L@	c #6F8F3C",
"(L@	c #6D9138",
"_L@	c #6D8E39",
":L@	c #72943D",
"<L@	c #719239",
"[L@	c #739439",
"}L@	c #6B883A",
"|L@	c #7A9740",
"1L@	c #77963A",
"2L@	c #75933D",
"3L@	c #74923D",
"4L@	c #789142",
"5L@	c #6F8C3E",
"6L@	c #6C893A",
"7L@	c #718B3E",
"8L@	c #6D8739",
"9L@	c #6D863B",
"0L@	c #718943",
"aL@	c #718742",
"bL@	c #718745",
"cL@	c #6C8445",
"dL@	c #6C8542",
"eL@	c #748E43",
"fL@	c #708A44",
"gL@	c #6C8942",
"hL@	c #7C9543",
"iL@	c #789340",
"jL@	c #7A9345",
"kL@	c #769243",
"lL@	c #708F41",
"mL@	c #6E8A42",
"nL@	c #6D8B43",
"oL@	c #718D44",
"pL@	c #69883F",
"qL@	c #738B46",
"rL@	c #6F8C40",
"sL@	c #63853B",
"tL@	c #5E7F3B",
"uL@	c #577C34",
"vL@	c #507632",
"wL@	c #4C7435",
"xL@	c #4C7438",
"yL@	c #497436",
"zL@	c #4B7435",
"AL@	c #4A7435",
"BL@	c #4B7534",
"CL@	c #4F7734",
"DL@	c #507831",
"EL@	c #507930",
"FL@	c #557B31",
"GL@	c #567A33",
"HL@	c #587A35",
"IL@	c #527834",
"JL@	c #587B31",
"KL@	c #4F7530",
"LL@	c #547930",
"ML@	c #527A30",
"NL@	c #517933",
"OL@	c #497131",
"PL@	c #487131",
"QL@	c #456E30",
"RL@	c #5D8335",
"SL@	c #708B42",
"TL@	c #758D43",
"UL@	c #768F42",
"VL@	c #809544",
"WL@	c #7B9144",
"XL@	c #6E8B3F",
"YL@	c #6A893B",
"ZL@	c #6C883C",
"`L@	c #779140",
" M@	c #7B953F",
".M@	c #718E3C",
"+M@	c #6E8D3E",
"@M@	c #6A8A3A",
"#M@	c #708F40",
"$M@	c #6D8B3E",
"%M@	c #6E8E3E",
"&M@	c #6D8B3F",
"*M@	c #708E41",
"=M@	c #758E42",
"-M@	c #7E9643",
";M@	c #78943D",
">M@	c #789240",
",M@	c #74913D",
"'M@	c #789440",
")M@	c #789341",
"!M@	c #829841",
"~M@	c #6F8F33",
"{M@	c #658531",
"]M@	c #648332",
"^M@	c #64832F",
"/M@	c #64842F",
"(M@	c #5E7F30",
"_M@	c #61802E",
":M@	c #658232",
"<M@	c #688532",
"[M@	c #698532",
"}M@	c #678231",
"|M@	c #6A8232",
"1M@	c #6B8137",
"2M@	c #6F8334",
"3M@	c #6C8234",
"4M@	c #6E8538",
"5M@	c #6A7E37",
"6M@	c #6A8037",
"7M@	c #6A8334",
"8M@	c #6C8037",
"9M@	c #6D8136",
"0M@	c #6D8438",
"aM@	c #708738",
"bM@	c #74873E",
"cM@	c #6E8239",
"dM@	c #6E823C",
"eM@	c #6C7C3E",
"fM@	c #6B813A",
"gM@	c #697F39",
"hM@	c #6D8038",
"iM@	c #6C8039",
"jM@	c #6A7C3E",
"kM@	c #74853A",
"lM@	c #869441",
"mM@	c #879543",
"nM@	c #869747",
"oM@	c #889748",
"pM@	c #92A34D",
"qM@	c #8D9C4A",
"rM@	c #98A750",
"sM@	c #95A44E",
"tM@	c #92A14E",
"uM@	c #99A553",
"vM@	c #9FAA53",
"wM@	c #A0A95B",
"xM@	c #96A452",
"yM@	c #92A250",
"zM@	c #96A356",
"AM@	c #8FA14E",
"BM@	c #95A64F",
"CM@	c #96A548",
"DM@	c #A7B04E",
"EM@	c #A3AC45",
"FM@	c #9EAA46",
"GM@	c #A2AB47",
"HM@	c #A3AB42",
"IM@	c #A6AE43",
"JM@	c #A4AC42",
"KM@	c #A2AC4C",
"LM@	c #98A749",
"MM@	c #9BA94E",
"NM@	c #9BA84B",
"OM@	c #96A549",
"PM@	c #98A649",
"QM@	c #97A643",
"RM@	c #93A247",
"SM@	c #97A44A",
"TM@	c #9AA74D",
"UM@	c #9BA84E",
"VM@	c #9CA84A",
"WM@	c #99A74B",
"XM@	c #96A44A",
"YM@	c #94A249",
"ZM@	c #94A047",
"`M@	c #93A249",
" N@	c #94A046",
".N@	c #99A63F",
"+N@	c #99A43A",
"@N@	c #9EA537",
"#N@	c #A7AB39",
"$N@	c #A3A733",
"%N@	c #9EA332",
"&N@	c #98A02E",
"*N@	c #98A336",
"=N@	c #96A641",
"-N@	c #7D993C",
";N@	c #658834",
">N@	c #6B8E39",
",N@	c #5E8433",
"'N@	c #5B8132",
")N@	c #5F8432",
"!N@	c #648739",
"~N@	c #658930",
"{N@	c #6D8F35",
"]N@	c #749339",
"^N@	c #72913C",
"/N@	c #698A32",
"(N@	c #668931",
"_N@	c #678936",
":N@	c #618432",
"<N@	c #5E8035",
"[N@	c #5E8237",
"}N@	c #628534",
"|N@	c #618534",
"1N@	c #5C8133",
"2N@	c #7C923B",
"3N@	c #7C9637",
"4N@	c #749331",
"5N@	c #7A943A",
"6N@	c #7C953C",
"7N@	c #869A43",
"8N@	c #859846",
"9N@	c #7C9043",
"0N@	c #799143",
"aN@	c #587040",
"bN@	c #597342",
"cN@	c #57733C",
"dN@	c #5A7638",
"eN@	c #5F7739",
"fN@	c #5B753C",
"gN@	c #567438",
"hN@	c #52713C",
"iN@	c #53703A",
"jN@	c #587538",
"kN@	c #5B7A37",
"lN@	c #5D7A3A",
"mN@	c #59783B",
"nN@	c #5F7C3D",
"oN@	c #58763B",
"pN@	c #587839",
"qN@	c #57773A",
"rN@	c #547638",
"sN@	c #4B6E36",
"tN@	c #506E3A",
"uN@	c #4A6D32",
"vN@	c #517737",
"wN@	c #567C39",
"xN@	c #537B39",
"yN@	c #537A37",
"zN@	c #4F7737",
"AN@	c #4F753D",
"BN@	c #4D7836",
"CN@	c #497336",
"DN@	c #507A37",
"EN@	c #537C39",
"FN@	c #527C36",
"GN@	c #537D37",
"HN@	c #4F7937",
"IN@	c #4F7B37",
"JN@	c #4B7635",
"KN@	c #4D7834",
"LN@	c #4B7733",
"MN@	c #4B7734",
"NN@	c #4C7634",
"ON@	c #507936",
"PN@	c #507A34",
"QN@	c #517B32",
"RN@	c #4E7A33",
"SN@	c #487536",
"TN@	c #477434",
"UN@	c #467234",
"VN@	c #4A7832",
"WN@	c #598436",
"XN@	c #719241",
"YN@	c #7A9448",
"ZN@	c #84984B",
"`N@	c #879B49",
" O@	c #879C4A",
".O@	c #7F9647",
"+O@	c #7C9547",
"@O@	c #7F9749",
"#O@	c #819949",
"$O@	c #7E9649",
"%O@	c #7D9546",
"&O@	c #789346",
"*O@	c #799347",
"=O@	c #77914A",
"-O@	c #738F49",
";O@	c #799247",
">O@	c #759147",
",O@	c #799149",
"'O@	c #7A9346",
")O@	c #7B9346",
"!O@	c #7C9548",
"~O@	c #779445",
"{O@	c #799742",
"]O@	c #799544",
"^O@	c #7C973C",
"/O@	c #60842B",
"(O@	c #5E812C",
"_O@	c #5D8129",
":O@	c #5D8228",
"<O@	c #608427",
"[O@	c #618428",
"}O@	c #618427",
"|O@	c #638523",
"1O@	c #698A28",
"2O@	c #6F8D26",
"3O@	c #6A8B24",
"4O@	c #658825",
"5O@	c #678924",
"6O@	c #678925",
"7O@	c #668925",
"8O@	c #698A22",
"9O@	c #6B8C29",
"0O@	c #6A8A28",
"aO@	c #739028",
"bO@	c #748E2A",
"cO@	c #78912A",
"dO@	c #748E28",
"eO@	c #738D29",
"fO@	c #718D22",
"gO@	c #718F29",
"hO@	c #708B2A",
"iO@	c #748C30",
"jO@	c #798C30",
"kO@	c #8C9A38",
"lO@	c #85933B",
"mO@	c #83923D",
"nO@	c #859544",
"oO@	c #7D8E42",
"pO@	c #7F9043",
"qO@	c #839444",
"rO@	c #8A9A48",
"sO@	c #8B9946",
"tO@	c #8D9B47",
"uO@	c #8F9F4C",
"vO@	c #8B9A46",
"wO@	c #8C9C49",
"xO@	c #8B9A4A",
"yO@	c #8F9C48",
"zO@	c #8C9B4B",
"AO@	c #899747",
"BO@	c #879648",
"CO@	c #8E9B4A",
"DO@	c #8B9949",
"EO@	c #8A9949",
"FO@	c #8F9B4E",
"GO@	c #8F9F4D",
"HO@	c #919E4D",
"IO@	c #909E4C",
"JO@	c #839446",
"KO@	c #879746",
"LO@	c #859447",
"MO@	c #899A49",
"NO@	c #849346",
"OO@	c #8B994C",
"PO@	c #8A9A45",
"QO@	c #8D9D4A",
"RO@	c #94A24C",
"SO@	c #8D993D",
"TO@	c #A2A62E",
"UO@	c #A9AB2B",
"VO@	c #A8AC2E",
"WO@	c #A8A92A",
"XO@	c #A9A827",
"YO@	c #A8A826",
"ZO@	c #A7A92A",
"`O@	c #A4A62E",
" P@	c #A1A739",
".P@	c #A3A326",
"+P@	c #A4A82F",
"@P@	c #A8AA2B",
"#P@	c #A7AA2F",
"$P@	c #AAAC32",
"%P@	c #A5A82C",
"&P@	c #A3A62D",
"*P@	c #A5A629",
"=P@	c #A3A529",
"-P@	c #A4A527",
";P@	c #A5A627",
">P@	c #9EA32C",
",P@	c #A1A52B",
"'P@	c #A1A328",
")P@	c #9FA327",
"!P@	c #A6A729",
"~P@	c #A1A323",
"{P@	c #A7A927",
"]P@	c #A8A624",
"^P@	c #A6A726",
"/P@	c #A7A625",
"(P@	c #A3A423",
"_P@	c #A0A120",
":P@	c #A5A524",
"<P@	c #A4A726",
"[P@	c #8E9F35",
"}P@	c #6C8E31",
"|P@	c #5E8330",
"1P@	c #597E2C",
"2P@	c #547C2B",
"3P@	c #50742B",
"4P@	c #577D2E",
"5P@	c #50752A",
"6P@	c #577B2B",
"7P@	c #587A28",
"8P@	c #567828",
"9P@	c #517328",
"0P@	c #547528",
"aP@	c #537626",
"bP@	c #547726",
"cP@	c #4F7327",
"dP@	c #527527",
"eP@	c #517428",
"fP@	c #4B7128",
"gP@	c #4A7029",
"hP@	c #486D26",
"iP@	c #476C2B",
"jP@	c #4E732B",
"kP@	c #4F752B",
"lP@	c #688B2B",
"mP@	c #799733",
"nP@	c #739431",
"oP@	c #71922F",
"pP@	c #729430",
"qP@	c #719233",
"rP@	c #6F9035",
"sP@	c #719338",
"tP@	c #576E41",
"uP@	c #51713A",
"vP@	c #547139",
"wP@	c #527039",
"xP@	c #55723B",
"yP@	c #4E6E39",
"zP@	c #4A6D37",
"AP@	c #476B35",
"BP@	c #4A6F36",
"CP@	c #4C6D37",
"DP@	c #486B36",
"EP@	c #486C36",
"FP@	c #4A6D38",
"GP@	c #496B38",
"HP@	c #486B37",
"IP@	c #466A37",
"JP@	c #446835",
"KP@	c #416733",
"LP@	c #456834",
"MP@	c #4D7634",
"NP@	c #4E7536",
"OP@	c #517A38",
"PP@	c #4F7838",
"QP@	c #4C7439",
"RP@	c #4E7838",
"SP@	c #507939",
"TP@	c #4C7837",
"UP@	c #4C7738",
"VP@	c #4E7A36",
"WP@	c #527E38",
"XP@	c #517B39",
"YP@	c #50783A",
"ZP@	c #4C763A",
"`P@	c #4A7836",
" Q@	c #4B7A35",
".Q@	c #4B7736",
"+Q@	c #497437",
"@Q@	c #4A7636",
"#Q@	c #477435",
"$Q@	c #487535",
"%Q@	c #467434",
"&Q@	c #447233",
"*Q@	c #477534",
"=Q@	c #4B7936",
"-Q@	c #567E36",
";Q@	c #6A8C3F",
">Q@	c #7E9849",
",Q@	c #7B934A",
"'Q@	c #779249",
")Q@	c #81974B",
"!Q@	c #849949",
"~Q@	c #84974A",
"{Q@	c #789248",
"]Q@	c #82974A",
"^Q@	c #839849",
"/Q@	c #81954A",
"(Q@	c #7B9448",
"_Q@	c #789247",
":Q@	c #76904B",
"<Q@	c #738F4C",
"[Q@	c #7C9445",
"}Q@	c #749040",
"|Q@	c #789343",
"1Q@	c #718F3D",
"2Q@	c #7C9647",
"3Q@	c #789442",
"4Q@	c #7E9545",
"5Q@	c #75943F",
"6Q@	c #60852B",
"7Q@	c #5E832B",
"8Q@	c #5F8326",
"9Q@	c #5F8328",
"0Q@	c #608428",
"aQ@	c #618529",
"bQ@	c #5D8229",
"cQ@	c #5A8024",
"dQ@	c #597F27",
"eQ@	c #5F8428",
"fQ@	c #688A27",
"gQ@	c #6C8D28",
"hQ@	c #698921",
"iQ@	c #648825",
"jQ@	c #628522",
"kQ@	c #638722",
"lQ@	c #658823",
"mQ@	c #688A28",
"nQ@	c #648727",
"oQ@	c #688A26",
"pQ@	c #718E22",
"qQ@	c #708C23",
"rQ@	c #748D22",
"sQ@	c #728E20",
"tQ@	c #738E21",
"uQ@	c #6F8D27",
"vQ@	c #6D8D28",
"wQ@	c #7B9329",
"xQ@	c #8C9C30",
"yQ@	c #829235",
"zQ@	c #7B8E3B",
"AQ@	c #819241",
"BQ@	c #7B8E40",
"CQ@	c #7A8D41",
"DQ@	c #7C8E3E",
"EQ@	c #7F9041",
"FQ@	c #829345",
"GQ@	c #829241",
"HQ@	c #859545",
"IQ@	c #869548",
"JQ@	c #839447",
"KQ@	c #7F8F44",
"LQ@	c #829344",
"MQ@	c #829342",
"NQ@	c #859342",
"OQ@	c #7F9143",
"PQ@	c #829348",
"QQ@	c #7D9045",
"RQ@	c #829346",
"SQ@	c #899949",
"TQ@	c #8F9C4E",
"UQ@	c #8B984B",
"VQ@	c #8E9D4B",
"WQ@	c #97A44F",
"XQ@	c #8F9E4C",
"YQ@	c #8A9B49",
"ZQ@	c #8E9E4C",
"`Q@	c #8E9C4A",
" R@	c #919F4D",
".R@	c #909D4B",
"+R@	c #93A050",
"@R@	c #8B9A45",
"#R@	c #999E2F",
"$R@	c #A8A827",
"%R@	c #A8AC32",
"&R@	c #A2A123",
"*R@	c #A0A020",
"=R@	c #A5A626",
"-R@	c #A4A425",
";R@	c #A4A322",
">R@	c #A2A323",
",R@	c #A8A928",
"'R@	c #A7A827",
")R@	c #ADAE2A",
"!R@	c #AAAB28",
"~R@	c #B3B22A",
"{R@	c #ADAD29",
"]R@	c #ACAC28",
"^R@	c #AAAA29",
"/R@	c #AAAB2B",
"(R@	c #AAAA2C",
"_R@	c #ACAE2A",
":R@	c #A6A727",
"<R@	c #AFAE2A",
"[R@	c #A8AA28",
"}R@	c #A8A725",
"|R@	c #AAAA27",
"1R@	c #AAA928",
"2R@	c #ACAB28",
"3R@	c #AAAB29",
"4R@	c #A9A928",
"5R@	c #A9A826",
"6R@	c #A6A625",
"7R@	c #A3A72A",
"8R@	c #82952A",
"9R@	c #709031",
"0R@	c #507427",
"aR@	c #4E722A",
"bR@	c #55772A",
"cR@	c #527428",
"dR@	c #527529",
"eR@	c #4F7228",
"fR@	c #4E7229",
"gR@	c #53742B",
"hR@	c #4B6F28",
"iR@	c #4B6F27",
"jR@	c #486B27",
"kR@	c #4F7127",
"lR@	c #4C6F2A",
"mR@	c #496D27",
"nR@	c #4A6D28",
"oR@	c #446924",
"pR@	c #436926",
"qR@	c #3E6523",
"rR@	c #446825",
"sR@	c #456926",
"tR@	c #4E732A",
"uR@	c #50742A",
"vR@	c #557928",
"wR@	c #6B8B30",
"xR@	c #789532",
"yR@	c #6F9233",
"zR@	c #6C8F37",
"AR@	c #4C6D3B",
"BR@	c #496A37",
"CR@	c #476A36",
"DR@	c #486635",
"ER@	c #466634",
"FR@	c #466835",
"GR@	c #496B39",
"HR@	c #486A38",
"IR@	c #476A37",
"JR@	c #476B38",
"KR@	c #476C37",
"LR@	c #456A34",
"MR@	c #466935",
"NR@	c #436833",
"OR@	c #406833",
"PR@	c #406732",
"QR@	c #3E6531",
"RR@	c #507638",
"SR@	c #4E7635",
"TR@	c #4F7639",
"UR@	c #4E753A",
"VR@	c #4F7938",
"WR@	c #507B39",
"XR@	c #4D7A36",
"YR@	c #537E36",
"ZR@	c #557F38",
"`R@	c #527D39",
" S@	c #527B3A",
".S@	c #517C39",
"+S@	c #537F38",
"@S@	c #537E37",
"#S@	c #4F783A",
"$S@	c #4D7739",
"%S@	c #4F7839",
"&S@	c #4E7937",
"*S@	c #4E7839",
"=S@	c #4C7539",
"-S@	c #4B743A",
";S@	c #4C7639",
">S@	c #497537",
",S@	c #497438",
"'S@	c #467037",
")S@	c #437134",
"!S@	c #406F32",
"~S@	c #417033",
"{S@	c #427033",
"]S@	c #4A7735",
"^S@	c #4D7835",
"/S@	c #60843A",
"(S@	c #749245",
"_S@	c #759249",
":S@	c #879A4C",
"<S@	c #7D9649",
"[S@	c #7D954A",
"}S@	c #84984C",
"|S@	c #7F9649",
"1S@	c #7E944A",
"2S@	c #7B944B",
"3S@	c #7C934D",
"4S@	c #78904D",
"5S@	c #748E4B",
"6S@	c #738D4A",
"7S@	c #748F47",
"8S@	c #768E48",
"9S@	c #728F3F",
"0S@	c #718D3F",
"aS@	c #74923F",
"bS@	c #738E3F",
"cS@	c #7B9543",
"dS@	c #79953E",
"eS@	c #7F9942",
"fS@	c #75943E",
"gS@	c #61852A",
"hS@	c #62862B",
"iS@	c #638829",
"jS@	c #62872B",
"kS@	c #638728",
"lS@	c #648729",
"mS@	c #628527",
"nS@	c #628528",
"oS@	c #638729",
"pS@	c #628626",
"qS@	c #628622",
"rS@	c #638626",
"sS@	c #608529",
"tS@	c #66892A",
"uS@	c #6B8D28",
"vS@	c #6D8D26",
"wS@	c #6D8D22",
"xS@	c #698B23",
"yS@	c #6F8D21",
"zS@	c #739022",
"AS@	c #718E21",
"BS@	c #708E25",
"CS@	c #719028",
"DS@	c #6E8F28",
"ES@	c #729129",
"FS@	c #7C942D",
"GS@	c #7B9136",
"HS@	c #7B903F",
"IS@	c #74883F",
"JS@	c #768A40",
"KS@	c #798C40",
"LS@	c #7E9141",
"MS@	c #839343",
"NS@	c #829245",
"OS@	c #7F9046",
"PS@	c #7E8F44",
"QS@	c #819049",
"RS@	c #809144",
"SS@	c #809246",
"TS@	c #849348",
"US@	c #8B974D",
"VS@	c #88964A",
"WS@	c #8B994D",
"XS@	c #8E9C4E",
"YS@	c #909D4F",
"ZS@	c #95A052",
"`S@	c #95A155",
" T@	c #94A051",
".T@	c #94A251",
"+T@	c #94A24F",
"@T@	c #8C984D",
"#T@	c #909F4B",
"$T@	c #8F9E4B",
"%T@	c #8D9A4C",
"&T@	c #8E9D4A",
"*T@	c #8B9A47",
"=T@	c #8F9D3C",
"-T@	c #A5A727",
";T@	c #A4A727",
">T@	c #9CA026",
",T@	c #999C27",
"'T@	c #A7A524",
")T@	c #9DA01F",
"!T@	c #ABAB28",
"~T@	c #B3B42C",
"{T@	c #ABAC29",
"]T@	c #B1B12B",
"^T@	c #B4B42C",
"/T@	c #B4B32B",
"(T@	c #B0AF29",
"_T@	c #B3B22B",
":T@	c #ACAD2A",
"<T@	c #A8A927",
"[T@	c #ABAC2A",
"}T@	c #A9A927",
"|T@	c #B1B22E",
"1T@	c #B0B12B",
"2T@	c #AEB130",
"3T@	c #A7A725",
"4T@	c #A1A422",
"5T@	c #9CA225",
"6T@	c #839831",
"7T@	c #58792D",
"8T@	c #4E7328",
"9T@	c #4A6F29",
"0T@	c #4B6F29",
"aT@	c #507329",
"bT@	c #4E7128",
"cT@	c #4F722C",
"dT@	c #4E712A",
"eT@	c #496C27",
"fT@	c #496B29",
"gT@	c #486B2A",
"hT@	c #436724",
"iT@	c #446927",
"jT@	c #426827",
"kT@	c #446A27",
"lT@	c #4C702B",
"mT@	c #4E7228",
"nT@	c #53762A",
"oT@	c #658332",
"pT@	c #729134",
"qT@	c #739234",
"rT@	c #739335",
"sT@	c #6C9133",
"tT@	c #496737",
"uT@	c #4A683A",
"vT@	c #4A6A3A",
"wT@	c #415E2F",
"xT@	c #446132",
"yT@	c #456735",
"zT@	c #456634",
"AT@	c #446430",
"BT@	c #426335",
"CT@	c #456936",
"DT@	c #406632",
"ET@	c #3E6631",
"FT@	c #3E6333",
"GT@	c #436835",
"HT@	c #557C39",
"IT@	c #547B3C",
"JT@	c #517A3A",
"KT@	c #51773C",
"LT@	c #52793A",
"MT@	c #547D38",
"NT@	c #55803A",
"OT@	c #537E3A",
"PT@	c #547E3A",
"QT@	c #588338",
"RT@	c #568037",
"ST@	c #557F3A",
"TT@	c #53793E",
"UT@	c #577E3E",
"VT@	c #4E773B",
"WT@	c #507B3A",
"XT@	c #4E7938",
"YT@	c #4E7A37",
"ZT@	c #4D763A",
"`T@	c #4E763C",
" U@	c #4C7638",
".U@	c #4A7737",
"+U@	c #437034",
"@U@	c #447333",
"#U@	c #457235",
"$U@	c #4D7E34",
"%U@	c #5B813C",
"&U@	c #6A8B42",
"*U@	c #728E4C",
"=U@	c #74904E",
"-U@	c #76914C",
";U@	c #76914D",
">U@	c #768F4C",
",U@	c #77914E",
"'U@	c #769149",
")U@	c #789149",
"!U@	c #7D9348",
"~U@	c #789245",
"{U@	c #789143",
"]U@	c #77923E",
"^U@	c #748E3D",
"/U@	c #769241",
"(U@	c #738E3E",
"_U@	c #7D9645",
":U@	c #749043",
"<U@	c #718F40",
"[U@	c #698B35",
"}U@	c #5B802A",
"|U@	c #5E832A",
"1U@	c #5F8427",
"2U@	c #5F8324",
"3U@	c #618524",
"4U@	c #658829",
"5U@	c #65892A",
"6U@	c #64882A",
"7U@	c #648829",
"8U@	c #638724",
"9U@	c #618629",
"0U@	c #5E8428",
"aU@	c #5B8227",
"bU@	c #648724",
"cU@	c #668927",
"dU@	c #6B8A1C",
"eU@	c #6A8C25",
"fU@	c #698B24",
"gU@	c #6A8B23",
"hU@	c #658928",
"iU@	c #678B2B",
"jU@	c #6C8D2C",
"kU@	c #6F8F2C",
"lU@	c #79922F",
"mU@	c #778D3B",
"nU@	c #72873E",
"oU@	c #71843B",
"pU@	c #718441",
"qU@	c #7E9043",
"rU@	c #7E8F41",
"sU@	c #859546",
"tU@	c #859443",
"uU@	c #809047",
"vU@	c #808F47",
"wU@	c #829248",
"xU@	c #83924A",
"yU@	c #7F9045",
"zU@	c #7F9047",
"AU@	c #839249",
"BU@	c #819145",
"CU@	c #849448",
"DU@	c #869549",
"EU@	c #919C50",
"FU@	c #929F52",
"GU@	c #919B51",
"HU@	c #909952",
"IU@	c #94A050",
"JU@	c #909B50",
"KU@	c #929E51",
"LU@	c #8B9B4A",
"MU@	c #849349",
"NU@	c #8B9B4B",
"OU@	c #8D9B4D",
"PU@	c #8E9A51",
"QU@	c #8F9952",
"RU@	c #8E9951",
"SU@	c #90A04E",
"TU@	c #8E9D4E",
"UU@	c #9AA12A",
"VU@	c #A3A325",
"WU@	c #A1A429",
"XU@	c #9DA022",
"YU@	c #A4A324",
"ZU@	c #ABAC2C",
"`U@	c #A0A222",
" V@	c #AAAA26",
".V@	c #AFAE29",
"+V@	c #AEAD29",
"@V@	c #B7B62C",
"#V@	c #AEAE2A",
"$V@	c #AEAE2B",
"%V@	c #AAAA28",
"&V@	c #A6A826",
"*V@	c #A6A524",
"=V@	c #A4A423",
"-V@	c #A5A423",
";V@	c #A7A826",
">V@	c #A3A322",
",V@	c #9EA020",
"'V@	c #A0A225",
")V@	c #9EA224",
"!V@	c #99A02C",
"~V@	c #9FA221",
"{V@	c #9CA530",
"]V@	c #789434",
"^V@	c #5D822B",
"/V@	c #577A29",
"(V@	c #4B7028",
"_V@	c #4A7128",
":V@	c #4B712B",
"<V@	c #4B6C2A",
"[V@	c #446828",
"}V@	c #436826",
"|V@	c #50732B",
"1V@	c #577A2A",
"2V@	c #719334",
"3V@	c #6C8F31",
"4V@	c #6E9037",
"5V@	c #476238",
"6V@	c #466438",
"7V@	c #466434",
"8V@	c #476937",
"9V@	c #415D30",
"0V@	c #40592D",
"aV@	c #455F33",
"bV@	c #4A663B",
"cV@	c #446032",
"dV@	c #415B30",
"eV@	c #486639",
"fV@	c #3E5D2E",
"gV@	c #405F2F",
"hV@	c #3E652F",
"iV@	c #3D6532",
"jV@	c #3F6433",
"kV@	c #3B6631",
"lV@	c #46673B",
"mV@	c #4F7537",
"nV@	c #547C38",
"oV@	c #557D38",
"pV@	c #527B39",
"qV@	c #547F3B",
"rV@	c #547A3E",
"sV@	c #59813E",
"tV@	c #57803C",
"uV@	c #59803F",
"vV@	c #537D3A",
"wV@	c #547F39",
"xV@	c #53793D",
"yV@	c #537D38",
"zV@	c #537A3A",
"AV@	c #557841",
"BV@	c #527640",
"CV@	c #52783F",
"DV@	c #4E723F",
"EV@	c #4C713D",
"FV@	c #4D7639",
"GV@	c #497536",
"HV@	c #477633",
"IV@	c #437035",
"JV@	c #447135",
"KV@	c #427034",
"LV@	c #477635",
"MV@	c #477634",
"NV@	c #4E7B37",
"OV@	c #4F7D35",
"PV@	c #688C41",
"QV@	c #738E49",
"RV@	c #6D8946",
"SV@	c #6F8B4A",
"TV@	c #728F4D",
"UV@	c #77914C",
"VV@	c #79934C",
"WV@	c #7D944C",
"XV@	c #7C944B",
"YV@	c #779049",
"ZV@	c #779149",
"`V@	c #79914C",
" W@	c #7B924A",
".W@	c #7C934A",
"+W@	c #7E9546",
"@W@	c #79943A",
"#W@	c #75903B",
"$W@	c #6D8A3C",
"%W@	c #6F8C3A",
"&W@	c #728D3E",
"*W@	c #729041",
"=W@	c #69893C",
"-W@	c #6E8C40",
";W@	c #5A8027",
">W@	c #577C2A",
",W@	c #557C2B",
"'W@	c #547B2B",
")W@	c #5B8129",
"!W@	c #5F8429",
"~W@	c #618527",
"{W@	c #618523",
"]W@	c #648723",
"^W@	c #668923",
"/W@	c #638723",
"(W@	c #658828",
"_W@	c #668929",
":W@	c #658929",
"<W@	c #678A28",
"[W@	c #668928",
"}W@	c #638726",
"|W@	c #628629",
"1W@	c #5E8328",
"2W@	c #658824",
"3W@	c #668821",
"4W@	c #64882B",
"5W@	c #65872B",
"6W@	c #6E8731",
"7W@	c #768A3A",
"8W@	c #73873D",
"9W@	c #6F843F",
"0W@	c #6D8241",
"aW@	c #738641",
"bW@	c #778943",
"cW@	c #7A8B45",
"dW@	c #768740",
"eW@	c #7A8C43",
"fW@	c #7A8B44",
"gW@	c #7E9046",
"hW@	c #7B8C47",
"iW@	c #7E8F46",
"jW@	c #7F8F47",
"kW@	c #829349",
"lW@	c #7F8F45",
"mW@	c #819148",
"nW@	c #808F48",
"oW@	c #809046",
"pW@	c #7E8E46",
"qW@	c #7C8D46",
"rW@	c #7C8F46",
"sW@	c #829148",
"tW@	c #86954A",
"uW@	c #85934A",
"vW@	c #8A9A4B",
"wW@	c #839346",
"xW@	c #849546",
"yW@	c #839349",
"zW@	c #849648",
"AW@	c #89994C",
"BW@	c #88984A",
"CW@	c #85964A",
"DW@	c #899751",
"EW@	c #86964C",
"FW@	c #86984A",
"GW@	c #88964B",
"HW@	c #84953B",
"IW@	c #919D34",
"JW@	c #959F30",
"KW@	c #9AA02E",
"LW@	c #9C9E24",
"MW@	c #A7A726",
"NW@	c #A5A322",
"OW@	c #ACAC27",
"PW@	c #AFB02B",
"QW@	c #B6B428",
"RW@	c #ADAF2B",
"SW@	c #B6B42B",
"TW@	c #B0B02A",
"UW@	c #ABAC28",
"VW@	c #A8A726",
"WW@	c #A9A726",
"XW@	c #AAA927",
"YW@	c #A7A727",
"ZW@	c #A3A524",
"`W@	c #A2A326",
" X@	c #A4A629",
".X@	c #A2A221",
"+X@	c #9A9E20",
"@X@	c #9FA42A",
"#X@	c #99A027",
"$X@	c #999F26",
"%X@	c #9BA227",
"&X@	c #8D9E36",
"*X@	c #476B26",
"=X@	c #4C6B2B",
"-X@	c #4C6E29",
";X@	c #466926",
">X@	c #4B6F2A",
",X@	c #50732D",
"'X@	c #6A8B30",
")X@	c #6F922E",
"!X@	c #4A673B",
"~X@	c #4B6D3A",
"{X@	c #4A6A3B",
"]X@	c #415930",
"^X@	c #42592E",
"/X@	c #436132",
"(X@	c #436935",
"_X@	c #426034",
":X@	c #3E6731",
"<X@	c #3C5C2D",
"[X@	c #395327",
"}X@	c #3E642F",
"|X@	c #3C6630",
"1X@	c #3C6631",
"2X@	c #3C6331",
"3X@	c #436A33",
"4X@	c #4E7537",
"5X@	c #51793A",
"6X@	c #587D3C",
"7X@	c #567D3A",
"8X@	c #517A39",
"9X@	c #557941",
"0X@	c #587C41",
"aX@	c #577A41",
"bX@	c #567A40",
"cX@	c #567544",
"dX@	c #54793F",
"eX@	c #51763E",
"fX@	c #51783B",
"gX@	c #527A39",
"hX@	c #4E763B",
"iX@	c #50773D",
"jX@	c #4F733E",
"kX@	c #4F7140",
"lX@	c #517242",
"mX@	c #4D753B",
"nX@	c #467335",
"oX@	c #457335",
"pX@	c #446E37",
"qX@	c #446F37",
"rX@	c #497736",
"sX@	c #4A7A35",
"tX@	c #517C38",
"uX@	c #5A833A",
"vX@	c #6D8D45",
"wX@	c #6F8B47",
"xX@	c #6F8C4A",
"yX@	c #738E4B",
"zX@	c #73904E",
"AX@	c #78924E",
"BX@	c #7C934C",
"CX@	c #7F954A",
"DX@	c #80954A",
"EX@	c #7C9349",
"FX@	c #7C9247",
"GX@	c #809549",
"HX@	c #7C924B",
"IX@	c #7D9449",
"JX@	c #7A9148",
"KX@	c #75913B",
"LX@	c #728C3B",
"MX@	c #6B873B",
"NX@	c #708B3C",
"OX@	c #738E40",
"PX@	c #6C8B3E",
"QX@	c #718E40",
"RX@	c #597F29",
"SX@	c #547B29",
"TX@	c #527A2A",
"UX@	c #5C8226",
"VX@	c #608524",
"WX@	c #628625",
"XX@	c #6B8C24",
"YX@	c #698A21",
"ZX@	c #678923",
"`X@	c #688B28",
" Y@	c #6B8C28",
".Y@	c #668926",
"+Y@	c #688B29",
"@Y@	c #618526",
"#Y@	c #5D8227",
"$Y@	c #5B8025",
"%Y@	c #5D8225",
"&Y@	c #5F8225",
"*Y@	c #658927",
"=Y@	c #6F902B",
"-Y@	c #6B8C2D",
";Y@	c #6A8B2E",
">Y@	c #748A35",
",Y@	c #7C913B",
"'Y@	c #7C9042",
")Y@	c #758941",
"!Y@	c #728841",
"~Y@	c #718643",
"{Y@	c #788941",
"]Y@	c #758843",
"^Y@	c #778A43",
"/Y@	c #748642",
"(Y@	c #7D8E46",
"_Y@	c #7C8C46",
":Y@	c #7E8F45",
"<Y@	c #7A8C44",
"[Y@	c #7E8F47",
"}Y@	c #768A42",
"|Y@	c #7D8E45",
"1Y@	c #788A47",
"2Y@	c #788B45",
"3Y@	c #7B8C43",
"4Y@	c #778941",
"5Y@	c #788A46",
"6Y@	c #788B44",
"7Y@	c #7D8D46",
"8Y@	c #7E8D46",
"9Y@	c #7C8E42",
"0Y@	c #7E9044",
"aY@	c #819245",
"bY@	c #809044",
"cY@	c #7B8E42",
"dY@	c #7E8F42",
"eY@	c #7F9146",
"fY@	c #849549",
"gY@	c #879747",
"hY@	c #8F9D4F",
"iY@	c #859346",
"jY@	c #8E9A3B",
"kY@	c #9EA430",
"lY@	c #8B982C",
"mY@	c #879329",
"nY@	c #979D22",
"oY@	c #999D1E",
"pY@	c #9C9F20",
"qY@	c #ABAC2E",
"rY@	c #ADAE2C",
"sY@	c #B0B02B",
"tY@	c #BCBA2D",
"uY@	c #B8B62C",
"vY@	c #B0AF2A",
"wY@	c #A9AA28",
"xY@	c #A9A824",
"yY@	c #A4A524",
"zY@	c #A4A626",
"AY@	c #9FA124",
"BY@	c #9BA026",
"CY@	c #9AA02B",
"DY@	c #999F23",
"EY@	c #959B2D",
"FY@	c #979E27",
"GY@	c #9EA021",
"HY@	c #9EA328",
"IY@	c #99A12B",
"JY@	c #96A02D",
"KY@	c #989E20",
"LY@	c #979E26",
"MY@	c #919B28",
"NY@	c #778D24",
"OY@	c #587B26",
"PY@	c #517628",
"QY@	c #4D7129",
"RY@	c #4D6C30",
"SY@	c #456925",
"TY@	c #51732B",
"UY@	c #4E7129",
"VY@	c #4C6E27",
"WY@	c #4B6F2B",
"XY@	c #51722B",
"YY@	c #6A8A33",
"ZY@	c #739436",
"`Y@	c #739230",
" Z@	c #688D2D",
"   .  +  @  #  $  %  &  *  =  -  ;  >  ,  '  )  !  ~  {  ]  ^  /  (  _  :  <  [  }  |  1  2  3  4  5  6  7  8  9  0  a  b  c  d  e  f  g  h  i  j  k  l  m  n  o  l  p  q  r  s  t  u  v  w  x  y  z  A  B  C  D  E  F  G  H  I  J  K  L  M  N  O  P  Q  R  S  T  U  V  W  X  Y  Z  `   . .. +. @. #. $. %. &. *. =. -. ;. >. ,. '. ). H  !. ~. {. ]. ^. /. (. _. :. <. [. }. |. 1. 2. 3. 4. 5. 6. 7. 8. 9. 0. a. b. c. d. e. f. g. h. i. j. k. |  l. ,. m. m. n. o. p. q. r. s. t. u. v. w. x. y. z. A. B. C. D. E. F. G. H. I. J. K. L. M. N. O. P. Q. R. S. T. U. V. W. X. Y. Z. `.  + .+ ++ @+ #+ $+ %+ &+ *+ =+ -+ ;+ >+ ,+ '+ )+ !+ ~+ {+ ]+ ^+ /+ (+ _+ :+ <+ [+ }+ |+ 1+ 2+ 3+ 4+ 5+ 6+ 7+ 8+ 9+ 0+ a+ b+ c+ d+ e+ f+ g+ h+ i+ j+ k+ l+ m+ n+ o+ p+ q+ r+ s+ t+ u+ v+ w+ x+ y+ z+ A+ B+ ",
"C+ D+ E+ F+ G+ H+ I+ J+ K+ L+ M+ N+ O+ P+ Q+ R+ S+ T+ U+ V+ W+ X+ Y+ Z+ `+  @ .@ <  +@ @@ #@ $@ Y+ %@ &@ *@ =@ -@ ;@ >@ ,@ ,@ '@ )@ !@ ~@ {@ ]@ ^@ #. /@ (@ _@ :@ <@ [@ }@ |@ i. 1@ 2@ 3@ 4@ 5@ 6@ 7@ 8@ 9@ 0@ a@ b@ c@ d@ e@ f@ 0@ g@ !@ h@ i@ j@ k@ j@ l@ m@ g@ n@ o@ p@ q@ Z  r@ s@ t@ u@ v@ w@ 9@ x@ y@ z@ A@  . B@ C@ D@ E@ F@ G@ H@ h. ~. I@ i. b. J@ K@ L@ M@ N@  . O@ P@ 8@ Q@ R@ w@ S@ J@ T@ U@ V@ W@ X@ Y@ Y@ Z@ 9@ J@ `@ Q@ A@  # .# +# f. h. @# ## $# %# &# *# =# -# -# ;# ># ,# '# )# !# ~# {# ]# ^# /# /# (# _# _# :# <# [# }# _# |# 1# 2# 3# 4# 5# 6# 7# 8# 9# 0# a# b# c# d# e# f# g# h# i# j# k# l# m# n# o# p# q# r# s# t# u# v# w# x# y# z# A# B# C# D# E# F# G# H# I# J# K# L# M# N# O# P# Q# R# S# T# U# V# W# X# Y# Z# `#  $ .$ +$ @$ #$ $$ %$ &$ *$ =$ -$ $$ ;$ >$ ,$ '$ ",
")$ !$ ~$ {$ ]$ ^$ /$ ($ _$ :$ <$ [$ }$ |$ 1$ 2$ 3$ 4$ 5$ 2$ 6$ 7$ 8$ 9$ 0$ c@ a$ b$ c$ d$ e$ f$ g$ h$ )$ i$ j$ k$ l$ m$ n$ o$ <$ p$ q$ r$ s$ t$ u$ v$ w$ x$ y$ z$ A$ B$ C$ D$ E$ F$ X+ G$ H$ I$ J$ K$ L$ 8. t$ M$ a@ L$ q@ N$ O$ a@ q$ P$ Q$ R$ J$ 9$ S$ T$ U@ U$ V$ 9. R$ W$ H  H  X$ Y$ Z$ `$  % C@ .% +% @% m. F@ #% $% %% &% *% =% R$ 9$ W$ 5. -% ;% C@ R$ +# >% ,% i. '% .% B@ C@ )% h@ @% h. !% ~% {% V@ ]% '# ^% /% (% _% v@ :% *# <% [% }% |% 1% 2% 2% 3% 4% 5% 6% 7% 8% '# 9% 0% a% b% b% 0% 2# c% 1# d% 2# e% f% d% g% h% i% j% k% 2# g% l% m% n% o% p% q% n% r% q% a# s% 9# t% u% v% w% x% y% z% A% B% C% D% E% F% G% H% I% t# J% K% L% M% N% O% P% Q% y# R% S% T% U% V% W% X% Y% Z% N% `%  & .& +& @& #& $& %& && *& =& -& ;& >& ,& '& )& !& ~& {& ]& ^& ~& /& '$ (& _& :& <& [& }& ",
"|& 1& 2& 3& 4& 5& <$ 5$ 6& 7& 8& 9& 0& a& b& c& |$ d& 5$ e& f& g& h& i& j& !@ c@ k& l& m& n& o& i& p& q& r& s& t& u& v& w& o# x& y& z& A& B& C& D& E& :@ F& G& H& I& J& p& K& i& L& M& N& O& P& E$ D$ h$ T$ Q& R& i& E$ D$ p& S& S& @% T& U& V& n$ W& X& Y& p@ c@ Z& e. T& e. `&  * <. .* a@ $.  . a@ o& +* @* #* y@ 8. z@ $*  . %* k@ m@ e. k@ &* ** a@ Z$ =* -* ;* a@ j& >* ,* '* ;% f. )* |& !* ~* {* ]* ^* /* 8% (* _* :* <* f$ 1% [* ^% 3% ,# 8% '# }* |* 0% 1* R@ 2* ^% ^% 0% s% 3* d# q% 4* 5* 2# 6* c# o% 7* 8* 9* 0* 7* 3# a* 7* b* c* d* e* 6# o% n% f* 7# 7# g* r% h* s% t% t% n% t% i* y% j* k* N@ z@ l* #. m* n* o* p* q* r* s* t* u* v* w* L% x* y* z* x* A* B* C* D* E* Z% F* G* H* I* J* K* L* M* N* O* P* Q* R* >$ *$ S* '& T* U* V* W* X* >$ Y* Z* %$ `*  = .= += @= #= $= %= ",
"&= R& *= == -= ;= 5$ >= ,= '= )= 2$ != ~= {= ]= ^= /= 5$ 6& (= _= o$ := <= I$ [= V& }= i& p& S& P& p& |= G& s& 1= q& 2= 3= 4= 5= 6= z& 7= 8= I$ 9= i& B& p& 0= a= b= A& c= d= !* <= e= a$ i& Q$ i& t$ W& f= g= h= n$ S& D$ i= V& M$ i& f= j= Q& k= l= w& m= n= u& o= p= X+ q= r= s= g$ g. t= K$ `@ y@ L$ J$ u= v= w= l= x=  . y= z= .* c. A= B= C= D= f= T& Q& i@ 0$ j& E= F= )* k@ T& G= H= !$ Y+ I= J= K= !% K@ L= M= f@ N= O= P= -# Q= R= S= ,# S= a# 9# q% q% T= q% U= ^% '# V= 9# 0% 9# r% d# W= X= Y= 6# 6# n% Z= 8* 7* `= `=  - 4# .- 9* +- 9* c* @- +- f* #- 7# $- %- &- *- =- -- -- r% ;- >- ,- '- +. )- l* !- ~- ~- {- ]- ^- /- (- _- :- <- [- }- |- O% 1- 2- 3- j+ 4- 5- 6- 7- 8- 9- 0- a- b- c- d- e- f- g- h- i- ~& j- i- k- l- m- m- n- o- @= k- p- /& q- @= r- s- t- u- v- w- ^& ",
"x- y- !@ z- A- B- C- D- E- F- G- H- I- J- a& K- ~= L- M- N- O- P- c& Q- := R- S- 3& V& p& a= O& p& I$ K& c& (= T- U- V- G& W- X- 2$ Y- Z- `- Y- 8&  ; B& := A& .; z$ +; 0= @; #; y- r$ K& $; E$ S& i& Q$ A= 4& k= L& F= K& <= K& n$ h$ _@ %; Q& w& S- V- &; *; =; -; m$ ;; >; ,; ~. >@ 0$ c@ a@ '; [% c@ q$ ); !; ~; {; ]; Z& ^; _@ /; S$ 2@ z- (; _; :; <; [; X& S$ !@ j= g$ Q& y- 1. }; )@ S& g$ |; 1; X@ 2; 3; 4; 5; 6; 7; <% 8; 9; 0; S= a; 2* b# b% b; 2* ^% c# m% c# 0% ^% X. c% X. s% V= t% c# 2# o% W= f* c; d; a* `= 0* e; f; g; `= `= f* g; h; i; j; k; +- v% o% c# b% r% t% l; l; m; n; o; p; q; %# r; s; t; u; v; w; x; y; z; A; B; E# v* C; T% D; E; F; G; H; I; B; E* E# J; <- K; .& B; L; M* M; N; O; P; Q; R; n- $$ S; T; U; V; W; X; !& Y; Y; += Q; Z; Q; q- `;  > .> +> @> #> ",
"$> %> &> ,= *> => => -> ;> >> ,> '> '= Y- a& <$ )> 2$ 0& q& P- d& != !> != ~> O- F& {> G$ o$ Q- != Q- A& ]> *> T- G  t& F& i= A& ~= ^> G& /> (> _> :> a= <> [> [> [> O& +; }> <= |> ); X& P$ n$ n$ 1> 2> 3@ 3> 4> F= 5> 6> a$ @% 2@ B& 7> }> 4& 8> [; ); r& 9> 0> a> b> c> d> e> Q& f> w= =. S& a@ !@ g$ X& d> 9> g> h> O- J- C  i> := j> h& |& B= }; 4@ k> B= l> #; h$ P& m> )* n> H= o> p> q> ^* m> !% 4; r> O$ s> x@ t> +. u> v> w> '# c# X. 3* 2# U= x> y> z> g% z> A> 1# g% d% 8% 3* V= 0% 6# B> c* 3* T= W= o% T= q% l; $- 0* C> D> `= g; @- .- E> f* `= 4* +- 8# q% 3* c# 4* F> G> +- H> I> o; J> q; K> L> M> N> O> P> Q> R> x; S> T> U> V> D; W> X> F; Y> J; T# F# Z> `> Q#  , L; ., C* +, M* @, #, $, @= n- %, &, /& += *, &, [& =, -, Y* ;, >, ,, Y* +$ ', ), += +$ .$ !, ~, {, ], U* ",
"^, /, (, _, G- D- '= ;> :, <, [, }, |, 2$ <$ := 1, :> 0& ~> D= U- := p& &> J- `- 1, +; 2, 3, c& c& 4, I$ :> *> B- (= /, 5, O& [> 0= 6, a= 7, K- 8, 0= _> 9, 0, 8& a, a$ a$ p& P& b, H& h= c, P$ h$ V& 9$ 3> d, V  2@ R& L& %; e, F$ V& X+ b= [; f, 8> 4& 5> g, w& w& B= l> h, i, X& .* /@ 9$ a@ W$ .* Z& S$ 5> j, k, l, I- S+ m, b& := P& |= n, o, p, q, {; r, s, S- k= q> t, P& u, }; U- {= p$ I= v, w, x, y, Z@ K$ M@ z, C@ -# 3% ,# A, V= 0% U= B, c; c# B, m% C, W. D, ^% 1# c% ~# E, S= 1# 0% l% c* 4# i; 5# F, G, 2# p% H, 0* I, J, K, b* C> L, M, N, O, F> P, u% 7# `= Q, R, S, T, U, 7# t% V, L= W, X, Y, Z, `,  ' .' +' @' #' @' $' %' &' *' =' -' S% S% ;' >' ,' '' )' !' _- ~' {' ]' ^' /' (' _' +$ :' >$ <' :' ', !& T* T* [' W* }' s- #= Y; |' m- .$ j- 1' j- 2' 3' 4' R* !, n- )& ",
"'> 5' 6' 7' &> E- G- 8' 9' 0' a' '> E- 0& b& b' != ~= ~= c& U- o$ P& !> Y- 4, 2$ c' [> A- 1, c& !* ~= !> d' e' f' <, g' h' i' j' @; p$ z& k' J& +; @; l' m' i= 9, /> n' o' b= k' %; a, %; :@ k= p' q' r' X+ s' [; k= W& E$ [= K& t' W& g= f, k= h= W& W& n$ Q$ 1> u' w& v' e. d. T& g@ X& w' g= j& n$ U@ .* !@ x' y' z' &> A' I- ]> {= <> B' C' p> u, u, R- 0> 0  D' E' a= |; n, ^; F' a& G' j= H' I' K$ J' x@ K' J@ L' M' L= [* ]% N' O' c; b% T= T= U= d# d# 2# P' Q' W. R' ~# ^% 3* 1# 0% S' g% 5* T' U' g* +- 0* 5* V' W' .- X' Y' Z' `'  ) J, .) J, M, +) 8* @) @- #) $) F> F> %) &) *) U, =) -) ;) >) ,) ') )) !) ~) {) ]) ^) $' ^- /) :  () C# _) :) <) [) #& }) |) 1) 2)  , 3) U; m- 4) (' /' q+ 5) @$ 4' }' Y; (- 6) 7) 8) *$ T* *$ {& }' 9) Z; 0) ', a) b) c) m- X; d) Y* e) f) g) h) ",
"i) &> _, j) E- 7& >= k) E- -> l) l) m) => n) o) A- ~= a& U- {= B' j= q> !> q> ]> b& !> c' c' I$ B& <$ z& p) q) B- |, r) s) t) u) v) .; w) }> p$ l' /> 5, x) y) z) A) B) G& f, C) p& D) <= n' ); x$ E) F) G) H) I) j, 8> c, J) %; K) W& 3> f, _@ W& c, }> P$ h$ E$ @% Q$ U$ 9$ n$ X& 5> u' L) u, !* E$ !@ M) n$ 1> w& }; N) a> q& !$ h$ O) P) |; <> C' Q) R) 3@ 8$ 0> S) b& T) q> U) O) V) W) X) Y) Z) `) 0;  ! .! +! @! #! $! %! _* O' c% c# 0% U= B, v% q% 1# c% 8% S= R' !# &! g% i% *! =! k% c; T= 5* -! ;! C> a* >! ,! 4* 5# X' 4# '! )! ;! T' !! ~! {! ]! ^! #- /! Q, +- 7# (! _! :! <! T, [! }! |! 1! I@ 2! 3! 4! 5! 6! 7! %' 8! 9! ~) 0! a! b! c! d! e! f! g! h! i! j! k! l! m! n! |' o! @$ p! P; q+ (' Y; q! :& r! s! += *$ t! ,,  $ e) $= u! v! i- 4' .= o! S; Y; q! q! $= += %$ ~& w! ",
"x! y! &> }$ z! z! 1$ '= )= A! => ;> a' (, _, )= b& !> I$ c& := 4, B& |= <$ B! .; ~= Q- <$ B& A& %; K& e' C! D! E! F! G! H! I! J! X- K!  ; J& J& l' L! M! N! O! u) O! P! Q! N& R! X- S! o' T! U! V! W! B) X! Y! Z! `!  ~ W  [> i& R& R! k= 8> .~ %; c, p& E$ E& 2& .* E$ i& b. n$ V  z- f= o> 9$ U@ t$ O& P& M) 9$ ]; 4@ +~ 5> 9$ b@ @~ H' !@ #~ |= 9= !@ $~ ~= %~ &~ *~ c& j= a& T) =~ -~ !% w, ;~ 1% >~ ,~ '~ <% )~ %! (* }* !~ /% 2* s% ~~ 9# c# c# d% 0% 2* ^% {~ _* ]~ ^% ^~ )# c% 1# =! U' /~ f; (~ ,! 3# g* F, _~ -! :~ <~ [~ }~ |~ 1~ 2~ 3~ 4~ H, 5~ 6~ 7~ 8~ `= 4* +- `= 9~ 0~ a~ b~ c~ =- d~ V, ;~ e~ K) f~ g~ h~ i~ j~ ]- k~ l~ m~ 9! n~ o~ p~ q~ r~ s~ t~ u~ v~ =& :' w~ U; k- }' S; x~ l~ y~ ', z~ ~& .= q! +$ V* V* A~ B~ &, C~ D~ #= E~ V* q- V* ;, F~ G~ 7) V; H~ I~ Y; ,, ^& J~ ",
"K~ 6$ (= S- L~ M~ 2$ e& N~ z! O~ P~ Q~ => k) A! 4, 2$ ]= }$ := n, |= <$ |= j= a& c' p$ c= a= [> t' R~ S~ T~ U~ V~ 7' W~ X~ Y~ Z~ h' L! a, `~  { J& 6= P+ h' .{ +{ ^, y$ l> 3& o' P+ `~ @{ G& #{ J! U! ${ %{ u) S! G& J! y' &{ *{ h= 2> F= C$ w) %; E& i& n$ i& 2& Q) i& i& V& .; I$ |= R- i= !$ n, o$ ={ M) a$ 5@ [; w& Y& X& d. h@ -{ H' $~ P) ;{ >{ ,{ I= $~ '{ := %~ ){ !{ }$ ~{ ~{ {{ V@ ]{ Y@ 3; ^{ 2% /{ #! R@ R@ }* ^~ b# ({ 3* 0# 6* 6* T= 2# 0% 0% E, S= 8% ^% R' d% ^~ S= ^~ 0% _{ :{ <{ [{ ,! }{ |{ S' g% 1{ 2{ 3{ 4{ 5{ 6{ 7{ 8{ 9{ 0{ a{ b{ .) c{ d{ e{ f{ #- g{ #- &) &) <! h{ c~ -- i{ j{ j* k{ 2@ l{ m{ n{ o{ p{ x; `# {) q{ B~ #' r{ s{ t{ u{ v{ t{ +$ >$ :' q! w{ q! 2' {& =, #$ x{ V; ,, Z* e) y{ $$ s! ]& z{ n- A{ j- B{ Y* ;, C{ '& V* 2' ]& /& ~& `* ]& $$ :' B{ V; +$ U; ",
"D{ E{ 6$ F{ 1$ G{ H{ I{ J{ b' K{ L{ M{ k) 7& 7& b& ^> :> a& {= |= := c' <$ B! := := w) J) I$ c= %; N{ S~ O{ P{ %{ S~ Q{ A) R{ S{ S~ T{ U{ a, `~ a, J& 0, V{ R~ W{ W{ W  X{ 2> c, <= X- :@ Y{ z) Z{ u) `{  ] V! .] +] @] u) #] $] W  %* %] K) &] b, |> |> |> E& c, h= W  w= a$ *] t' I$ !$ p) 3, O& =] !* o$ 1. 3@ t& +~ g= 2@ .* f. Y$ '{ 4, U- j= -] ;] !* P& J$ T) l= w' |; O) P) I= v, >] T@ ,] %# .% (% 1% K@ %! -# ># ^% '] 0% B, B, c# 0% c# 3* E, X. s% ^~ )# d% R' d% !# !# E, 0% 3# )] 6~ !] ~] {] f% ~# ]] ^] 2{ /] (] _] :] <] [] }] |] 1] 2] 3] 4] @) d{ 5] 6] 6] 0~ %) 7] 8] T, 9] }! 0] o; a] b] c] d] e] f] g] h] i] j] S* k] k~ k~ +$ R; l] s{ z{  $ .$ Y* w; .= m] q! n] o] T; q! p] C~ q] ^& e) ^& 7) /& V; k- Y* ^& ~& x{ r] s] t] u] '& v] ^& w] >$ w] x] :' Q; d) y] Y; +$ ",
"'= z] A] B] C] J- {= I{ D] E] M~ M~ F] => C- >= >= G] a& c& a& := !> !> !> H] A& I] t' := c& 9, k' J] T~ K] K] O! L] R~ M] A) K] N] O] 8&  ; P] P] a, +] #{ Q] I& R] S] S] R& E& E& 7, $] C$ U{ T] M] U]  ] M] M] y) V] O! P+ o' 6> *{ W] X] Y] |> P] b, R! Z] &* `] V- `] 5@ ={ [> p) A- A- G$ /; !$ o$ l= )* /; _;  ^ a@ H' `@ Q$ h$ ={ ){ d& b& .^ +^ <$ $~ U& U& 6@ @^ a@ B@ T@ #^ -% N@ _. @! (% #! /% -# L= N' 3% 8% 8% |* 3* 8# $^ 9# %^ c; c# 0% c# 2# 1# g% 1# 1* 8% ^% |* |* 1# 0* 6~ &^ 6~ e* W= d% *^ =^ X' -^ ;^ >^ ,^ '^ )^ !^ ~^ {^ ]^ ^^ /^ (^ c{ c{ 6] _^ c{ %) :^ <^ [^ }^ c~ |^ ;) ;) 1^ 2^ :; 3^ 4^ 5^ 6^ 6! ;. 7^ `# w; `# z{ w! Y* 8^ 9^ t! 0^ A{ U; a^ n] ;, c) += :& v] b^ ~& c^ Y* [& d^ e^ ,, o- x{ y] /& %= f^ U* g^ h^ i^ q] 2' q] w] ]& j^ k^ l^ 7) m- +$ ^& m^ n^ ",
"o^ s& N- p^ E] P~ L~ {= D] 7& A! 0& G] A! '= I- J- 0& != c& q^ 0= q) 0= :> q) l' r^ 7= s^ t^ ~= c= m' u^ v^ R{ T!  ] w^ R~ A) R{ x^ A$  {  ; y^ `~ z^ z) f' A^ R! e= e= @{ P] B^ C^ D^ 0, S] E^ F^ G^ H^ I^ J^ K^ L^ M^ W~ M! N^ O^ C$ G& H& W] b, V& B& 8> V- y$ C= V- t^ h, a& <= p) +; W- 3@ ){ A& !* !* o$ q$ ,@ P^ j= 6@ Q& Q^ j, g, 2. R^ a= b& %~ S^ T^ c@ i& Q$ a@ `) [% T@ `  U^ <. %@ V^ 1% ># ^% W^ L@ b$ 0; 8% '# E, 0% o% 2# p% W. T= f* o% 2# V= d# 1# z> [* X^ Y^ Z^ d% g% 3# c* 5* 3# g% `^  / ./ +/ W. @/ #/ $/ 8{ %/ &/ !^ */ =/ -/ ;/ >/ ,/ e{ '/ )/ !/ e{ )/ ,/ c{ 8~ S, ~/ {/ i{ ]/ >) ^/ :; // (/ _/ :/ </ [/ }. }/ |/ 1/ 2/ 3/ >, 4/ 5/ 6/ v] 7/ 8/ 9/ 0/ a/ F~ /& n] e^ e) A~ l- .= b/ q] ]& .= /& c/ ;, /& ,, d/ :& ^& e/ A{ C~ g) %= h^ ]& U* f/ g/ h/ v] i/ j/ k/ l/ ",
"m/ n/ %~ o/ A! 1$ ]= G{ p/ 7& p/ p/ q/ => |, '> >= ]> :> r/ 5$ S+ q) C! S+ s/ t) >= s) s) f' O^ w) e' t/ u/ x^ x^ v/ w^ N] L] R~ T! x^ D) w/ A$ x/ y/ A) z/ A/ :@ B/ 7= s' 8,  ;  { C$ a, 0, ^, C/ D/ E/ F/ G/ H/ I/ U~ U~ N! M! 8= .~ K! :@ J/ l& c, r$ 8> P! J! B) V- K/ u, Q- <= ~= L/ 3, 3& ){ := q> M) U- z- ]; R^ S$ v' M/ N/ O/ N& !$ U$ >{ g. y= v= V  =* P/ |. Q/ R/ S/ a@ F@ T/ U/ V/ W/ Q= E, b% N@ w> :% ,~ ,~ 1* 8% b% X. g% 1# g% c; X/ ~~ c; $^ c# c; 3* d% 2* b% ({ b# 2# O, 5* 2# t% 1# Y/ ./ Z/ `/ i%  ( .( +( @( %/ #( $( %( &( *( =( -( ;( >( ,( '( !/ )( !( ~( U, a~ 8~ {( ]( ;- ^( /( (( _( :( <( [( }( |( 1( 2( 3( 4( 5( f^ 6( Y; ;& ^& 7( ^& Z* 8( 9( b) 0( a( G~ D~ .= *$ >$ x{ C~ :& ,, e) Y; ]& }' @$ !, $$ e) n] Y; [& }' s- b( {& Z* ~, `* ;, :& h) c( d( e( f( g( ",
"h( O/ i( d& j( *~ A- o) (, )= |$ P~ >= 4$ z' q& ~> A- l' ~= :> S+ q) k( l( *> m( 5$ T~ `{ i' /> `~ :> n( w^ o( p( q( u/ u/ p( y/ T! r( p( N] z/ R~ x^ A) x^ s( T] t( T! z) (> 6= u( P] $] v( w( x( O! y( z( A( B( C( K] D( U~ I! E( o' H$ j' K! e, 3> )$ f, `] +{ F( x$ G$ v' i= O& I$ A- @; /; i( B& 4, c& W- i> ~> h& O) p@ )* 3@ 4, k@ p@ X& (  G(  * H( I( J( K( $+ n. L( M( N( }% O( P( v@ Q( R( }* S( %# T( U( V( W( X( Y( 1# Z( 0% c# b% d# ~] `( n% B, 6*  _ 6* U= a# U= B, 6* T= ._ 0% ~# *! +_ S' |# =! $^ f% @_ #_ $_ %_ &_ *_ =_ =/ -_ ;_ >_ ,_ g; @) U, U, '_ )_ !_ ~_ {_ <! 9~ a~ [! ]_ ^_ J' /_ (_ F$ __ :_ <_ 1/ [_ }_ |_ 1_ 2_ 3_ T* 4_ a/ e) ;$ 5_ 6_ 7_ 8_ a) 9_ 0_ d^ b( a_ q] b_ c_ d_ 7) X; `* e_ #= ', ,, f_ g_ w{ h_ D~ i_ a/ T; d) j_ q] k_ h_  > {& l_ 8_ m_ n_ e( h) ",
"o_ }; p_ U- A- ]= 3$ => _, (= q_ g' *> E' {> R^ %~ c& p) c& e& q_ s^ z/ N] >= r_ h' R{ s^ h' S+ r_ &> S{ x) 8, z^ s_ t/ u/ y/ z/ R{ x^ t_ Y~ u_ A) O! I! v/ s( A) x^ v_ y/ j' v( w_ x_ /> y) y_ Z{ z_ A_ B_ C_ D_ E_ X~ F_ G_ Y~ O! H_ }> N& S- o' S! H& 3& y' M! I_ J_ E( k, H& [= I$ i' !> A- p$ c' ]> K_ L_ B- E{ h& b@ x= P) M_ U$ 1> N_ z= F@ O_ P_ s= Q_ Q_ R_ S_  . 6; -% %@ T_ M@ t@ $# O@  ! %# R@ U_ 0; ]% V_ W_ 8% ^% c% -) m% f* 1# 3* X_ Y_ Z_ W=  _ l% W' 0% `_ 5# 6# 4# f* c; *! 1# 2#  : .: +: @: #: $: %: &: *: =: -: ;: |] >: ,: ': ): !: ~: {: ]: ^: b~ (! )/ }^ ^: /: R, a~ (: _: :: 1! <: [: 5> }: |: M> 1: 2: W( W_ 3: 4: 5: 6: g) 7: += B{ 8: 9: 0: a: b: >& c: d: x] e: f: c( g: '& h/ h: i: j: k: g_ Y; l! l: l: m: n: [' o: p: x] q: k_ r: s: t: u: v: w: x: y: z: A: ",
"l= n, <> N~ 2$ J- T- B: g' ,= G] C: &> >= @; p) D^ q^ D: O& Y- E: h' x) h' S+ M] r_ F: S~ G: F: /, F! v/ x^ w/ _> k( N{ H: r( Y~ A) I: J: u_ E/ K: L: Z~ M: F^ T{ F^ M: N: 6' w_ O: 6= `~ r^ <@ D) P: I! Y! Q: %{ R: Y~ S: T: Y~ v/ z) U: 3& D! D! V: y' F& `] v^ W: X: Y: Z: f' #; a= 2$ A& 0= 2$ h, T- D- l( 6$ `: ,@ Q) j& S$  < .< +< @< ~. j@ e. #< $< == 5% %< &< *< _. =< R/ T@ [% O( 9@ -< 9; ;< '- %! 7% >< ,< c% c; c# '< `_ W' )< T= 3* `_ 6* Z_ c# ._ $^ 3* 1# 0% d# 1# W= o% !< 2# ~~ l% ~< {< ]< ^< /< (< _< :< << [< }< |< 1< 2< 3< 4< 5< 6< 7< 8< 9< R, 0< !/ d{ *) 8] a< c~ b< c< d< e< /( f< g< l@ h< i< j< k< l< m< n< o< p< q< l_ r< ;& f_ s< t< u< v< w< x< 3: y< z< c( A< B< C< 0: i: 4( D< 3_ E< F< G< H< I< J< K< L< M< 6) >& 7) N< h/ O< P< Q< R< S< T< U< V< W< X< Y< ",
"-] 9= q> 3, m, m, A' Z< I- /, H- `< h' S+ C! S+ O& }$ 0= @; ^> h'  [ H- M] ]> R{ M] H- V! v^ ]> z/ q( A) u/ F: z/ n( q( q( Z~ .[ A) .[ +[ @[ X~ #[ J^ .[ $[ x^ O! R{ O! T! G: %[ m' x_ P+ <@ x_ 5= O] y$ Z! H) &[ *[ =[ -[ I! V! I! u_ T{ v^ R{ M] h'  ] u) V: V: F( S: G_ r) B: `- A& J& q) B- ;[ v' T- T- ,= g' (= )* >[ {> S! 3= {; g= ~. f> d. 0$ ,[ '[ ;* )[ ![ ;% M( x@ ~[ >% T@ _. 4; R@ K@ 2% 4; '- #! k* Q= |* ~~ q% 6* s% b% q% ,! {[ 3* 9# 6* ][ t% q% U= Q= !< 3* 1# 1# 9# U= T= q% l% ^[ /[ ([ _[ :[ %_ <[ [[ }[ |[ 1[ 2[ 3[ 4[ 3[ 3[ 5[ 6[ 7[ 8[ 9[ g* l; 0[ Y= S, <! a[ b[ c[ d[ n; d~ e[ f[ f[ A@ g[ h[ i[ j[ j[ k[ l[ m[ n[ o[ p[ W_ 4: 4( l_ .= q[ 3: r[ s[ t[ u[ d: 8( v[ L< w[ x[ '& ;, y[ z[ A[ B[ C[ D[ U< E[ F[ G[ H[ I[ i_ J[ K[ L[ 7_ M[ 6: N[ O[ P[ Q[ R[ S[ T[ U[ V[ ",
"W[ X[ |= H$ o, d' S~ Y[ x) i' F: S~ `- G: S+ r_ !> A- :> 3, L/ G: ;[ G! m( D! M: h' m( H- S~ S~ Z[ Z~ R{ q( v/ v/ `[ u_  } .} +} +} @} #} $} %} &} =[ K] *} Y~ x^ q( =} s( Z~ -} ;} =} T] L! >} v( T] 1= ,} '} )} !} ~} {} x^ A) h' N: M: T! F!  ] m( ]} t& l> f, 1= ^} {} /} |, r_ q) C! v^ s^ s^ G$ A- K/ Y[ r_ r_ i( z- h, ;@ (} &; u' M( E= [% _} :} u> <} [} }} W^ >% $! o& q; Z@ _% Y@ M' L= '- +! |} ]% |* X. |* c# p% T= c# *- 6# &^ {[ B, 1} 9# ][ s% 3* )# S= 1# b# E, ^~ ~~ ~~ p% m% T= 2} 3} 4} 5} 6} 7} 7} 8} 9} 0} a} b} b} b} b} b} c} d} e} f} g} h} v% i} r% j} T, a~ a< k} l} m} n} o} p} q} r} v@ s} t} u} v} Y( w} x} v< v> y} z} x> k[ A} A< B} S[ C} p< D} E} F} G} H} H} I} J} K} L} M} N} O} P} Q} R} S} T} U} V} W} X} Y} Z} `} V_  | Q} .| +| @| R[ #| $| %| &| K} L[ ",
"*| j= I$ T- 6$ r_ `- (= S+ x) /, S~ l, k( 5, ^> +; O& =| L- i' r_ r_ /} z) t) M] E' h' ]> R{ S~ 7' u_ q( J: u/ r( *} -| ;| +} %} >| ,| >| '| )| !| =[ ~| E/ W~ Z~ !} {| Z~ ]| Z~ N: N: z) r^ w^ x_ x_ A) M/ #{  ] ^| I! Z~ p( R{ M] A) M: 7' E/ Y: 7' F( P! N^ )$ V- A) I! u^ m( K/ 7= r_ &> l( t) 4@ o$ Q- +; q) B- f= /| >{ u, V! (| H  _| :| <| [| }| || 1| 2| 3| S( J@ 4| `) Z@ K@ K@ (% 7% N= 9; /% ^~ 2* b# |* E, 6* 5| c# T= W' k} 9* T= t% `_ ][ 5| 3* ^~ |* 3* ^~ O' ^% 0% ][ p% p% 6| 5* 7| 8| 9| 0| a| 5} b| }] c| d| e| b} b} b} b} f| g| h| i| j| Y= k| 8# t% d# 0[ j} l| (: }! m| n| o| /( p| q| j* r| Q@ s| !~ t| u| v| Y@ w| x| Q( w% y| O@ z| A| &# B| C| B| D| E| F| G| H| I| J| K| L| M| N| I} O| P| Q| R| S| T| U| H} V| .| W| X| Y| Z| `|  1 K| .1 +1 @1 B< #1 $1 %1 &1 *1 ",
"%~ o$ j( 5$ F: s^ z] ,> B- I- q_ /, l, F: k( =1 Y- 0= l' -1 q) L/ p) I- &> >= l, `: T- C! v^ t/ I! Y~ J: J: q( ;1 >1 ,1 '1 )1 !1 ~1 {1 ]1 ^1 /1 (1 O{ _1 :1 <1 [1 }1 ,| &} |1 11 L: S{ u/ N] x^ 21 M: v/ 31 41 51 t) t) A) T! Z~ M: 61 L^ X: 71 81 M: F^ F^ Z~ #{ I& C) j' G: /, m, L/ /, /, y! 91 01 F& 9& %; n, <= 1. Z& ={ (= /} a1 b1 c1 d1 e1 f1 g1 h1 i1 j1 k1 N' %! l1 m1 4; X@ (% _* /% w> $! S= ^% 0% E, a# S= a# k} Z_ p% W' t% n% 6* 9# 9# 0% 0# ][ b# E, a# /% 2% n1 1# 0% 6* p% e% c; 3{ o1 p1 }] q1 r1 s1 t1 u1 v1 w1 b} b} b} b} 4[ x1 y1 z1 A1 B> B1 r% u% q% C1 D1 H> =- E1 F1 G1 Q= H1 I1 }! J1 K1 L1 M1 N1 n} |! 1! O1 i* m} m} P1 Q1 L( R1 S1 T1 U1 V1 W1 X1 Y1 Z1 `1  2 .2 +2  2 @2 #2 $2 %2 &2 *2 b] =2 -2 ;2 >2 ,2 f> '2 )2 !2 ~2 {2 ]2 ^2 /2 (2 _2 g, :2 $< <2 [2 }2 D@ ",
"d& S+ r_ /, |2 H- K_ 12 h' r_ 22 L] z/ 0= 7= q) C! s_ z/ (= @; J) J) (> L] F: v^ m( v/ R{ 32 R{ S~ v/ r( q( u_ *} 42 52 62 ,| 72 82 92 02 a2 b2 c2 d2 e2 f2 g2 h2 i2 j2 k2 I/ l2 K: .} u_ *} 11 F( K] %} L: K] E! K] !} W~ Y~ F( X~ m2 n2 o2 B_ !} M: Z! ^| p2 N! y_ :@ #; .; q2 /, *> Z< Z< r2 s2 t2 T: v^ s_ l' A- U- i> F& o, i( j( u2 B) v2 w2 x2 x2 y2 z2 A2 B2 ^% C2 D2 E2 =# :* F2 x| N' G2 (* 8% ^~ ^% 2* E, b# ]/ 0% 0% ~~ `_ n% 6# 5| {[ 6* 6* 6* 3* U= E, b# '< ># E, H2 ][ G> W' T= 9* I2 J2 K2 L2 M2 M2 N2 O2 P2 Q2 R2 b} S2 b} 2[ 3[ T2 U2 V2 W2 Y= 0[ X2 Y2 Z2 v% `2 -- b< ](  3  3 .3 {/ I1 +3 @3 #3 n| O1 $3 %3  3 _: &3 H1 +3 *3 =3 -3 ;3 >3 ,3 '3 )3 !3 T1 ~3 {3 ]3 ^3 /3 (3 _3 :3 <3 `1 `1 @2 [3 }3 |3 13 @2 23 [3 33 43 53 63 :2 73 83 63 93 03 @2 a3 b3 c3 d3 e3 >3 f3 v, ",
"g3 /, S~ Z[ H- H- K_ :, L_ Y[ T~ R{ R{ T! A) N{ x) k( G: t& 8= h3 F! F( F( u^ v/ s) i3 j3 k3 F! T~ F! u/ Y~ 7' l3 +} m3 i3 !1 ~1 n3 n3 o3 p3 q3 r3 m2 s3 t3 u3 v3 ~1 {1 .} w3 x3 I/ j2 +} s3 F_ *} X~ ,1 i3 #[ p2 y3 K: S{ t) 7' K] W~ L^ =[ +[ F^ z3 O! C_ A3 B3 C3 N: K- i= @; T! M] K_ Z< H! S: D3 i$ R{ S+ 1= h' E3 P- r& O/ v' V- C_ F3 G3 H3 I3 y2 J3 K3 f1 L3 a; M3 8; D2 L= Y@ '- N3 _* ^% '# E, ^% 9% 2* b# E, ({ ({ s% ~~ b# 9# c; B, O3 6* B, B, W' 9# 9# Z_ 0% 9% E, ># 0% P3 5| c# O3 -! Q3 R3 */ S3 ;: T3 U3 V3 W3 X3 S2 Y3 Z3 `3  4 .4 +4 @4 5# #4 X2 $4 Q, X2 =- ~/ b< %4 (: (: l} &4 *-  3 I1 *4 =4 *3 -4 +3 ;4 [! |^  3  3 _: *4 m} &3 >4 ,4 ;3 '4 @3 )4 !4 ~4 {4 ]4 ^4 /4 (4 _4 :4 V1 <4 [4 ~3 (3 }4 |4 14 <3 24 34 /3 V1 44 54 !4 _4 64 74 84 94 94 }4 74 ]3 04 a4 b4 p} c4 ",
"d4 L_ Y: Z< &> i' Z[ r_ H: e4 D- H- m( T~ Z[ /, L] F: t^ u) Z~ %{ X~ V~ %} +[ i3 f4 f4 K: k3 +} E/ B_ G_ F! q( l3 +[ i3 g4 k2 ^1 h4 >| i4 f4 j4 k4 l4 |1 m4 *} n4 j2 g2 }1 o4 p4 <1 q4 e2 m4 51 *[ 91 V~ k2 !1 i3 r4 &} S{ K] F( Y~ F( S{ 91 M: s4 t4 O! t2 #[ F_ !} M: G: l' e' .] v^ L_ S~ /, v/ 12 h' .; /> `: 5, }; F& &; u4 v4 w4 W! x4 y4 z4 A4 y2 z2 B4 z4 C4 *! b$ .% b$ D4 ;~ 5  8; S= ># |} '# ># a# 8% ]/ ({ R' a# 0% 1# %^ a# p% c; q% E4 ~] ._ R, 7# T= ][ 1# 9% 2* ^% E, E4 T= ~# !<  : F4 G4 H4 I4 J4 H4 K4 L4 M4 N4 O4 P4 3[ 3[ 3[ Q4 R4 S4 T4 U4 j| V4 8* &- d[ l; =- d[ (: m; m; |^ W4 d[ X4 =- [! |! H1 i{ E1 -- W4 D1 ]( Y4 l} Z4 +3 >4 `4  5 .5 +5 @5 #5 $5 {4 74 <4 %5 &5 *5 =5 -5 83 ;5 ;5 b3 <: >5 *5 _4 (4 ,5 M1 )3 '5 )5 !5 ~5 $3 {5 ~5 ]5 ^5 /5 _4 (5 ~5 _5 :5 <5 <2 ",
"[5 Y[ Z< T~ ,> 1, }5 |5 v/ L_ _= M- *> 22 H- /, F: d' v^ z) t) I! %} k3 s) g4 s2 15 B3 25 35 ~| ^} 45 55 g4 Y~ @[ 65 r4 75 75 85 }1 #} 95 #} +} m4 05 n4 11 l4 a5 }1 b5 c5 }1 d5 '1 e5 a5 05 f5 11 11 E! %} g5 I/ %} ~| +[ W~ 7' F! Y~ u^ F( u^ h5 i5 j5 k5 l5 =[ E_ m5 %{ R{ t^ 9& Y[ s^ Y[ 12 S~ a1 S+ @; {> o' 1= n5 o5 p5 F) q5 4= A^ r5 s5 t5 u5 v5 J3 J3 w5 x5 !< $# $% v@ %! y5 z5 (% a# 2* b$ q; S= A5 !~ b# b# 1# E, ][ s% n1 E, !< 0% 1# 1# 2# 3* T= W= c# 0% ~~ ^~ )# b% E, e# T= i% i% B5 C5 D5 E5 E5 F5 E5 E5 G5 H5 I5 3[ O4 2[ 4[ S2 J5 K5 L5 8[ X. M5 0< n% N5 r% r% h* W4 O5 P5 n; (: l} d< W4 ~/ W4 [! }! Y4 [! m; E1  3 Q5 l} Z4 +5 i{  3 R5 I> |! S5 *4 T5 U5 V5 ,5 W5 _4 X5 ~4 Y5 <3 93 Z5 `5 ,5  6 93 .6 !3 +6 _4 @6 #6 /5 $6 %6 &6 *6 ,5 =6 e3 -6 ;6 >6 >3 ,6 K1 '6 )6 !6 ",
"9' H- <, j3 12 I- 5$ }, v/ z] N- E{ l( T~ s^ S~ S~ M] U~ 7' G_ ~6 Y: {} X~ ,1 {6 ]6 ^6 /6 (6 s2 k3 _6 :6 ,1 #[ <6 n3 [6 }6 |6 16 26 e5 u3 K: @} @} +} <6 '| m4 e5 36 &} 46 c5 c5 '| @} @} l3 v_ L: L: %} 56 k2 k2 .} S{ K] J: s) F! 7' F! 66 G_ -[ -[ X: o2 E! D( y( E_ ^} u/ t^ e' h' ;[ r_ F! Z<  [ L_ D! M] N) k, I- Q: .{ 76 86 96 06 a6 b6 c6 d6 e6 f6 g6 h6 i6 ~# 2% .% 0; ^% 2% $# K@ ({ $! K@ O@ 7% j6 !~ a# ][ k6 E, 8% [* ]% 1# 0% ~~ 0% %^ $^ 0% d% ~~ U= E, 0% ^~ ^% )# M3 3# c# d% d%  : l6 m6 E5 E5 E5 E5 E5 E5 n6 o6 p6 S2 O4 q6  4 r6 s6 t6 B> u6 d# d[ Z( v6 w6 x6 P5 ;- -- I> ;- m; m; `_ [! ~/ y6 (: =- (: E1 m; z6  3 (: A6 S5 B6 C6 B6 _: E1 E1 C6 D6 E6 F6 %5 !4 G6 U5 F6 H6 I6 @2 J6 M_ `1 K6 L6 M6 N6 O6 {3 P6 &5 '5 ]4 ;6 V1 ^4 )3 74 74 64 K1 V1 74 Q6 c4 )6 f[ ^5 R6 ",
"S6 j3 s) Z< I- &> K_ T6 12 ;[ B-  [ ,= &> F: v/ y3 s) g4 U6 V6 W6 _6 f4 i3 #[ {6 X6 [6 Y6 (6 H/ s2 B3 Z6 `6 `6  7 p4 Y6 .7 +7 @7 )| f2 #7 c5 $7 26 %7 ~| ~| '| !1 &7 }1 *7 ,| ~| ~| ~| X~ *} =7 -7 :1 ;7 >| c2 >7 -7 .} E! -[ 7' I! s) I! X~ K: s2 ,7 '7 )7 {} ^} Y! B_ !7 U~ z) z^ x) s^ /, S~ `6 ]} T~ A) E/ I! V- ~7 {7 ]7 ^7 /7 (7 _7 :7 <7 [7 }7 |7 17 27 37 47 i% )# 57 _* s% O' f$ K@ b# d~ ]/ O' v@ 67 77 1} `_ 2* '# ]% 1* d% !< 0% 3* U=  _ e# 87 97 {[ $^ S= d% 8% ^% E, 07 f* o% $^ 1# a7 b7 c7 E5 E5 E5 E5 E5 E5 d7 e7 p6 f7 g7 h7 i7 j7 k7 l7 g} V= m7 d# -# n7 o7 p7 q7 R5 h* s% r7 |^ `_ -- E1 D1 s7 t7 D1 y6 Q5 W4 Y4 u7 C6 Y4  5 S5 Y4 B6 v7 {/ E1 w7 x7 y7 X5 z7 $5 A7 A7 !4 M1 B7 C7 93 W5 D7 84 <4 ~3 E7 &5 *6 F7 74 #5 G7 ,5 _4 #5 '5 V1 H7 I7 G6 J7 a3 K7 c4 L7 !4 K1 M7 ",
"N7 O7 j3 P7 r_ h' m( Q7 y! H! I- ,> l( ,> T6 >> R7 S7 T7 U7 V7 W7 X7 g5 52 52 [6 Y7 Z6 Z7 `7 ]6 (6  8 .8 +8 d5 52 @8 #8 $8 %8 &8 *8 =8 &7 -8 ;8 >8 92 ,8 )| j2 '8 )8 ,8 !8 >8 %7 v3 @}  } ~8 {8 l4 ]8 ^8 /1 ;7 l5 -7 K: L: 91 v/ 7' G_ p2 K: 56 X7 /8 (8 _8 O7 :8 *[ <8 $8 [8 W6 v^ t) I! t) t) Y: 66 7' s/ K: C3 `{ Y[ O! }8 H3 x2 |8 18 z2 28 38 48 58 68 68 78 88 *! )# 0; -# S= /% ]% _* '# a# a# /% 98 08 a8 9# 0% E, ^~ Y/ t} Y( g% H2 b8 W= T= c; 1# g% c8 0% H2 X^ 8% 3% ># {~ d8 6| 2# c; e8 f8 g8 E5 h8 E5 E5 E5 i8 j8 k8 l8 m8 68 n8 o8 p8 q8 r8 N, t% r% 9# 5; K> v| s8 t8 u8 O5 *- m; m; m; W4 W4 X4 [! W4 Q5 (: &4 [! [! y6 [! (: v8 S5 Y4 C6 B6 E1 A6 w8 B6 &3 >3 x8 L7 U5 y8 ,6 z8 >5 A8 4  &5 B8 -5 C8 54 74 M1 G7 $5 74 D8 E8 ~3 $6 #6 X5 84 F8 ;5 63 <3 G8 D8 !4 ]4 <5 H8 I8 ",
"J8 K8 T7 L8 H! Z< 12 y! M8 V6 H! N8 R7 O8 N8 P8 Q8 R8 R8 U6 W7 S8 T8 X6 `7 U8 Z6 `7 V8 W8 X8 Y8 Z7 Z8 `8  9 .9 .9 @7 +9 @9 #9 $9 %9 &9 *9 `8 $8 =9 -9 ;9 +9 >9 ,9 -9 '9 )9 '9 >8 )8 !9 b5 {1 e5 ~9 {9 ]9 e2 ^9 /9 e2 I/ .} 95 s2 g4 V~ ,1 x3 (9 _9 :9 <9 H/ s2 [9 p3 ,| }9 %9 |9 Y~ y3 F_ H/ g4 `6 X~ t) y3 B3 19 T~ v^ F^ 29 39 49 59 69 79 89 99 S2 3[ 4[ 3[ 09 a9 b9 /% c9 d9 ^% S= e9 O' R@ 2* 9% >~ 3; ]/ n1 ^% 2* ^% !# f9 8% 3* g9 h9 i9 j9 k9 l9 m9 n9 o9 p9 {~ d9 d9 b$ .% d% 6* 2# *! d% e8 q9 r9 E5 h8 E5 E5 E5 s9 t9 u9 g7 09 p6 v9 w9 x9 y9 7< 0[ q% z9 Z( P( v6 P( A9 B9 C9 P( R( ;-  3 C1 ~/ %4 D9 {/ d< d< d< *4 n; [! D1 |^ [! .3 v8 v7 C6 E9 D1 y6 (: E1 ;4 F9 G9 84 H9 I9 84 93 J9 K9 .6 <3 L9 K9  6 %5 M9 N9 F6 (4 /5 )4 (4 U1 F6 _4 /5 O9 H9 P9 W5 Q9 N6 R9 V1 P6 e3 f3 S9 ",
"T9 r2 <, e4 y! e4 P7 H! `6 g4 r2 y! U9 V9 W9 X9 Y9 Y9 Z9 `9  0 `7 .0 .0 +0 @0 #0 $0 X8 %0 &0 Y8 *0 *9 =0 -0 ;0 +9 Z8 =0 >0 =0 ,0 '0 )0 ,0 !0 ~0 Z8 {0 ]0 ^0 /0 ,9 /0 (0 _0 :0 =9 '9 ]0 ;9 <0 |1 ~9 [0 }0 |0 10 20 >7 '1 '| %} 95 l2 <1 [9 -0 +0 30 40 50 60 25 :6 {6 70 H/ +8 :6 v/ 12 F( X~ 80 90 X6 00 66 a0 b0 c0 u^ .[ d0 e0 59 18 f0 g0 h0 i0 3[ S2 3[ p6 l8 j0 k0 d% !# l0 m0 E, b% /% c$ 98 _* M3 a# '# ># H2 E, E, 0% )# '# ~~ n0 o0 p0 q0 r0 s0 @( t0 u0 v0 X^ b$ w0 x0 s} d9 !< 3% ^% %^ i% y0 z0 E5 E5 E5 E5 h8 A0 B0 C0 O4 D0 E0 g7 p6 F0 G0 H0 8# p% ]/ I0 J0 K0 L0 I0 w| M0 d~ R5 ;- [! -- E1 D9 W4 [! E1 -- m; }! l} ]_ }! n; *4 N0 >4 *4 (: [!  3 d[ [! }! I1 ,4 g< 73 93 O0 P0 =5 93 <3 (3 Q0 b3 94 R0 S0 T0 U0 F6 (4 I7 L1 P6 &5 '5 R9 (3 V0 W0 !3 X0 Q0 z7 Y0 Z0 {3 P6 `0  a ",
"F- r2 8' .a +a +a m( U~ r2 r2 @a j3 #a R8 $a R8 %a &a *a =a -a X9 ;a >a ,a 'a )a !a ~a {a ]a ^a '0 /a (a %9 _a *9 :a <a [a }a |a 1a 2a 3a (a 4a 5a (a (a 6a 7a 8a 9a 0a aa ba '9 `8 ca da )8 h2 ea fa ga ha ia ja '9 02 )| l2 !1 56 !1 ka la .0 Z7 :9 ma W6 W6 #[ W7 56 H^ S{ A) R{ K_ 12 s) :6 W7 30 na oa $0 pa qa Y: t2 ra sa ta |8 ua va wa xa O4 p6 4[ O4 E0 ya za Aa %! Ba Ca E, ^% '# Ba Da X@ ^{ S= Ea S= '# ^~ S= ># S= E, 0% Fa Ga Ha Ia Ja :[ r0 Ha Ka La ^{ 98 0; ]% -# 3% 1# b$ '- b$ i% Ma Na E5 E5 E5 Oa i8 Pa Qa Ra 58 Sa Ta g7 58 Ua Va Wa 4* 6# Xa Ya Za `a z6  b .b +b 0] 0] @b ]( X4 &4 9] W4 [! m; l} }! m;  3 d< -) |! n} G1 0]  3 d< l} l} `_ #b *4 t| ;3 P0 $b |4 %b U5 H7 L9 K9 94 &b *b L9 =b -b ;b >b G8 ,b 'b )b !b @6 S0 .6 ~b {b O9 ;b ]b ^b /b (b _b :b )4 <b [b ",
"}b 8' r) k, |b L_ `: Y[ K_ u^ ]} 1b M8 2b 3b 4b =a 5b 5b 6b 7b 8b ;a la 9b W8 ]a 0b ]a ab bb cb db eb '0 fb gb hb ib jb kb lb mb nb ob pb qb 6a kb rb sb tb ub vb wb xb 7a yb zb Ab Bb =9 ]0 -9 Cb 82 =8 &9 &7 -8 -8 Db x3 ,8 Eb ia I/ Fb la )a Gb Hb 35 [9 [9 W6 X7 f4 ,1 +} K: u^ s) G_ F! p2 O7 U8 H! 19 `7 19 Ib p2 Jb Kb Lb f0 Mb Nb Ob Pb Qb 58 O4 g7 68 58 Rb D, ]] E, g% ^~ 1# ># ># Sb Tb Ub R@ _* J' /% O' ^~ Vb Wb %! Xb 07 Yb Zb `b  c .c +c +c `b @c #c 07 ># ^{ ]% S= ^~ |* $c Ca L> i% %c &c E5 h8 i8 s9 *c =c -c ;c 68 99 O4 68 g7 >c ,c 'c x6 r% L0 )c !c ~c |} {c ]c #b |! ^c z6 D9 s7 W4 b< D9 /c C6 [! [! |^ =- .3  3 Z4 _: +3 S5 .3 (c _: .3 [! _c *3 ]c :c <c [c }c R9 c4 |c R6 S0  6 94 1c 94 2c )b 3c S0 ;b 1c 4c 5c 6c G8 *b 7c 8c ^b 9c ]b ^b 0c ac bc cc G9 dc R6 ec ",
"fc L_ z] D- gc I- 1= Y[ F! v/ K_ hc K8 `7 S8 =a ic jc kc lc mc 6b nc ,a oc pc nc qc rc qc sc tc uc vc wc eb :a xc xc |a 6a lb yc zc Ac Bc Cc pb pb Dc Ec Fc Gc Hc Ic Jc yc Kc Lc Mc Nc Oc Pc /0 Qc ,9 &9 ba @8 -9 Qc da Z8 Hb ka ka ,8 Rc Sc Tc Uc X8 ]6 Vc W7 :6 :6 [9 #[ !1 Wc i3 {} +[ s) 7' 7' 66 66 s) U6 s2 '1 '1 Xc Yc Zc `c  d .d +d @d #d $d 58 58 68 58 %d &d A> 57 1# c% ^% ^~ )# S= O' *d E, 9% =d }* 2% ># -d L@ %! a; b8 ;d >d `b ,d 'd :[ +c q0 )d !d i% 1# {~ ~d *d 1# b# Y/ f$ c9 X^ {d ]d h8 A0 s9 =c A0 ^d /d (d 68 S2 68 _d :d <d [d x> }d Z( Ya |d 1d 2d 3d M0 4d #b -)  3 m; s7 s7 |^ D1 W4 5d .3  3 [! C6 [! .3 #b +5  3 #b 6d &3 +3 P1 0] V, `4 7d >4 n; %3 +3 @5 F7 '5 ;6 ^4 K6 [4 W5 f< F6 d3 %5 !3 1c 8d 9d 0d Y0 ad Y0 (b 9c bd ^b 0d bd cd dd ed %2 fd gd hd id jd ",
"kd &> ld 4$ 4$ l, md e4 y! 8' H! nd od `7 #8 pd =a qd ~a rd 9b Tc Tc oc %0 sd td ud sc eb vd Ic wd eb xd cb rc [a Kc Kc yd zd Ad Bd (a Cd Dd Ed Fd Gd Hd Id Gd Jd Kd Ld Ld Dc wb >0 Mc aa Md Md ba }9 `8 {a Uc Nd Od Nd Pd @8 Qd Rd Sd Td Ud Vd Wd 5b Xd W8 Yd p3 {6 p3 .0 =a 15 k2 95 11 S{ G! s) i3 k3 X~ U6 i3 B3 s2 Zd `d  e .e .e .e .e +e @e #e $d 48 58 $d $e %e i% &e i% '< a; [* !# E, 2* ({ '# 2* b# K@ %! ># 07 *e ># )# )# =e -e r0 ;e Ha >e Ia _[ ,e 'e d% 0% 8% {~ /% E, ~# ]] Xb ^~ 3% )e !e i8 *c s9 ~e =c {e ]e ^e 3[ p6 /e (e _e :e <e [e 6% }e w6 Q( <* |e #b !~ ;) D4 n; -) m; s7 X4 [! |^ Q5 m; I1 }! m; S5 .3 |e ;- d~ }! *4 1e 2e 3e 4e 5e 2e 6e ;4 7e  5 8e 9e 7e 0e ae )5 %5 54 +6 64 )4 V5 M9 @6  6 be ce ce de ee fe ge he 9d x8 ie ^b 0d je ke le be me bd ne oe pe ",
"qe +a z' ,= P7 12 re J8 se V7 te :9 ue :9 %0 $0 ve rd we xe !a ye ze Ae Be Ce sc td De Ee Fe Ge Be 0b He sc @7 wc Ie yd Je Ke Bd Le Bd Me pb Ed Ad Dc Id Id Kd Ne Oe Pe Qe Id Re Se Te Ue Ve (a *9 We Xe 0b ]a %0 (0 Qd Ye ba qa *0 qa .8 Ze Uc Y8 Gb mc 5b Z7 `7 V8 Z6 `e 5b `e  f .f <6 k3 k3 k3 {} j3 g4 W7 +f @f A3 N! #f $f .e .e .e .e %f &f *f *f 48 $d =f -f b9 07 %! [* D, X^ /% ^{ 9% )# a# ][ 3* 3* O' /% 1# %^ &! 1# |# ;f >f ,f `b s0 `b `b _[ :[ w5 'f ~~ *! 1# )f 3% !# !f ~f 07 [* &! {f ]f i8 ^f *c *c {e {e /f (f 2[ O4 _f :f <f [f }f L[ |f 1f 2f `a 3f -) ^c 0] 4f _* ;) 5f u8 k| d[ m; h* -) ;- I> i{ r7 [! d~ O5 >4 >4 *3 :: 6f #6 7f 8f 9f 0f af bf S5 ;4 &3 cf 7e df F6 )5 F6 O9 8c ef 3c ff A7 G6 V5 G8 x8 bd gf _b hf 0d if ce jf kf lf bc de mf nf of pf qf _3 rf sf ",
"tf z' P- i> &> uf vf wf xf jc $a yf zf +0 )a $0 Af ye Bf Vd Tc pc %0 qc Tc )a Ce td Cf Df Ef Ff Gf eb xd Hf Kc If kb [a Jf Ad Kf Kf Lf Bc Mf Ad Jf Nf wb ub Of Jc Pf Kd Qf Hc Hd Rf 4a |a (a Sf fb rc Tf ud Uf ]a {a *0 Vf Z8 Z8 gb .9 Rd Gb ;a Uc Y6 Wf Xd Wf Vc la `e Xf `e =a Yf W7 Zf `6 i3 66 i3 66 r2 :6 O7 r4 B_ d, `f  g .e .e .e .e .g +g $d $d *f 48 @g #g $g +/ %g &g *g X^ S= ^% E, b# b# 1# a# ][ =g {[ -g ;g c; a; >g ,g 'g )g `b s0 s0 q0 s0 `b !g ~g !< ~f .: {g Y( !# |# Aa 57 a; .: ]g ^g s9 Pa Pa =c {e /g (g _g S2 :g <g [g }g |g 1g 2g 3g 4g 5g 6g u| *- ^c 7g w@ y| C9 y| 8g h* b< [! k| =- ]/ P5 r% [! }! *- d~ m} F1 9g G7 0g $b ag bg cg R1 1e dg ;4 8e *3 eg fg gg /4 F7 >6 43 hg ig S0 jg  6 kg U1 lg mg ng og pg qg rg sg tg %2 ug vg wg xg fd yg zg Ag Bg 73 Cg Dg ",
"Eg a1 W- +; ;[ V6 Fg Gg Hg Ig Jg 'a xe Y8 *0 #0 Tc Kg Lg Mg sd pc Ce Ng Ce Ce Mg Fe Ge Og Pg Ef Qg xd wb Hd Hf hb ib kb Jf Gd Pe Ld vb Dc Nf wb Nf Dc Hd Rg Of Jc Sg Tg Ug Ug Vg Rg Rf Ad Kf Kc wc 9a Wg Ie If eb !0 Uf rc Sc {a X8 X8 Rd ve ]a {a Wd Gb Xg W8 8b 7b la Xd .0 `e Yg `e V8 U6 g4 Zg H! 00 r2 ~6 @a p2 `g L!  h .h .e .h .e .e +h @h *f *f *f #e #h $h %h X^ c% d% |* R' S= 0% *! d% ][ b# ^~ &h *h =h -h ;h >h ,h 'h )h !h ~h {h ]h ^h /h (h _h :h <h [h .: {g k0 N' A> i% %^ c% !# !f }h |h =c 1h *c {e 2h 2h 3h 4h 5h 6h 7h 8h 9h 0h ah bh ch W^ '~ b; dh }* -) o| eh E} Q@ w| fh u% R, -- k| W4 *- ;- *- *- [! m;  3 I> `4 gh hh ih E7 #6 jh kh [c M9 lh mh nh oh 7e ph _5 Q0 qh H7 (b hd x8 *b rh _b ]b fe ig b3 sh th uh vh wh xh yh zh Ah Bh Ch zg rf &2 of yg Dh `5 Z5 Eh ",
"Fh Gh a> 8$ _= e4 Hh Ih Jh Kh Lh Y9 Mh Nh Af ye Oh Mg Ph Bf nc 0b we cb sc Ce Qh Rh Sh Th Uh Qg Vh Ng Gf Wh 9a kb 9a Dc Kf Qg Rg Xh Yh Ld vb Gd Zh Gd Ne Qe Kd Kd `h  i .i +i +i @i Vh #i $i Kf Se Lf Ie Le Wh Gf If Uf If Uf %i &i *i *0 ]6 Ze ]a =i =i @0 -i pd ;i xe mc Gb +8 >i Zf .0 U6 19 Gg Zg 66 @a k3 F(  ] M^ ,i 'i )i .e !i !i .e ~i =f *f *f *f $d {i ]i ^i !# S' d% b# e9 %^ E, 1# 0% ^~ 2% /i (i _i x2 A2 :i <i [i }i z2 |i 1i 2i 3i 4i 5i 6i 7i 8i 9i |{ |{ [h D, 0i d% ># b# E, Y( p[ ai bi ci di ei fi gi hi ii ji ki li mi ni oi pi qi ri si ti ui vi wi xi +-  ! yi zi Ai Bi yi Ci Di |* o% m% 7# u% G, 9# [! -) V, >4 Ei ,3 Fi Gi Gi Hi Ii Ji Ki =5 Li 54 A7 Mi '4 -3 ]5 (3 ad X0 Ni Oi Pi 0d Qi Ri Si Ti ce hf Ui Vi Wi Xi Yi Zi `i fd  j .j +j Ch +2 @j #j #j $j b3 _3 %j ",
"Jg &j O- z' g' 8' *j $a =j -j ;j >j Mh ,j Vd Mg Mg 'j td )j Tc Tc )a Ge Fe )j !j Pg De Ce ~j {j cb ]j If ab Kc Le Dc ^j Jc Vg Ne Id Yh Ld Jc Yh Yh Hc Ne Yh Qe Ne /j /j (j _j :j <j Qe wb Jc Qe Jc Vg Re Le Hd Qg [j xd Hf td qc }j ]a nc ]a ;a nc ]a Tc Tc Tc W8 Xf *0 |j ve 4b f4 i3 +8 [9 s2 1j U8 r) H! 66 k3 I! 2j 3j 4j )i .e .e .e .e 5j 6j *f *f P4 7j 8j 9j 0j ]~ 1# ~# 1# H2 8% .: g% i% H2 Sb Tb aj bj B4 J3 y2 y2 y2 z2 J3 cj dj ej 58 =f *f 68 p6 fj gj |# |{ S' y> hj 0% b# %^ ({ ^% A, ij jj kj lj mj nj oj 2[ pj qj rj sj tj uj vj wj xj yj zj =c Aj Bj Cj Dj '# Ej Fj Gj Hj Ij Jj Kj Lj Mj Nj Oj Pj Qj Rj Sj Tj Uj Vj Wj .3 i* 1^ Xj Yj Zj `j  k 43 F8 O6 .k A7 )3 !4 [c }c 94 3c +k 8d ce hf @k Ni tg #k Ch $k %k &k *k vh =k qf be -k xh ;k >k cc ,k 'k c3 ac )k fd 24 !k ~k ",
"{k ]k 4$ (= K_ ^k /k (k _k :k -j <k [k ,j }k |k Kg 'j 1k Bf Be td 2k Pg 3k 3k 4k 5k 6k 1k Ng He 7k Wg rc Ng kb Kf Dc ub ub 8k Ec Fc Jc rb Yh rb ub Ec Ec Hc 9k Yh Tg 0k ak /j Ug Qe Yh Fc Of ub Dc Kf wb Ne Gd bk Rg [j Hd Ng ck 2k Ce Be dk 0b Be nc ek ye =i Gb 5b 5b pd pc 'a .0 o3 Z6 Zg Fg Zg fk M8 r2 g4 W6 !} gk hk ik jk .e .e .e .e kk R2 *f *f *f lk mk nk D, d9 ok d% !< |* c% X^ 2# ^~ )# Sb pk qk rk J3 y2 x2 I3 z2 A4 q0 sk /e =f =f *f *f 68 P4 tk uk vk i% |{ Z/ 57 a; ^% 2* S= -# 0% wk xk b} 4[ 4[ 2[ 3[ b} yk zk vj Ak Bk Ck Dk Ek Fk *c Pa A0 s9 s9 Gk Hk Ik Ej `  Jk Kk Lk a. Mk Nk Ok Pk Qk Rk Sk Tk Uk Ok Qk Vk Wk Q5 3d Xk Yk Zk K6 -5 `k  l  2 hh .l W1 U1 U1 }c O6 44 ]5 ^4 +l @l lf Ni #l $l %l &l *l =l -l $l ;l >l ,l xh 'l )l hg 33 0d !l Ch /b x8 if ~l {l *| p, ",
"]l Y[ (= s^ Z< Q8 /k >j ^l /l (l _l :l <l [l }l |l 1l ~j td Mg 2l Bf 3l Lg Qh 4l 5k Og ck td 5l Be Uf ud Ge xd Jc Yh Ld Ld Zh Fc 6l Yh 7l ub Hc ub rb rb 8l 9l 9k 0l (j al (j Kd Jc Ne Gd Ug bl @i Qe Kf Ne Ne Gd Df cl dl 6k el Cf 4k Ce 7k sc Ce Be sd Oh Ph 0b kc ve mc ve +0 Y8 Rd .0 Y7 %a :9 qa 25 66 fl {6 V~ F! ]9 gl hl il .h .e .e jl kl *f =f =f ll ml nl ol pl &g a; 1# c% 0% ~# 2# )# b# }* 0; Ma ql z2 rl J3 z2 I3 y2 I3 sl lk tl *f =f 48 48 $d ul vl  ( *! %^ c% b% ~# )# !# N' Aa ^~ wl xl yl b} 4[ 3[ 4[ zl Al Bl vj Cl Dl Dl El Fl Fk Pa ^d *c A0 A0 ^d Gl 8% Hl ,) T/ Il B| Jl Kl Ll Ml Nl Ol Tk Pl Ql Ml Rk Ol M2 Rl {/ Sl Tl Ul  k U5 -5 Li Vl cc Wl Xl ^3  6 W5 Yl Zl J9 `l >b Pi rh  m .m Qi bc qg +m Ah @m #m $m %m &m 0d 'l _b *m =m -m /b ke ;m Oi >m ,m ge 'm )m C  ",
"!m L8 K_ 8' 8' wf Hg %a ~m :l {m {m }k ek ]m ^m /m Ge {j De (m _m 3l :m <m [m }m |m _m 1m Qh 2m Bf Ph td cb Le Qe 3k Vh Jc Gd 3m Kd 4m Jc Re wb rb rb rb ak 5m ak :j 6m 5m 0l /j Of 9k 7m 8m 9m /j 0m Kd 9k ak wb bl Jd cl .i am Uh bm Sh Mg Ce cm Be Be Ph |k ye we }j dm mc 5b Yd _8 ]6 Xf 5b em Z7 fk +f fm <9 :8 !} gm hm il im im .h .e jm km *f =f tl lm tl mm 0j %e .: ~# ~# 2# $^ d% S= [* |* ^{ f$ nm om pm >d A4 qm Zb I3 J3 rm sm tm um =f P4 48 $d vm wm xm i% *! E, d% d% |* !# 1* ,< 1* ym zm Am 4[ 4[ b} S2 Bm Cm Dm Em Fm Dl Gm Hm Im Jm Pa Km *c Lm Oa *c Mm 77 H6 Nm Xk `  Om Pm Qm ,: Ol Nl Ol Nl Ml Tk Ml Ml Ol &_ Rm =) V, Sm Tm R1 Um 54 =5 :3 Vm &2 hg 94 d3 `i *m Wm Xm 0d Ni Zi z7 Ym ^b 4c hd  j ;l Zm `m  n .n Ni _b Pi +n _b @n #n $n %n tg &n Xm Pi _b *n 'b =n -n ",
";n V6 :, se V7 >n ,n 'n )n [l !n }k sd }l ~n [l {n ]n Rh ^n /n (n _n :n <n [n |m }n |n 1n 2n !j Ef 1k 3n Ad Hd #i Ad Le Hd Rg Pf bl Yh Hc Ec :j Of Yh Hc Fc 5m 4n 5n (j ak 5n 6n 7n Tg 8m 8n 9n 8n 8m 8m 4n _j _j 0n an bn cn dn en Df fn gn Ef td we ye ye sd ye Tc Tc {a Gb +0 Y7 U7 :6 25 1j se ]6 Zg W: 1j hn ia in Q] jn .e im im .e .h kn ln =f mn =f nn on pn qn b9 rn sn a; p% $^ 8% ./ 1* '# R@ Ba tn un vn wn A4 x2 Zb J3 y2 xn tl yn zn An tl =f 48 Bn Cn  ( =! d% ^% 0% z> d% 8% M' 8% D, Dn En Fn b} b} 4[ Gn Hn In Jn Kn Ln Mn Nn Bk On Pn *c {e A0 s9 s9 Pa Qn {[ O1 Rn ## Sn F} Tn Un Vn Ol Ol Ml Ol Wn Nl Ol Pk Xn Yn Zn ^c #b `n  o .o +o @o #o %k $o 'l rh 9c 34 ng %o %o ^b &o Pi *o 'l Z0 =o -o ;o kf >o ,o !l bc be bd tg 'o ^b ^b )o ne $k !o {b _b x8 ie Z0 ~o )o F' {o ",
"]o $} @a `6 Fg /8 ^o jc (l ^m /o Vd (o }l _o :l :o Ph De <o [o }m }o |o en 1o 2o 3o 4o 5o 6o 7o 8o Qg Hd Ge Ng [j td 9o 0o Re Re 3m Fc :j ao Qf Tg bo 8k 6l Ug +i Tg co co 0l do eo fo Tg go ho bn io jo ko lo `h lo bn ho 0n mo no oo Og Sh po De Tc ye Vd Vd ye nc 0b {a Uc +0 `7 Zg Zg 66 y3 j3 00 S~ O! qo ro ^} so to uo jk .h .h .e vo wo xo =f um $d tm yo zo Ao Bo Co Do Eo 1{ *! )# ~f [* F2 f$ c$ Fo Go Ho y2 y2 y2 Io y2 J3 Jo =f zn Ko um =f 48 58 Lo Mo No ~# c% E, d% ~f T= S' g% S' Oo n! Po Qo b} b} b} f| Ro So Jn To Nn Uo Vo Wo Xo Yo A0 *c A0 ~e Lm Zo `o 6| R=  p W/ E} .p x} +p @p Nl #p Ol Ol Qk Ol Ol $p Uk %p &p s% ;- *p =p  k _4 >6 {3 G9 xh -p _b 9c -b -b 9c Pi -b 2c ;p bc >p ]b 5c ,p hd 'p )p !p Oi ~p ;k `i !l {p _b ge +n ie ]p ^b 9c ge 'm x8 (3 ^p /p C  (p ",
"_p $} r) 1j :p <p ve <p kc }k <p Vd [p }p |p 1p /m 2p 3p /n 4p 5p 6p 7p 8p 9p 0p ap bp cp dp ep fp 1m Qg Rg Gf gp Qg 9o ck ck Gd Of 7n hp Kd 0m 5m ip 8k 6m 5m 0l 9l `h 8m jp kp lp mp np 9m op pp 8m an 3o ko qp rp `h 8n sp tp up vp en 1m 4k Rh 2k }j Tc Vd ze Tc )a dm X8 wp #8 W6 ~6 V6 H! K_ G! G! )} xp yp i$ xp zp Ap Bp Cp Dp Ep Fp Gp Hp Ip Jp Kp Lp Mp Np Op Pp Qp Rp Sp Tp 5* [* A> f9 Up Xb hj Vp Wp Xp Yp Zp `p  q .q +q @q #q $q um um =f P4 $d %q &q *q =q -q ;q 8% >q ,q 'q )q !q ~q {q ]q ^q Gn b} b} zl /q (q _q :q <q [q }q |q 1q 2q 3q 4q 5q 6q 7q 8q 9q 5* m0 0q Q( aq W^ O= bq Tk Ml Ol Pk Ol Ol Ml cq cq Uk dq eq R= fq gq  o  k Fi 74 ]3 (b hq 63 ^b lg 44 &b de fd rh Qi 0d iq ;k jq ^b kq lq mq nq oq pq hd be qq 'o rq c3 Q0 43 &m sq Ni jq gd 'l cc @j tq uq (} s' ",
"vq H! *j Y9 Lh [k wq W8 ek xq yq |k [p 1p zq 3p Aq Bq Cq Dq Dq Eq Fq Gq Hq Iq Jq Hq Kq cp Lq Mq Nq dl @i Vg Re 4k Df Oq _m bm 0m 6l eo `h 5n Pq 9l Qq 7m Rq Sq 5m Tq Pq Uq Vq Wq Xq Yq Zq kp `q  r .r +r @r 5o bn jo vp #r 8n np cp 1o $r el {j Th Mg Tc Tc Vd Vd nc we sc Wd ,a -i Gg U6 1j %r s^ I- r_ 1= 61 61 (1 &r *r =r -r $d *f $d $d ;r >r ,r 'r )r !r )r ~r .e .e .h .e {r ]r f% j[ +/ &e M' M3 ^{ |{ ^r /r im )i .h .h .h (r _r zn =f :r tm tl $d 48 <r [r }r |r v~ 1r 2r 3r 4r 5r 6r 7r 8r 9r 0r ar 4[ b} b} b} b} br _q Hm |q cr [q dr Hm er b} b} 4[ 4[ S2 2[ fr !# u@  | }* %! #! ^% gr Ol Ol Ol Ol Ol Ol Ol Nl Ml Uk hr ir 9% jr kr *p *p lr *5 93 ke 33 mr rq lg @l nf Zl nr cd or @l ^b pr rg qr rr sr tr ur vr wr xr yr @n /3 #o 34 bd 43 zr ;k sq ;m Ar $n Br =l Cr {o Dr Er ",
"Fr 66 ^o >j =j qd Mh Gr |k Hr ^m Ir Jr 1l Kr Lr Mr Nr Or Pr Qr Qr Dq Jq Rr Sr Hq Iq mo Kq np Tr |o hp hp Ur dl Ne Vr Wr Sg 0k 0n `h fo Xr 5n Pq 5m Yr Zr `r Pq  s .s +s @s Vq #s $s %s &s Yq *s =s -s ;s >s ,s _j 's bn 8n Nq bp )s np no Uh {j Qg gp Bf Ph Tc Vd td gp td ]a Bf Wd X8 X7 r2 K_ !s K_ l, h3 W~ T! ~s {s ]s ^s /s (s *f 58 58 _s :s <s [s }s |s 1s 2s .e .e .e .e 3s 4s  : 5s za f9 d9 f9 Xb ]~ 6s 7s 8s il 9s !i .e 9s 0s zn zn =f zn tl *f $d as bs cs *' ds es Q# fs gs hs is hs hs js ks b} 4[ 4[ f| zl b} ls ms ns os ps qs [q rs ss b} b} b} 4[ b} ts us 3% Y@ ,- O= /{ /{ |* vs Wn Ol Ol Ol Ol Ml Ol Ol Qk Rk ws xs 9% q| c4 0f ys  k K9 =5 zs ]p O6 rh  j As Bs Cs qf jq  m bc Ds Es Fs Gs !p Hs Is Js Ks $2 #k ;m Ar 0d 0d ig &o Ni )o Ls wr Ms ;l Ds xg Gs Ns X& Os Ps ",
"Qs U6 Rs 8b Ss ek xq ]m 1p Lr Ts Us Vs Ws Xs Ys Zs Eq Hq Eq Nr `s  t Nr .t Eq +t ko @t np Iq Lq #t |n no 6p am  i cp $t %t fp 0n bn &t 6n *t =t -t ;t >t ,t &t 't )t !t ~t {t kp Vq Wq %s ]t ^t /t /t (t _t /t :t op <t Lq cn qp hp vp .i cl Re ck [t :n Bf Vd Ce ye Cf ud Ce Ge Gb |9 }t 00 M8 j3 O- R{ ^, O! #{ =[ |t 1t 2t 3t $d P4 P4 58 4t 5t 6t 7t 8t 8t 9t 0t  d .e .e .h at bt  : ct dt &g 1* $! ~d et ft gt (r il ht im .e !i it jt kt mn lt um *f =f mt nt ot pt qt rt st tt ut Km vt ut ut Km wt 3[ 4[ 4[ nj xt b} yt zt Nn Vo cr cr At Bt Ct b} b} b} S2 4[ Dt Et Ft Y@ Gt ({ |} (* b# Ht Ml Ml Ol Ml Ol Qk Nl Ol cq It Jt Kt O5 Lt K9 Mt Nt ~3 Ot 93 J7 Ch Ar Pt Qt xr Rt St be _b Y0 O9 9c  m Tt >o %l Ut Vt bc zh -l .j Wt Xt Yt yr jf $k (b #j ug wr Ch Pt Ch Zt m= `t >@  u .u ",
"+u  0 #0 wq @u #u 1p $u %u Hr &u *u =u -u Mr  t Nr -u ;u >u Fq ,u 'u )u Hq Gq !u Eq Rr np 6o Lq Gq Dq bp Kq 8n 8m np 6o %t ~u =t {u ]u ^u /u pp (u _u Xq mp Xr :u <u [u }u |u 1u ]t Xr 's _t 2u ^t =s 3u 4u (t >s 5u 6u 7u op 8u Nq bm 9u 0u 5k 9u 1m Th Mg Mg au Mg Ce Bf ud 1k &i qa s2 p2 s) L_ v^ r_ B= E( 3= B_ bu cu du eu fu 48 48 48 gu hu iu ju ku ju lu mu nu !i ou ht pu qu ^] ru su w0 0; tu e$ uu vu wu il im xu yu il !i it zu zn um tm um *f $d Au Bu Cu Du Eu Fu Gu Hu Iu Ju Ku Lu Mu Nu Ou Pu b} 4[ Bm zl b} /q Qu Ru Su cr cr Tu Uu Vu b} b} b} b} Wu Xu Yu Zu `u  v 0% d# c% ok .v cq cq $p cq Tk +v #p Qk Qk cq @v #v r% }! $v %v 0f -5 E7 %b 63 &v *v =v zh -v $j jf sq dc 2c ;b 0d sq ;v >v ,v 'v )v !v St &2 ~v {v qg vh Yi h( ]v ^v /v (v Js _v :v <v [v }v |v M( 1v 1@ ",
"2v 3v 4v ^m 5v 6v 7v 8v 9v 0v av 7v bv cv 4p }o dv Fq Nr Iq ev Fq no Gq Sr Sr fv gv 3o 7u hv hv Pr cn cn )s )s &t 5o Xr ^u >t :u iv jv ;t kv mp :u <u lv mv nv ov pv qv <u rv Vq sv tv uv vv wv xv *s =s yv zv (t Av 2o hv 5o 8n am 8u Og Rg ck Bv el gp Ce 'j Cv sd Be Ce Dv Vh Be +0 :6 I! G_ Y~ R{ 12 Ev Fv Gv Hv Iv Jv Kv Lv fu P4 fu Mv Nv ku Ov Pv Qv Rv Sv Tv yu il is Uv Vv Wv l% Xv Yv Zv `v  w .w ct +w wu nu !i .h yu il .h it zu @w um kt An =f $d #w $w %w &w *w =w -w ;w >w ,w 'w 'w )w =c !w O4 4[ b} b} b} b} zl ~w {w ]w ^w /w (w _w :w 4[ Gn S2 O4 /e <w [w }w |w 1w *^ *! 2w 3w 4w 5w 6w 7w 8w 9w 0w aw bw cw dw ew fw (* ;- 4f gw Fi Gi :2 ^3 J9 E7 (b Si hw 83 ;m /p !l `i !l 'l iq ;k &k iw jw kw vh lw mw nw ow pw qw Pt qg rw sw tw uw vw mf ww xw yw zw Aw Bw Cw Dw Ew ",
"Fw Gw Hw Iw Jw Kw Lw Mw Nw Us Lr =u Ow Pw (n Qw 4p Rw Fq Lw /n Sw Dq Tw Uw `s 4o fv hv gv hv Vw mp ~u /u Ww lv Xw Yw mp <u Zw `w  x .x +x @x qv ov #s pp pp #x !t $x %x |u &x <u :u *x ,s =x -x ;x >x *s ,x 'x >s )x %s .r fo /j ~u ko Ug cl Re Qg Qg 1k !x Bf (o Bf ud ~x Rh Ce Bf Xf Rc #[ K] 12 (} 66 Gv {x ]x ^x /x (x _x :x <x =f nn lk [x }x rs Ov |x 1x 2x 3x 4x 5x 6x 7x 8x 9x 0% 0x ax bx cx dx dx ex fx wu !i .h .e .h .e .e it gx yn kt hx kt =f *f ix jx kx lx mx nx ox px qx rx sx sx tx =c ux m8 ^q ^q vx wx Bm b} xx yx zx Ax zx Bx Cx Dx b} Gn Ex Fx Gx Hx Ix Jx Kx Lx Mx Nx Ox Px Qx Rx Sx Tx Ux Vx Wx Xx Yx Zx `x  y .y j* -) #b +y y8 W1 @y 7c ,5 ~4 Y0 94 14 .2 lf ww be #y ke G9 de yr $y %y &y *y vr =y -y ;y >y ,y 'y &n )y !y ~y {y ]y ^y /y (y _y :y <y [y <y W[ `t }y ",
"|y 1y 2y Gr 6v 3y 4y Hr 5y 6y 7y 8v 7v 8y 9y Mr 0y ev Fq Sw 'u Or +t ap ay 7p Zs gv 7p +t np an 5o 's by 5o mv sv cy lv |u dy qv ey fy gy qv hy nv iy jy ky iy ly my ov ny oy py dy qy ry =s *s -x sy =s ty uy vy wy _t 4o bn 8n 9m xy 's yy Vg Qg Ef 2m 2k zy zy Ay 7k Ce Ay Mg qc nc b2 g4 7' s) A) 91 By Cy Dy Ey Fy Gy Hy Iy Jy =f Ky Ly My Ny rs To Oy Py Qy Ry Sy Ty Uy Vy Wy Xy k0 Yy Zy `y  z .z +z @z #z .h .h .e .h il .e .h $z zu $q zn kt An @w $d %z &z *z =z -z ;z >z ,z 'z )z !z ~z {z ]z ^z /z (z _z :z <z [z }z |z 1z 2z ]w 2z 3z 4z 5z 4[ b} 6z 7z Uk Wn It #p Ol Nl Ol Tk Tk >: 8z 9z 0z xt xt Bm az lj b} b} bz cz dz `a j{ ez +y *p z8 fz :2 X5 G7 F6 K6 ig Xm hd Ah Oi hf gz sh #l hd hz iz ur jz kz lz mz nz oz pz qz rz sz tz uz vz wz xz yz zz Az Bz &+ Cz Dz Ez Fz Gz ",
"Hz /o Iz Jz Kz Lz Mz *u Nz Oz Mz Pz Ow Qz Rz Qw Rw 8v ;u Sz dv Hq 4o Gq Tz )x )s 2o ~u 's ko 5o Zq ko Xw Uz cy Vz Wz Xz Yz Zz `z  A .A +A ov @A #A .A $A %A &A *A =A -A ;A `z >A ,A 'A )A )A !A ~A -x !A {A ]A ^A /A (A :t 9m +i ~u xy an  i Df Hd gn Qg /n :n Ge sc 7k qc qc sc rc gb _A '1 G_ V~ t) Z~ :A <A <A !i .h .e [A tl Jy =f mn *f }A |A 1A 2A Mn Oy 3A 4A 5A 6A 7A 8A 9A 0A aA `) .. W@ bA cA dA eA fA .e .h .e il xu .h .e gA hA kt =f kt An *f $d iA jA kA lA mx mA nA oA pA qA rA sA tA uA vA wA xA yA !r 5t zA AA BA CA zx ps At DA _w EA S2 b} FA GA cq Ml Qk Ml Ol Ml Ol Ml Ol Ol HA IA JA zl b} KA wx b} b} b} KA LA MA NA V, v| OA PA QA RA SA I8 Ki K1 G6 Z0 TA bd &v qr UA VA mf wh *m WA XA Rt Xi YA ZA `A N_  B #2 .B +B @B #B $B %B &B *B =B [v -B ;B >B ,B 'B )B Fz Fz ",
"!B <l zq ~B {B *u ]B ^B /B Oz Mz (B Us _B :B <B [B }B |B Tw Sw >u .t )u 7p bp Lq 1B =t 2B |u 3B 4B _t [u 5B -x ry 6B 7B 8B 9B 0B aB #A bB cB dB eB fB gB hB iB jB gB kB gB lB mB nB oB pB qB rB sB tB uB vB wB xB yB zB )x op AB ko ko BB Lq 8n CB DB 3k EB 4l {n Qh Ae ve nc we )a dm la ,1 K: {} U~ I: FB !i gs 9s .h .h GB tl nn *f tl $d HB IB JB Oy KB LB MB NB OB PB QB RB SB TB rn UB !- VB }@ WB XB YB ZB !i !i .e .e .h .e .e $z `B yn =f um An *f *f  C .C +C @C #C $C %C &C *C =C -C ;C >C ,C 'C )C Qv !C ~C Ru {C ]C ^C /C ^w ^w 3z ]C (C _C b} 3[ :C <C Ol Ml Ol Wn Ml Nl Pk Ol Nl Qk [C }C zl zl |C 1C /q b} b} b} Gn 2C 3C 4C 5C 6C 7C 8C 9C 0C aC bC *5 R1 9C :3 cc bd St cC Yt dC qg eC `m fC .j gC hC I| iC jC +< kC lC mC nC %B oC pC qC xw rC sC qC tC uC vC wC xC  ~ yC Fz ",
"zC AC Iw BC CC DC EC =u 7v FC GC HC IC :B ^B JC Mr KC LC 'u MC ;u 9p 1B 1B 1B ~u 5o tv cy xv NC 5B sB 'A OC OC PC Vz eB QC -A RC SC RC TC RC UC VC WC XC YC ZC `C  D .D +D @D #D $D %D $D XC &D *D *D =D -D ;D >D ,D 'D >s >s tp ko 4o 0p 3o #r $r gn Ge )D !D ~D Ph Mg ,a )a dm Uf ;a ;0 i3 %} k3 F! A) {D .h ht .h .h il ]D nn nn *f mn tl ^D /D (D _D :D Ru <D [D 8A }D |D 1D 2D 3D .: 4D 5D .' 6D 7D 8D 9D 0D ht yu xu !i .e .e .e aD bD cD An An $q *f $d dD eD fD *z gD hD iD jD kD lD mD nD oD pD qD rD sD tD CA uD vD wD xD {C yD zD AD BD CD DD b} 68 ED FD Ml Ol Ol Ol Ol Ol Ol Ol Ol Tk GD HD KA ID JD KD b} 4[ S2 lj LD MD ND 5f ;- t| 9f Fi OD PD I6 QD U5 RD Ot cc uq SD $l Ah Wt TD `m UD Ch VD WD XD YD -2 ZD w& `D  E .E +E @E #E $E %E &E *E =E -E ;E rC >E ,E 'E h< Dw )E !E ",
"~E {E ]E [l ^E /E HC FC (E _E :E <E [E }E 0v Ow 0y =u Qw Mr |E }o 1E no 2E }o 3E 4E 2o 5E >s _t ]t 6E eB 7E 8E 9E 0E @D aE bE cE dE eE fE gE hE iE jE kE lE mE nE oE pE qE rE sE tE uE vE  D wE xE xE yE zE AE BE CE DE >s EE lp gv 7u 1B 3o np ho Ef Ge Lg FE GE HE sc Tc Tc IE =i (0 JE 95 `6 66 v^ R~ KE il xu 8s is im LE tm lt ll Iy nn ME NE OE PE PE QE RE SE TE 8A 8A 1D UE VE WE XE YE ZE `E  F .F +F @F ut 9s #F <A !i il .h $F %F jt &F zu yn @w *f *F =F -F -F ;F >F ,F 'F )F !F ~F {F ]F ^F /F (F _F :F <F <D [F !C }F |F 1F 2F :F !C 3F 4F ts ts 5F 6F Ml Ol Nl Ml Ol Ol Ml Ol Nl Ml 7F 8F b} b} 9F 0F b} b} b} aF bF cF dF 6% }! eF fF gF hF iF ne fz Sm .o jF kF &k me zh nw =k xg lF mF nF oF pF -2 qF rF sF tF vC uF :y (; vF wF xF yF zF AF BF CF p= DF EF FF GF @^ HF IF JF ",
"!B Kh :l xq KF 1p LF MF NF OF 1p Lr %u PF QF [n Sz RF SF SF TF UF hp hp VF Uh vp mp sv WF ,s XF YF ZF `F  G .G +G @G #G $G %G &G *G =G -G ;G >G ,G 'G )G !G ~G {G ]G ^G /G (G _G :G <G [G }G |G 1G 2G 3G 4G 5G 6G 7G ,x >s /t 5E 1B cp Lq Pr Lq bn 6k Lg 9u ep 8G Ce Tc nc ]a Tc &i ;a )| 9G K: s) L] =} 0G ou ou (r is ht aG lt }D bG cG dG eG fG |x PE gG hG 3A iG jG kG lG mG nG oG pG qG rG sG tG uG vG wG xG nu il 9s nu 9s !i 9s yG zG AG yn AG BG kt =f CG DG EG FG GG HG IG JG KG LG JG MG NG OG PG QG RG SG TG _F UG |F <F VG <F WG hG XG CD YG ZG m8 `G  H Nl Nl Wn Ml Ml Nl Ol Ol .H +H @H #H zl aF $H %H b} &H *H b} =H -H ;H >H ,H 'H )H !H 0C ~H {2 {H ]H ^H lw /H pg (H dc _H :H _H <H mF [H }H |H 1H 2H 3H 4H 5H 6H 7H 8H 9H ,E _y 0H 7H aH nC bH ;E 7H cH dH eH fH gH hH k# iH ",
"jH /l Iw }p kH lH ~B mH nH <B oH LC pH :n PF RF MC 'u 9u SF TF 4l Df bl cl Qf +i lv Wq Xq qH rH sH tH uH vH uH wH xH yH zH (G AH BH CH DH EH FH GH HH IH JH KH LH LH MH LH LH NH OH PH QH RH SH TH UH VH WH 5G XH YH yv =s ,s 4u uv 4o tp ko xy #r @i 5k DB ZH !j Tc Vd pc nc oc )a Rd [9 L8 X~ t) s^ z/ `H  I .I +I @I #I $I %I &I *I =I -I ;I >I ,I 'I )I !I ~I {I ]I ^I ^I /I (I _I :I <I [I }I |I 1I 2I 3I 4I <A .h ht ut im .h Uv 5I 6I 7I zu AG zu 8I An <r 9I 0I aI bI cI JG dI eI fI gI MG hI iI jI kI lI mI nI oI pI qI rI sI tI uI vI WG wI xI yI zI AI BI Ml Ml Ol Ml Qk Ol Ol It cw cq CI DI xt EI FI GI b} /q HI b} zl II JI KI LI MI NI OI PI oz `1  2 QI xg RI Gs /H ig =5 SI TI UI VI WI oF XI YI ZI `I uF  J .J +J @J dH #J $J %J &J *J n= =J -J ;J 7H :y r' >J ,J 'J e. ,* )J ",
"1y @u }k !J ~B xq ~J _E {J Nz ]J [o QF |B Qz 4p 9p Dq ^J Xs /J 1m (J Id ub 8l Pq _J :J <J [J }J |J 1J 2J 3J 4J 5J 6J 7J 8J 9J 0J aJ bJ DH cJ dJ eJ fJ gJ hJ iJ jJ kJ lJ mJ mJ mJ MH IH nJ oJ |G pJ wE qJ rJ sJ tJ uJ 2u vJ =s vv +r +r Pr wJ ko 8u yy Uh Uh 4k Fe (o oc =i Ce bb xJ _9 r4 i3 G_ S~ v^ N] yJ zJ AJ BJ CJ DJ EJ FJ GJ HJ IJ JJ KJ LJ MJ NJ OJ tI PJ QJ RJ 8A OB }D SJ TJ UJ VJ WJ XJ YJ ZJ `J  K .K <A 9s yu xu 9s 9s 9s +K @K zu #K AG zu hx An $K %K &K *K JG =K -K ;K >K ,K 'K )K !K ~K {K ]K ^K /K (K _K :K <K [K }K |K 1K 2K 3K 4K 5K 6K 7K 8K 9K It Qk Qk Ml Wn Nl cq cq It Xn 0K aK bK 9z cK Qo b} b} dK eK fK gK hK iK LI jK `k NI 93 _( Q9 34 +2 Ch kK lK cc 23 ~3 9C mK nK oK pK qK rK YI sK _y tK uK vK wK xK yK Bz zK r' AK wC BK CK CF DK EK FK >B GK HK IK k@ %* JK ",
"Iw <l Iw KK [p KK CC LK LK /n /n Qw }B 0v Xs  t >u Sz fn UF fn dl Id Gd Kd 4n 9k MK NK OK PK QK RK SK TK UK VK WK XK YK ZK `K HH  L .L +L FH @L {G lJ iJ #L $L %L gJ &L gJ mJ fJ LH *L =L -L |G TH ;L xE >L ,L {A (A sy 'L zv =s ,s >s WF +r bn `h  i gn [t Pg Ge Ce Ce xJ Wd qc ,a S8 V6 y3 7' v/ v^ y) )L !L Bm Bm b} ~L {L ]L ^L ^L /L /L (L _L :L <L [L }L |L 1L 2L 3L 3L 4L 5L 6L 7L 8L 9L 0L aL bL cL dL eL im .h 9s 9s .h .e .e fL gL hL AG cD iL kt @w jL kL lL mL nL nL oL pL qL rL sL tL uL {K vL wL xL yL {K zL AL BL CL DL EL FL GL HL IL JL KL LL ML NL Ol Ml Tk It Nl Nl OL Tk Wn Xn PL QL 9z /q RL SL b} b} Gn ts TL UL VL WL ## XL YL z8 ZL K9 Zj 73 rf +j `L oF  M W5 O0 .M +M @M #M $M %M &M *M =M -M aH ;M zw >M wK FF ,M wC 'M )M *J *J !M ~M zF {M ,E zK ]M ^M /M ;2 (M _M ",
":M <l <l ^m 1p Kr |k <M 9y Qw [M 7v bv Xs SF QF @t KC po hp VF Vg Id Ne Kd ak Tg Xq vv 5u sy QK }M |M 1M 2M 3M 6J 4M 5M 6M 7M 8M 9M CH 0M aM EH bM mJ $L cM dM eM fM gM hM iM MH OH HH jM kM lM mM nM oM pM qM XH rM rM yv yv >s sM ;s +r _t 0n bn @i tM tM ck td Ce 7k uM &i 0b 0b f4 _6 k3 v/ R{ v^ 8= vM wM S2 xM yM zM AM BM CM DM KJ _L EM FM MJ _L FM GM HM IM TE JM KM LM MM NM *w OM PM QM RM SM TM UM VM .e .e .h .h .e WM .e XM YM ZM `M  N zu .N *f +N @N #N $N %N &N *N =N -N ;N >N <K ,N 'N )N !N vL ]L {K ~N {N ]N ^N /N (N _N :N <N [N }N jk .e .e |N 1N 2N 3N 4N 5N 6N 7N 4N 8N 9N 0N aN bN b} /s TL b} b} 4[ 4[ cN dN eN w[ fF fN 0f gN hN iN <4 NI J7 jN !y 13 63 H9 |4 iF kN lN mN XD nN oN pN p= qN ;M dH rN >M sN tN Aw uN 'M Az =M r= vN CF wN 7H xN yN zN AN BN yw CN DN ",
"EN Iw FN CC GN HN IN JN KN ev >u -u Nw 9v pH pH LN MN |m bm Uh NN Jc Re .i Sg Tg Yq 4u yv =s QK ON PN QN RN SN TN UN VN WN XN YN ZN `N  O .O +O @O mJ #L #O $O HH %O &O *O =O -O 9M ;O >O ,O 'O |G UH oM )O !O ~O =x {O zv ^t ]O ^t ry EE ^O BB  i Df el 1m /O 7k 7k 7k 0b xJ Be Gb U6 X~ R{ F! t) s^ -1 (O _O BJ :O <O [O }O |O 1O fG 2O 3O 4O 5O 6O 7O 8O {N 9O 0O aO bO cO dO eO fO gO hO iO jO kO lO mO nO oO pO qO rO sO tO uO vO wO xO yO zO AO BO CO DO EO FO GO HO IO JO KO LO MO NO OO PO QO RO SO TO UO VO WO uI ,N XO YO ZO `O  P .P +P @P #P .e .e .e $P %P &P h8 h8 E5 *P i8 =c =c =c =P -P ;P 09 >P ts 4[ RL ,P S2 eK 'P )P WL !P ~P {P ]P PI ~H `5 Z5 B7 ^P hq /P 7c &n $j (P _P :P VI <P [P }P |P 1P 6H EK CK 2P 3P 4P &J }v ,E vN -B 5P 6P 7P 8P 9P 0P *M aP pN bP cP cP dP z= ",
"eP :l Iw }p fP |p gP [M Pz ev Cq hP >u ,u 'u Qw Ys Sz en am cl Qg Id Jc bl Tq Ug Xq PK iP =x jP kP lP TK 2J mP nP oP oP pP qP aJ  L KH rP gJ gJ mJ hJ $L NH sP tP uP DH vP wP fM xP yP zP AP SH UH UH BP CP DP EP !A rM iP FP 2u /t lp Xw an ho Ug  i cl Uh ^n sc we 0b 0b 0b kc GP m3 X~ 7' v/ S~ l( 1= HP IP JP KP LP MP NP OP PP QP RP SP TP UP VP WP XP YP ZP `P  Q .Q +Q @Q #Q $Q %Q &Q *Q =Q -Q ;Q >Q ,Q 'Q )Q !Q ~Q {Q ]Q ^Q /Q (Q _Q :Q <Q [Q }Q |Q 1Q 2Q 3Q 4Q 5Q 6Q 7Q 8Q 9Q 0Q aQ bQ )I VG 'N cQ dQ eQ fQ !N }L gQ hQ MJ _L 5O iQ jQ kQ lQ mQ nQ oQ WM js nu Km 2h pQ Pa h8 /g qQ /g /g rQ sQ 4[ 3[ O4 SL /s cN eK ts Gn tQ uQ vQ wQ xQ rK yQ zQ AQ fz BQ CQ DQ zh DQ 7c _H &n EQ FQ GQ gC HQ IQ JQ KQ <v q= 7H vN LQ FK MQ AK NQ @B {M ZI nF .B tC OQ tC PQ nF QQ RQ nF SQ TQ *2 =2 ",
"UQ }p :l BC VQ WQ 'j MC XQ hP ;u YQ ZQ `Q [M ev Sz  R Sg ho Id 1m Re Jc Of am bn [u 2u 4u =x .R RK lP nP +R @R #R $R mP %R bJ OH mJ lJ &R iJ gJ hJ gJ *R LH =R -R ;R >R ,R 'R 8M )R !R ~R {R 'O ]R UH BP ^R /R (R _R !A {O ty vv Wz pp jp (j 8m Jd hp @i Ne Bv :R 7k qc we {a %0 ]6 m3 E! 7' r) Y[ z] <R [R }R |R 1R 2R 3R 4R 5R 6R br 7R 8R yt 6R xt 9R 9R 0R aR bR cR dR eR fR gR hR iR jR sI xL 5O kR <K lR mR nR oR pR qR ts 4[ rR sR tR RE vD uR vR ~C 1F wR xR .h !i xu im !i yu yR zR AR BR BD RO CR DR ER FR GR dQ HR hG IR JR ^L KR LR MR NR OR PR QR RR SR #F Uv ut Uv TR UR pQ ut Km VR WR XR Gn b} b} 4[ Gn YR ZR Wu `R  S .S +S @S #S $S %S &S *S =S -S ;S Wl $2 >S 83 .l @y hq ,S 'S TQ )S !S ~S oF {S vz {M uF .E ]S zw DK ^S /S (S _S :S yw <S [S AF yw }S |S QQ Zt 1S 2S 63  * ",
"~E |k ^m 3S Hr Rz Us 4S 7v ev 5S bv 6S Nw Nz Nw Nw 3E 9k Hd Nf wb Xh Yh bl +i 0m $s 7S /t sB 8S 9S 0S aS $R bS cS dS dS eS fS gS mJ eM gS gJ MH lJ hJ hS iS jS sP kS lS >R mS nS IH IH oS pS 9S qS UH rS sS tS uS ,L vS wS ^t wv 4u lp 5o 6n 9m 9m .i <n Pf Qg Pg xS xJ nc `8 pd Z6 W7 g4 32 12 K_  [ yS zS AS .h .e !i .h BS b} b} b} b} b} b} Gn b} Gn CS DS ES FS GS HS IS JS KS LS MS OO NS OS ]N PS QS RS SS TS US VS WS Gn eK XS YS }s ZS `S  T PE .T xD +T @T il !i !i !i 9s im #T $T ^C %T CD &T `O *T =T -T ;T >T ,T 'T CD )T !T ~T {T TM ]T ^T /T (T _T .d VR ht hs is qQ Km hs ut js VR :T <T Gn 3[ S2 S2 3[ /s 3[ SL [T }T |T 1T 2T 3T 4T 5T 6T 7T 8T 1S 9T !H lz -k 0T /3 J9 A8 aT bT cP cT dT eT fT gT hT iT 8P jT kT lT mT WD rz rF [v nT mw $2 oT pT qT rT sT |S tT kN uT vT wT ",
":l :l }l Ts xT OF Us yT FC ev 8v .t `Q :n |E zT AT jo am Re Fe Xh Id  i /j BT 9k lp Vq CT {A DT ET FT GT HT IT JT KT LT MT YN MH NH =R NT OT PT MH QT $L RT tP ST TT UT VT WT HH XT YT ZT `T  U 0E sS BP rS oM .U qB rB >x sB /t +U /u 0n @U bn am ho cl Id Of Re rc !x #U @0 .8 C/ $U )7 M: Y: S~  [ s4 %U &U .e il yu .h *U b} b} b} b} b} b} dK ZR =U -U ;U >U ,U 'U )U !U ~U {U ]U ^U /U (U _U .P :U <U [U }U |U 1U 2U Bm 3U 4U 5U 6U 7U RE 8U `S 8U .T 9U 0U aU .h .h il 9s xu yu bU cU uD LB dU 'N {K (U eU -T fU DR  P gU uI hU iU jU kU lU mU nU oU pU qU rU Km Uv hs Km Km ut ut hs VR Km sU tU f| Gn 3[ S2 p6 uU ts 3U vU wU xU yU zU AU BU CU DU EU FU GU HU IU kK JU mz A8 *5 ih tT KU LU MU I6 NU OU PU yw }v nT QU RU SU ;y #k cT kK TU UU ^H VU kK JQ WU XU $2 YU ZU RA `U  V ]2 ",
".V ]m +V Ts @V GN OF av #V Mr Rw Cq hP av $V ep Nq 3E 6p ck ~j Jc Qe 0m 4n Kd 6l 4u %V xv !A &V *V =V -V ;V >V JT ,V 'V )V ZN fJ JH !V ~V {V ST LH ]V ^V /V (V _V :V 0M <V [V ZN }V |V 1V ,O 2V 3V wE nM nM oM 4V 5V xv ~O *s =x tv [u go 6V bn #r 7V 8V Gd Id Rg Lc eb Hb Yg X6 E_ #[ ~6 u_ 7' T~ F: +{ 9V 0V !i .h il .e aV b} b} b} b} b} Gn eK bV cV dV eV fV gV hV iV jV kV lV mV nV oV pV qV rV BM sV tV uV vV wV xV yV zV az AV BV CV DV EV PE 8U  T |F FV @T il il !i xu ut Km GV HV IV Cx 4z RE JV NS KV LV MV NV HR (N PJ OV ZO ]N PV QV RV SV TV UV VV WV ut hs hs VR XV qQ qQ qQ $P qQ YV ZV S2 Gn S2 b} S2 2[ SL `V YR  W .W +W @W #W rK $W 2T %W &W *W =W -W kK Xt kK ;W *5 z8 o= aP H| {S SA >W ,W 'W )W !W hC ~W {W }S ]W ^W $2 mw hC UU /W (W _W ~H :W <W [W }W |W 1W 2W 3W 4W ",
"5W /l |l 6W 7W GN CC 8W Lr 9W ev }B YQ <B Qz ev 1E $r :n Ge Oq {j @i Of bl Tg bl WF yv *s 0W aW bW cW dW eW IT JT fW gW hW 9M mJ MH ST iW jW kW lW mJ KH mW nW oW pW +L qW rW }V sW tW uW vW wW xW rS yW 1G zW AW BW >x !O xv PK tv #s CW DW EW VF Vg Ne Zh vb Ng FW Vf Hb S8 V8 f4 X6 B3 G! 12 F! s^ `! GW HW il .e .e .e IW b} b} b} 4[ Gn JW YR KW LW MW NW OW PW QW RW SW TW UW ^U VW WW XW YW ZW `W  X .X +X US @X #X $X %X &X 9F *X |A CD  T  T =X QO AR -X ;X ht ht ht xu VR qQ >X ,X 'X )X ZS ZS !X ~X {X ]X ^X /X  P ^X (X _X :X <X [X }X |X 1X 2X 3X 4X 5X ut yu hs VR XV qQ pQ qQ =c XV 6X 7X S2 b} 4[ 4[ S2 S2 8X YR 9X 0X aX bX cX dX eX fX 4T gX hX iX jX kX lX <H 9T ;W L9 L6 5> [: MU WD H| mX IQ nX oX ^3 (3 63 O6 pX qX rX 'k `i kK oT ;m sX <W tX uX <W vX wX xX yX zX 83 pF ",
"AX BX 6v CX DX }p KK 6W EX _n <B 'u =u Mr }B TF SF Df FX Qg gn 1m 9u _m /j 9m #r GX 4u HX IX tB BP JX KX LX MX JT NX JT OX HH  L NH PX {V jW iW `K QX RX SX ~V OT ;R >R TX UX VX WX XX YX ZX 'O rS `X nM wE  Y .Y !O {A ,x Wz PC +Y @Y #Y 0k $Y Kd Ec ub Nf Rg 9a !0 }9 -8 %Y p4 >i X7 U6 k3 7' s^ E' d, &Y *Y ou il .e .e =Y /s eK Gn -Y bV /I ;Y >Y ,Y 'Y )Y !Y ~Y {Y ]Y ^Y /Y (Y _Y :Y <Y [Y }Y |Y 1Y 2Y 3Y vA 4Y 5Y [T 6Y 7Y 8Y AV 9Y Ny dU EV 0Y aY VG bY cY dY VR Km vt qQ {e 2h eY fY gY hY iY jY kY (F lY mY  P nY oY pI oV pY qY rY sY lU tY uY vY wY xY yY hs Uv ut Km /g VR hs /g A0 ^d zY AY S2 4[ 4[ 2[ S2 BY CY SL DY EY FY GY HY IY JY KY LY MY NY OY ;S PY QY TA HQ {H /3 D7 2^ ;5 03 RY SY MU NI TY UY VY WY XY YY ZY ]p %n Ti yg &n ;S @n ;m kK EQ `Y  Z .Z +Z @Z #M JU xX #Z ",
"2v $Z %Z &Z EN ^E ^E GN _E *Z =Z -Z Qz 7v <o oH LK po gn 3l _m UF Bv _m oo 0l 9m EE yv zv (R ;Z rS >Z ,Z  G 'Z )Z !Z ~Z {Z ]Z IH fM ^Z jW /Z /Z VT DH vP (Z _Z nW :Z <Z [Z }Z |Z 1Z 2Z 3Z 4Z wW 'O TH 5Z rS 6Z ,L 7Z ,L sB ~A 8Z *x 9Z Vq 0k 9k ub Qe Ld Ie xd If %i Vf -0 ka p4 m3 O7 f4 F( F( M] /, C& 0Z aZ bZ cZ dZ eZ fZ gZ hZ iZ jZ kZ lZ mZ nZ WJ oZ pZ qZ rZ sZ tZ uZ vZ wZ kO $w xZ yZ zZ AZ BZ CZ DZ EZ FZ GZ HZ IZ IA JZ JZ KZ LZ 4z MZ NZ OZ PZ vR QZ RZ pQ SZ qQ pQ /g 2h TZ UZ VZ WZ XZ YZ ZZ Pv `Z DM oV  ` .` {X +` @` #` 2X sY $` %` &` 3X *` =` -` is ut /g Km Km ut VR /g *c Oa ;` >` ts S2 S2 Gn Pu ,` CY /s bV '` )` !` ~` {` ]` ^` fX /` (` _` :` <` -S 2W [` }` 0C |` 63  2 PD OI 9T 1` {H BQ 2` YY R0 3` 4` 5` ee 6` 7` .l c3 ww yh 8` JU 9` (W 0` a` b` c` ne d` e` f` ",
"g` h` i` j` k` ^E {B ]B ]B pH 0v 0v 8W Oh nH !j 3l 9u (J tM Uh bk )D yy 9m np (u  r 2u 'x uB (R sS l` m` n` m` @G o` p` q` r` 8M IH s` t` jW u` EH EH v` w` kW x` oW y` ^Z z` A` 1Z B` C` D` E` ]R `X yW F` F` G` vS !O tB wS H` I` :u sv 0n Fc Fc Jc Jc #i Ng eb >0 .9 .8 ka J` {} %} $} v/ Y~ v/ h' K! K` L` M` N` O` P` Q` R` dF S` T` U` V` W` X` Y` Z` ``   .. .+ .*z @ .# .*Q $ .% .& .* .= .- .; .> ., .' .2[ Jy ) .! .~ .{ .] .^ ./ .3z cr PE 8U ( ._ .: .< .[ .} .| .1 .2 .3 .4 .5 .6 .7 .8 .9 .0 .a .b .c .d .:Y .` LV e .NR %` f .+` g .h .i .g .g .j .k .is ut ut VR Km ut 2h XV ~e *c l .m .cN S2 f7 3[ n ./s o .ts p .q .r .s .t .u .v .w .x .y .z .PI A .B .@Z C .WU EQ D .~S 9` E .F .WY G .C7 H .I .J .K .L .^4 C8 M .$6 :4 I .N .O .$6 P .Q .R .J7 jF /p S .,k T .!y >k ee U .",
"V .1y V .Iz k` 5v #u [E 1p W .4l <B av X .{n Qh Y .bm po .i 0m cl @i Df lo 's %s 5E yv Z .;D ` .sS  .....+..@..#..$..%..&..HH HH *..=..t` {V kS dJ -..;..>..^Z oW kW ,..'..)..|Z !..~..{..#..]..bW wE ;L F` WH 6Z ^../..{A =x (..>s [u uv 8u +i bl yy bk Rg Vh sc `8  9  9 _A X7 i3 i3 X~ t) 12 I! 12 P7 _..:..0  M] `: B- ,} I& <..,* [..}..|..1..2..3..4..5..6..7..8..9..0..a..b..c..d..VR qQ /g pQ qQ /g vt e..Wu f..g..h..i..j..k..] .l..IV m..`S ZS wD uD n..o..b} zl b} zl p..q..r..s..t..7 .u..v..w..)C 1O <L ]N d .ZW CL x..<K y..z..A..B..uY C..g .2X D..E..Uv hs is TR Km Nu =c {e Pa *c F..G..O4 3[ O4 3[ n .g7 f7 S2 Lv H..I..J..K..L..M..N..O..P..oz Q..R..S..PI T..U..V..W..X..:` 83 Y..&n 63 A8 Z..`..%b O9  +..+.ZY ++.@+.mg #+.$+.O .%+.&+.*+.=+.-+.&b c3 ;+.>+.,+.-p Q0 lg '+.",
")+.!+.~+.}p :l Iw {+.]+.GN 6y ^+.Nz /+.(+._+.Uh _m Df CB 8u _j (j 0m 8m co 8m %s (t *s :+.<+.[+.xW }+.|+.1+.2+.#..3+.p` 4+.5+.6+.7+.8+.9+.{V 0+.@L a+.b+.c+._Z iW iW d+.x` e+.f+.g+.h+.i+.j+.`C ]..TH k+.VH l+.7Z ;Z !O m+.sB /t (t !u 7u )s &t n+.0m wb o+.#i If Sc %9 ;0 ;0 o3 ,1 11 9G 7' u^ s) K_ a1 p+.I- _= 4& c, c, c, q+.r+.s+.t+.u+.v+.w+.YZ u..x+.y+.z+.8..A+.B+.C+.D+.E+.F+.G+./g Pa ^d Pa {e Pa /g H+.I+.lG J+.K+.9R &X L+.FI M+.xD Ru wD gG tD N+.1O O+.b} P+.b} b} b} 6R Q+.R+.v+.u..YZ S+.T+.U+.KJ V+.!T W+.*T |K X+.^N Y+.Z+.`+. @..@./T uY +@.@@.#@.ht ht hs $@.^d %@.s9 =c qQ Nu &@.*@.ts 2[ m8 /s =@.P4 o .ts FZ -@.;@.>@.,@.'@.)@.!@.~@.{@.]@.@M ^@.4W /@.Q9 (@.6T _@.:@.<@.[@.'y 33 `L ;S }@..l dT ;S >S /P 3W 0T pX |@.R0 mg 2c *5 1@.2@.3@.J .*b Ti mg 4@.5@.~b !3 6@.H@ ",
"7@.:l 8@._o ~n k` EN 6y Ts JN /+./E [p (o 2l Cf Bv CB 9@.9m %V 8m 4n 9k lv 0@.WF -s yv *s wS ;Z BP a@.b@.c@.d@.p` e@.f@.g@.h@.i@.j@.k@.8+.jW l@.FH FH b+.m@.kW n@.o@.p@.q@.r@.s@.t@.u@.v@.w@.x@.]..9S 5Z VH l+.G` y@.m+.z@.sB A@.(t 0p ko xy {u n+.Kd Jc 4k eb Wg %i B@.JE C@.!1 i3 7' M: K] S{ +a D- z] D@.J- !$ -{ h$ M$ E@.C& C& F@.G@.H@.I@.J@.K@.L@.M@.N@.O@.P@.Q@.R@.S@.T@.U@.V@.W@.^d {e *c 2h Nu ^d X@.Y@.Z@.7j `@. #..#.+#.@#.##.$#.%#.&#.*#.%#.uD =#.-#.;#.>#.b} b} b} b} ,#.'#.)#.!#.3..~#.{#.]#.^#./#.V+.kR YO (#._#.+` :#.FR <#..@.[#.UV }#.|#.1#.2#.3#.hs hs is Km $@.X@.X@.*c VR VR 4#.5#.S2 b} SL Wu 3t m8 68 I+.6#.7#.8#.9#.0#.a#.b#.c#.d#.e#.f#.g#.h#.i#.j#.k#.l#.m#.n#.o#.S..*S PY vT p#.q#.r#.s#.VY t#.u#.83 C7 v#.he w#.P .Q .R0 YY K .#+.=b x#.T .y#.!l z#.A#.rh L9 A#.H9 ",
"h` B#.C#.}p 1y D#.{+.WQ CC Qh Oh 1p }p ^m sd ud po am E#.an op _j F#.5n %s G#.WF 2u FP ,x H#.I#.J#.K#.L#.M#.N#.N#.O#.P#.Q#.R#.S#.T#.U#.TT V#.W#.EH a+.b+.X#.Y#.Z#.`#. $.lW .$.+$.W#.@$.#$.$$.%$.]..9S 5Z xE &$.,L *$.sB {A *s =s +r 7u Xq an /j Ne 6l Gd wb Hf ab gb .9 02 =$.)| ,1 g4 {} p2 K] @a Z: -$.;$.5@ g$ g. !@ 2& bx >$.,$.'$.)$.!$.~$.{$.K@.]$.^$.aL /$.($._$.:$.<$.[$.}$.|$.1$./g ^d 2$.*c ^f 1h Nu 3$.#q 4$.5$.6$.7$.8Y 8$.] .9$.3z 0$.vR a$.CD /w )C b$.xt b} b} b} b} zl c$.d$.e$.L@.K@.f$.g$.h$.i$.NE j$.k$.l$.m$.n$.o$.<X p$.q$.r$.$w }#.s$./T t$.u$.hs is $@./g Km Km ht ut v$./g w$.f| b} S2 eK eK x$.2[ I+.y$./I z$.A$.B$.C$.D$.E$.F$.G$.H$.I$.mC J$.K$.L$.M$.N$.O$.P$.UI Q$.R$.S$.Y..zX T$.EU U$.SA 'y WI V$.|` 43 rq 5@.N .Li W$.X$.Y$.Z$.$6 `$. %.A#..%.zs x#.Si G .4@.z8 ",
"+%.~n wq {m @%.]m Kr {+.Jw {n +V [l ]m C#.Vd Ph fn hp +i 9m #%.Lq io fo 0@.$%.Pr yv (A 'x ~O %%.&%.*%.=%.=%.-%.;%.>%.uH >R ,%.S#.0+.'%.R#.S#.)%.b+.!%.a+.~%.kJ iJ {%.^V rP ]%.v` DH >R ^%./%.(%._%.SH 5Z qJ :%.yW ;Z sB !A zv -s 0p 1B wJ Lq `h Kd 9k bl Rg Tf ^0 Ab =$.b2 &7 ia ,1 O7 $} F! X~ <%.&j &j T: B) 4@ v) X& -{ [%.}%.JF |%.1%.2%.{$.3%.4%.N@.5%.6%.7%.8%.tI }L 9%.0%.a%.b%.c%.Pa Pa d%.Nu Nu ^d /g e%.jt f%.4Y g%.KZ h%.i%.] .j%.CA k%.l%.m%.QE n%.|s o%.p%.zl b} b} b} KA q%.r%.s%.t%.Gu u%.v%.JR w%.x%.y%.jU z%.A%.B%.C%.T+.D%.E%.uY F%.G%.H%.I%.J%.K%.ut ut $@.TR VR Uv 8s L%.SZ M%.N%.O%.Gn b} ts /s y$.f7 Mv P%.Q%.R%.S%.T%.b#.U%.V%.W%.X%.Y%.Z%.`%. &..&.+&.@&.#&.$&.%&.&&.s#. V }W Q .*&.=&..k 7c E7 -&.;&.>&.,&.'&.)&.M .!&.1@./5 ~&.O .{&.]&.^&./&.(&._&.:&. %.S0 H7 <&.Ki ",
"[&.)a _k #0 -j }&.NF ]m sd ye ye Ae ^m }l Ph ^n Th 9u Nq |&.Xq Zq fo 1&.$s do uv ,s (A 2&.~O EP tS 3&.4&.5&.+R 6&.7&.8&.9&.S#.8+.TT 0&.U#.a&.b&.a+.c&.FH d&.mJ e&.f&.g&.&L h&.i&.0M EH j&.k&.l&.wW ]R UH m&.rJ n&.m+.!A o&.=s >s p&.Uw 0p +r BB 0k 7m Ne Jc If *9 gb q&.b2 o4 %7 ia #[ 66 P{ ]k D3 H! r&.s&.t&.U] p+.1. q$ u&.v&.w&.x&.y&.z&.A&.B&.C&.PM D&.E&.F&.uI OJ ,N gG <D 0%.G&.H&.Nu ^d I&.Pa {e {e ^d J&.K&.cG L&.M&.N&.O&.O&.P&.Q&.CA m%.R&.BR =#.1x S&.T&.U&.zl b} b} b} Bm V&.W&.X&.4..Y&.Z&.3A `&.CM  *..*.+*.@*.z%.#*.$*.%*.&*.**.=*.-*.;*.>*.I%.,*.'*.)*.VR $@.js Km ou SR !*.~*.!*.{*.]*.b} S2 S2 Wu ^*. 4 p6 #q zu /*.(*._*.:*.<*.[*.}*.|*.1*.2*.3*.4*.5*.6*.7*.8*.SI 9*.0*.$+.a*.b*.pX c*.0*.d*.e*.Zk f*.mX g*.5@.X$.mg h*.@o Y$.i*.j*.%6 k*./5 l*.+o k*.$6 @6 C8 C8 k*.m*.n*.",
"o*.qd p*.Lh Y9 *a Y8 gb Vd [l Iw Iw [l ]n KF mH Ef _m q*.(j Xq jp co r*.kp Xq .r WF 4u 'x 7Z (R F` s*.=%.uH 7&.KT t*.u*.v*.w*.x*.y*.T#.S#.<Z 0+.b+.z*.;..A*.fJ 9M g&.rP iJ B*.C*.C*.D*.E*.3+.(%.F*.mM wE xE zW y@.:+.=s wS ry G*.2o Sr gv hv 's <J H*.Cc Ng Tf >0 Ye %9 02 36 !1 !1 >i ~6 g4 e4 K_ B: I*.J*.K*.H- T- Y+ L*.M*.N*.O*.P*.Q*.Gu R*.S*.T*.U*.V*.W*.X*.Y*.Y*.OJ 'T _F [F Z*.`*.X@.^d *c Nu ^d /g VR  =.hx eu .=.+=.@=.<z #=.+#.$=.k%.CA %=.vR MZ .T &=.*=.9F zl b} ==.-=.;=.>=.,=.'=.)=.!=.~=.BA {=.w%.]=.^=.IJ : .{N /=.(=.q$._=.:=.<=.[=.}=.|=.1=.'U 2=.3=.4=.js 5=.qQ VR <A !*.!*.6=.7=.8=.4[ 4[ cN Gn 9=.Mv lk 0=.GZ a=.b=.c=.d=.e=.f=.g=.h=.i=.j=.k=.l=.m=.n=.o=.p=.nK q=.E .r=.YY s=.t=.u=.-&.5` v=.w=.9*.2` w#.x=.++.)&.,+.ZY y=./P h*.C8 M .Li z=.}c _&.M9 E8 ,5 B8 ;6 A=.:c ",
"B=.Ss C=._k Lh yq +0 _l Vd 1p !J }p Oh :o Ee zy D=.Ef 9n eo Xq fo $%.'s E=..r WF %s )x /t {O .Y J#.6J F=.5&.G=.gW H=.I=.J=.K=.L=.M=.N=.k@.(Z 0+.O=.v*.0+.P=.Q=.SX R=.S=.T=.U=.V=.W=.X=.Y=.m` Z=.`=. -.9S .-.F` ;Z +-.,x @-.3u p&.#-.bp wJ hv ~u (u $-.o+.%-.Ie &-.Sd _A ;0 h4 )| d5 f4 P{ G! t) k) +a *-.=-.J*.m) --.!* ;-.>-.,-.'-.)-.!-.K@.~-.{-.]-.^-./-.(-.PO KV _-.:-.%#.AD tI <-.[-.}-.|-.1-.2-.1-.~*.3-.4-.5-.6-.7-.8-.9-.0-.a-.==.b-.Su N+.wD c-.d-.AD e-.f-.g-.q..b} h-.i-.JZ j-.k-.l-.m-.n-.PS o-.p-.@*.q-.{N r-.s-.t-.u-.v-.<U w-.x-.y-.z-.A-.oU B-.C-.2=.D-.E-.F-.v$.G-./r js H-.3-.6=.I-.e| b} b} b} 4[ =@.^*.eu 4$.J-.K-.L-.M-.N-.O-.P-.Q-.R-.S-.T-.U-.V-.W-.X-.Y-.Z-.`-.NI  ;..;.+;.@;.#;.$;.CQ r=.5` %;.h*.G .E .3W &;.*;.=;.3` ;&.a*.w#.w#.lg jC 7` 9c '&.B8 /3 ^3 )&.54 ;6 -;.",
";;.>;.,;.#0 :k ';.);.-j sd #u [l [l !J !;.4l /m cb {j bm qp )s dn an 7u tp gv +r lp >s ~;.YH XH xE @G {;.5&.NX JT ];.^;./;.(;._;.fM PX :;.S#.v` <;.'%.[;.:;.:;.};.jW a&.|;.U=.gS fJ 1;.2;.3;.4;.5;. D 6;.`X &D G` sB zB 7;.HX 8;.fv Qr Sr wJ )s -t Qe Dc pb Ie Ye ba ;0 x3 >8 o3 Rc [9 W6 .a Y[ z] T: 9;.0;.C: Q~ c& O$ a;.b;.c;.d;.e;.f;.g;.h;.i;.j;.k;.l;.m;.n;.o;.'N VG xD !C ZS p;.q;.r;.s;.t;.u;.v;.w;.x;.y;.z;.A;.B;.C;.D;.E;.F;.G;.H;.I;.yD J;.d-.CA Ax :D K;.L;.~ .M;.;=.8Y N;.O;.P;.Q;.R;.S;.{K T;.p-.ku _L U;.V;.W;.X;.Y;.Z;.[U `;. >.}X z-..>.+>.@>.#>.$>.D-.%>.&>./r *>.=>.SZ v$.M%.->.;>.rR Gn S2 ts /s o .^*.>>.P%.,>.'>.)>.!>.~>.{>.]>.P-.^>./>.(>.>K _>.:>.<>.[>.}>.`-.ZL n#.|>.:` 1>.2>.3>.4>.5>.6>.7>.O6 #&.EU 8>.}W 2S  V  V zX Vl vT QY 9>.PY 0>.a>.b>.y=.c>.P .R0 V1 /4 ;3 ",
":M jc wf yf p*.#0 d>.e>.Be f>.^m B#.g>.:o td td Ge Ef FE UF |o oo bm an 6n 's op h>.gv wy i>.uB k+.b@.j>.k>.JT JT NX l>.m>.+O n>.o>.p>.W#.<Z ,%.kS q>.i&.r>.R#.s>.R#.v*.[;.7+.t>.u>.nS v>.w>.x>.x@.2V UH y>.)O _R z>.A>.B>.wy C>.#-.gv hv an Tr {u Ec Ld Mf (a D>.E>.@9 JE k2 52 X6 F>.V6 W: P! ~7 z] G>./= H>.I>.Y$ J>.K>.L>.M>.N>.O>.EG P>.Q>.$C R>.S>.T>.U>.V>.W>.X>.BD 1F sD gG ^=.Y>.Z>.`>. ,..,.+,.@,.`>.#,.~N WG gG Qv WG RE Qv $,.%,.EV CD vD MZ /w ~C &,.*,.9z HI +#.;=.=,.@#.-,.;,.>,.,,.lY :L ',.`&.),.!,.~,.<-.MJ KR {,.],.^,./,.(,._,.:,.}X <,.[,.1#.},.|,.1,.2,.3,.js v$.4,.js 5,.6,.7,.8,.4[ S2 b} /s Wu Wu 9,.lm 0,.a,.b,.c,.c,.c,.d,.e,.f,.g,.h,.#N i,.j,.k,.l,.m,.n,.o,.p,.EU RY q,.RY r,.0>.3` s,.e*.t,.u,.v,.f*.w,.x,.y,.z,.-W 0>.A,.H .B,.C,.D,.E,.x=.hh F,.P ..k I .G,.H,.",
"I,.zf Gg yf *a <p &i J,.Ae K,.^m ]m Ae ud Ng ze cb Ng Uh Ef /O L,.fn Iq )s lo an `w 2o ;s !A 7Z wE @G M,.;%.N,.O,.P,.Q,.R,.S,.T,.U,.V,.W,.nJ X,.Y,.Z,.jM `,. '..'.+'.@'.#'.$'.%'.&'.*'.='.-'.x@.x@. -.1G rS :%.7Z z>.;'.#-.;s 6u )x 1B cn 9m pp BB Qe >'.Pd Z8 @7 Td b2 C@.p4 _9 X7 Fg V6 ,'.''.N/ z] n> I>.F{ )'.-< !'.~'.{'.]'.^'./'.N@.@Q ('.U*._'.:'.<'.9%.['.~I }'.PE |'.PE :-.1'.2'.3'.L;.4'.5'.6'.7'.8'.9'.wI PE NZ 0'. T NZ n%.a'.b'.8U c'./w Ru 4z 2F z%.d'.e'.JZ /q zl f'.g'.h'.i'.j'.k'.l'.p-._L ju ),.T;.m'.n'.iU o'.p'.q'.r'.s'.t'.u'.y-.v'.w'.x'.y'.z'.OW A'.B'.C'.D'.gs E'.F'.~*.G'.H'.I'.4[ ts Gn SL `V bV 9=.J'.K&.K'.L'.M'.N'.O'.P'.Q'.R'.S'.T'.U'.V'.W'.X'.Y'.Z'.`'. ).8f .).5>.X$.ZY ++.;W +).@).#).u,.@+.=&.@+.a*.>&.$).%).&).*).zX u,.=).t#.R$.y,.E,./3 9*.9*.%b *5 C8 /( ",
"-).^o }b Y9 ;).>).gb ,).').kc Gr oc )).2k td ud 2m ud !).ud Ph 0o /J no ko lp &t %t Av 8;.~).<+.wE @G N#.F=.{).e@.wH ]).^)./).().];._).:).<).JT :).[).JT JT }).|).1).2).3).4).5).6).7)./).8).l&.9).0).TH kP  Y z>.wS YH uv a).)x Sr ap an 0n 8u b).bk wc rc Vf Vf .8 Hb -8 {6 /8 -[ c).d).e).f).Q^ g).h).m/ )'.U- F2 i).j).k).l).R;.m).n).o).p).q).r).s).t).u).v).3A OE w).x).4z hQ dQ y).z).A).B).C).D).E).F).G).|x  T CD PE  T c'.4z |x dU .T aY _D =#.H).I).J).K).h%.L).M).az 9R ~ .+#.N).O).P).Q).R).p-.S).T).1O U).$*._U V).W).X).Y).Z).`). !.&z .!._=.+!.@!.#!.$!.%!.&!.*!.=!.-!.;!.;!.>!.,!.'!.)!.ts YR CS 5Y !!.~!.6#.f%.{!.]!.^!./!.(!._!.O'.:!.<!._!.[!.}!.|!.~>.1!.2!.3!.4!.5!.PA 6!.7!.8!.@+.+;.v,.w,.9!.0!.`..h*.a>.a!.YY S .vT kX  V b!.c!.3W 1S d!.e!._` jF f*.r=.`..Li :&.J .P1 ",
"f!.^o }b g!.jc Y9 $0 h!.i!.j!.@u 0b [k Gr Bf )j cb cb ck k!.Ee Fe DB bp )x tp Ww )s fv 8;.l!.6G k+.m!.M#.n!.wH {).xH e@.o!.KT p!.p!.q!.r!.o!.s!.t!.|).+R u!.v!.t!.5&.w!.M,.x!.NX 5).u*.y!.z!.l&.F*.'O A!.B!.C!.tB *s (A +r >s Pr Sr `s 5o bn D!.8V Fd E!.F!.G!.Z8 qa ka 46 :6 H!.D( I!.J!.K!.L!.|b M- a1 M!.}; I$ c$ N!.O!.P!.Q!.R!.S!.o).T!.#C U!.V!.W!.X!.9%.Y!.!N )N c'.zx n%.Z!.JJ `!.[z 8$. ~..~.+~.`>.T2 @~.ZS )I gG hG 8U <q IV 8U _w dU #~.$~.N+.x).3z %~.&~.] ./q *~.=~.! .-~.N;.;~.>~.KS R).R).Ov U+.,~.'~.iU kR rV |O )~.!~.~~.{~.]~.^~./~.(~.w-._=._~.:~.<~.[~.}~.|~.1~.2~.3~.4~.5~.6~.7~.8~.9~.0~.a~.b~.c~.d~.e~.f~.g~.h~.i~.j~.k~.l~.m~.j~.l~./!.:!.n~.o~.p~.q~.r~.s~.t~.u~.Xj Zk 0!.v~.d*.z=.++.w~.x~.F9 ZY =&.H .dT ;W sX JU }W v#.;&.c*.y~.CQ -&.z~.9>.3` A~.B~.O6 Q$.h*.C~.D~.",
"E~.`e F~.G~.H~.Y7 (k Ss I~.J~.Gr Mh ,j xJ qc td ~j /J Og Qg L,.zy 6k K~.hv 1u 0n go L~.8;.;'.M~.0E N~.M,.O~.j>.P~.Q~.e@.R~.fW S~.5).v!.T~.3J G=.U~.V~.W~.X~.uH Y~.Z~.=%.`~. {.gW .{..{.+{.@{.x@.#{.${.%{.&{.bB {O zv i>.wy 2o 2o *{.Gq 5o bn #t ={.Yh -{.Lc gb Hb Qd @9 46 ;{.M: U~ >{.Fv J! F& |b ,{.'{.a1 N- 8$ <= ){.!{.~{.{{.]{.^{./{.({.o)._{.7%.U@.:{.<{.JJ [{.IR o-.%T Cl =X }{.|{.1{.2{.3{.4{.5{.6{.7{.8{.QO )I `S 9{.p-.BA _D Oy w).=#.0{.dU m..3z .T n..a{.b{.c{.d{.aN e{.N;.@#.f{.g{.u%.)T Hm ),.:L h{.}{.DM i{.[L FM fQ j{.k{.l{.m{.n{.o{.p{.q{.SV r{.J%.s{.t{.DG u{.v{.w{.x{.y{.z{.A{.B{.C{.D{.E{.F{.G{.H{.I{.J{.K{.L{.M{.N{.O{.P{.Q{.R{.S{.T{.U{.V{.W{.X{.Y{.Z{.`{. ]..].+].@]. ).0!.#].$].%].&].*].8!.ae 0*.*&.=].e` -].;].c` >].y~.pX c*..l pX x=.v,.b*.5>.F,./P @o SI ,].'].)].",
"h!.!].Fg ~].ue Y9 <p #0 I~.}&.kc {].kc !a we nc Bf Bv ]].2m tM Qg td 2m 1m oo  i +i 2o ^].'x 8S sS p` M,.;%.j>.wH /]./].(].,V JT _].:].<].[].}].|].j>.]).M#.1].+R -%.F=.M#.N#.JT 2].+{.p!.3].(%.F*.${.9E oM 4].6G 5].3u G*.6].a).7].8].bn lo +i 9].0].a].b].(a ^0 $8 w3 O{ `g K] S: c].5' U: 3& e' d].e].f].g].h].i].j].k].l].m].n].o].p].q].r].s].VW t].u].Y*.v].w].x].y].z].|q N+.)T A].B].C].D].E].F].G].H].I].J].K].J).`Z `Z L].M].6t N].O].Ru P].O].dU Q].R].S].T].U].V].W].X].Y].Z].`]. ^..^.2x ^#.JR VO g$.i$.,~.+^.@^.z%.FR X;.#^.v-.$^.%^.t'.&^.NR &` *^.=^.-^.;^.>^.,^.'^.)^.!^.~^.|D {^.]^.^^./^./^.(^._^._^.:^.<^.[^.}^.|^.1^.2^.3^.4^.!*.5^.6^.7^.8^.7^.9^.0^.O'.`{.a^.b^.c^.Ul d^.e^.f^.l*.L .g^.'].h^.w~.+;.++.=v vT 0` i^.j^.k^.WY ++.-&.x=.C7 2>.u,..M )&.`..W1 ih M .,3 l^.;3 ",
"m^.%a yf `6 na jc >j n^._k Af @u {m <l )a ]a ,a ]j Pg Ef o^.Lg {n Mg De Rg 6k p^.Ur Zq FP A>.q^.r^.s^.t^.VN M,.2).j>.;%.>%.u^.+R v^.w^.x^.y^. {.j>.z^.A^.B^.)Z +R 1].C^.D^.E^.JT JT JT F^.G^.l&.x@. U pJ H^.qJ I^.J^.B>.K^.C>.fv a).+t tp an L^.o+.NN M^.N^.O^.Ye  9 g5 c2 '1 X7 19 B) V- o' P+ P^.Q^.R^.S^.T^.U^.V^.W^.X^.Y^.Z^.`^. /.iO ./.uZ -T +/.@/.sI #/.$/.%/.x].Py Dl &/.y].tR */.=/.-/.;/.>/.,/.'/.)/.!/.~/.{/.]/.>I 'r ^/.//.(/._/.:/.</.5t [/.VO iu }/.|/.1/.2/.3/.4/.5/.6/.7/.8/.9/.uZ 0/.@*.U+.VO z%.a/.q-.b/.c/.jQ $*.V>.FM v-.d/.e/.f/.g/.h/.xY i/.%w j/.k/.l/.m/.>U n/.o/.RJ p/.q/.r/.s/.t/.u/.v/.u/._^.w/.x/.y/.z/.R@.A/.B/.Uv is hs ut ut ut VR hs C/.D/.N'.P'.E/.F/.G/.H/.Zk @].w~.I/.9!.J/.K/.L/.M/.r=.,&.N/.*;.O/.P/.Q/.u#.R/.B~.S/.=b ,+.=5 H .-&.4` L9 =5 T/.@o 74 U/.+3 ",
"V/.$0 5b F>.:9 Yd Vc jc I~.[k W/.Ae ek wq Tc ek Tc 2k Mg oc xe Be Ng Ce He Qg X/.Y/.0n Av iP 8S 0E Z/.`/. (.n!.Z~.k>.)Z Y~..(.+(..(.>%.@(.F^.#(.{).$(.%(.&(.>%.*(.JT G=.F^.G=.JT JT =(..(.-(.;(.]..E` RK B!.C!.I^.2&.FP Av sM 8;.#-.hv ko Uq bl >(.Nf Rg ,(.'(.>0 %9 70 |1 F( g4 i3 ^, y_ P: )(.!(.~(.18 e0 J3 _[ {(.](.^(./(.((._(.z+.:(.<(.[(.|O }(./L rI $/.$/.OE 0/.|(.Gm ns 1(.2(.3(.4(.5(.6(.7(.8(.9(.0(.a(.B).b(.b(.c(.d(.e(.:z f(.o8 g(.[z h(.f-.i(.j(.k(.l(.m(.n(.o(.p(.q(.r(.s(.t(.u(.D+.~,.g$.h$.a/.{=.{=.LJ v(.w(.x(.sV y(.OE n'.z(.A(.e/.B(.=F C(.oU D(.E(.F(.G(.H(.I(.J(.K(.L(.wV M(.N(.O(.P(.v/./^.Q(.R(.S(.T(.U(.V(.W(.X(.gs ou Uv is Y(.hs js qQ Km Z(.`(. _.._.+_.@_.#_.$_.%_.@y 8!.g^.&_.m*.*_.w=.,&.Q .,&.v#.=_.Q/.-_.=b .%.;_._H +).>_.,_.M9 4` hh =5 43 .l /P '_./4 #6 )_.",
"!_.`8 U6 V6 V6 ^o ;).Y9 ;j :k Y9 ';.rd oc Vd nc mc nc Tc Uc Gb Rd nc ~_.Ng {_.4k Hf bl lp EE 6B 5Z ]_.QN 3M ^_.3M /_.(_.__.:_.)Z <_.-%.1].oP +(.xH xH +G [_.|).JT JT JT JT JT JT oP }_.k>.ZX F*.F*.0).pJ |_.1_.y@._R A>.G*.6u Pr gv ko 9m Kd 2_.Re Kf Bd 3_.^0 '9 ;0 ,| _1 F( #[ %} #{ p' .~ [> 4_.>d p0 r0 A4 y2 5_.6_.7_.8_.9_.0_.a_.nV b_.c_.`O .P DM d_.wI MJ e_.f_.Py g_.h_.o-.$/.i_.TR Y(.Km ^d vt <A /g j_.Bm bz zl zl b} zl zl LD Gn wx P+.b} wx 6R k_.l_..h .e xu hs Km $@.xu <A m_.n_.W(.0/.iU :L o_.BA wI d_.p_.X>.j{..P _U q_.BM !T $*.x(.r_.s_.B..t_.u_.v_.w_.x_.y_.z_.A_.B_.C_.D_.E_.F_._$.P(.G_.H_.I_.J_.I_.K_.L_.TG gU M_.Km ht Uv ut Km ut Km VR $@.N_.O_.P_.l~.j~.Q_.R_.S_.T_.o#..;.d*.hh U_.V_.=).W_.z~.R .w#.]p g*.>&.X_.,&.h*.X$.0*.+;.]&.i*.Y_.7` YY P .)&.7` I/.U1 S0 0e ",
"Z_.yf G~.}b /k $a 3b >n U8 Y9 `_.{E ;a ek IE wq xS He %i pd la  :.Od .:.dm Mg ud Ge 2m bl do hy nB +:.@:.#:.$:.%:.&:.*:.=:.-:.;:.>:.,:.':.):.!:.~:.{:.]:.^:./:.(:._:.::.<:.[:.}:.=V |:. G 1:.`=..D 2:.3:.kP  Y !O tB o&.FP gv hv Pr cp an Pf 6k gp [a >0 ~0 Uc 4:.02 e5 5:.W~ $} 66 V: y$ r^ *{ 6:.7:.s0 8:.A4 u5 9:.0:.a:.b:.c:.d:.e:.a..f:.g:.h:.i:.Pv JJ TO j:.Hm k:.l:.m:.n:._w o:.p:.X@.$@.Uv Km Km Uv ^d q:.r:.b} b} b} b} b} 4[ bN P+.,#.b} b} b} b} h%.s:..h .e yu is #F qQ 9s xu t:.u:.v:.w:.iu Pv rs wI x:.y:.z:.p_.y..A:.Y+.i{.qY iU r-.B:.C:.D:.E:.F:.G:.H:.I:.J:.K:.L:.M:.N:.O:.~!.P:.Q:.R:.S:.T:.U:.J_./^.V:.TG H_.v/.W:.X:.#F Uv hs is Y(.is VR pQ ^d Y:.Z:.`:. <.+_..<.+<.@<.#<.9C 0g L/.pX 3` =&.w,.1>.cd $<.q,.%<.&<.ee R0 +;.=b L .*<.z=.N .=<.&+.-<.#+.O6 6>.0*. %.&5 $6 ;<.",
"><.yf ,<.`_.#a '<.)<.Vc 2b te !<.~<.{<.*a ^l ]<.+0 7k If qa >a 'a Xf Wf X8 )a qc )j cb /O <n Xw ^<./<.(<._<.:<.<<. D [<.}<.|<.1<.2:.lM 2:.2<.ZC 2V SH TH 3<. D 4<.wW 5<. D `C F*.6<.7<.F*.8<.0).#D 9<.3:.0<.a<._R b<.A>.Av gv hv 2o np 9@.L,.tM Le xd Mc $9 Z8 Sd &7 v3 Q{ S{ hc c<.s' f, E  q+.d<.e<.p0 q0 J3 e0 5_.f<.g<.h<.o).i<.:(.j<.c_.k<.TO iu BA l<.!X iu m<.n<.Q].Mn El N+.2x o<.Nu X@.p<.Uv vt /g /g q<.yt b} b} b} b} Bm S2 ar r<.|C b} b} b} zl s<.t<.yu .e .e il nu hs 9s xu u<.v<.rV (L IR w<.JV fQ `O mO x<.y<.xL z<..P A<.B<.iU C<.+^.D<.E<.jI F<.G<.H<.I<.J<.C-.K<.L<.M<.N<.1U O<.P<.Q<.R<.S<.U:.T<.U<.V<._^.W<.v/.X<.Y<.#F Y(.#F Uv Uv !*.Z<./g qQ `<. [..[.._.+[.@[.#[.$[.%[..).7>.r=.2>.vT &[.*[.=[.-[.;[.>[.,[.'[.)[.![.Y_.#+.#+.$6 V_._&.~[.{[..+..k V_.$].d*.J .][.^[./[.",
"([._[.:[.vf /k fc Rs >).<[.[[.}[.}b ;j |[.`7 ^6 +0 xJ %0 $8 `e +0 >a Y8 W8 -j nc Be 3k :R 1[.Zr 2[.ky 3[.4[.5[.nB nB &{.yW CP 1_.bB bB 6[. Y CP rS nM oM 0E oM nM nM 7[.@D WC WC 8[.8[.@D %D 9[.6;.0).3:.0[.a<.a[.b[.B>.3u Pr 7u tp @i wb Re c[.Lc fb ]a gb .8 d[.,| #7 F( 11 k3 Z~ ^, W{ U{ q+.e[.f[.+c Io Zb Zb 18 g[.h[.i[.j[.k[.l[.m[.n[.m'.6t `Z o[.wI JB !T N].p[.q[.|q 2A 2A Ov r[.=c Nu ^f Km ^d 2h /g s[.t[.b} b} b} zl u[.S2 S2 i..;=.b} b} b} KA k_.v[.Uv .h .h .e nu ht im ht w[.x[.y[.,I z[.)X OS PO |O A[.B[.u).C[.D[.E[.{K i{.F[.h{.l$.G[.lR D%.H[.I[.!U J[.K[.|,.L[.M[.N[.O[.P[.Q[.R[.S[.T[.( .T[.:^.U[.v/.G_.J_.S<.^^.V[.Km pQ Km hs hs 3-.W[.X[.Y[.Y:.Z[.`[.P'. }..}.+}.@}.#}.c!.B,.$}.*v -_.%}.&}.c` O/.*}.=}.g*.-}.;}.>}.,}.'}.'}.)}.!}.X_._&.~}.{}.]}.&+.^}./}.h*.*5 ZY (}.",
"_}.:}.<}.Hh Hh Hh [}.Ig {E Hg >n Gg Rs *j Fg [9 Rd ve *i *9 ^6 `e Xf >a }}.Rd xJ Ce ck [t Df #s |}.1}.2}.3}.4}.QK 5}.6}.a<.pM 1_.1_.7}.y>.yW 8}.bB |J yW 0[.9}.B!.0}.a}.b}.XC 7E c}.a}.WC d}.a}.e}.A!.H^.I#.y@.z>.o&.f}.2o hv dn 's Qf Lf Hd cb |a g}.%0 @0 qa =$.,9 f2 u3 ,| ,1 `g S! h}.i}. { j}.k}._[ l}.Zb 8:.m}.n}.o}.p}.q}.r}.s}.t}.u}.R).|q v}.w}.e_.JJ x}.y}.o-.2A f_.2A Em o_.z}.*c Pa {e {e /g ^d qQ A}./q b} b} =H b} r:.Gn B}.M).j..b} b} b} b} C}.D}.xu .h .e il <A 9s yu ut E}.F}.n;.)N JV dU ~X G}.cQ H}.I}.'T :$.{X u}.V>.J}.K}.{T A%.r_.D:.D:.|=.L}.M}.w_.N}.O}.%!.P}.Q}.R}.S}.T}.U}.V}.Q(.T[.t/.U:.9U PZ J_.U[.bY W}.X}.gs Y}.$P Km js js 5,.-!.SZ Z}.`}.S'. |..|..<..|.+|.@|.@&.#|.)[.$|.%|.&|.*|.=|.qX ,k gz A#.-|.=_.)}.R .;|.'}.>|.R .,|.Z$.'|.7` $6 ^[.*+.,].E8 T/.y~.lr ",
")|.!|.~|.{|.0' ]|.^|./|.(|.Hg $a Ih 2b >n J8 _|.3b [}.#0 Vc 2b 1j Hb Hb :|..:.&i }j Ng <|.[|.Hd }|.;t ;t ||.3}.7B 1|.[+.bB [+.aB 1|.2|.y>.3|.bB pB qB CP qB 4|.5|.6|.7|.8|.9|.0|.a|.b|.b|.6|.gB c|.mB 5}.6}.uy b[.=s hv Pr gv d|.9n Kd wb 4k Hf He Ng %0 qa >a ka Rc e|.72 62 95 F^ ^, o' U{ %; f|.g|.Zb r0 A4 p0 h|.i|.j|.k|.RM l|.t}.V<.QO |(.}q m..Cl )X m|.Y!.n|.PE Cl 2A w}.Em o|.p|.q|.=c Nu Pa XV XV VR r|.Bm b} b} b} b} P+.b} s|.t|.s<.u|.zl v|.P&.%H w|.ht Uv nu xu Uv ht nu #F w[.x|.CR y|.'N /w  T OZ bQ _-.z|.A|.B|.&T zL r-.{N t-.C|.r-.(#.LR D|.lU E|.F|.G|.H|.I|.Bu P}.J|.K|.L|.M|.N|.O|.t/.P|.G_.Q|.:^.PZ R|./^.S|.(^.T|.v$.U|.V|.Y}.Z<.W|.X|.W[.H-.Y|.Z|.`|.m~.j~. 1.@[..1.+1.@1.#1.$1.%1.&1.$|.*1.}W -[.=1.-1.|@.g*.&|.>}.b>.;1.;|.1>.d` .M ZY >1. %.SI ,1.~4 >1.J .-+.M .'1.",
")1.F- !1.~1.{1.]1.^1./1.(1.wf wf ;j X9 oa 9' 12 P7 fl E! _1.!7 :1.fm 81 )7 [8 Sd we Tc !a ab Fd Rg EW <1.[1.qv Xz NC Uz qv 2B }u }1.|1.pB 4}.11.21.qB 31.41.51.61.fB 71.81.91.01.a1.b1.c1.d1.e1.f1.g1.!O !O _R ty ,s uv Pr +t |n h1.Og !).ud sc Sf F!.Sc .9 ba {0 Yf Zf ^1 b5 K: Y~ V] e= i1.P] j1.k1.l1.m1.n1.o1.p1.q1.r1.s1.^Y X*.t1.u1.8U |q At Uo Oy ~X $~.v1.)X v1.Ru PE El w1.x1.y1.Pa Nu Pa ~e *c Pa ^d z1.KA b} b} P+.b} b} P+.KA i..q..M).-~.A1.O&.k_.B1.4^.qQ Pa TR Nu Pa vt gs C1.D1.l'.)X vI Ln (F vI v1.`O yL E1.{X OJ X;.n{.F1.G1.H1.I1.J1.J1.K1.L1.M1.N1.O1.P1.Q1.R1.m/.S1.T1.U1.V1.W1.X1.PZ Y1.Q|.J_.t/.U[.Z1.`1.T[.TG  2.6,./r v$.U|.X|.W[.X[.Z<./r Y|..2.+2./!.@2.#2.$2.%2.&2.*2.=2.d` -2.N/.>}.;2.2>.=v *1.>2.,2.'2.)2.&1.!2.j^.-2.N/.VA (b /3 R0 b>.rh I .*b {}.~2.{2.(5 @3 ",
"}[._|.J*.i) ]2.=> ^2./2./|.$a ,<.(2.vf H! Y[ R{ Z< K] 31 y( _2.:2.v& <2.[2.}2.|2.F>.pd _8 81 12.*0 9o 22.<1.32.42.mv 52.62.72.82.dy ny 92.11.02.-A [+..U cB nB &A a2.b2.c2.BK dP d2.e2.f2.g2.h2.i2.j2.{A ~A k2.EE cy wJ l2.np Tg m2.Hd cb ud Be ve Od _A Y6 p4 g5 T8 R8 R8 ~1 '| u_ 5, <@ E^ 7, n2.o2.!i 9s im 9s p2.q2.r2.s2.t2.ZW _X u2.&/.|q Ln v}.$/.v2.n;.rI Qv w2.4z 8U Cl k:.Ov x2.y2.z2.A2.B2.C2.D2.E2.F2.G2.H2.I2.J2.K2.L2.M2.N2.O2.P2.Q2.R2.Q[.S2.T2.U2.V2.W2.X2.Y2.Z2.`2. 3..3.+3.b..l'.:{.CD :D Pv @3.p-.fG h{.FM #3.$3.YO %3.&3.*3.=3.k{.~T CZ ],.-3.;3.>3.,3.'3.)3.!3.~3.{3.]3.^3./3.(3.bY _3.T[./^./^.U[.S[.^^.G_.bY _F :3.<3.[3.}3.|3.13.23.33.43.53.63.73..[.83.93.+_.@[.03.a3.b3.c3.d3.d3.N/.e3.'}.b>.,k f3.g3.$|.h3.i3.1>.+).j3.k3.l3.m3.>l .j n3.$}.R .%1.4@.o3.j*.F7 Q0 Q9 ",
"p3.9' M!./= _, q3.r3.s3.}b Hg ;).:p M8 ~6 F! 7' m3 F_ u) t3.Dz &* 0@ -* =. u3.v3.,m id y= b> w3.^k Rs x3.y3.z3.A3.B3.C3.D3.E3.0].F3.52.G3.Xz H3.&A 9B ;A eB my I3.&A J3.K3.L3.H| >2 M3.N3.O3.P3.H3.Q3.(t R3.^t Av )x 5o 's bn Of bk 3k cb td S3.Xe Gb la .9 :|.q&.T3.`7  7 n3 %7 @[ z/ D) L! U3.V3.W3.)i !i 9s xu X3.+F bL Y3.Z3.pI Qv ['.N+.(w 1A (L `3.>T !N OE Y*./L 1F 4z CD o[. 4.m<.(w Oy .4.+4.@4.#4.$4.%4.&4.*4.=4.-4.;4.>4.,4.'4.)4.!4.t .~4.{4.]4.^4./4.(4._4.:4.<4.[4.}4.|4.fQ BM 1K l'.FM PO c'.14.i$.U+.h{.n'.W;.24.Z;.34.44.`).54.64.74.#^.84.94.L1.04.a4.b4.c4.d4.e4.f4.g4.h4.i4.j4.k4.:F S<.S<.l4.m4.S(.W<.R|.( .( .n4.o4.p4.q4.r4.s4.t4.u4.v4.w4.x4.y4.z4.A4.:!.@2.B4.C4.D4.E4.F4.G4.H4.I4.J4.$|.R .cd $<.K4.L4.lg &|.M4.1>.N4.>l O4.P4.Q4.R4.S4.I4.k^.2>.%}.j^.,2. %.he Vm T4.",
"U4.O8 g).Q~ 7& V4.W4.X4.Y4.^o G~.U6 fl Z4.X~ L: 91 `4.w$ u= S/  5.;) 6e 4d G1 .3 ;4 7e 9e .5.B  +5.d> oC @5.#5.$5.%5.&5.*5.=5.-5.<1.;5.>5.42.,5.'5.)5.!5.~5.{5.]5.^5./5._2.>W (5. B _5.:5.<5.[5.}5.|5.Vz 15.8Z _t [u b).Df Zh Rg Dc Ng cb Ce we kc 6b wp T3.;0 02 '8 25.35.Wc >i S{ z) w_ :@ 45.55.65.il 75.wu 85.95.]{.05.iV `J a5.)X b'.m..T;.JB (L Q).8U 1A =X /L )N QO PE NZ rs JB JB El b5.To KJ c5.d5.e5.>,.f5.g5.h5.i5.j5.k5.l5.m5.n5.o5.p5.O).q5.r5.oZ s5.t5.u5.v5.u2.w5.x5.F[.FM y5.EM hU z5.)X o-.1(.p-.$/.h{.{N A5.B5.C5.D5.E5.F5./,.G5.H5.I5.J5.K5.L5.M5.N5.O5.P5.2=.G(.Q5.Q5.R5.S5.T5.U5.S[.J_.G_.R|.V5.(^.I_.(^.G_.G_.W5.X5.dK cN 4[ b} b} Gn b} b} b} Y5.Z5.`5.@2. 6..6.+6.@6.#6.$6.%6.n3.&6.*6.&1.$|.=6.-6.;6.=6.w#.>6.,6.=|.j^.'6.)6.!6.~6.{6.]6.^6.=|.=v j^./6.(6.wh _6.;].&&.",
":6.t&._|.<6.[6.}6.Q~ t&.re F>.V6 H~.|6.~].+[ Y~ ~7 5. 16.#b 26.D6 36.46.56.66.76.86.96.06.N0 7e 3e a6.9H b6.c6.d6.e6.f6.g6.h6.i6.j6.k6.l6.m6.n6.o6.p6.q6.r6.s6.t6.u6.0P v6.w6.x6.fF y6.z6.A6.B6.C6.[1.nv f}.@r mp Wr VF c[.Qg Le xd sc we Lc Tc Gb ~n pd T3.D6.Yf '8 h4 i4 35.E6.u^ z) y$ &{ M$ F6.G6.H6.H6..e I6.J6.K6.G%.gR {U L6.JJ n<.`S ,I TO y}.BA OE =X o:.hU )N Qv Qy 8U M6.1x 1A El ns n:.N6.((.O6.P6.}I Q6.R6.S6.T6.U6.V6.W6.X6.Y6.Z6.`6. 7..7.+7.@7.z|.#7.~I uI $7.`Z [L BM g$.lY y5.[L ^L ,I O].y}.KJ `Z !T z%.h{.%7.n{.~T &7.*7.=7.-7.J5.;7.>7.,7.'7.)7.!7.~7.{7.j/.]7.^7./7.(7._7.:7.<7.PJ J_.G_.(^.[7.W5.v/.G_./^.}7.R@.|7.17.Gn 3U 3U 27.37.zl b} 47.57.67.77.87. }.97.07.a7.b7.c7.+Z d7.2S $|.e7.>|.%<.f7.;+.R .g7.h7.i7.j7.k7.l7.Ms m7.n7.Cs o7.p7.q7.=}.r7.s7.=v q7.t7.u7.Zt ",
"re D- te _|.v7.-$.J*.-> T7 Gg Fg 1j ^1 O7 X~ V: 3. w7.x7.y7.z7.A7.B7.z7.C7.D7.E7.F7.G7.H7.06.I7.66.;3 J7.u= :2.@f K7.L7.M7.}6 N7.O7.P7.={.Q7.R7.S7.T7.U7.V7.W7.X7.Y7.Z7.`7.Tm  8..8.+8.]H @8.vd Vr #8.$8.|}.9Z %8.$Y &8.c[.[j 9o [j )j xS Uc xJ 5b Vd .9 *8.x3 =8.Yf ,8 62 Zf #a Z< L_ +a i> P^ -8.;8.>8.ou hl ,8.'8.)8.!8.~8.{8.E+.x:.mY ]8.1'.J}.g$.!X hU o:.vI MB n;.Qv |x Py y}.n%.rs Ov ^8.M].}'./8.(8._8.:8.<8.[8.}8.|8.18.28.38.48.58.68.:Y 78./N hU OE Ak :q T;.88.(F :L a/.UO BM y[.DM MJ !T )T o-.98.p-.1O 08.a8.b8.c8.d8.e8.f8.g8.h8.i8.j8.Z).k8.l8.m8.:,.@>.1X n8.o8.'U p8.MM +Q q8.r8.s8.^^.u/.Y1.t8.W:.P(.u8.U[.<D rI v8.w8.x8.b} b} b} y8.z8.A8.Gn Gn B8.C8.D8.E8.B4.F8.G8.H8.I8.J8.K8.L8.CQ z~.M8.%|.;2.X_.N8.R .$|.O8.Ms &}.&l P4.q7.i7.P8.Q8.P8.Q8.R8.S8.T8.U8.k3.>[.N/.V8.W8.",
"00 y! 0' T7 X8.Y8.8' V7 Fg :p |6.fl i3 9G  ] 4> Z8.`8.H7.y7. 9.36..9.+9.@9.#9.$9.%9.&9.*9.=9.v8 bf C6 E1 -9.;9.GF >9.z( ,9.'9.)9.!9.~9.{9.]9.^9./9.(9._9.:9.<9.[9.}9.|9.19.29.|d m; #b Ki 39.49.59.69.79.,t 89.Y .9k 99.Ad Ad Hf 09.xd Uf %0 .9 Gb >a a9.x3 :9  0 p3 Zf `7  0 Q8 e4 G- Q~ h, B& b9.c9.Z<.Uv im d9.e9.f9.g9.s5.((.h9.|L i9.j9._#.}(.e_.8U #~.9{.k9.CD Y*.Qv M6. 4.JB Py _D El Bk Ov |K 6..R;.!$.l9.m9.n9.o9.3X MR p9.lY [L 'I Pv BA q9.88.vj r9.s9.t9.u9.v9.^L j:._L DM BM w9.TO iU x9.[{.8U n%.EV $/.J}.y9.z9.A9.B9.F1.C9.`;.D9.D9.E9.F9.{~.G9.~7.H9./T I9.J9.K9.L9.M9.l/.N9.O9.P9.Q9.R9.S9.u8.(^.Y1.(^.O(.Y1.v2. P T9.U9.V9.P+.b} b} W9.X9./q aF Y9.Z9.`9. 0..0.+0.@0.@0.07.#0.$0.iX %0.VY s=.g7.%|.e` )[.&0.*0.=0.-0.;0.>0.q7.P4.,0.i7.,0.'0.)0.,0.!0.~0.l3.N/.N/.T8.{0.]0._2 ",
"^0.J8 V7 ~].H~./0.[9 g4 `6 X9 %a #[ +{ `t @^ Bi W4 (0.(0._0.G7.D7.`8.:0.<0.[0.}0.:0.|0.10.20.30.u7 C7.&4 E9 E1 40.50.a] 60.70.|t 80.90.00.a0.b0.c0.d0.e0.f0.g0.h0.i0.z( j0.k0.l0.G7.m0.n0.o0.p0.q0.B6.r0.s0.t0.Ke Rf Hd 3k ]j ud <a ~_.Wd rd -i #0 }}.C@.d5 :9 od T8 u0.Zf Y9 kd v0.-$.4$ 5@ B& w0.x0.Y}.js ht y0.z0.A0.B0.C0.`^.D0.E0.t1.F0.qV G0.fQ 9{.=X 9{./L #/.{X m'.NJ n<.H0.f_.q[.I0.ns }{.J0.K0.Du 18.L0.<X !T i$.M0.N0./#.!,.To Em O0.P0.Q0.k:.Ak R0.S0.k:.^#.T0.z%.A%.]N z%.@^.[L !X DM MJ MJ w].9{.m|.g$.1'.U0.~~.V0.W0.X0.Y0.Z0.`0. a..a.+a.@a.l{.#a.$a.%a.@>.&a.<=.*a.=a.-a.;a.>a.,a.'a.R:.)a.l4.Y1.!a.Y1.(^.~a.KV {a..P ]a.^a.P+.b} b} |C /a.(a._a.:a.<a.[a.}a.|a.+0.G8.1a.2a.3a.4a.5a.6a.S/.7a.8a.9a.U8.&1.0a.aa.ba.>0.ca.P4.T8.=v ^6.b` da.I4.I4.ea.fa.=|.l3.j3.ga.,[.ha.;0.`L ",
"'} Hh Hg Gg Gg *j Gg  0 U8 15 >a #[ N  ia.ja.Sl A7.`8.b[ ka.la.36.ma.y7.$9.na.oa.pa.qa.ra.sa.s% ]( u7 ta.u7 la.w8 A6 E9 ua.w6.[: va.wa.xa.ya.za.Aa.Ba.Ca.Da.Ea.Fa.Ga.Ha.Mf E!.Z  0] s= Ia.Ja.Ka.La.Ma.Na.&8.]].[j Ie Hf Hd ud Sf Oa.~_.,a 'a #0 Xf Rc Yf i4 |9 Pa.Yf U8 X9 (k nd Qa.v0.;[ #; n, Ra.Sa.pQ $@.!i Ta.Ua.[4.38.Va.Wa.Xa.Ya.0..OS Za.u2.`3.`a.9{.y(. b.ER D[.DM GR NJ f_.M6.q[.I0.l:.`Z .b.+b.@b.{N iu !,.6t p-. 4.Ak m<.Ov Em H0.N0.O0.R0.w%.#b.N0.ku `&.(L $b.%b.T;._L W;.kR 5O &b.JJ TO i{.n<.,I MJ :L 08.*b.Y)./=.=b.Y;..!.M5.w'.-b.;b.>b.,b.u-.xZ 'b.)b.SV !b.~b.{b.]b.Q1.^b./b.(b._b.:b.<b.[b.}b.l4.^^.a%.HM R9.|b.lO 1b.2b.3b.4b.5b.6b.7b.8b.3U 9b.0b.ab.bb.cb.+0.db.eb.fb.gb.hb.q#.ib.6>.jb.kb.>}.-2.h7.>|.lb.mb.&l nb.-0.-0.ob.0` q7.Ms O4.Ms pb.qb.Ms q7.r7.d!.ga.rb.pb.|P ",
"sb._9 -j (k ^o tb.U8 `7 ub.,8 c0 ~} vb.~[ ]c Y4 wb.xb.yb.zb.Ab.*9.*9.:0.Bb.Cb.Db.E7.Eb.Fb.Q5 S5 ]( A6 w8 y6 w8 Gb.Hb.S5 C6 H,.9f `n 73 ~2 g> vN Ib.Jb.Kb.Lb.Mb.Nb.Ob.Pb.Qb.Rb..1 Sb.Tb.zr PQ Ub.Vb.E  Wb.Xb.Z8 '0 yd Jf Ie S3.)a ]a %0 ~a W/.zf od b2 '8 Rc o3 Pa.=8.W7 Hg Ih Q8 J*.Yb.9;.--.P& Zb.`b.js vt .h  c..c.+c.@c.#c.$c.E|.%c.,T !T &c.*c.=c.)X Y!.-c.zL _U .X &b.MJ ;c.>c.rs y}.Ln m..NJ M0.,c./#.:L Ov m<.m<.88.o[.s9.N0.,c.JR :L 'c.)c._L ]#.:L /#./#.!c.(L /#.~c.Pv v}.jU J}.j:.fQ l<.KJ EM KJ z%.jU A5.t-.{c.$^.]c.^c./c.(c.C9._c.:c.<c.[c.}c.|c. >.1c.2c.3c.2X @>.4c.5c.6c.7c.8c.9c.0c.ac.v/.W<.P(.bc.Y1.(^.cc.dc.ec.d .fc.gc.hc.ic.ic.jc.kc.lc.ts 5U mc.nc.oc.pc.qc.rc.sc.tc.uc.vc.wc.>].c>.>}.kb.xc.&1.xc.yc.zc.ba.Ac.'6.Bc.-2.V8.b` Cc.N/.q7.I4.,0.Dc.b` |S Ec.&_.Fc.Gc.g*.hq ",
"Hc.`7 Y8 yq Kh Kh X7 (6 %} Y~ M: j, yi Ic.S5 06.w8 Jc.Jc.76.Kc.:0.ma._0.@9.G7.}^ U, b~ Lc.5d ]( |^ =- |^ &4 ]( y6 C6  3 E1 bf Mc.+3 9g 6C Nm Nc.g# Oc.Pc.Qc.Rc.Sc.Tc.Uc.Vc.Wc.jh Xc.>) Yc.Zc.`c.Ji  d.n2 da .d.We +d.0a |a !0 Uc {a Sc 9b 6b Xf .8 +8 U8 X7 X7 o3 35.2b ;j (|.'<.v0.@d.#d.$d.%d.&d.*d.#F VR .e =d.-d.;d.>d.,d.'d.)d.!d.)I q_.~d.@b.(K {d.]d.F[.<K ^d.<U n'.n'.w:.!,.p-.R)./d.m<.JR KJ ju ),.'c.Ov (d.^#.Pv M].Ov 88.Pv a .Pv R).KJ 2O 1O v9.:L _d.!c.)C iu R0.-#.^8.`Z W;.MJ !X :d.{=.$*.]N <d.l$.[d.}d.|d.],.1d./,.(c.2d.3d.4d.5d.6d.7d.8d.9d.0d.ad.bd.cd.3X |=.dd.ed.fd.gd.hd.id.jd.kd.UG T[._^.v/.(^.^^.ld.md.KV nd.od.pd.qd.rd.sd.td.ud.vd.x8.wd.xd.yd.zd.Ad.Bd.Cd.Dd.db.Ed.Fd.Gd.Hd.Id.%}.kb.xc.g*.=_.Jd.i3.Kd.Ld.&l %<.j3.Md.>[.T8.Nd.q7.)6.Od.Pd.p7.l3.z~.Qd.K/.N .o3.74 ",
"Rd.d5 .0 Xd Xd Sd.4b Td.51 `g T{ == 2e J1 ^c .3 66.z7.Ud.@9.@9.Vd.B1 36.w8 w8 36.*) b~ G7.5d E1 |^ I> S5 u7 &4 n; j* i{ S5 Wd.la.#b *3 *4  3 i{ `4 jr Xd.Yd.Zd.`d.y( in 34  e.5f i{ .e.jh +e.@e.#e.$e.%e.Td x3.&e.*e.We Od ~0 D>.Vf {a ;a }}./8 Rd Vc o3 X7 =e.U6 /8 :p -e.;e.>e.,e.'e.J*.S) ~> )e.!e.4^.gs .e ~e.{e.r5.]e.^e.F(.a4.L6.v).]d./e.(e.iQ ~X OS r_.QS B%.KR @^._e.^L Rv ,I v}.f_.N0.:e.KJ `Z o[.Pv To }{.N0.,c._d.N].|x m|.)X l<.VO ^L i:.<e.'c.v9.U+..4.<s Pv s9.U+.i$._L !T y5.j{.[L [e.}e.|e.kR A%.[d.k{.1e.2e.3e.4e.5e.6e.e/.7e.yZ 8e.9e.0e.-3.hV c5.$c.ae.G|.)d.be.P).ce.de.ee.fe.ge.he.t/.ie.R|.je._^.Q<.R|.1K x:.|Y ke.le.me.lc.ne.x8.oe.pe.ne.qe.re.se.te.cb.ue.ve.we.sc.#0.xe.R8.e!.qX &1.>}.>}.;2.ye.Jd.ze.Ae.>0.,[.Be.u7.'[.j3.,[.zc.!0.Q8.R8.Ce.m7.De.&|.G6 Ee.=&.z=.A7 ",
"!} :8 |9 la  :./0.35 !} u) Fe.Ge.He.Sl >4 w8 Ie.Je.36.Ke.+9.b~ :0.*) F7.A6 v8 y6 y6 5d H7.`8.t7 -) n; .3 C7.E1  5 >4 S5 D1 D9 5d Wd.m} A6 la.]( E1 k| L0 Le.K0 K1 q} y7 ;3 Me.Ne.I1 I0 P( {c j* z6 Oe.0. Pe.I( Qe.Re.Se.Te.gb  9 .9 ;i .8 :9 T8 ^o Wf d5 k2 i3 X6 >i X7 >n [[.N7 Ue.Ve.'e.We.o/ Xe.Ye.Km js .e Ze.`e. f..f.-d.+f.1=.&b.@f.PS {T #3.FR i{.D5.[U D<.#f.PS @^.{N #3.$f.BM `Z Pv `&.a ./#.:L /#.)C s9.(d.6t @3.{=.n|.$/.FM !X )X g$.j:.[L [L <L )C 1O :L .*.]#.:L %f.)C z%.FR &f.*f.2Y =f.-f.jQ B(.;f.k{.],.Z0.Z0.>f.,f.q'.-f.44.'f.)f.E9.!f.~f.yZ {f.]f.^f.`J C-.D-.d4./f.(f._f.:f.<f.[f.}f.u/.ie.T[.J_.(^.W}.|f.v2.qI ;T 1f.2f.3f.4f.VS 5f.4b.9b.6f.7f.8f.9f.0f.af.bf.cf.df.cf.ef.ff.gf.hf.qX c>.jb.e3.,[.if.jf.kf.ze.lf.;6.mf.i3.;}.,[.V8.P4.nf.of.pf.qf.{6.rf.%}.if.&0.g7.z=.H .",
"x' )B 7= y) F: _> 3> f= [; =* U5 50.*3 .3 a< y7.H7.`2 sf.b[ tf.{_ :! @9.C6 A6 uf.vf.=9.Q5 ;- }! i* Ei E1 E1 .3 z6  3 wf.xf.yf.D7.k| ]/ E1 /c zf.ta.w7 Af.fq  3 *3 Bf.Cf.&3 Df.I> }! ^c Ef.Ff.Gf.L0 Hf.If.Jf.Yd.Yd.~. Kf.)8 E>.&7 %Y :|.5b ,8 `7 Vc Rc 25.^1 52 (|.xf (|.<[.J8 Lf.Mf.Nf.Of.Pf.Qf.Rf.Sf.Pa qQ 8s Tf.Uf.Vf.Wf.Xf.Yf.Zf.`f._K MR KR BL $*.)~. g.+P p{.[U w(.kU [e.lY 2x iU 2x JR i$.i$._d.:L /#.p-..g.VO )C _L z%.JV DM iU MJ fQ TO TO l<.n<.TO DM kR x9.z%.5O n'.'~.h{.]N o'.)~.+g.C|.UM 1d.@g.#g.$g.K5.%g.&g.*g.=g.m{.-g.#^.B:.;g.CZ >g.=g.,b.,g.+>.J:.]f.'g.F(.)g.!g.~g.{g.]g.^g./g.(g._g.ld.:g.V<.G_.V<.SG WG U>.<g.[g.}g.|g.[T 1g.2g.3g.4g.5g.6g.7g.8g.9g.0g.eb.df.ag.bf.af.bg.cg.dg.ib.Ec.;|.X_.j3.V8.ye.eg.fg.lb.gg.gg.>0.ha.{0.!0.Ms I4.da.of.hg.ig.Dc.I4.t7.jg.&1.xc.!}.)l ",
"kg.t[ 1* )~ x= c@ j= d. 9$ <. D@ lg._c y6 a< /: ka.mg.ng.ng.`2 wf.E7.zb.06.Gb.10.og.pg.qg.rg.:c q} sg.[! &4 D9 Gb.Xc. 9.tg.{_ <! X4 E1 E9 vf.zf.ta.k; yf.ug.y6 w8 Z4 S5 Q5 vg.(: la.Q5 wg.xg.Hf.ta.yg.zg.Ag.Bg.!c Cg.Q: Dg./1 k2 46 ^1 I/ %7 W7 Zf |6.|6.Zf tb.T8 Vc :k g!.Eg.Fg.Gg.Hg.Ig.Jg.Kg.Lg.Mg.SZ Uv <A Ng.Og.Pg.)K Qg.Rg.p8.Sg.f .KR Tg.B%.Ug.Vg.Wg.Xg.Yg.D:.Zg.D%./e.`g.M6. h.y%.MJ !T 88.%f.w%.a .KJ y}.)C q9.)C `Z !X iU x9..h.DM !T x].v1.DM lY &f.+h.!T BM !T PS jQ D:.^~.C:.@h.#h. >.5d.=g.64.$h.%h.&h.*h.=h.-h.9e.|c.;h.J1.;f.#h.>h.F5.,h.'h.)h.!h.~h.{h.]h.^h.NM /h.fe.(h._h./g.:h.<h.MS [h.X1./^.W5.T(.9%.)I RO 0%.}h.|h.1h.2h.3h.4h.5h.6h.7h.8h.9h.0h.ah.bh.ch.dh.eh.fh.af.gh.hh.ih.jh.U8.1>.e3.>&.4@.kh.if.lh.Be.mh.nh.oh.>0.;].~6.ph.fa.'6.qh.{6.q7.q7.;].rh.,[.sh.th.ye.uh.",
"kr D4  3 ^c .e.w, x@ w, `@ Q@ ]c ]c S5 H7.y6 G7.zb.`8.ma.ph vh.@9.E7.wh.A6 10.sf.=- C1 *- 0] +5 ;4 06.w8 vf..9. 9.wf.xh.10.y7.B1 l| D1 m; vf.H7.yh.Gb.zh.C1 B1 H7.+9.:! Ah.u7 Bh.`2 t7 D1 sf.Ch.Dh.Fb.f} Eh.Fh.Gh.r@ Hh.Ih.Jh.&} ,1 ,1 o4 @} !1 %7 X7 F~.Ih Kh.<[.wf Lh.`_.}b Mh.Nh.Yb.Oh.Ph.Qh.Rh.Sh.Th.Uh.Vh.Wh.Xh.Yh.Zh.`h. i..i.+i.@i.nd.(#.B:.CZ #i.$i.%i.84.&i.*i.L1.OR =i.-i.;i.W;.s-.>i.,i.<L :L _L _L Q).>c.y}.o[.p[.n|.g$.$f.,I (F wI [L 'I vL BM C<.j:.x9.#3.)~.r_.+g.'i.)i.i8.!i.G1.h8.=g.~i.}c.{i.]i.^i.G1./i.=g.64.(i.D5._i.Tg.s'.G9./i.:i.<i.[i.-^.N}.}i.|i.!=.fd.1i.2i.3i.4i.]g.5i.+b.6i.(^.7i.R|.V<.T(.9%.[$.8i.a%.9i.0i.ai.bi.ci.O&.] .*~.di.ei.fi.gi.hi.ii.97.ji.rc.ki.df.li.mi.ni.*6.m3.r7.oi.xc.pi.ye.$|.qi.Kd.gg.ri.ph.Cs Ac.si.ti.ti.Ld.Cs '0.>l ;0.*1.-2.;6.f3.ui.vi.wi.",
" 5.^c `_ s% ,# w@ Lt =) I> 1! ;- v8 Mc.z7.Xc.H7.D1 xi.C7.yi.7e ma.zi.Ai.la.t7 '_ z9 m; V, (: y6 `2 Ud.+9.'_ @9.h{ Bi.ma.wh.h{ oa.Ci.D1 10.Lc.Gb.@9.Di.Ei.]( Gb.Ie.Bi. 9.@9.Xc.`2 Kc.h{ 0< Bi.Db.Fi.&) Gi.C1 Hi.2d Ii.t> Ji.Ki.`g .} ~| ,1 <6 l2 1j xf ;j Ig $a >j ;j Li.Mi.Ni.Oi.Pi.Qi.Ri.Si.Ti.Ui.Vi.Wi.Xi.Yi.Zi.`i.Xh. j..j.+j.@j..@.QG /e.{N #j.6e.!~.$j.74.F9.`).%j.&j.L5.C9.*j.}X QS n'.=b.$/.'~.1O MJ KJ (L VO V;.0/.w2.rs aY aY =X $/.hU l'.l'.DM UO n<.!T $*.=j.jQ -j.;j.>j.,j.'j.9e.)j.:i.!j.~j.)j.*h.{j.]j.^j./j._=.E5..P (j._j.&i.:j.<j.N5.s$.[j.}j.|j.1j.2j.3j.4j.5j.6j.S%.7j.8j.9j.5i.0j.:g.w/.(^.G_.aj.~a.U@.bj.,T ^X cj.dj.ej.fj.gj.hj.(q ij.[T jj.kj.lj.mj.nj.oj.sc.pj.qj.rj.sj.tj.uj.vj.-_.L4.V8.*0.O8.*0.wj.xj.si.yj.zj.ti.Aj.Bj.si.Cj.fa.P4.Dj.Q8.'6.De.Bc.Kd.Ej.Fj.Gj.Hj.Ij.",
"Jj.qg.k; m; =- ^c  3 Q5 m; |! E1 86.Kj.Ah.`8.5d A7.w8 /c /c G7.yf.Lj.#9.`8.Je.ma.Xc. 3 }! ]( Kj.@9.@9.+9.*) Bi.b[ Mj. 9.yf.ka.]: Nj.Xc.`2 F7.wf.Gb.B1 Oj.Q5 ma.ng. 9.ng.E7.Pj.Bi.ma.Bi.Bi.<0.Qj.oa.Db.Rj.'_ t7 D9  3 y% &# Os Sj.M] S~ s) }t ~].Y7 Yd V7 R8 ;).Tj.{E vf (|.Uj.Vj.:}.Fg.Wj.Xj.o^ Yj.8~.mn fu ml Zj.T%.`j.@N  k..k.iI +k./e.@k.#k.$k.#j.%k.&k.*k.=k.*7.-k.;k.>k.,k.'k.)k.!k.~k.{k.VO <e.w%.,~.CM Q).T;.Rv BA 2x Rv _D c'.<q EV `S  T RE x:.$*.|e.:U nd.]k.^k.g/.>7./k.(k.+a._k.>7.,h.7d.:k.*h.<k.[k.}k.A-.E:.|k.1k.2k.A[.3k.}d.h8.4k./T 5k.>3.6k.7k.8k.9k.0k.ak.bk.ck.dk.ek.fk.gk.hk.ik.jk.=Q ld.W5.kk.X!.lk.mk.(X nk.ok.pk.qk.rk.sk.tk.uk.lc.vk.wk.xk.yk.zk.Ak.eb.Bk.Ck.Dk.Ek.Fk.Gk.n3.ga.ga.=0.sh.f3.De.O8.xj.ba.Hk.Bj.ti.Ik.Jk.Kk.Lk.Bj.Mk.'6.Nk.qb.*|.>0.>0.Ok.Pk.xj.Qk.Ok.Mk.",
"q| #4 ^! U, &- 7# @- Rk.w7 -) Sk.#9.D7.t7 Tk.la.u7 G7.Uk.Ah.Vk.<0.Wk.E7.:0.Uk.G7.t7 D1 w7 s7 y7.z7. 9.E7..9.Qj.ng.'_ 0< yf.Bi.Xk.xh.`2 Lc.Yk.Q, sf.*) %- C1 wf.Pj.Db.Qj.Gb.sf.H7.<! :! E7.Zk.}^ Db.`k.oa.<! Uk.D7.s7 ;- t| v, u' t& E/ y3 m3 :8 W7 xf  l..l./|.Ih +l.+l.:[.Ni.fc Oh.@l.#l.Ri.$l.%l.&l.*f <x *l.=l.-l.;l.>l.,l.'l.)l..P !l.OS OS .P ~l.vZ {l.]l.fO ^l./l.(l._c._l.:l.<l.[j..>.[l.1'.j:._e.W;.z(.iU o_.MJ v%.}l.l'.V;.l'.w2.)X 'N d_.l'.BL KR ]N |l.D:.1l.2l.u-.,j.64.3l.,b.4l.5l.6l.7l.8l.'j.q{.&` 9l.0l.al.cL bl.cl.f .*j.dl.#h.4k.M5.el.fl.gl.[j.hl.il.jl.kl.ll.@N ml.nl.ol.pl.ql.rl.sl.tl.z|.aj.(^.]X sI ul.}L NV j9.vl.wl.xl.yl.zl.Al.Bl.V9.Cl.Dl.El.Fl.Gl.Hl.Bk.Il.Jl.tc.Kl.Ll.Ml.*;.-_.h7.-2.Nl.Ol.rh.mb.gg.lf.Cj.Hk.Pl.Cs *|.Ql.zj.Rl.*y Sl.Tl.ph.]0.mf.Ej.Ok.Ul.Ok.Ej.Vl.",
"D4 Wl.Xl.Yl.H, i} Zl.wg.Fb.v% D7.xh.Xc./c C7.w8 C6 Ud._0.:0.`l. m..m.Db.F7.+9.G7._0.@9.y6 +m.@m.#m.%9.$m.%m.`k.Mj. 9.:! &m.*m.Wk.ma.F7.Gb.B1 =m.H7.oa.og.Xk.-m.<0.Wk.;m.b[ '_ ma.Bi. 9.Zk.Rj.>m.E7.:0.:! ,m.xh.Gb. 9.H7.'m.)m.z- !m.I- s^ 12 `6 8' xf (|.Hh ~m.+l.+l.{m.{m.]m.^m./m.(m./2._m.:m.<m.[m.=f Ky }m.|m.1m.2m.;l.3m.'U 4m.(K G0.|e.e8.2d.@f.+k.5m.6m.7m.8m.2c.9m.0m.am.bm.be.cm.dm.,g.em.fm.em.],.gm.hm.=j.]N BL {N ^L +^.im.jm.$*.kR $*.$*.<U J1.r_.z-.xZ km.lm.mm.)j.*7.nm.om.nm.pm.qm.D..rm.A-.d .2k.2k.UW sm.u%.tm.!b.um.m8.vm.2l. >.wm.`0.xm.MM ym.fV zm.Am.Bm.Cm.Dm.Em.Fm.Gm.Hm.oZ Im.t1.R@.aj.O(.Jm.Km.OJ sI ^X Lm.Mm.Nm.Om.Pm.Qm.Rm.Sm.Tm.Um.2g.Vm.Wm.Xm.Ym.ch.Zm.`m. n..n.+n.@n.#n.$n.%n.&n.sh.Bc.*n.=n.Ul.Ok.si.zj.Pl.ti.ea.Ms -n.Pl.Pl.Q4.fa.Ac.ti.g3.=n.wj.Ul.mf.;n.gz B,.",
"3* ]: >n.qa.M, ,n.~_ ^: 'n.10.ta.D7.36.Ab.A7.w8 )n.A7.ng.oa.!n.~n.{n.]n.:! F7.Ud.z7.36.Xc.^n./n.{n.(n.<0._n.+m.:n.Zk.*) wf.<n.'_ yf.tf.oa.:! 0[ [n.pa.}n.|n.1n.2n.3n.4n.Db.&m.Db.Ai.%9.5n.%9.6n.oa.Mj.tg.7n.8n.9n.Zk.F7.06.+5 0n.an.}; ;[ h' Z< se  l.bn.cn.bn.dn.en.fn.'<.+l.gn.hn.in.jn.Nh.Nh.kn.ln.*f fu f%.mn.1m.nn.on.pn.N5.qn.j{.~K I1.rn.sn.tn.'7.un.vn.wn.xn.p8.yn.zn.An.Bn.Cn.Dn.En.<k.Fn.w-.QV f/.Gn.#h.g/.E5.>Q e/.Hn.t-.#^.#3.jQ @h.-j.6e.&i.QV In.Jn.)b.Kn.Ln.Mn.Nn.On.Pn.Qn.Rn.Sn.Tn.G:.Xa.Un.LS Vn.Wn.Xn.kV Yn.Yn.Zn.`n. >.2Y 3d. o..o.4k.+o.@o.#o.$o.%o.xn.&o.*o.=o.-o.;o.>o.,o.'o.+7.)o.!o.t).~o._$.{o.]o.]X n4.Q<.^o./o.(o._o.:o.gZ <o.[o.}o.|o.1o.2o.3o.4o.5o.6o.7o.8o.9o.0o.ao.bo.co.do.eo.=0.Ol.lb.aa.fo.Kd.De.Pl.Pl.go.ho.Aj.Sl.*y De.io.fa.De.jo.Ol.ko.rh.=n.*n.,[.lo.ff ",
"h} mo.no.oo./! po.qo.}0.ro.zf.H7.D7.Ud.`8.u7 `8.|^ w8 :n.~n.so.to.uo.Db.Mj.+9.ma. 9. 9.Ai.Db.vo.{n.wo.`k.Db.>m.;m.xo.{_ og.<n.Ff.:! $9.$m.yf.Rk.%- yo.zo.Ao.Bo.Co.Do.Eo.Fo.>m.:n.:n.Db.|0.%9.>m.`k.:0.Ai.xh.86.*9.F7.+9.uf.bf ua.V0 Go.!m.N) |b P7 Ho.Io.Jo.en.~m.Ko./1.Lo.Mo.No.Oo.Po.Qo.-$.Ro.So.To.tl tl lt Uo.Vo.Wo.Xo.Yo.Zo..X nd.o$.{N KR `o.f/. p..p.+p.'b.@p.#p.$p.%p.&p.*p.=p.-p.;p.>p.,p.'p.g8.)p.UM  o.!p.~p.'j.{p.]p.G1.^p.jU d8./p.}c.!i.(p._c._p.:p.<p.[i.[p.}p.|p.1p.2p.3p.4p.xn.5p.`J 6p.IS 7p.NM )8.8p.9p.0p.F:.9p.ap.bp.~b._=.cp.dp.)b.ep.fp.gp.hp.ip.jp.kp.lp.mp.np.L..-N op.pp.%c.t1.qp.qp.rp.cc.m;.sp.@ .qp.tp.up.vp.wp.xp.yp.zp.Ap.Bp.Cp.Dp.Ep.Fp.Gp.Hp.Ip.Jp.Kp.Lp.gh.Mp.Np.Op.Pp.th.do.i3.mb.*n.lh.Qp.ri.Rp.Ej.si.Mk.'6.Aj.pb.P4.{0.rf.;0.k7.Sp.xj.Be.*n.Nl.Sp.Be.Tp.:&.",
"Up.Vp.Wp.ro.Xp.Yp.Zp.`p.Bi.xh.Zk.R, @9.zb.A6 mg.A7.06.Jc. q..q.+q./n.xo.Mj.@q.Mj.$9.%9.+m.#q.$q.%q.&q.6n.`k.*q.=q.=q.-q.;q.>q.,q.'q.;m.E7.10.0[ )q.!q.~q.{q.]q.^q./q.(q._q.:q.Qj.Db.<0.:0.Db.:! <q.:! [q.76.I7.*9. 9.`k.A7.v8 H,.}q.|q.zr m/ Z: _|.-e.Eg 1q.2q.3q.Ko.4q.d4 5q.6q.z' 6$ k, W- v' 7q.8q.=f fu ll 9q.0q.aq.bq.cq.dq.(j.}(.rV FR eq.w-.fq.gq.hq.iq.jq.Q5._p.kq.lq.mq.nq.oq.pq.qq.nZ rq.sq.tq.E9./i.uq.vq.wq.xq.l{.J5.)j.yq.gq.*3.]j.nm.94.zq.Aq.Bq.Cq.Dq.Eq.Fq.Gq.Hq.Iq.Jq.Kq.Lq.%p.L0.Mq.Nq.Oq.8k.Pq.-a.Qq.Rq.Sq.%w Tq.+b.H:.Uq.!3.Vq.Wq.Xq.i8.Yq.Zq.`q. r..r.+r.B$.@r.#r.$r.%r.&r.*r.:(.=r.-r.cc.;r.MS >r.s}.sp.,r.'r.)r.!r.~r.{r.]r.^r./r.(r._r.:r.<r.[r.}r.|r.Ip.1r.2r.3r.4r.5r.6r.vj.kb.7r.eo.*n.mb.xj.=n.8r.>0.gg.Ej.Ok.Pl.9r.Rl.ea.io.Ol.i3.Bc.M4.ba.mf.=n.rh.Ol.ri.Pk.0r.~[.",
"ar.xo.br.Xp.cr.dr.er.`p.ma.y7. 9.ng. 9.b[ zb.<0.fr.Yp.gr.hr.ir.!n.jr._q.kr.gr.jr.`l.lr.mr.%q.nr.or.pr.;m.:n._q.qr.4n./q.rr.sr.tr.ur.vr.Db.5d wr.Ch.xr.yr.zr.Ar.Br.Cr.Co.2n.Dr.Kj.og.8~ Db.%m.Wp.Er.$m.ma.zf.w8 36.[q.Fr.76.Ud.@5 P9 {o Gr.}; d).Hr.Ir..l.Jr.Kr.Lr.Mr.Lo.Nr.Or.Pr.Qr.Rr.Sr.Tr.Ur.Vr.Wr.tl =f Xr.Yr.Zr.`r. s..s.+s.@s.&b.Z+.S;.D|.94.5l.#s.Ln.$s.%s.&s.*s.=s.-s.;s.I..>s.,s.'s.)s.!s.~s.{s.>b.Z).]s.^s./s.(s.nm._s.:s.vq.<s.[s.}s.[k.|s.1s.2s.3s.4s.5s.6s.7s.8s.9s.0s.as.bs.cs.ds.es.fs.gs.hs.is.js.ks.ls.ms.ns.os.ps.qs.H:.=w rs.ss.ts.wm.tY us.vs.pn.ws.xs.ys.zs.As.Bs.Cs.Ds.Es.t_.uZ Fs.)r.-r.Gs.Hs.Is.^U wZ Js.Ks.3d.Ls.Ms.Ns.Os.Ps.Qs.Rs.Ss.Ts.Us.Vs.Ws.Xs.rj.ve.Jp.Ys.Zs.`s. t.ib..t.@;.+t.sh.P/.M4.Qp.)2.gg.@t.Pk.#t.Sp.Rp.Ok.si.>0.$t.]0.%t.ba.Bc.mf.Pk.xj.&t.ca.=n.9a.(5 ",
" m.Vp.^n.*t.=t.-t.;t.>t.ng. 9.%9.:0.Ud.Je.y7.vr.,t.'t.)t.!t.ir.~t.{t.]t.'t.~n.^t.to.!n./t.(t.lr._t.:t.5n. q._q.<t.[t.'t.}t.|t.1t.1t.*q.2t.`p.b~ 3t.4t.5t.6t.Co.7t.8t.9t.(q.Bb.Gb.#9.tf.Fr.Bb.og.0t.oa.ng.`2 Xc.s7 ng.Mj.at.la.y7 D8 b] g, D= bt.ct.Ri.(m.No.dt.et.2q.J*.ft.gt.ht.it.jt.kt.lt.mt.nt.ot.tl fu pt.qt.rt.st.tt.mU ut.vt.wt.`f.'k.xt.(g.<k.1s.yt.zt.At.Bt.Ct.Dt.Et.Ft.Gt.Ht.It.Jt.Kt.Lt.Mt.Nt.Nn.-h.Ot.Pt.Qt.Rt.St.Tt.:s.Ut.Vt.Wt.Xt.Yt.Zt.`t. u..u..u.+u.@u.#u.$u.%u.&u.*u.=u.-u.;u.>u.,u.'u.)u.!u.~u.{u.]u.^u./u.(u._u.<f.:u.<u.[u.}u.|u.6k.1u.us.2u.3u.4u.5u.6u.7u.8u.9u.0u.au.bu.cu.du.eu.fu.gu.hu.iu.ju.ku.lu.mu.nu.ou.pu.qu.ru.su.tu.uu.vu.wu.xu.yu.zu.Au.Bu.Cu.1r.Du.Eu.Fu.Gu.]` Hu.Iu.$n.Ju.Ku.Lu.)2.8r.zc.mb.Ol.*n.rh.lf.Kd.Mu.@t.@t.xj.Pk.Rp.ba.ri.$t.$t.-2.mf.Kd.mf.9a.ff ",
"uo.-t.Nu.Ou.Pu.Qu.Ru.>m.>q.qo.Su.@m.Wk.ka.Ke.%9.Ou.Tu.^t.Uu.{t.to.Vu.Wu.]t.Xu.Wu.Vu.Vu./t.(t.Yu.Ru.Zu.`u.:n.Zu.Up. v.Fo.Ru.^q..v.|t.+v.vo.@v.sr.#v.Cr.$v.%v.&v.*v.Co.=v.^n.z7.ma.$m.Yk.Bb.0< Af.Sb.ma.E7.ma.10.zf.:0.b[ G7.C7.x7 8g -v.u& _; z6.;v.Oh.>v.,v.'v.)v.Lr.<%.!v.~v.{v.v$.~*.]v.->.Y[.^v./v.zn GZ (v._v.:v.<v.Nq.[v.$Q Za.@s.p$..i.}v.|v.1v.2v.3v.4v.5v.6v.7v.8v.9v.0v.av.Ht.bv.cv.dv.ev.fv.gv.hv.iv.jv.kv.lv.mv.nv.ov.pv.:s.qv.rv.sv.tv.uv.vv.wv.xv.yv.zv.Av.Bv.Cv.Dv.Ev.Fv.GO Gv.Hv.Iv.Jv.Kv.Lv.Mv.Nv.Ov.Pv.Qv.Rv.Sv.Tv.Uv.Vv.Wv.Xv.Yv.9c.Zv.`v. w..w.jp.+w.@w.#w.$w.%w.&w.*w.=w.-w.;w.>w.,w.'w.)w.!w.~w.{w.]w.^w./w.(w._w.:w.<w.[w.}w.|w.1w.2w.3w.4w.5w.6w.7w.8w.9w. n.ji.0w.aw.bw.cw.jh.dw.k3.s7.f3.Sp.Kd.wj.Sp.mh.Be.aa.ew.ca.Kd.fw.gw.@t.hw.Ul.iw.Sp.mh.gg.mf.xj.)2.8r.rh.9a.%6 ",
"'t.Ru.Qu.oa.*) oa.qo.jw.kw.lw.jw.mw.nw.vr.Fo.ow.pw.Vu.qw.{t.]t.qw.to.{t.rw.rw.sw.tw..q..q.%q.uw.Up. m.$9.(0.xo.xo.{n.kr.uo.4n.8t.Su.xo.Bi.Su.vw.ww.xw.yw.zw.Aw.^q.Bw.Cw.Dw.Qj.Bi.8] Ew.Ai.Sk.Fw.ma..9.=- 36.H7.s7 Gw. 9.36.Hw.x7 -9.o@ Iw.Iw.Jw.)k Kw.Lw.Mo.Mw.Nw.Ow.Pw.Qw.Rw.5,.SZ #F F'.->.Y[.Sw.Tw.zn ) .Uw.Vw.Ww.Xw.#>.Yw.v'.Zw.`w. x..x.+x.@x.#x.$x.%x.&x.*x.=x.-x.;x.>x.,x.'x.)x.!x.~x.{x.]x.^x./x.(x.2p._x.:x.<x.[x.}x.|x.1x.2x.3x.4x.vv.5x.6x.7x.8x.9x.0x.ax.bx.cx.dx.ex.fx.gx.hx.ix.jx.kx.lx.mx.nx.ox.px.qx.qx.rx.sx.tx.ux.vx.wx.xx.yx.zx.Ax.Bx.xs.Cx.jp.An.Dx.#w.>~.Ex.$w.Fx.X%.Gx.Hx.Ix.Jx.3U Kx.ZR 3U Lx.`V Gn dK eK ZR Mx.Nx.Ox.]v.M%.Px.Qx.Rx.Sx.Tx.Ux.Vx.Wx.Xx.Yx.Zx.9w.`x. y..y.+y.jh.@y.#y.$y.f3.Ul.gg.mh.lf.gg.mf.aa.>6.Kd.%y.&y.&y.*y.Ok.Mu.Mu.mf.@t.Ej.si.Rl.Pk.Ol.Gj.lh.=y.",
".q.-y.+v.;y.:n.Fr.>y.,y.jw.'y.)y.!y.'y.;t.;t.~y.{y.)t.^q.;t.]y.]t.qw.+q.'t. v.kw.^y./y.8t.%q.(y._y.`l.xo.;m.Zu.:y.uo.<y.`l. q.(q.or.$9.[y.}y.Yu.Co.|y.1y.Co.2y.Ar.3y.Bw.2t.6n.E7.oa. 9.Ai.Zk.ng.*) ma./c 36.ka.ma.Zk.F7..9.xh.]( Mi 4y.Jw.I>.5y.Kg.6y.7y.8y.dt.9y.0y.ay.by.cy.6,.XV /g VR F'.VR dy.ey.zn fy.gy.hy.iy.hV jy.Zw.*a.ky.ly.my.ny.oy.py.qy.ry.sy.ty.uy.vy.wy.xy.yy.zy.Ay.By.Cy.Dy.Ey.Fy.Gy.Hy.nZ Iy.Jy.Ky.Ly.My.<s.Ny.Oy.1s.Py.Qy.Ry.Sy.Ty.Uy.@r.Vy.Wy.Xy.Yy.Zy.`y. z..z.+z.@z.#z.$z.%z.&z.*z.=z.-z.;z.>z.,z.'z.=z.qx.)z.!z.~z.{z.]z.^z./z.(z.aq.@N cs.-s._z.5u.:z.<z.[z.}z.|z.1z.2z.3z.4z.^I mG `V JW ZR =U 3U dK 3U 5z.5Y 6z.Y[.7z.Z(.8z.9z.9z.0z.az.bz.cz.dz.Xx.@0.Zx.ez.fz.gz.hz.iz.%0.jz.$y.kz.)2.*n.*n.xj.Mu.gg.lz.Qp.=n.Kd.gg.mh.&y.Ej.Ik.mz.nz.Ej.Mu.ri.yj.Rp.ca.mb.aa.oz.pz.",
".q.qz.Xu.rz.}t.}t.lw.rr.^y.sz.tz.~y./y.uz.vz.wz.xz.yz.zz.xz.{y.^y.qw.]t.~t.qw.)t.Uu.(y./q.'t.Az. v.'t.{t.<y.Bz.Cz.Vu.:y.`l._q.&q.;m.Su.Dz.Ez.*m.Fz.zz.6t.Gz.Fz.Hz.Iz.Cr.Do.Jz.Kz.oa.Bi.9n.+9.Lz.Db..9.xh.+9.Gb.Bb.|0.yf.Zk.Mz.S5 m} o| *k Wt Nz.Js Oz.Pz.'v.Qz.Rz.Ut Y8.Sz.Tz.5,.Uz.2h -!.Z}.^d Vz.Wz.mn Xz.Yz.Zz.`z. A..A.iv.+A.@A.#A.Ty.$A.%A.&A.*A.=A.-A.;A.>A.,A.'A.)A.!A.~A.{A.]A.^A./A.(A._A.:A.<A.[A.}A.|A.1A.2A.3A. p.4A.*g.5A.6A.7A.8A.9A.0A.bx.aA.bA.cA.dA.eA.fA.gA.hA.iA.jA.kA.lA.mA.nA.ox.=z.oA.=z.pA.'z.qA.rA.sA.=z.tA.uA.vA.wA.xA.yA.zA.AA.BA.CA.DA.EA.FA.GA.HA.IA.;o.JA.KA.i,.LA.MA.NA.OA.PA.CS `V `V ZR Gn ZR 3U CS QA.RA.X[.~*.SA.Z<.TA.UA.UA.8z.VA.WA.XA.YA.ZA.1r.0w.`A. B..B.+B.@B.jh.*6.S .j^.)2.8r.rh.fo.Kd.zc.#B.wj.Mu.gg.$B.%y.%B.Ik.&B.Ik.gg.lf.ph.zj.*B.si.ba.9a.=B.-B.",
"Cr.1y.;B.>B.,B.'B.Az.)B.!B.qz.~B.{B./y.]B.zz.^B.)y.^y.lw.^y.gr.'y.tw./B.rw.so.(B.tw.'t.{t.sz.+q.+q._B.{t.{t.:B.Bz.<B.Cz..q.&q.Eo.[B.}B.|B.1B.2B.3B.Do.]q.#v.4B.Hz.Iz.Aw.5B.Bw.nr.Fo.6n.ng.{_ F7.Zk.Db.Db.@q.:0.6B.xh.Sb.5d ]( S5 C7. 5 !3 zh mf Wt 7B.8B.9B.0B.aB.bB./m.cB.dB.5,.U|.eB.qQ U|.^d fB.gB.hB.L(.iB.jB.kB.lB.mB.nB.oB.pB.qB.rB.sB.tB.uB.vB.wB.'z.xB.yB.sA.zB.AB.BB.CB.CB.pA.DB.EB.FB.GB.HB.IB.JB.KB.LB.Kq.MB.Yt.NB.OB.PB.QB.RB.SB.TB.UB.VB.WB.XB.YB.ZB.`B. C..C.+C.@C.#C.$C.%C.&C.*C.qA.=C.-C.;C.>C.,C.'C.)C.!C.!C.~C.{C.]C.^C.^C.^C.^C./C.(C._C.:C.-o.<C.[C.8m.}C.|C.gd.de.1C.2C.3C.4C.5C.6C.bV -Y Gn eK Gn b} P+.ZR Lx.7C.8C.Z<.9C.0C.6,.UA.aC.eB.bC.cC.dC.eC.fC.eh.gC.Jp.hC.iC.jC.kC.ib.zX ;[.$y.Ec.lC.e3.&0.aa.wj.wj.Be.mf.Ok.Ok.gg.Ik.Ok.gg.Ok.Ul.lf.yj.Rp.Pl.Ik.Ej.mh.mC.nC.C8 ",
"oC.pC.qC.rC.,B.!n.^t.zz.4t.)t.~n.rr.{y.gr.^q.sC.^y.+q.to.to.(t.~n.}t.tw._B.tC.uC.qw.+q._B.!t.{B.Vu.so.vC.so.wC.<B..q..q.pr.-q.(q.%q.2n.Su.xC.yC.zC.AC.BC.CC.}y.DC.Iz.2y.%v.ww.EC.,y.tr.1B.FC.tf.b~ Gb.E7.[q.%9.:0.F7.Db.y6 w8 u7 GC.Z4 HC.@n St &k =l IC.JC.KC.LC.MC.Fg.NC.OC.6,.Z<.Z}.Y}.Y}.PC.QC.RC.SC.TC.UC.VC.z<.&a.WC.XC..u.YC.ZC.`C. D..D.+D.@D.#D.$D.%D.&D.*D.$D.=D.-D.px.;D.>D.qA.,D.'D.)D.!D.~D.{D.9c.]D.^D./D.pB.(D.5c.En._D.:D.wv.<D.[D.}D.9v.|D.1D.2D.3D.A4.}a.4D.5D.6D.7D.8D.9D.0D.aD.bD.cD.>C.dD.eD.)C.fD.gD.hD.iD.jD.kD.^C.^C.^C.^C.^C.^C.lD.mD.nD.oD.pD.qD.rD.sD.tD.6j.uD.|*.vD.wD.xD.yD.zD.1D 3U b} b} b} P+.JW Kx.AD.BD.X|.SZ 3-.7z.U|.CD.eB.9z.DD.ED.FD.GD.HD.1r.ID.JD.KD.LD.hf.hf.MD.r7.ND.u7.)2.OD.PD.*0.rh.i3.8r.=n.Kd.QD.RD.SD.TD.mC.UD.Ol.Hj.QD.gg.Kd.VD.fo.9a.WD.XD.)&.",
"YD.qC.7t.ZD.rC.;t.to.`l.uw.Yp.sr. v.gr.gr.Cw.Uu.Vu.sz.tw.Vu./t..q.+q.`D.qw.(y.sw..q.^t. E..E.Bz.]y.rw.+E.+E.@E.<B.Cz.~n.#E.$E._q.Zu.sr.%E.xr.&E.*E.=E.-E.;E.>E.,E.'E.}y.)E.!E.jw.Cw.Su.~E.Kz.>m.tf. 9.:0.%9.>m.Lz.%9.{E./c 06.v8 46.]E.^E.sh !o Js Br /E.(E._E.0B.:E.<E.[E.}E.|E.1E.2E.3E.4E.5E.6E.7E.8E.9E.0E.=F +/.VV _s.pB.aE.bE.cE.dE.eE.fE.gE.hE.iE.jE.kE.gE.lE.mE.nE.oE.,D.oA.pE.qE.,z.rE.sE.2D.tE.uE.vE.wE.xE.yE.os.zE.AE.BE.CE.DE.EE.FE.GE.HE.IE.JE.KE.LE.ME.NE.OE.PE.QE.RE.SE.*D.=z.fD.TE.UE.VE.WE.XE.YE.ZE.`E. F..F.+F.@F.#F.$F.%F.&F.^C./C.*F.^C.=F.-F.;F.>F.,F.'F.)F.!F.~F.{F.sL T-.]F.^F./F.(F.|D QB CS bV -Y _F.:F.dK <F.[F.Y[.-!.7z.5,.5,.az.W|./r VA.}F.|F.1F.2F.3F.4F.5F.6F.5a.7F.Ec.#|.r7.8F.9F.u7.8r.)2.lh.*0.rh.fg.ko.lh.oz.0F.ko.aF.aF.*0.=n.#t.lb.Pl.ri.bF.@t.rh.9a.cF.5@.",
"dF.eF.fF.gF.hF.^y. v.Yp. m.2n.[t.~n.Up.Yp.iF.to.^t.Vu.{t.'t.sw..q.jF.Uu.^t.~n.%q.@v.'t.+q.;t.:B.kF.qw.{B.qw.{t.{t.to.}t.!B.[B.lF.:q.Su.-m.2B.mF.nF.-E.&E.oF.pF.qF.rF.sF.tF.uF..v.vF.Jz.jw.!B.=q.wF.Pj.&m.%m.%9.Rj.[q.:0.t7 w8 B6 B6 ;4 %6 xF.yF.zF.qw AF.BF.Wj.CF.DF.EF.FF.zG GF.HF.IF.JF.KF.LF.MF.NF.OF.{T PF.r_.|k.QF.6s.RF.SF.TF.UF.VF.WF.XF.9D.WF.YF.ZF.`F. G..G.+G.@G.#G.$G.kE.,z.%G.&G.qA.hE.*G.=G.-G.;G.>G.,G.'G.)G.!G.u%.$Q A-.1X ~G.{G.]G.^G./G.(G._G.:G.<G.[G.}G.|G.1G.2G.3G.4G.5G.5G.6G.7G.8G.9G.0G.+F.aG.bG.cG.dG.eG.fG.gG.hG.iG.jG.kG.lG.mG.^C.^C.nG.oG.pG.qG.Q}.rG.sG.tG.uG.vG.wG.xG.yG.zG.AG.BG.CG.QB ~^.DG.EG.cN 4[ FG.GG.G-.-!.5,.-!.6,.TA.HG.Y|.IG.cC.JG.KG.LG.MG.NG.OG.PG.QG.RG.RG.SG.hf.TG.u7.sh.&1.>|.7r.rh.9a.WD.oz.aF.UG.VG.lh.e7.oz.ze.@t.Ok.Mu.%y.Rp.lf.mh.WG.nC.oz.3c ",
"XG.qC.YG.ZG.hF.)t.,B. q.-q.[B.Fo.<t.Zu.Zu.uw.`G.Vu.Cz.vC.tw./t.Cz.Bz. H..H.sw.&q. m.Ru.@v.+H.Xu.uC.~n.Eo.(t.Eo.Eo.@H.@H.#H.$E.$H.%H.$E.~E.&H.3t.*H.=H.=H.-H.;H.rF.>H.,H.'H..v.)H.nr.!H. m.^q.~E.~H.3B.{H.%9.+9.Mj.9n.Mj.A7.]H.Bh._: Z4 7e gg ^H.Qh.qw Zm kw ~6./H.(H._H.:H.<H.*f $d *f @w #q cD [H.=T g:..` }H.m8.|H.1H.2H.3H.4H.5H.6H.7H.8H.vB.9H.SE.0H.aH.bH.sE.cH.dH.eH.fH.gH.8D.%D.!C.hH.-C.0D.iH.0g.jH.kH.7u.op.lH.mH.nH.oH.x..68.<K iv.pH.qH.rH.sH.tH.uH.vH.wH.xH.yH.zH.AH.BH.CH.DH.-C.EH.hD.=z.FH.GH.GH.HH.IH.IH.JH.KH.LH.MH.NH.OH.M%.-!.9C.X[.PH.QH.RH.SH.TH.UH.VH.WH.XH.YH.ZH.`H. I..I.+I.@I.#I.$I.%I.QB &I./I *I.=I.-I.3U ;I.>I.,I.G-.'I.=>.W[.G'.G'.W[.bz.DD.)I.KG.3F.!I.~I.{I.]I.^I.7F.RG./I.;[.Id.&1.ew.>|.eo.%n.eo.oz.(I._I.:I.<I.[I.&0.}I.|I.e7.fo.ca.lf.mh.Ok.@t.gg.1I.oz.2I.=6 ",
"7t.3I.4I.5I.jw.%v.Eo.ur.;m.6I.7I.8I.qr.:q.Ru.'t.9I.Cz.]y..q.0I.!n.aI.-y.Bz.Vu.4n.=v.sr.Dw.=v.&q.;t.Eo.(q.EC.sr.(q.(q.bI.Su.xo.Fo.$E.;m.E7.cI.dI.#9.eI.Er.Oj.fI.gI.hI.iI.jI.kI.3B.lI.rr.gr.mI.nI.EC.!E.&H.oI.Zk.oa.po.`k.wF.5d bf v8 6d v8 pI.qI.rI.`m @m sI.tI.Is uI.vI.wI.zO $d $d *f *f =f xI.yI.zI.AI.BI._=.D%.'b.CI.DI.EI.FI.GI.HI.II.JI.KI.LI.MI.NI.OI.PI.QI.RI.SI.TI.UI.VI.iE.%D.!C.!C.fD.WI.XI.YI.ZI.`I. J..J.+J.@J.TW (Y 0l.Zw.#J.!k.fp.$J.%J.dx.&J.*J.=J.-J.;J.>J.,J.'J.)J.!J.~J.{J.]J.;z.pE.^J./J.(J._J.:J.<J.[J.[J.<J.}J.|J.43.9C.9C.1J.5,.X|.CD.2J.3J.4J.5J.6J.7J.8J.9J.0J.aJ.bJ.cJ.g=.dJ.eJ.fJ.gJ._F.hJ.QB |D iJ.jJ./I kJ.lJ.mJ.8z.nJ.Y:.`<.8z.X[.Vx.IG.oJ.pJ.qJ.5o.~I.`A.rJ.sJ.tJ.c3.uJ.vJ.<W k3.Jd.8r.0a.%|.$|.wJ.xJ.yJ.eg.zJ.AJ.BJ.aa.#t.9a.CJ.gg.si.Ej.XA DJ.EJ.ko.FJ.FJ.lo.~[.",
"&v.GJ.kw.HJ.sC.GJ.Eo.!H.nr.Ru. q.pr.mr.$E.Zu.~n.!n.Cz.-y.pw.IJ.,t.JJ.KJ.vC./n.Yu.;m.LJ.Dw.Eo.'y. E.MJ.{y.qw.NJ.OJ.PJ.lw.QJ.(y.nw.#v.Qj.3t.RJ.Lj.RJ.SJ.TJ.;H.,_ A1 ,H.UJ.tF.vw.Fz./q.(q.)t.)t./q.!E.VJ.AC.oI.tf.Ai.Mj.`k.x7.wh.la.WJ.XJ.YJ.yi.F6 sg ZJ.`J.hz tI.-n. K.Fg..K.+K.*f *f *f $d tm @K.#K.$K.lB.*c.:c.%K.&K.*K.=K.-K.;K.$C.GI.>K.,K.'K.NI.)K.!K.~K.{K.]K.^K./K.(K._K.:K.<K.sA.[K.-C.WI.}K.|K.1K.2K.3K.4K.5K.6K.0l.:Y pV 7K.8K.I9.Am.9K.vv.0K.aK.bK.cK.qB.dK.RF.eK.fK.gK.hK.iK.iK.jK.pE.pA.kK.-C.lK.mK.<J.nK.[J.[J.oK.mK.pK.qK.rK.sK.7z.7z./r ]v.tK.Y|.uK.vK.wK.xK.yK.zK.AK.BK.CK.>F.sL W%.DK.EK.FK.GK.HK.IK.JK.KK.LK.MK.NK.OK.PK.0z.W[.QK.RK.Vx.Vx.SK.TK.oJ.UK.VK.WK.XK.YK.ZK.`K. L..L.>].vJ.Cc.#y.sh.0a.9a.>}.e3.!2.kb.+L.VG.@L.#L.cF.(I.#t.Be.aa.Be.gg.@t.QD.UD.$L.%L.&L.e7.if.*L.+k ",
"Gz.ZG.^B.=L.)t.)t.-L.Bw.Do.]q.4t.2n.sr.pr.*q./n. H.!n.;L. v.0I.,t.>L.<t.,L.kr.'L._t.lF.pr.)L.qw.~t.~y.kF.!L.~L.rz.PJ.rz.{L.ur.Fo.{n.qr.%m.]L.^L.Bw.Jz./L.(L._L.>t.:L.<L.!E.bI.@H.Cw.(q.[L.Bo.Ez..v.UJ.AC.Xk.5n.Qj.Mj.}L./c Ud.|L.1L.2L.i{ 3L.2@.0d ng ^b jf 4L.5L.6L.Nf.7L.8L.zn mn tl =f 9L.0L.aL.a..bL.<K cL.dL.eL.fL.gL.hL.iL.jL.kL.lL.mL.lL.nL.kx.oL.pL.qL.rL.sL.tL.uL.vL.wL.xL.yL.hD.zL.AL.BL.CL.DL.EL.FL.GL.HL.;p.zI.IL.|K al.7K.JL.KL.LL.ML.NL.OL.PL.QL.RL.SL.TL.UL.VL.WL.XL.kx.YL.ZL.`L. M..M.+M.@M.#M.$M.%M.$M.&M.*M.BL.=M.-M.;M.>M.,M.'M.)M.!M.~M.{M.]M.^M./M.(M._M.:M.<M.[M.}M.aA.|M.1M.2M.3M.4M.5M.6M.7M.8M.9M.0M.aM.bM.cM.dM.eM.fM.gM.hM.iM.jM.kM.lM.mM.nM.oM.pM.ID.8o.3r.qM.rM.sM. V e!.vJ.Id.j3.0a.e3.Gc.Tp.e7.|I.tM.zJ.|I.|I.uM.vM.wM.rh.Qp.*n.QD.fo.#t.lb.Hj.Kd.g3.)2.xM.;}.$6 ",
"yM.zM.Az.{B.{B.'y./q.@H.@H.(q./q.lI.2n.Do.kr.uo._q.mr.kr.vo._t.pr.lr. m.AM.:y.BM.Nu.5n.&q. v.{B.]y.CM.kF.DM.~L.EM. E.mw.HJ.Fo.{n.Wk.@q.FM. q.or.[t.nr.GM.HM.IM.JM.KM.LM.MM.Bw.Eo.1t.NM..m.pr.qo.8] [B.'q.5n.@q.Ai.tg.D7.uf.w8 8n.OM.+5 6d /5 ]}.PM.ie 9d QM.hz RM.SM.TM.UM.zu kt VM.yn nn WM.XM.YM.@s.=T ZM.`M. N..N.+N.@N.#N.$N.%N./!.j~.&N.*N.=N.-N.af.;N.>N.,N.'N.)N.!N.~N.{N.]N.^N.>z.qE.|K.}K./N.(N._N.:N.<N.[N.Tn.]X a5.}N.|N.1N.m$.+P 2N.^D.3N.4N.5N.6N.7N.8N.9N.0N.aN.bN.cN.jA.VL.dN.eN.fN.*D.gN.hN.aG.KH.$M.NJ._J.iN.mK.jN.kN.lN.mN.nN.oN.pN.qN.rN.sN.tN.uN.vN.wN.xN.yN.4s.zN.AN.BN.Bx.CN.DN.b=.EN.FN.EN.GN.HN.IN.JN.KN.LN.MN.NN.ON.PN.QN.RN.SN.TN.UN.VN.WN.XN.YN.ZN.+6.`N. O..O.+O.@O.TG.#|.#y.*6.ND.>}.&|.#O.lo.vM.$O.%O.&O.@L.oz._I.e7.rh.Kd.wj.K4.rh.wj.@t.Qk.Mu.Sp.l3.,[.Pk.fo._&.",
"sF./q.*O..q.{t.sw.@v.qw.}t.}t.^q.^q.!B.)B.Tu. v.lr._q.=O.LJ.qr.mr.#E. m.Zu.lr.<t.+v.@q.4n.%q.-O.to.so.so.{t.*O.*O.~n./q.;O.$E.xo.lF.>O.xo.Fo.-q.,O.[L.'O.Zp.)O.!O.)O.LM.~O.Cr.{O.,O.]O.nr./q..m.#m.=q.AM.^O.%9./O.6B.vf.u7 Q5 (O.=9._O.:O.<O.J .&b hf Pi [O.}O.|O.1O.2O.3O.4O.kt =f zn 5O.6O.7O.8O.9O.^d.-*.p8.0O.aO.bO.cO.dO.eO.fO.gO.hO.iO.jO.kO.<*.lO.mO.nO.oO.pO.qO.rO.sO.tO.uO.vO.wO.gD.AL.xO.yO.zO.AO.BO.CO.Sy.I<.u1.sI ,T X*.Z&._U $w DO.EO.}A.FO.GO.HO.IO.JO.KO.LO.MO.NO.OO.PO.QO.RO.SO.TO.'z.UO.VO.WO.[J.[J.rz.DM.mK.:J.XO.'z.ox.YO.ZO.`O. P..P.+P.@P.#P.$P.%P.&P.*P.=P.-P.;P.BK.>P.,P.1M.'P.)P.!P.~P.{P.]P.^P.ji./P.(P.Ek.a7._P.5o.`N.Dk.:P.<P.[P.G8.+0.5o.}P.3F.tc.|P.1P.2P.3P.4P.5P.&6.$).J4.ga.6P.U_.ew.jb.@;.cF.7P.8P.VG.e7.WD._I.9a.zc.fo.9P.fg.qi.Ok.mf.>0.0P.io.,[.aP.9P.&0. %.",
"DC.@H.bP.GJ.)y.*O.Xu.,B.sz.*O.+q.)L.%v.(t.)t.^y.(t.}t.}t.}t.`l.[t.{O.$q./t.lr.lr.Fo.Fo.mr.uw.^y.{B.+q.aI.so.aI.cP.dP.$q.'q.[L.&q.eP.fP.-q.mr.#q.ow.'q.$E.gP.1t.cI.)H.jw.]q.sC.3n.or.qr.{n.EC.hP.or.3n.$E.iP.{E./O.tg.Kj.Wd.yh.(O.jP./c uf.kP.lP.U0 =o Pi mP.Ui nP.oP.pP.qP.rP.sP.0,.tP.uP.vP.wP.xP.yP.zP.AP.~3.BP.CP.DP.EP.FP.zd.GP.HP.IP.r5.JP.KP.LP.MP.NP.OP.ml Ly <x yn PP.QP.RP.SP.TP.UP.zL.VP.WP.YE.XP.YP.ZP.`P. Q.RO .Q.qI C[.=T y(.+Q.@Q.#Q.ls.$Q.Uy.%Q.Dv.&Q.*Q.=Q.-Q.;Q.>Q.,Q.{N.lL.'Q.)Q.=z.!Q.~Q.{Q.]Q.$M.^Q.NJ./Q.(Q.hD.sA.UP._Q.:Q.<Q.[Q.}Q.C4.|Q.qj.1Q.2Q.3Q.4Q.5Q.6Q.zn.7Q.8Q.cs.PL.9Q.0u.0Q.aQ.bQ.`N.tc.ji.F8.cQ.dQ.ID.eQ.ag.ue.fQ.eh.ji.gQ.ki.Bk.eb.hQ.MG.iQ.jQ.Dk.kQ.lQ.mQ.nQ.ib.oQ.U8.jz.,[.ew.9a.e7.Gc.pQ.qQ.VG.rQ.rQ.(I.aF.9a.#t.sQ.mC.*0.mh.Ej.Ok.ti.Nk.;]./6.>0.9P.nC.*<.",
"tQ./q.Cr.uQ.YG.vQ.rC.^q.wQ.xQ.yQ.bP.@v.}t.uw.@H.(q.Eo.&q.tw.)t..q.(t./n.mr.-q.2n.or.vr.#q.4n.Eo.;t.qw.}t.sw.-y.(B.&q.&q./q.4n.Cw.#q.eP.xo.$E.#q.#E.fP.[t. m.^q.sr.gr.jw.sr.1n.]q.!B.qr.{n.Up.!B.ur.[L.[L.zQ.`l.Ai.wF.tg.Ud.AQ.,m.BQ.BQ.]( E1 CQ.^}.:&.DQ.EQ.FQ.GQ.HQ.IQ.JQ.KQ.LQ.MQ.NQ.OQ.PQ.QQ.RQ.4A SQ.TQ.UQ.VQ.WQ.XQ.YQ.ZQ.`Q. R..R./4.+R.@R.#R.$R.%R.&R.*R.=R.-R.;R.>R.,R.'R.)R.YL.iK.!R.>z.~R.{R.eG.]R.^R./R.&u.7m.uI 1F <D (R.FR qV _R..i.:R.<R.`H.[R.}R.|R.&J.qB.1R.2R.3R.4R.5R.6R.7R.8R.9R.'z.>z.0R.aR.+M.bR.cR.OJ.dR.EH.eR.fR.gR.rA.hR.!D.dA.iR.jR.kR.lR.+[.mR.{e.nR.oR.pR.qR.rR.sR.&s.4N.tR.uR.vR.wR.xR.yR.zR.AR.bQ.BR.xR.CR.DR.ER.FR.Zx.GR.5o.3F.HR.IR.JR.ve.tc.~P.ZA.KR.LR.MR.NR.OR.PR.7r.kb.$n.-_.%n.QR.eo.Gc.vM.vM.|I.7P.e7._I.FJ.lh.9a.qi.sQ.#t.mf.mh.mh.ri.fa.k7.&t.Kd.WD._I.RR.",
"SR.Ar.^q.@H.HJ.TR.~B.GJ.xw.xz.UR.-L.@H.+H.Cw.@H.(q.&q.(t.tw.'t.'t.+q.'t./t.'t.'t.-q.$9.4n.VR.{O.(t.uC.{t.tw.:B.WR.5B.sr.(q.2n.XR.nr. m.YR.mr.[L.ZR.[L.[L.fP.{O.&q.,B.YG.Yu.`R.1t.pr. q.:n.`l. m.$q.{O.sw.Cz.8I.vr.%9.Lz.tg.D7.wr.BQ. S..S.Q5 =3 +S.@S.A#.#S.$S.%S.&S.J!.*S.=S.F'.Y[.-!.Z<.-!.B/.-S.;S.>S.,S.'S.)S.!S.~S.{S.]S.^S./S.Ey.#w.(S._S.:S.<S.[S.}S.ou 8s ~*.!*.<A |S.1S.oL.2S.3S.Ad.4S.EH.WI.5S.6S.7S.8S.9S.1#.vI Cx BD @s.{N FR +Q.0S.aS.6j.(x.bS.gd.cS.dS.eS.fS.gS.hS.iS.jS.kS.kH.lS.mS.nS.,z.oS.pS.eR.qS.{R.rS.rA.sS.tS.uS.,z.,z.vS.wS.xS.+_.._.yS.03.zS.AS.BS.CS.DS.ES.6L A0.6k.FS.GS.HS.IS.JS.!I.^P.KS.LS.MS.NS.|Q.OS.Jl.Cu.GR.2F.NS.BR.iQ.tc.qj.PS.2a.QS.OS.1r.2F.RS.SS.TS.US.VS.sh.Gc.rQ.h7.xc.'}.,}.eo.Ee.|I.WS.XS.YS.ZS.`S.cF.}I.9a.sQ.aa.lh.*n.fo.i3.ri. T.ph.lf.g3.Tp..T.+T.",
"@T.bI.#T.mw. E.DM.$T.)y.%T.{B.+q.Br.HJ.Co.sC.sC.lw.@v.'y.;t.tw.so.!n.!n.Vu.tw.~n.&T.ow.&q.[t.*T.tw.+q.yQ.yQ.=T..q.'y.(q.=v.1t.]q.zM.pr.Bo.1t.%E.dI.3n.[L.&q.Cw.@H./q.1t.!B.=v.=v.mr.AM.mr._q.@H._q.(t.uC.~n.LJ.pr._q.YR.Db.&m.zf./c  S.-T.ug.kP.;T.>T.$5 ^b ,T.'T.)T.!T.~T.{T.<A ^d =>.9C.3-.M%.]T.f..lt ^T./T.(T. N._T.:T.<T.[T.}T.|T.1T.2T.3T.4T.5T.6T.7T.ou ou ->.8T.8s 9T.0T.aT.bT.cT.dA.dT.eT.yL. M.fT.gT.hT.3m.f:.tI iT.4z JJ v:.$Q 2c.jT.kT.lT.%R.mT.nT.oT.pT.qT.rT.sT.tT.uT.vT.wT.xT.yT.zT.AT.BT.CT.SP.DT.ET.FT.GT.HT.IT.JT.KT.oA.LT.MT.NT.OT.PT.m~.QT.RT. J.ST.TT.UT.:G.VT.[u.|j.WT. r.XT.4i.YT.ZT.`T. U..U..n.+U.@U.KS.#U.GR.eh.$U.bQ.%U.cQ.fb.&U.fb.*U.+6.H8.=U._P.-U.;U.>U.,U.'U.iz.s7.rQ.)U.!U.#L.~U.g7.Tp.X_.M8.e7.{U.]U.e7.XS.^U.cF.aF.mC./U.(I.9a.cF.if.wj.>0.(U.V8.&1.}I._U.]E.",
":U.<U.(t.sw._B._B.^Q.to._B.Xu.-O.kF.~y.)y.[U.;t.+q.so.yQ.9I.Bz.so.(t.-y.}U.;L.|U.-y.9I.yQ.!n.1U.2U.]y.<B.3U.(B.(t.{B.%q.nr.Fz.uQ.8t.or.pr.3n.4U.%H.[L.]O.$q.5U.^q.gr.@H./q.(q.6U.GM.pr.=v.fr.4t.Bo.'y.'y.@H.lI.xC.=v.YR.@q.7U.Yk.8U.,m.9U.0U.vg.r7 E9 aU._4 .2 $k bU.M/ cU.nu B/.=>.dU.6=.4^.M%.eU.lt J-.fU.gU.hU.iU.jU.kU.lU.mU.nU.oU.jq.pU.qU.rU.sU.3-.tU.{T.(r 3-.ou SR F-.uU.af.vU.wU.xU.yU.zU.AU.TO.BU.CU.1*.DU.EU.9%.PE WG d_.q_.FU.]b.Sq.GU.HU.IU.JU.wU.KU.LU.MU.NU.OU.PU.QU.RU.SU.TU.UU.VU.WU.XU.YU.BH.ZU.*z.`U. V..V.+V.:Q.@V.#V.$V.%V.&V.*V.`{.=V.-V.;V.>V.pZ r5.Z6.%Q.,V.'V.)V.!V.N}.~F.~V./4.{V.ez.]V.^V./V.(V._V..U.:V.<V.[V.bQ.}V.|V.@[..6. }.1V.2V.&U.QS.3V.&U.&U.}Q.4V.5V.6V.lN Ju.Y_.!}.L .)U.7V.XS.oz.&0.M8.!U.8V.9V.0V.aV.bV.cV.BJ.(I.uM.vM.~U.Ee.dV.Tp.!}.eV.0a.&1.g7.fV.gV.",
"hV.)L.{t.iV.jV./B.kV._B.lV.mV.:B.rw.]y.Xu.yQ.tC.<B.sw._B.+q.;t.qw.+q.;t.tw.;L.@E.jF.so.Cz.<t.1U.~y.:B.YD.nV.1U./t.(t.@v.(q.nr.{O.$q.oV.:t.:t.qr.LJ.#E.%H.!H.2n.jw.MM.EC.Bo.^q.pV.qV.}y.6n.}y.rV.xr.sV.5B.tV.uV.vV.wV.6n.Ai.Xk.xV.*H.yV.zV.yV.AV.vg.|L./c =3 D8 BV.G= q5 CV.3-.-!.3-.9z.Z}.X@.XV DV.EV.]I FV.GV.HV.IV.JV.KV.LV.MV.NV.OV.PV.QV.RV.SV.TV.is )i UV.VV.WV.H6.4^.XV.YV.ZV.`V.(S. W..W.+W.@W.#W.$W.%W.&W.*W.=W.&T 1F !N lY #/.-W.;W.H|.>W.,W.'W.)W.!W.~W.{W.]W.^W./W.(W._W.:W.<W.[W.}W.|W.1W.2W.3W.4W.5W.6W.7W.8W.9W.0W.aW.bW.cW.dW.EO.eW.fW.gW.hW.iW.Wf.jW.kW.lW.mW.Gt.nW..k.KS tL oW.tD.pW.qW.rW.sW.tW.uW.vW./V.:V.^P.G8.=U.9w.zR.tc.wW.xW..}.yW.yS.zW.AW.`{.BW.AW.3V.CW.DW.EW.FW.GW.o3.Ee.8a.HW.,|.N .#L.IW.JW.!U.8a.KW.LW.MW.NW.OW.PW.IW.&O.=B.]U.tM.UG.`S.7P._U.cF.WD.rh.e7.QW._O.",
"RW.kw.+H.+H.hr.sz.Xu.lV.!t.ir.^Q.lV._B.Xu.so.rw.sw.-L.Xu.~y.Xu.*O.+q.5B.YD.<B.-y.{t.tw.SW.TW.UW.tw.VW._J.!t.tC.WW.ar.uQ.'O.mr.fP.[t.&T.:t.`k.xo.#q.mr.:t.[L.nr.'q./q.sr.NM.sr.`k.Xk.JM.Ez.tF.XW.YW. q.}t.EC.vF.UJ.4t.=q.Rj.Bi.ZW.Nj.yo.`W. X.h* .X.ug.06.E1 ,4 c. +X.@X.#X.$X.7z.-!.%X.&X.~e *X.=X.-X.RJ ;X.>X.,X.'X.)X.!X.~X.{X.]X.^X./X.(X.QB _X.:X.{T..h <X.[X.AS WV.B/.}X.|X.1X.(!.2X.3X.4X.5X.6X.7X.8X.9X.0X.aX.D+.<D )I lY KV u2.:X !U Qq.I<.28.7L bX.gR cX.dX.&w.eX.fX.tB.gX.hX.iX.jX.kX.lX.mX.nX.oX.pX.qX.6G.rX.sX.tX.uX.vB.vX.wX.}D.EO.FA.xX.yX.zX.AX.$!.BX.'Y iW.CX.cv.DX.Uq.EX.FX.GX.HX.IX.JX.KX.LX.MX.tW./V.^P.NX.OX.#2.bQ.Jl.HD.bQ.PX..V.j~.QX.yW.yS.RX.SX.BW.TX.UX.VX.WX.XX.YX.ZX.`X.Ee. Y..Y.*<.*<.0V.+Y.@Y.#Y.$Y.%Y.&Y.*Y.=Y.-Y.;Y.>Y.,Y.tM.'Y.)Y.!Y.#Y.~Y.{Y.pQ.M8./U.cF.UG.]Y.",
"^Y.yw.5B.ww./Y.$v.%T.(Y._Y.mw.vQ.<U.vQ.YG.zz.GJ.Co.ZD.=L.OJ.:Y.*O.@H.GJ.Eo.<B.qz.^y.!n.sw.<Y.so.to._J.)L.WW.2U.*O./t.VR.$q.$q.&T.AM.fP.&T.-q.:n.%H.[t.[Y.<t.lF.ur.}Y.Ar.|Y.%E.!H.1Y.)H.3B.!E.kI.qV.'y.'y.4n.2Y.#T.mI.cI.,q.vw.=E.3Y.zo.4Y.5Y.sa.m; ]( B6 S5 ;4 4. L3.Z{ 6Y.7Y.cz.8Y.9Y.0Y.*c &X.aY.bY.cY.dY.eY.Tn.fY.gY.R1.hY.iY.jY.kY.lY.mY.nY.oY.pY.hl .e wu qY.rY.M%.sY.tY.uY.vY.wY.xY.yY.6u.<A.zY.AY.BY.CY.:u.DY.EY.SG sI !X gQ X!.A[.FY.E|.k/.Rg.GY.HY.I%.IY.JY.^g.KY.LY.MY.NY.OY.PY.QY.RY.SY.#x.TY.UY.VY.nA.WY.AU.XY.YY.ZY.`Y. Z..Z.+Z.@Z.#Z.$Z.K[.%Z.-w &Z.lq.lH.*Z.aq.=Z.Iq.Rq.>z Zn.Qq.-Z.-l.;Z.fx.>Z.(V..U.NS.iR.]P.zW.+_.YA.bQ.NS.a7..}.PT.O'.zW. |.QX.p~.,Z._!.'Z.)Z.!Z.~Z.{Z.]Z.Q .e7.9V.`X.JW.^Z./Z.(Z._Z.N .,Y.:Z.<Z.[Z.}Z.|Z.1Z.2Z.3Z.4Z.5Z.6Z.7Z.8Z.9Z.4Z.(Z.0V.+Y.%O.IW.0Z.aZ.",
"bZ.-O.cZ.dZ.MM.GJ.%T.-L.-L.,B.eZ.*v.ZD.hF.^q.^q.,B.5I.kw.fZ.fZ.tC.hr.yQ.qw.{t.*O.,B.0I.-y.,B.Vu.tC.rz.5B.<U.gZ.vQ.(t.&q.[t.hZ.lr.mr.#E.ow.:t.:t.$E.lr.`l._q.nr.1t.yM.3y.zr.4t.Hz.!E.<L.iZ.jZ.kZ.Jz.or.Yu.2t.}^ pr.pr.sr.Hz.lZ.lZ.oF.mZ.yV.%- nZ.[! S5 66.v7 Z4 S1 v6.oZ.pZ.az.0z.0z.bC.Px.nJ.9Y.qZ.7A rZ.sZ.tZ.uZ.j .vZ.wZ.xZ.yZ.zZ.AZ.BZ.CZ.DZ.EZ.FZ.jk GZ.WM HZ.)i IZ.JZ.KZ.LZ.RX.zW.MZ.NZ.OZ.PZ.QZ.RZ.SZ.TZ.Wf.UZ.!d.{K #3.BM )T S[.*T %` *` VZ.WZ.XZ.YZ.ZZ. Q.`Z.NZ.|*. `..`.+`.@`.#`.$`.%`.&`.*`.|D.=`.-`.;`.>`.DT.,`.'`.)`.!`.YC.~`.{`.|A.]`.^`. Q./`.oW.(`._`.1i.IA.bq.Ey.:`.<`.[`.!U Rq.}`.|`.1`.!` pj.2`.@U.3`.RS.4`.5`.6`.PX.7`.8`.}Q.@2.m~. <.j~.9`.0Q.0`.a`.M'.b`._!.c`.d`.e`.f`.4@.9V.JW. Y.g`.h`.i`.@Y.j`.k`.l`.}Z.m`.n`.o`.p`.q`.r`.s`.t`.u`.v`.[Z.&Y.pI.w`.x`.y`.~Y.z`.A`.'Y.B`.",
"Vu.qw.rw.qw.'t.ir.C`.:B.<B.[t.%v.cZ.mw.%v.;t.+q.mw.)y.+q.cR._J.D`.!t.E`.ir.kF.lV.F`.Cz.ir.WR.sw./n.hr.G`.YD.rC.5B.(q.{O.fP.~n. m.mr.*T.*T.qr.8I.lF.AM.&T.3B.tQ.H`.I`.J`.tQ.K`.L`.M`.sF.N`.O`.P`.Su.Q`.Fo.=q.^: Wk.Fo.^q.Fz.R`.AC.ZW.eI.yV.`W.pg..S.]H.vf.B6 .3 ag S`.F$ T`.U`.V`.W`.X`.Y`.Z`.``.  +. ++ +@ +# +$ +% +& +O5.* += +- +; +J|.> +, +' +) +! +~ +{ +] +^ +/ +( +_ +: +D4.E/.< +[ +`Z.} +| +1 +2 +3 +4 +5 +_N i{./N :X 6 +(U /N 7 +8 +f .9 +0 +a +K:.^l.3j.b +c +d +e +f +NU.g +h +i +j +jS.k +l +m +n +o +p +q +r +s +t +;G.u +v +sR.w +x +6k.6k.y +P).lq.z +A +B +C +D +E +F +G +H + j.I + s.J +AR.K +L +M +-U.N +O +P +vY.7`.Q ++_.._.+_.j~.m~.l~.R +S +BW.S +M'.T +U +V +W +X +R/.Y +7P.Z +` + .+^&...++.+@.+#.+$.+t`.%.+&.+*.+=.+-.+;.+/c >.+,.+v`.[Z.46.'.+).+!.+pI.+T.~.+#.+{.+",
"(t.so.<J.].+^.+/.+(.+JH.^Q._.+<J.:.+<.++E.[J.*M.[.+*M.<.+D`.^Q.D`.bG.bG.}.+D`.kV.ar.sw.|.+xQ.-y.TW.1.+2.+YD.Aw.bP.[t.<t.,L.~n.{O.[L.[t.[t.=O.`u.#q.nr.Bw.sF.3.+4.+5.+6.+5.+tQ.7.+7.+xr.8.+9.+xC.sV.=v.NM.YR.Lz.@q.lF.*T.zM.@H.=v.Dw.Cb.F7.&m.yf.0.+a.+zf.D7.C6 b.+j{ c.+h> m, Y[ I*.]k E{ E( G! P{ d.+Y  e.+f.+g.+h.+^~.i.+j.+ k.k.+l.+pn.m.+n.+o.+p.+q.+r.+s.+t.+u.+2S.GD.v.+fC.lR.yW.w.+x.+y.+fW.HO.z.+A.+B.+C.+B[.D.+sV E.+:,.F.+[v.b_.G.+H.+ae.kV I.+^g.HU.^7.zm.J.+A'.K.+L.+M.+N.+O.+P.+Q.+$W.R.+S.+T.+U.+V.+W.+X.+Y.+Z.+sT.`.+dx. ++aJ.5A.!8..+++++@++#++[4.$++5K.%++&++*++=++-++;++>++,++'++)++!++~++{++]++^++/++O'.(++_++:+++_.D4.<++zW. }.j~.._.:!.M'.[++}++Z{.S +_!.)Z.|++1++2++3++R/.{U.h`.4++5++6++O .7++8++9++t`.0++q`.a++b++c++d++e++f++46.g++u`.la.h++46.Wd.+5 i++j++k++l++m++n++",
".q.GJ.sz.o++mV.p++/.+q++p++/.+r++r++<J.r++IH.<J.s++C`.t++[J.KH.<J.$M.bG.jV._J._J.+H.,B.~B.aI.(B.yQ.-y.u++)L.xw.v++{O.~n.<t.!n.hZ.hZ.3n.lF.%H.lF.#E.(q./q.@H.sF.Do.uV.tQ.w++7.+x++<L.#T.}y.P`.Fo.2n.tr.Fo.6n.}n.+m.lF.'q.zM.'q.[t.pr.>m.Ai.Ai.y++0.+Mc.9U.z++A++B++.X.%% H@ C++G= {S 01 D++g, ld E++F++G++H++lW.P1.I++.>.1d.J++3u.K++L++)S.M++N++&C O++)G.P++Q++R++S++T++U++V++W++zS.X++Y++Z++`++ @+.@++@+@@+#@+$@+qY %@+&@+38.*@+=@+-@+;@+>@+,@+'@+)@+!@+~@+{@+6u.]@+]b.^@+ed./@+(@+_@+:@+<@+[@+}@+|@+1@+2@+3@+:N.4@+5@+-Q.6@+7@+8@+dx.9@+0@+9J.a@+b@+c@+d@+e@+:p.f@+g@+>F.h@+i@+j@+k@+l@+m@+bS.n@+o@+p@+q@+r@+^V.s@+E/.t@+u@+v@+w@+vY.x@+0Q.yW./!.y@+S +b`.z@+c,.A@+Z{.,Z..|.RX.aQ.B@+C@+D@+)}. Y.E@+F@+{}.G@+m*.H@+I@+[Z.B`.J@+K@+L@+M@+N@+&.+O@+&9.P@+Q@+g++R@+B`.g++S@+).+j++T@+U@+V@+'.+W@+",
"!H.w++X@+&v.Y@+aI.Z@+`@+ #+.#++#+@#+##+$#+%#+&#+*#+>B.;B.=#+-#+;#+>#+2U._B.(B.:B.*O.sw.xQ.,#+~y.'#+>B.>B.2U.Cr.)#+ar.tw.[t.:n.!#+:t.Cw.lF.#q.%H.lF.9t.*T.~n.sr.jw./q.sV.3y.~#+J`.{#+/Y.]#+^#+1y./q.^q.EC.tr.gP.$E./#+$q.zM.8t.&q./q.$E.(#+$9.hP.Ai.9n._#+7U.4Y.:#+<#+[#+z6 40.bg }#+|#+ o I@ Y& 1#+2#+3#+4#+5#+.k.H:.6#+wm.7#+8#+Py.9#+0#+a#+4u.kq.b#+c#+d#+)G.e#+f#+g#+h#+#c.i#+A.+j#+k#+%w.l#+m#+q5.n#+o#+e#+48.<K p#+q#+#R.r#+s#+>P.t#+^@+G%.u#+v#+AX.n9.|8.=u.w#+x#+y#+[j.6L z#+A#+*K.|@+B#+C#+D#+E#+tE.F#+G#+H#+I#+zT.J#+qB.K#+L#+M#+N#+O#+DO.>P./l.P#+-p.Q#+I +R#+S#+T#+U#+V#+F + A.W#+X#+Y#+I +Z#+`#+ $+.$++$+P'.@$+_++_++#$+#2.9`.yW.0Q. <.y@+|!.q~._*.$$+%$+`{.RX.&$+-U.*$+=$+-$+K8.M8.{U.qQ.$O.AJ._Z.;$+<Z.j++46.>$+h++a++,$+'$+-.+)$+!$+Ab.a++~$+B`.{$+]$+^$+u`.7Z./$+($+_$+o`.:$+<$+",
"]q.Iz.[$+(Y.UW.}$+tC.|$+1$+2$+3$+4$+5$+6$+7$+8$+9$+0$+a$+b$+c$+d$+e$+f$+1.+u++G`.1.+tw.+q.so.%T.:B.u++g$+2U.yQ.*O.@v.*T.[t.^n.h$+YR.&T.i$+VR.AM.;O.9t.(q.%q.(q.Hz.j$+RW.zw.k$+l$+m$+n$+o$+p$+q$+!H.hF.hF.uQ.5U.3n.#E.r$+)H.Fz.Yu.Yu.xo.s$+(#+t$+u$+v$+w$+x$+w$+y$+z$+A$+B$+i++7n.C$+D$+E$+>% -v.}v u2 ,B F$+DA.1,.)8.J:..!.%g.G$+.N.H$+I$+<R.}`.J$+K$+L$+M$+ps.N$+O$+O6.P$+O$+K0. 7.Q$+R$+CY.S$+T$+U$+V$+W$+X$+Y$+lO Z$+%C |M.Kq.`$+ %+PZ..%+NM +%+'V.@%+#%+$%+%%+&%+*%+=%+-%+;%+0S.>%+,%+ZP.'%+)%+D#+!%+(A.~%+{%+]%+^%+/%+(%+_%+:%+dv.<%+[%+}%+|%+$J.1c.1%+2%+3%+4%+5%+wv.Sy.6%+7%+8%+9%+I++0%+a%+b%+c%+d%+e%+f%+g%+h%+i%+_++_++t@+ }. }.PT.SX.N'.j%+k%+X++l%+m%+E/.E/.n%+o%+p%+q%+r%+s%+[@.Z$.t%+u%+#L..T.g`.v%+w%+x%+h++y%+x%+z%+-.+A%+)$+B%+C%+z%+N@+D%+~$+E%+)$+}L.C%+F%+G%+H%+I%+J%+K%+L%+",
"M%+tV.N%+O%+jV.cP.:B.P%+Q%+R%+S%+5$+T%+U%+V%+W%+vQ.c$+)L.=#+X%+a$+Y%+f$+Z%+`%+ &+uC.1U.C`.].+oK.D`.D`..&++&+*O.rC.kw.+q.[U.@&+#&+Fo.qr.2n.4n.[t.4n.@H.}t.;t.)y.2y.9$+$&+Aw.^#+6$+p$+%&+/Y.&&+uQ.*&+=&+-&+;&+>&+xw.!H.,&+^L.tr.'&+or.lF.)&+(#+/#+!&+!&+xV.Lj.~&+!&+{&+]&+}n.^&+zV./&+(&+_&+:&+<&+[&+`& }&+|&+1&+bS.NM V#+2&+3&+4&+4p.5&+6&+7&+8&+J|.;3.6%+_`.9&+0&+0&+a&+b&+c&+d&+e&+f&+g&+h&+i&+j&+k&+l&+m&+n&+o&+p&+q&+r&+b,.`O.s&+t&+u&+k#+v&+jW.w&+x&+y&+g<.JA.z&+A&+B&+=%+C&+%K.D&+E&+C$.F&+G&+H&+cv.8X.I&+BA.J&+K&+*J.L&+M&+N&+O&+P&+Q&+R&+S&+T&+Nn.U&+|A.V&+6x.W&+X&+Y&+Z&+D+.<'.`&+ *+.*++*++r.@*+#*+$*+x@+.}.%*+&*+_++_++**+1X.zW.0Q.y@+c,.=*+-*+;*+>*+,*+D4.|P.'*+bQ.)*+!*+~*+{*+]*+^*+/*+(*+_*+:*+g`.` +pI.aZ.r`.R@+<*+q`.p`.[*+}*+|*+%.+y7.z%+'.+1*+2*+3*+<*+-.+4*+f++5*+I%+3*+6*+<$+",
"7*+8*+7t.9*+0*+9*+a*+b*+c*+d*+e*+f*+g*+h*+i*+j*+nV.k*+l*+b$+m*+X%+n*+o*+2.+p*+q*+,#+so.r*+s*+t*+u*+v*+w*+x*+VW.y*+z*+A*+B*+C*+1y.Do.|t.Yu.sV.;O.{O.bP.*O.2U.D*+E*+F*+^Y.X@+Hz.xw.zw.G*+H*+I*+>&+J*+K*+L*+k$+M*+N*+2y.Iz.Fz.O*+[B.FM.$E.$H.P*+Q*+Lz.]&+R*+S*+na.T*+Xk.hP.sV.oI.Lj.]&+U*+eI.V*+W*+K0 X*+Y*+Z*+}*.`*+;W.Xn. =+.=++=+@=+#=+kY.$=+%=+&=+gl.fV *=+;Z.0X.==+-=+;=+>=+,=+'=+)=+!=+pn.~=+m-.ee.{=+AE.]=+lV n9.^=+_*./=+(=+_=+:=+<=+[=+}z.oZ }=+v#+|=+1=+n#+2=+ J.3=+J:.4=+5=++!.6=+zn.7=+(*.8=+8=+9=+!D.0=+a=+b=+c=+d=+e=+f=+g=+C#+h=+i=+VB.j=+'F.k=+aJ.rt.l=+m=+n=+p&+IL.o=+9%+;*.N1.^b.p=+q=+r=+s=+t=+T +u=+v=+_++_++w=+x=+ <.:!.P'.Z{.y=+z=+A=+B=+C=+D=+]P.MS.NX.ef.$U.E=+F=+G=+H=+/Z.I=+J=+y`.K=+L=+M=+N=+O=+P=+Q=+N@+R=+S=+T=+m`.$.+n`.U=+q`.h++v`.t`.r`.0++P@+Q@+V=+[*+z%+W=+X=+Y=+",
"!E.D*+Z=+{B.Xu.'#+o++1U.`=+ -+.-++-+@-+#-+$-+%-+&-+*-+=-+e$+--+;-+>-+,-+'-+)-+!-+tC.@E.~-+q++{-+]-+^-+>-+/-+(-+_-+:-+<-+[-+}-+yw.Do.jw.sC.|-+HJ.{O.@v.Eo.ZG.Br.&v.d*+uQ.Cr.Cr.YG.@H.J`.1-+;&+ZG.ZG.]q.5U.#E.[t.nr.!H.uQ.4B.!E.Cw.!H.&q.3n.,O.2-+>O.#E.Bw.XR.4U.Bo.-m.'O.*T.'q.s$+(#+y++u$+B$+3-+4-+5-+6-+7-+JY.A&+8-+C-.,X.9-+G$+0-+%=+a-+}M.b-+c-+d-+jp.*=+e-+S$+f-+g-+h-+,=+i-+j-+B'.k-+O9.l-+m-+n-+o-+y'.kV p-+q-+r-+s-+t-+}K.u-+xO.&M.v-+w-+x-+J:.y-+z-+A-+B-+ql.C-+D-+E-+F-++>.`0.f/.G-+K:.H-+I-+J-+K-+L-+M-+N-+O-+P-+|@+Q-+R-+S-+T-+U-+V-+mq.IY.W-+pn.X-+Y-+Z-+`-+ ;+.;+|Y z..+;+cd.@;+|i.#;+@*+$;+%;+&;+*;+=;+-;+;;+>;+,;+';+);+!;+a`.'Z.R'.y=+~;+{;+];+._.xR.{++NX.ef.^;+/;+(;+_;+m*.{&.J=+[Z.:;+<;+5Z.]E.[;+};+|;+P=+o`.1;+S=+2;+3;+4;+pI.bf y%+t`.5;+J=+m`.U=+6;+m`.*.+H%+%.+~$+Ab.la.",
"%v.UR.^Q.7;+@E.p++r++8;+].+p++bG.9;+_J.s++D`.0;+>#+a;+D`.E`.s++D`.cR.b;+c;+]-+bG.*M.C`.].+r++d;+e;+f;+g;+h;+:.+oK.i;+j;+k;+l;+vQ.8t.`G.fZ.m;+)y.EC.Eo.8t.9t.Iz.n;+o;+hF.9t.&v.fF.Gz.uV.}Y.5U.&q.'q.*T.p;+q;+*T.r;+s;+t;+N*+N*+Ru._q.lr.lF.[L.`u.lF.YR.u;+XR.5U.XR.v;+w;+x;+y;+Dr.(#+vr._n.z;+A;+B;+C;+D;+E;+[z.F;+G;+H;+I;+J;+K;+L;+M;+dW.`t.N;+3%+O;+P;+:`.Q;+R;+S;+T;+U;+V;+W;+p8.mU X;+{h.Y;+Z;+`;+ >+.>+NW +>+@>+#>+$>+r++%>+f;+mK.&>+%>+*>+dA.=>+@p.->+;>+#%+>>+{g.,>+'>+d#+wZ.)>+!>+y9.{k.~>+{>+]>+g&+{%+,u.^>+/>+(>+_>+:>+<>+[>+}>+|>+1>+2>+3>+4>+5>+2%+nn.6>+7>+AK.EU.LV f .FU.8>+ms.9>+5u.0>+a>+5i.b>+c>+d>+e>+f>+g>+h>+i>+ <.0`.R +j>+k>+l>+m>+LA.n>+#2.8o.@U.^P.o>+8`.p>+q>+Y=+r>+s>+t>+u>+v>+w>+YJ.x>+I=+y>+z>+P=+A>+A>+B>+[*+C>+B`.u>+D>+96.E>+F>+Wd.n`.~$+X=+x%+)$+-.+G%+G>+56.(O.",
"H>+hr.mV.oK.].+q++JH.I>+JH.q++/.+].+IH.:.+^Q.KH.r++].+<.+J>+JH.K>+o++jV.<.+r++JH.JH.L>+oK.].+JH.M>+N>+O>+].+oK.IH.IH.O%+P>+{t.so.<B.Q>+aG.cZ.}t.(q.~n.5B.xw.R>+S>+b*+Gz.}Y.5t.b*+Ar.2n.nr.&q.9t.T>+U>+V>+7$+W>+X>+R%+W>+Y>+Z>+1U.,L.AM.&T.dP.`>+FM. ,+ q.{O.hF.YG.Bw.sr.uw.Cw.h$+i$+)&+S*+.,+V*++,+r- @,+#,+$,+%,+OW W-+&,+*,+=,+-,+;,+>,+,,+',+),+!,+~,+Bs.{,+],+^,+/,+(,+bk._,+:,+<,+[,+},+|,+1,+q.+2,+3,+XZ.4,+t&+5,+6,+7,+$M.8,+:Y.9,+0,+{-+a,+b,+c,+!3.} +d,+iW.e,+Og.V$+f,+g,+;W.h,+D|.(,.#*.A:.g.+x_.C$.i,+&Q.j,+k,+l,+<>+m,+/>+n,+o,+p,+q,+r,++Z.I$+EO.6>+v +s,+<#.a5.9O t,+x#+O9.3j.Iy.u,+v,+<z.~@+w,+x,+y,+z,+A,+B,+C,+D,+e +._.E,+PT.E/.F,+G,+H,+I,+PX.J,+AR.K,+L,+M,+N,+O,+bf x>+^[.P,+Q,+H@+R,+S,+T,+U,+z>+U=+V,+G>+)$+W,+X,+Y,+Z,+`,+ '+.'+I7.v`.+'+y%+@'+n`.#'+o`.[*+[*+1*+x>+$'+",
"fF.%'+&'+D`.D`.D`.$M.cR.oK.J>+p++r++[.+*'+='+-'+;'+$M.[.+>'+h;+t-+a;+,'+KH.].+''+)'+I>+q++IH.D`.''+!'+~'+<J.JH.{'+J>++E.Bz.;L.]'+^'+1.+2U.ar.(t.x;+y;+$q.@v./'+GJ.YG.8t.uQ.V>+('+q;+'q.$q.;#+_'+f*+f*+:'+U>+<'+['+['+}'+WW.YD.|'+;B.*T.&T.3n.ZR.5n.FM.(q.!H.F`._B.hZ.'q./q.Bo..,+1'+(&+2'+3'+4'+5'+6'+7'+8'+9'+F;+Rg.]b.0'+a'+b'+eL.Yt.c'+d'+e'+f'+g'+}>+h'+i'+_A.`-+j'+k'+o.+;^.l'+[C.m'+n'+p=+o'+p'+L$+q'+!@+r'+s'+t'+u'+v'+9,+w'+x'+kF.fZ.}.+h;+y'+7=+z'+A'+B'+>d.C'+IA.D'+E'+F'+G'+C-.D(.p$.>Q C%.`W H'+I'+xX.J'+K'+ZP.L'+M'+N'+O'+P'+Q'+R'+S'+T'+$r.8u.$=+U'+b#+;3.qV V'+W'+X'+:~.Y'+Z'+`'++*+V$+ )+AS..)++)+@)+#)+$)+%)+&)+*)+A4.O'. |.=)+j>+-)+;)+%N >)+,)+')+))+!)+~)+{)+])+^)+Wd./)++;.XS.N .F@+()+cV.|;+_)+:)+<)+[)+})+T=+|)+A%+2-+1)+d++(O.2)+P=+3)+0++4)+5)+n`.6)+7)+d++N@+[Z.8)+e^.",
"9)+[-+0)+a)+:-+&'+b)+c)+0;+d)+e)+*-+f)+U%+g)+h*+h)+i)+j)+a;+b)+0;+k)+l)+d)+m)+:-+n)+o)+p)+b)+e;+t*+q)+r)+h;+s)+IH.g;+KH.^Q.<J.D`.z*+t)+x;+(t.(t.Cw.$q.u)+*T.!H.v)+>B.w)+$#+x)+;&+y)+*#+z)+x*+A)+B)+nV.C)+Aw.V>+D)+E)+F)+G)+J*+H)+H)+I)+dP.hZ.)L.J)+$q.K)+aI.WR.)L.'q.8t.Cr.Bo.|n.'&+RJ.1'+L)+M)+N)+O)+P)+Q)+R)+S)+T)+U)+V)+J;+W)+X)+Y)+4p.3%+Z)+`)+ !+.!++!+@!+Bu =%+#!+$!+VC.$o.%!+Ww.rH.&!+*!+:u.3,+=!+-!+;!+>!+,!+'!+)!+!!+NJ.~!+hD.{!+]!+OJ.c)+^!+/!+CN.DU.(!+,G._!+Og.3m.:!+<!+[!+}!+I<.|!+w-.1!+#J.2!+*Q uY 3!+G|.gV 4!+Ax.5!+6!+7!+B#+8!+9!+0!+a!+b!+c!+|,.d!+/U y(.(U h/.|=.e!+-s.f!+HU.Yh.n#+NZ.g!+h!+i!+j!+k!+l!+m!+n!+o!+p!+q!+r!+s!+MP.t!+>K u!+v!+w!+x!+KS.y!+z!+A!+B!+C!+D!+s>+E!+F!+9V.7P.G!+H!+I=+S@+|*+I!+2*+J!+K!+W=+N@+2;+L!+M!+N!+v`.3;+O!+I7.z%+P!+M!+Q!+=.+*.+R!+S!+T!+U!+",
"V!+P%+W!+d)+l)+X!+d)+Y!+0;+Z!+X!+h*+`!+}-+ ~+h)+%'+.~+Z!++~+@~+#~+$~+l)+%~+&~+&~+l)+bG.&M.v*+*~+=~+d;+>'+e;+-~+e;+;~+$-+-'+&'+>~+,~+l)+l)+e$+'~+7t.nV.)~+l*+!~+~~+{~+]~+5$+g*+^~+5$+/~+(~+_~+:~+<~+ar.<U.Aw.t;+Gz.R>+t;+b*+b*+=#+[~+8t.$q.}~+`@+|~+uQ.1~+Gz.kw.GJ.5B.@H.1t.1t..,+2~+lZ.3~+lZ.4~+5~+6~+7~+8~+ R.Z++:!+c,+(g.9~+J;+(g.Y)+BZ.8#+0~+a~+b~+c~+:c.<j.iv.d~+Pq.%o._,+e~+[C.f~+,s.g~+h~+i~+,P.N;+HY.j~+k~+l~+m~+n~+o~+!L.p~+6W.q~+r~+6W.s~+p)+HH.t~+u~+v~+w~+_!+>>+x~+b#+y~+zv.z~+AN.A~+D%.#i.4e..>.B~+C(.C~+2k.D~+u_.cm.E~+J.+#;+F~+h&+G~+H~+I~+J~+H:.K~+L~+lI ^d.TM +s.M~+Xw..r.(x.qG.[z.O>.N~+O~+P~+h!+Q~+R~+S~+T~+U~+q5.V~+~@+W~+X~+KA.i=.HG  J.MP.Y~+vW.AR.Z~+`~+ {+T_.Hi .{++{+@{+#{+${+F!+%{+j++66.t`.!.+'.+V,+&{+Z,+S=+o`.M!+*{+G%+1*++'+={+-{+;{+6*+Q@+K!+J%+Ab.vf.:)+>{+,{+'{+",
"){+!{+~{+{{+]{+^{+B*+/{+({+_{+`!+U%+}-+:{+q*+<{+y*+[-+}-+[{+}{+Z!+|{+*~+1{+k)+:{+2{+;'+}.+;~+v*+3{+4{+5{+6{+$-+i;+$-+7{+8{+X!+0)+_-+.~+B*+9{+Z!+Z!+0{+a{+b{+c{+d{+e{+y)+f{+##+g{+S%+y*+h{+$v.W%+bP.bP.hF.xw.i{+j{+['+k{+b*+E)+bP.l{+8t.!H.Ar.Cr.['+m{+n{+b*+*&+e{+J*+uQ.|y.]q.o{+4.+hV.}Y.M*+~q.p{+q{+r{+s{+J-+u(.t{+u{+v{+w{+x{+J;+M:.dR y{+z{+A{+B{+C{+ep.D{+HV.@p.E{+F{+}s.G{+H{+I{+J{+X&+K{+L{+M{+'++N{+O{+P{+Q{+R{+S{+n~+fZ.DM.T{+U{+V{+hN.@M.W{+X{+!L.Y{+]$._!+HA.Wf.Z{+`{+3 +:D. ]+kp.<,+/T h/.gY.1!+&z xZ =i..]+:Y +]+Z+.7K.@]+/Y >++#]+Wq.$]+%]+7%+ A.&]+2k.QG *]+9%+ae.=]+-]+;]+yX.>l.>]+,]+']+)]+!]+~]+{]+]]+^]+/]+n-+x-+]e.(]+}z._]+:]+<]+[]+}]+|]+1]+gh.9o.2]+3]+4]+8)+5]+6]+7]+8]+9]+0]+a]+b]+c]+0++t`.E>+$'+d]+}L.[q..9.Y,+Y,+e]+d++y%+6)+f]+g]+a.+}*+h]+P=+n`.A>+i]+5Z.&].j]+k]+",
"l]+m]+l*+~B.n]+i)+o]+p]+q]+r]+s]+t]+j)+u]+ir.1.++&+~B.s++~L.v]+w]+x]+!L.='+y]+z]+g$+A]+B]+4{+C]+#-+D]+E]+F]+G]+v*+&M.H]+k)+I]+J]+J]+{{+K]+T%+0{+L]+X>+M]+N]+O]+P]+Q]+R]+S]+$#+1$+T]+]{+l;+`@+U]+x)+V]+Iz.t;+W]+X]+xw.Y]+b*+gZ.Aw.|y.s;+Gz.ZG.zw.L*+Z]+`]+L`. ^+.^++^+4.+@^+KM.lZ.#^+$^+%^+&^+*^+=^+-^+;^+>^+,^+'^+)^+3i.ll.!^+$Q.~^+{^+]^+)F.^^+c!+/^+(^+CE._^+:^+<^+[^+$!+}^+|^+1^+2^+3^+4^+5^+g@+6^+wU.Y++7^+UP.8^+9^+0^+w'+GT.DM.a^+b^+c^+d^+e^++F.f^+^!+g^+h^+i^+j^+k^+l^+m^+.%+8c.9c.3 +n^+o^+jp.p^+$a.q^+r^++!.!>+p$.s^+kQ p$.)i.M5.t^+Fn.u^+3d.NR lI +/.0p..@.`f.FU.E(.C0.v^+xX.@Z.w^+x^+g@+HG ,]+y^+z^+A^+B^+O$+C^+D^+lW.D-+j&+S)+E^+F^+B$.G^+H^+ z.I^+J^+K^+L^+M^+N^+O^+P^+Q^+R^+S^+T^+U^+V^+W^+X^+Y^+I!+bf BQ.*9.|)+{E.Y,+5n.Z^+7)+`^+ /+W=+d++./+6B.N@++/+h]+5;+@/+6)+xb.D!+#/+$/+%/+",
"Az.lV.kV.^Q.C`.^Q.^Q.lV.qz.&/+*/+=/+cR.^!+kF.fZ.lV._J.cR.hr.-/+*/+mw.OJ.VW.aG.'#+_J.;/+>/+,/+-~+'/+F]+)/+!/+~/+{/+]/+l)+X!+^/+#~+,~+//+##+(/+W>+_/+p]+:/+E)+G)+7$+/~+</+[/+}/+|/+h*+K]+_~+1/+2/+3/+n;+-&+zM.8t.Cr.xw.r;+dF.W%+4/+*v.5/+n;+n;+6/+7/+ ^+8/+9/+5.+J`.%&+0/+a/+6.+I`.J`.b/+c/+d/+e/+f/+g/+h/+i/+j/+k/+.I. ^.cS./4.l/+m/+]>+n/+I~+}A.id.o/+,P.p/+q/+r/+s/+b-+&K.t/+u/+v/+w/+x/+Q;+y/+a>+z/+i[.A/+B/+C/+gD.~R.D/+`U.{y.E/+zL.OI.F/+G/+gD.(Q.xO.!L.:Y.H/+I/+q2.Z{+Z{+.j.J/+;o.K/+W~+|C.L/+M/+|A.cs.c!+>P.N/+G{+O/+.>.C9.q{.<c._^+u{.P/+Ny.Q/+R/+&*.S/+T/+4c.U/+nH.V/+>N =++>P.W/+X/+X/+4N.:h.Y/+JY.9'+_!+NZ.Z/+y&+`/+I.+ (+`*+.(+9'++(+@(+#(+$(+.<.KS.%(+&(+*(+=(+-(+;(+>(+,(+'(+<)+)(+!(+~(+{(+](+h]+^(+g++h++{E.^O.`u.+m.^O./(+/O.b++((+6)+=.+N@+V=+./+_(+:(+O!+<(+K@+f]+[(+H!+4Z.BQ.",
"gr.Uu.o++_B.9I.9I.'#+^Q.lV.jV.mK.so.cR.rz.o++o+++&+lV.s++9,+~L.~B.mw.-O.^y.}t.Eo.+q.sz.o++~L.=-+z*+}(+)-+f*+_~+|(+1(+o*+2(+%-+_'+}-+3(+4(+5(+6(+T>+vQ.GJ.7(+8(+9(+0(+a(+b(+c(+d(+e(+f(+1(+ &+g(+*v.Cw.,O.Cw.@v.ZD.h(+3/+i(+j(+k(+l(+J*+m(+L*+G*+L*+n(+|Y.o(+n(+p(+n$+q(+r(+8/+n$+s(+t(+u(+v(+w(+x(+y(+z(+A(+^>+B(+C(+D(+T%.E(+F(+G(+;N $w.H(+I(+J(+K(+I(+L(+M(+A +} +N(+O(+P(+Q(+R(+S(+T(+U(+V(+C$.W(+X(+Y(+Z(+`(+eR. _+DM.._+uz.~y.+_+@_+#_+lL.$_+@M.%_+&_+rS.*_+=_+-_+;_+f!+<R.>_+vG.9j.:]+,_+Xf.|,+xZ.SB.'_+)_+!_+^X.~_+{_+dR ]_+%K.c~+z_.'p.^_+/_+(_+w'.__+:_+<_+jW.[_+aS.}_+&s.FA.|_+1_+kp.2_+3_+4_+5_+6_+/g.7_+8_+9_+ST.8_+{=+0>+;Z.}R.0_+a_+Z{..<.{++')+b_+c_+V* d_+e_+f_+g_+N!+h_+i_+j_+k_+|;+l_+m_+n_+V@+o_+W,+L!+p_+q_+5n.7)+d++}L.{E.-.+f++S=+M!+r_+N@+s_+t_+u_+v_+[*+w_+x_+J=+m`.y_+",
"z_+^B.A_+=-+B_+g$+C_+b)+a;+0*+o++_J.wz.=-+o)+fZ.-O.~y.ir.D_+^!+NJ.A_+a)+qz.~y.qz.qz.+q.+q.sz.9;+c)+s++E_+F_+|(++-+G_+ &+H_+f*+K]+I_+3(+J_+xw.Bw.hF.l{+W%+S%+K_+L_+M_+N_+O_+3{+P_+*~+Q_+y]+YD.y;+F)+gZ.zw.t;+b*+R_+S_+T_+U_+V_+J*+G)+5U.SR.J`.m(+W_+n$+X_+Y_+Z_+`_+ :+.:++:+@:+#:+$:+%:+&:+*:+=:+-:+Xs.;:+>:+hT.Bv.,:+':+):+Ev.!:+mL %r.~:+{:+]:+^:+/:+(:+_:+::+<:+[:+:u.&p.6s.}:+.u.|:+1:+2:+3:+4:+5:+kA 6:+7:+kL.mE.8:+~!+`U.9:+kF.0:+a:+b:+c:+OI.d:+!!+!L.dR.pE.e:+f:+g:+/h.IY.h:+i:+j:+<:+qW.k:+l:+m:+n:+o:+p:+S%.q:+;Z.lT.kL r:+s:+1j.!3.t:+$Z.u:+v:+w:+x:+y:+M/+z:+Wv.5N.}`.A:+B:+C:+d-+%=+D:+{4.E:+F:+5i. f.G:+H:+5:+I:+J:+`e.JX.Cv.K:+L:+M:+PX.LS.a7.N:+O:+P:+Q:+R:+S:+T:+U:+V:+W:+X:+j_+Y:+y_+Z:+h]+h]+`:+y%+ <+N@+7)+Y,+7)+f++Q@+>.+}L.y7.a++.<+ /++<+@<+s_+Z,+#<+$<+%<+:(+&<+*<+P=+Z,+",
"^'+t++cG.3{+B]+=<+z*+c)+9;+-'+-<+n*+;<+b)+><+1.+b;+(-+}.+n)+n)+9;+(-+y]+%~+,<+y]+c)+fZ.DM.s++A]+2{+D]+'<+)<+U%+!<+B]+~<+{<+)-+K]+W!+/~+]<+;B.D)+Z>+^<+X>+U%+T%+2$+/<+(<+_<+*~+:<+;~+]/+<<+[<+}<+##+|<+g{+|~+&&+1<+2<+y)+J_+u;+pV.5U.3<+n;+4<+G*+5<+6<+`_+0/+7<+8<+9<+0<+a<+b<+c<+d<+e<+f<+g<+h<+i<+Xs.j<+k<+np.l<+m<+!4.n<+o<+p<+q<+r<+s<+c,.t<+u<+v<+w<+x<+y<+L-+z<+A<+B<+}A._`.C<+D<+E<+D(+F<+G<+%R.H<+I<+J<+iK.sS.K<+L<+M<+`U.+F.N<+O<+X.+P<+P<+!R.pA.r~+Q<+*z.R<+S<+'Y T<+`h..j.cX.>u.U<+V<+W<+Zh.X<+(h.Y<+Z<+`<+ [+.[++[+@[+#[+$[+%[+&[+*[+s:+=[+'d.E~+-[+;[+;a.>[+,[+ek.'[+)[+![+HS jl.FS.~[+l<+~]+{[+][+BS.l&+Du O++^[+/[+!4.;^+([+_[+ }.iR.3`.:[+'*+<[+[[+}[+|[+1[+2[+3[+4[+5[+6[+7[+8[+9[+0[+:)+,(+a[+h++G>+K%+zh.{E.L@+e++Y,+)$+)$+*.+6*+2;+M@+.<+b[+c[+d[+e[+f[+4)+g[+h[+,(+i[+5)+Z,+",
"j[+&M.r++{-+_B.Bz.Bz.rw.>#+n)+j[+e;+h;+[.+e)+:.+,'+LH.%>+k[+l[+B]+v*+B]+$-+1{+$-+m[+cG.[J.[.+%>+v*+~'+n[+o[+p[+@-+'/+!-+@-+q[+I_+a{+r[+s[+/~+t[+/~+s[+u[+i*+^~+v[+_<+w[+_~+8,+i;+H]+x[+y[+1{+z[+A[+B[+C[+D[+V]+p$+E[+wQ.x;+}~+5U.F[+n{+Z]+F[+m(+G[+p$+m(+J`.I`.#^+H[+$^+I[+J[+K[+L[+M[+N[+O[+P[+Q[+R[+S[+T[+U[+`I.S;+V[+W[+W[+X[+Y[+Z[+`[+ }+8N.M:+W[+.}+`B.+}+@}+#}+$}+q-+%}+&}+*}+`<+CO.PL.=}+-}+;}+RW N{+>}+,}++P.'}+)}+g^+hN.!}+~}+FL.{}+oL.]}+^}+ZF./}+(}+!Q._}+ 7.Fu :}+aS.`{+<}+/4.[}+}}+S;+|}+1}+2}+3}+4}+5}+6}+7}+8}+9}+0}+#N a}+b}+0I 2 +c}+es.d}+@N }`.pn.e}+f}+$;+@*+M/+g}+xn..r.h}+{4.i}+i}+j}+,_+UT.O>.n#+(f.HL.k}+l}+m}+n}+|P.QS.{P.bQ.o}+KR.p}+q}+r}+s}+t}+u}+v}+w}+x}+_&+y}+z}+A}+5;+h++x%+J@+y_+d++L!+B}+iP.Z^+B}+-.+%.+I7.C}+Z,+D}+Z,+E}+t_+e[+ /+F}+G}+K!+:(+h[+H}+c]+:(+I}+",
";<+;'+IH.h;+<B.:B.:B.rw.:B.+E.J}+<.+K}+/B.[J.KH.h;+>'+IH.IH.M>+L}+IH.IH.IH.M}+].+oK.p++oK.e;+IH.N}+O}+e;+*~+G_+q[+P}+/~+M]+Q}+3$+A[+t[+f*+`!+R}+|(+X!+k(+]{+]~+X>+S}+0{+T}+H]+U}+V}+,<+]/+2{+1{+]/+W}+X}+pC.hF.*T.Y}+0$+wQ.;O.Z}+P]+I*+`}+I*+K_+ |+.|+m(+Z_+r(+4~+hV.8/++|+@|+#|+$|+%|+&|+*|+=|+-|+;|+>|+,|+SZ.'|+)|+!|+~|+{|+]|+^|+/|+(|+_|++z.:|+<|+N.+2D.[|+}|+||+1|+y=+2|+3|+s!+z&+4|+cS.5|+6|+m.+z/+7|+8|+9|+0|+a|+b|+yB.q~+5G.c|+d|+e|+f|+g|+h|+i|+j|+k|+l|+`V.m|+h#+<!+tD.n|+o|+p|+q|+r|+s|+i'+t|+u|+v|+YC.w|+x|+y|+W[+z|+A|+l,+B|+M(+Hm.C|+D|+E|+F|+G|+Ex.H|+I|+J|+xX.K|+L|+C&+ =+J.+M|+t .N|+{@+g5.)^+O|+P|+j&+o/+mp.cK._@+Q|+R|+CR.|Q.1P.dh.OS.MS.S|+T|+U|+V|+W|+X|+Y|+Z|+`|+ 1+.1++1+@1+#1+Ab.h++$1+d++Z^+Y,+Y,+%1+((+((+tg.(#+&1+X:+*1+r_+Q!+=1+M!+*{+-1+;1+>1+|)+,1+'1+)1+-{+!1+6*+",
"/-+,'+[.+!t./n.:B.<B.+E./B.mV.~1+K}+].+<J.<J.oK.JH.J>+t*+]-+&M.mV.[J.<.+D`.[J.[J.p+++E.<.+oK.mV.}.+bG.h;+4{+q[+E]+'/+3{+G_+,<+P}+^-+{1+k)+B_+]1+]1+^1+/1+1{+1{+K]+k(+f(+n)+B]+-'+,<+H]+y[+-'+(1+2{+H]+(~+_1+:1+<1+C)+[1+6(+|$+_/+}1+H*+I*+|1+ ^+G*+L`.11+21+31+41+51+61+71+81+91+01+a1+b1+c1+d1+e1+f1+g1+h1+i1+#r.j1+i,+k1+l1+@}+m1+n1+o1+y|+r<+p1+q1+r1+s1+t1+u1+v1+w1+x1+y1+z1+A1+B1+C1+c%+D1+7A.X/+`J w~+E1+F1+G1+H1+I1+pA.q~+J1+K1+L1+M1+N1+!K.Bk.O1+ P.P1+Q1+eO.N~+R1+S1+~g.Y#+=}+T1+U1+V1+6N.W1+O'+*Q.X1+Y1+Z1+`1+ 2+.2+c,.+2+@2+eA.#2+$2+%2+uR.&2+s=+3_+6_+_!+*2+ms.=2+-2+N++M9.;2+>2+<f.K..<]+cI JG ,2+'2+_f..I.)2+K-+!2+~2+Bk.R|+QS.@6.bQ.{++KR.M,+$$ {2+]2+^2+/2+(2+_2+[0.Z|+eI.v$+:2+<2+[2+7)+6)+Z,+H%+}2+L!+|2+p_+M!+z++12+22+32+42+,1+52+,1+62+;1+=1+Q!+72+82+t_+92+02+@1+a2+b2+N@+",
"c2+d2+&'+ir.aI.Bz.e2+;'+%~+A]+bG.>'+{-+d;+h;+:.+&M.]-+y]+n)+%~+(-+%>+^!+|-+$M.7;+E_+mV.r++h;+{-+LH.{-+f2+f2+t*+l[+d;+f2+4{+7{+g2++-+/1+9{+W!+h2+i2+j2+C]+9{+ ~+k2+r[+l2+m2+n2+3{+o2+n2+-'+C]+1{+*-+n*+f{+i(+p2+q2+Z>+r2+s2+j(+t2+u2+v2+w2+x2+%&+%&+y2+z2+A2+B2+C2+D2+E2+F2+G2+H2+I2+J2+7/+P[+K2+3$+L2+M2+N2+O2+P2+Q2+)|+R2+iS.S2+T2+U2+V2+W2+X2+Y2+Z2+`2+`Y. 3+.3+6D.+3+@3+#3+$3+%3+&3+*3+Lt.=3+O(+-3+;3+>3+,3+'3+)3+!3+~3+{3+hD.]3+^3+/3+(3+_3+eK.:3+db.<3+[3+}3+hQ.J/+|3+Cx.13+fe.23+K..33+fv.43+53+63+nX.73+83+93+03+a3++2+b3+fO.c3+d3+e3+f3+fO.$$+g3+h3+W%.i3+F^+y^+j3+lq.k3+l3+m3+`j.>2+n3+4i.o3+g{.p3+q3+r3+s3+t3+(@+u3+~2+h|+rc.dQ.1P.r@+2F.OS.MS.p>+v3+w3+W:+x3+.,+dI.y3+xV.z3+A3+<#+./+$1+Z,+6*+C}+2-+R=+B3+Z^+2;+I%+A3+C3+D3+E3+F3+G3+H3+I3+^&+J3+K3+L3+M3+N3+O3+P3+Q3+C3+j_+R3+S3+T3+",
"l*+U3+[-+V3+<~+W3+,<+m)+=-+n*+-'+:.+-'+>-+h;+cG.a;+oK.e2+u*+y]+y]+H]+2{+D]+*-+2$+X3+Y3+>/+*~+e(+#-+Z3+*~+`3+ 4+.4+*~+l[+i;+y[++4+@4+#4+$~+#-+$4+Q_+/1+h2+u[+0{+o[+F_+G]+^-+Q_+Q_+m2+%4+1{+&4+*4+ ~+l;+=4+ZD.n{+-4+;4+|<+O_+>4+,4+'4+)4+;&+!4+~4+{4+]4+^4+/4+(4+_4+:4+<4+[4+J`.}4++^+ |+|4+P[+3$+4$+14+24+34+44+DN.V[+54+64+74+84+94+N'+04+a4+V2+b4+c4+d4+e4+f4+g4+h4+i4+j4+_|+H^+~:+k4+l4+Zz.Zt.m4+F{+fO n4+o4+p4+OI.q4+r4+s4+t4+u4+v4+w4+x4+y4+}P.z4+eb.#_+A4+B4+C4+:u.D4+E4+C<+4N.F4+G4+nW.|R.H4+I4+$V.J4+K4+L4+M4+u.+N4+A|+O4+p<+P4+Q4+k%+R4+#2+S4+T4+U4+V4+Vy..I.W4+KB.xs.!^+~g.aS.B'+X4+F4+H|+;Z.Y4+Z4+l<+`4+F&+ 5+.5++5+HT.HT.2a.IR.YA.KR.@5+OS.#5+$5+%5+&5+*5+x}+U*+=5+_&+=5+-5+;5+6[+>5+,5+f++Mz.&1+'5+)5+2-+6*+6*+&{+!5+L3+~5+6[+{5+K3+]5+^5+/&+,1+/5+(5+_5+:5+<5+[5+}5+|5+I3+15+72+r$+",
"g{+25+A*+35+45+_{+&M.iV.J}+D`.<.+<.+]-+{-+oK.55+oK.iV.mV.b)+b)+%~+%~+65+]1+^{+s]+X>+^/+$~+75+Q_+f(+9{+9{+^1+h)+|(+!<+y[+j2+i;+H]+]/+~/+C]+85+95+05+a5+h2+b5+f(+#-+c5+)~+X%+f*+X>+#-+a;+Z!+d5+K*+X]+e5+f5+g5+qC.h5+R%+i5+j5+2<+V_+;&+k5+l5+m5+n5+ |+o5+p5+g{+ ^+.:+q5+Z_+r5+s5+t5+1-+H*+u5+@#+3$+v5+w5+x5+y5+z5+A5+DN.B5+C5+D5+E5+F5+N'+G5+H5+1@+I5+J5+K5+L5+94+:|+M5+N5+O5+P5+Q5+r!+R5+.f.Cx.0#+S5+T5+U5+V5+W5+v.+X5+Y5+]N.Z5+HI.`5+ 6+.6++6+@6+#6+Bd.$6+^}+%6+&6+jL.+w.O++6u.*6+,[+KA.=6+-6+<%+;6+.C.`.+>6+,6+'6+)6+!6+!2+~6+p<+{6+]6+^6+@2+/6+(6+_6+:6+@>+<6+dA.[6+`i.<f.}6+<f.HX.|6+`j.y^+16+26+S;+/R.)2+ R.36+vU.FN.db.46+56+66+|P.76++6.86+96+06+a6+b6+c6+d6+e6+=5+f6+g6+z}+h6+i6+j6+k6+l6+m6+y}+#9.n6+o6+i$+x}+L3+&{+T:+Q3+p6+,1+I3+z++!5+q6+r6+s6+t6+N3+u6+v6+Q^+w6+5'+x6+y6+ X.,1+z6+A6+",
"W}+e)+`3+~/+B6+<.+^Q.tC.lV./B.:B.C`.h;+;<+$M.h;+<.+Cz.sz.}.+D`.mV.[.+cG.a;+9;+V3+f)+z*+f)+a;+9;+m)+y[+C6+/1+*4+D6+E6+F6+G6+H6+I6+J6+c(+h*+R}+*4+K6+Q_+!<+]1+g)+;B.L6+WW.+H.:~+u5+E]+_.+x]+^Y.XG.Az.M6+EC.^B.1y.Br.mw.rC.4/+F[+=&+2<+N6+k{+}1+K_+O6+p$+m$+P6+Q6+R6+S6+T6+U6+V6+W6+X6+3$+Y6+b(+^~+^~+~~+Z6+`6+ 7+.7++7+@7+.R.D#+^R.#7+$7+%7+b=.FL.&7+*7+=7+-7+;7+>7+te.LY.,7+'7+43+)7+!7+NZ.<R.~7+eL.{7+]7+^7+4H.X5+/7+af.(7+_7+:7+aT.<7+[7+}7+Xx.v.+|7+rc.17+[3+27+37+47+57+67+%!+|i.77+cJ.T$+87+97+07+qB.a7+b7+M'+c7+d7+bT.3D.e7+f7+g7+h7+i7+`Q.Zy.j7+M'+&7+9X.],+k7+oD.l7+3m.yX.>%+<f.<C.m7+n7+q3+o7+h'+p7+b=.q7+oj.fz.r7+s7+t7+a7.fb.@6.96+QS.cQ.u7+v7+w7+x7+y7+z7+A7+B7+V|+C7+D7+E7+F7+G7+H7+v}+~5+&1+I7+J7+K7+L7+M7+z6+g_+7U. X.O3+N7+<5+a[+O7+P7+Q7+4'+R7+a2+S7+^5+7[+T7+U7+V7+,1+W7+W7+X7+",
":-+#M.Z3+;~+d)+z]+_Y.-O.hr.kF.qz.tC.m)+&~+-<+m)+Y7+tC.*M._J./B.jV.^Q.*M.s++D_+o)+;/+;/+s++i;+d(+t[+^/+='+p)+Z7+!L.D_++~+I6+`7+ 8+.8+4$+5$++8+@8+#8+$8+M]+U>+3U.mV.O%+P>+`@+%8+&8+E]+_.+B6+_/+R]+*8+=8+-8+eZ.-L.Cr.`@+*v.F*+;8+>8+5$+_'+D)+W>+R]+,8+'8+)8+!8+~8+{8+]8+^8+/8+*:+(8+,8+_8+:8+u5+Y6+U%+5$+<8+[8+}8+|8+18+28+%w.`I.38+48+58+*7+68+78+J5+wS.88+98+08+a8+b8+c8+d8+e8+f8+g8+h8+q-+<}+Kq.-3+a~+i8+j8+3H.aT.iK.=N.k8+l8+>J.m8+n8+o8+p8+M5+q8+v.+af.r8+s8+dN.vy.p/+@;+t8+t:+M/+m.+u8+v8+o,+o,+w8+x8+y8+z8+!D.A8+B8+C8+o<+D8+gO.3}+L'+[@+E8+U2+d|+Q'+F8+G8+i,+Z<+H8+B'+I8+Zh.Em.$,+J8+7u.'%+,u.h'+H5+K8+L8+M8+af.N8+O8+;H P8+fb.1P.$2.H8.Q8+cQ.R8+n! S8+T8+U8+V8+W8+I3+X8+Y8+Z8+`8+ 9+.9++9+@9+#9+$9+%9+N7+&9+&1+x7.L3+*9+=9+-9+T3+;9+>9+,9+,9+'9+)9+!9+~9+{9+52+]9+6[+~5+M3+/5+^9+/9+(9+_9+",
"b{+:9+<9+[9+:8+}9+|9+B*+19+29+t)+){+39+}9+//+49+59+~~+69+79+89+//+99+09+a9+d1+b9+v5+d1+U3+<9+c9+d9+e9+f9+g9+h9+i9+j9+k9+l9+a(+m9+n9+o9+M]+o9+a9+p9+q9+r9+5B.kw.DM.+H.q*+s9+g{+t9+*4+J}+u9+=&+u5+S%+k{+v9+Q]+7$+w9+x9+y9+z9+A9+B9+W%+.#+0$+##+C9+D9+E9+F9+G9+H9+I9+J9+K9+L9+M9+N9+p9+]~+a{+^~+5$+W!+L]+O9+P9+Q9+R9+S9+S;+E(+T9+&%+U9+ZP.V9+W9+0K.X9+7>+Y9+Z9+`9+ 0+G#++}+0g..0++0+/@+@0+#0+9c.4p.$0+u{.%0+&0+*0+kL.=0+-0+;0+XL.hK./|+>0+,0+'0+$6+t7+X5+<Q.`O.j|+)0+0N.bk.!0+`'+}i.~0+pD.b%+{0+3}+0=+C(+t|+]0+^0+/0+(0+<7+_0+:0+<0+[0+3K.}0+|0+10+20+E<+L#+30+i'+cK.40+3i.NG o3+50+ol.~W.t .l<+60+70+5}+eA.80+90+00++0.we.a0+b0+c0+*U.|P.d0+e0+QS.f0+g0+h0+i0+j0++9+L)+0t.U*+k0+l0+m0+I3+Y|+n0+o0+p0+T:+q0+(5+<5+)9+z6+.9+r0+!#+s0+t0+=9+u0+v0+w0+;9+x0+_2+,9+r0+y0+z0+42+K3+^&+M3+52+R3+S3+A0+ZR.",
"B0+C0+D0+E0+F0+G0+H0+o9+69+I0+J0+K0+L0+M0+.8+N0+O0+G0+O]+P0+Q0+R0+1/+S0+T0+d1+L0+U0+V0+W0+1/+]1+X0+V0+L0+Y0+T0+Z0+`0+ a+.a+.a+O6+u5+L]+W]+.a+vQ.GJ.mw.)y.@v.%v.'y.bI.+a+@a+T]+:8+c(+#a+$a+f{+3$+%a+&a+N6+*a+=a+-a+,8+;a+Q]+E*+C)+*v.*v.=#+$#+V]+z9+>a+`}+T]+o$+v9+,a+'a+)a+W_+!a+ a+Y6+~~+v5+d)+H>+X]+~a+{a+]a+^a+:!.b=.E(+u(./a+n_.<:+GU.%u.(a+(a++Z._a+:a+<a+%J.38+[a+{%+}a+|a+Vy.1*.L..1a+)_+c,+!k.2a+3a+4a+RO.5a+f|+RO.YL.6a+7a+8a+9a+pc.0a+cf.aa+ba+ca+da+ea+fa+ga+a'+il.ha+ia+ja+ka+{0+la+ma+na+oa+pa+aK.k7+eS.9X.dA.]W.qa+ra+C(+M;+sa+^u.b=+9@+ta+ua+va+wa+xa+L.+9=+ya+za+Aa+V[+Ba+Ca+#(+Da+Ea+Fa+Ga+Ha+rc.df.Ia+Ja+Ka+La+EN.y(+nj.Ma+Na+a7.Oa+Pa+Qa+Ra+Sa+Ta+Ua+,9+X|+Va+Wa+Xa+Ya+M)+.9+<5+M3+Za+`a+]9+m6+~9+ b+~9+r_+.b++b+@b+`>+Q*+z3+x0+#b+$b+%b+`a+&b+*b+=b+R7+=b+q0+-b+R3+=b+;b+>b+",
",b+'b+)b+h{+h)++#+^~+!b+~b+{b+O]+m9+N]+m9+Y0+K0+]b+ a+S%+^b+X0+l2+1{+k(+/b+o++(b+~L.&'+_b+i*+YD.hr.(b+:b+=-+0)+<b+U%+w2+[b+N%+F*+}b+=8+-8+bZ.Aw.Aw.8t.GJ.-L.5B.@v.Aw.5B.|b+~B.f)+_Y.lV.cP.=4+1b+2b+3b+4b+>4+W_+5b+6b+>4+)8+=a+o;+5/+.a+##++#+e{+7b+{~+1-+j{+r5+@T.8b+9b+0b+ab+bb+cb+db+eb+fb+`=+jV.kw.gb+hb+ib+jb+kb+O'.lb+mb+nb+ob+pb+m7+j^+50+.J.]>+$u.qb+R;+rb+sb+tb+8!+ub+vb+_:+wb+xb+yb+$;+Bm.xm.Yt.zb+uB.Ab+`5+Bb+Cb+Db+Eb+Fb+Gb+KO.Hb+ <.y@+Ib+Jb+Kb+Lb+Mb+Nb+Ob+A{+Pb+Qb+Rb+.J./[+Sb+Tb+60+`j.Ub+Vb+Wb+%w.cA./0+Xb+3}+Yb+@7+}R.ML.Zb+`b+ c+.c+P-++c+@c+#c+N-.$c+%c+&c+*c+X++=c+JS.y=+_@+-c+;c+>c+Gl.p8+,c+eO.'c+)c+!c+~c+{c+]c+^c+/c+(c+_c+:c+<c+[c+}c+|c+q6+ 1+.9+1c+y0+L7+2c+3c+{5+'9+4c+u0+5c+>b+x}+j6+^&+6c+(2+xV.Qj.$E.7c+8c+@b+9c+0c+ac+&b+J7+ b+&b+*b+bc+cc+dc+>9+ec+fc+u0+4c+.9+",
"_Y.k*+p9+X>++#+gc+hc+ic+]b+-|+jc+&a+-|+&a+kc+lc+mc+nc+*#+45+oc+J6+c(+pc+qc+rc+a(+sc+pc+tc+uc+vc+-/+w]+0;+wc+T0+xc+yc+zc+Ac+Bc+Cc+Dc+N6+Ec+Fc+Gc+!b+g<+P]+v9+Hc+Ic+Ar.*O._J.(B.}.+lV.+E.Jc+uC.Y!+Kc+Lc+Mc+Nc+Oc+Pc+Qc+Rc+Sc+Tc+Uc+0/+H[+Vc+Vc+s5+Wc+Xc+Yc+Zc+`c+ d+.d++d+@d+#d+$d+ d+M[+%d+&d+Iz.jV.29+*d+=d+-d+;d+>d+,d+,Z.'d+)d+!d+~d+{d+$N =N Gm.C1+]d+^d+tE./d+T'+va+(d+Ea+ub+_d+:d+<d+/[+[d+0@+8Q.}d+|d+1d+2d+GI.3d+4d+SP.5d+j[.6d+7d+8d+9d+0d+ad+!R.bd+cd+dd+ed+fd+gd+k/.4!+hd+~g.PL.id+[>+jd+kd+ld+T$+G^+md+nd+0!+od+pd+T%.;l.$u.,V.sb+qd+rd+sd+td+ud+eS.c3+vd+hA.c=.k>+wd+P4+8N.93.>|+pM.xd+iQ.yd+GD.zd+;c+Ad+Bd+Cd+Dd+Ed+Fd+Gd+c;.'-.Hd+Id+c;.Jd+Kd+Ld+Md+V7+4Y.;5+Nd+Od+&b+Pd+Qd+_2+ b+w;+Rd+Sd+M*+Td+Ud+'9+~q.Vd+Wd+n0+R*+@b+Xd+>L.Yd+Zd+y;+z7+`d+Rd+w;+ e+.e+2c+Od+Xa+'9++e+R7+J7+@e+",
"#e+f$+X>+$e+O]+O]+M0+%e+pc+&e+<b+*e+=e+*e+-e+-8+;e+>e+K]+b(+,e+g9+b(+L0+'e+)e+!e+E0+~e+{e+]e+^e+/e+(e+_e+:e+<e+[e+xc+}e+|e+<e+1e+2e+3e+4e+5e+6e+7e+8e+9e+|4+,8+.^+0e+ae+*/+be+ce+de+ae+4/+ee+vz.fe+ge+he+ie+je+ke+G9+Xc+le+me++|+T6+ne+oe+j{+a/+T6+%d+pe+Yc+qe+re+se+te+ue+re+.d+ve+Zc+L9+we+eF.hr.<B.8$+xe+ye+ze+Ae+Be+Ce+]P.9`.De+M-.Ee+Fe+h,.f=.gO.)2+Dv.dv.Ge+U;+He+8!+Ie+.[.Je+Ke+Le+Me+Ne+Oe+Pe+Qe+Re+Se+Te+Ue+Ve+s~+VF.We+Xe+d#+Ye+Ze+tb+7a+`e+ f+.f+/N.hD.+f+X#+@f+)g.9>+#f+GA.Z<+.[+&J.3i.w^+$f+pD.ek.%f+:%+0x.&f+*f+=f+[d+-f+!4.B(+;f+>f+,f+^6+'f+c3+)f+!f+~f+a^.)Z. 6.cb.[P.46+UL.XL.{f+Il.tc.y4+RL.+[+oL ]f+g=.^f+/f+c;.(f+Id+_f+Jd+:f+_f+_f+<f+[f+}f+|f+1f+6c+2f+3f+w0+6c+4f+5f+n0+6f+7f+uQ.}Y.]q.1c+8f+4f+9f+0f+=5+f6+R7+*9+$q.af+bf+cf+v;+df+ef+ff+gf+v0+`a+Xa+hf+s$+if+jf+kf+lf+",
"w5+`0+N0+-|+mf+<b+M0+v2+;8+;8+N0+k{+:8+.a+Br.GJ.<~+:8+nf+14+of+S0+K0+pf+Z0+qf+rf+sf+tf+uf+vf+wf+xf+yf+zf+Af+C0+3b+Bf+Cf+Df+Ef+1e+Ff+zc+;8+m9+N0+Gf+,b+Hf+If+F9+eb+Jf+&a+Kf+hc+Lf+Mf+Nf+Of+Pf+h<+Qf+Rf+Sf+Tf+rc+Uf+Vf+e1+Wf+Xf+Yf+Zf+`f+1-+<~+ee+'8+ g+.g++g+Pf+@g+Ec+#g+le+$g+%g+$g+&g+&g+.:+*g+~-+aI.Hz.+g+=g+-g+;g+>g+,g+'g+)g+!g+~g+{g+]g+^g+/g+(g+_g+cA.:g+<g+rb+[g+}g+ZP.|g+1g+2g+Ha 3g+;e ;e r0 s0 @( 3g+4g+5g+S{+6g+}%+'>+AX.Sq.7g+8g+9g+8S.([+0g+ag+A_+bg+N{+cg+)b.[j.I;+ja+pn.`i.dg+)2+@w.}`.SB.NG eg+Wb+fg+0!+gg+hg+de.^4.Vy.ig+j,+jg+SX.Q_. }.O'.:!.+V.|P.F8.pj.A4+`O.,!+kg+:K.ad+j|+lg+Ek. 1.mg+ng+nL oL og+pg+qg+rg+]C.Gd+Jd+_f+kD.sg+tg+(f+ug+vg+d_+wg+xg+yg+K7+]9+^&+K7+6f+zg+w;+Ag+Bg+5U.sz.%v.G*+Cg+3~+Dg+U8+y3+n0+Eg+Fg+Ya+Gg+Hg+Ig+[Y.Gg+Jg++b+F`.Kg+;O.Lg+%H.'L.YR.#E.:t.Dw.",
"Mg+k2+o9+b(+o9+k{+g{+2$++#+vc+N6+Ng+Og+=L.vQ.%8+J0+Y0+K0+V0+Pg+Qg+L0+a(+S0+Rg+rf+Sg+Tg+Ug+Vg+Wg+~e+Xg+Yg+Zg+`g+ h+.h++h+<e+@h+#h+9(+$h+Nf+%h+&h+*h+=h+-h+Q[+;h+>h+,h+#d+'h+)h+!h+~h+*|+~h+{h+]h+^h+D0+/h+(h+_h+d1+u5+^~+:h+<h+[h+}h+RW.5I.nc+g5+Q]+T]+y9+|4+ a+2<+|h+1h+2h+3h+4h+5h+6h+7h+~8+7b+8h+-L.cb+9h+0h+ah+bh+ch+dh+eh+fh+gh+hh+ih+jh+PX.+[.kh+[!.lh++2+mh+nh+/u.oh+ph+*Q.qh+rh+sh+;e ;e sh+;e ;e Ia ;e th+uh+vh+wh+xh+yh+zh+Ah+be.rR.Z{+~=+Bh+f +Ch+=N.+F Dh+*r.A-.M1.%o.Dn.kl.~W.Q2+Eh+D'+~g.Fh+Gh+Hh+Ih+Jh+'@.q|+-f+u(.*N U<+Kh+/!.BR.JR.Lh+Mh+Nh+ea+Oh+Ph+Qh+Rh+Bb+RO.cf.@0.v.+pM.Zm.yd+ }. 6.Sh+T-.Th+>K Th+Uh+Vh+Wh+'-.Xh+Jd+kD.Yh+Zh+Gd+`h+ i+.i+d6++i+@i+8[+#i+$i+%i+7f+w;+Ag+&i+zr.*i+wQ.p++;L.&i+j6+=i+(2+-i+;i+x2+z7+dc+z7+Zd+>i+Gg+VR.ff+,i+'i+;L.&T.)i+fP.!i+~i+{i+8c+~i+ow.",
"]i+/~+|(+l)+^i+/i+-<+-'+ -+f{+(i+ae+7t._i+:i+<i+[i+}i+|i+1i+P0+1/+L0+}i+yc+pf+mf+Df+~e+2i+3i+4i+5i+6i+7i+8i+9i+0i+Zg+K0+ai+4$+O9+bi+{8+ci+di+ei+fi+gi+hi+eb+ii+ji+Tf+K2+ki+li+mi+)b+of+H0+Ec+t9+ni+oi+=h+6e+pi+qi+ri+si+ti+ui+vi+&a+L_+|<+wi+xi+yi+F9+zi+|h+Ai+2h+Bi+j5+Q6+Ci+Di+Ei+Fi+Gi+ab+)8+~-++H.Hi+Ii+Ii+9h+Ii+Ji+Ki+Li+Mi+Ni+Oi+Pi+Qi+Ri+{f+Si+Ti+E/.j>+m~.Ui+ma+mp.0x.Vi+Wi+sh+Xi+Xi+Xi+Yi+Zi+`i+ j+.j++j+@j+#j+$j+AX.%j+&j+uG.6K.*j+B&+g,+=j+-j+';+;j+>j+,j+'j+)j+!j+~j+sD.2%+;Z.)%+*}+es.C<+{j+o!+[6+=}+&u.p,+]j+%w.^j+h8+/j+83.rj._7+(j+_j+:j+<j+[j+}j+]- |j+Ek.zW.1j+nj.#6+2j+2S.'0+Xx..}.#6+3j+qg+4j+&3+T-.p3+Sb+5j+Yh+Id+6j+_f+c;.Xh+]C.7j+8j+9j+0j+aj+bj+cj+dj+ej+7[+fj+u;+gj+.H.z7+hj+zg+8h+].+ij+/9+6f+jj+Ua+,&+hF.5U.I7+Zd+kj+bf+bf+VR.lj+lj+mj+kj+_9+ff+nj++b+7c+oj+pj+t0+Zu.",
"qj+d2+f(+A*+X>+ ~+//+Y6+O9+,b+rj+sj+Lf+tj+uj+}9+vj+S0+<b+.8+wj+sc+m9+xj+vj+L0+yj+zj+v5+Aj+Bj+Cj+Dj+Ej+Fj+Gj+Hj+Ij+Jj+Kj+E6+`!+>4+Lj+Mj+4e+Nj+Oj+D9+Pj+'h+Qj+oi+Rj+Sj+Tj+Uj+a(+Y0+h<+H0+,b+M0+Vj+Wj+Xj+&a+6e+Yj+Zj+`j+ k+.k+.k+;h++k+@k+#k+$k+%k+&k+of+L0+Kf+*k+=k+-k+Qj+hc+F0+;k+>k+,k+M[+0b+s9+e2+tC.eb+'k+)k+9h+!k+~k+{k+]k+^k+/k+(k+_k+:k+<k+[k+}k+|k+1k+2k+03.<++3k+3}+ml.4k+5k+sh+sh+sh+sh+6k+b| Zi+sh+7k+8k+9k+'l.%w 0k+ak+B&+cs.Q#+bk+ck+%C dk+ek+fk+gk+hk+ik+jk+kk+_p.w:+!_+X/+lk+%++mk+Z6.o3+nk+ok+`I.*f+pk+nl.md+qk+rk+sk+tk+uk+1r.vk+wk+xk+Q@+Mz.P=+yk+zk+Ak+Q_..[.Bk+k~.IN.Ck+cb.,c+Dk+.6. }.Fv.Ek+Fk+oL Gk+Hk+Ik+Jk+Kk+Id+c;.sg+Kk+Lk+Mk+Nk+Ok+U|+Pk+Qk+Rk+Sk+Tk+Uk+:5+L)+eZ.~-+Vk+V8+Wk+Xk+K`.Yk+cf+Zk+`k+Ig+ l+.l+~1+1U.VR.kj+Jc++l+@l+ef++l+#l+$l+y;+%l+&l+Xd+*l+=l+-l+@b+;l+-l+",
">l+N0+,l+'l+)l+!l+hi+~l+{l+ic+=k+bi+)b+Mf+Ff+'l+]l+]b+^l+<b+>l+c{+mf+*e+b{+/l+V}+x[+x[+/i+(l+S0+,e+_l+qc+l9+'b+:l+<9+[9+n9+m9+2b+<l+[l+1e+}l+|l+)b+1l+2l+-a+b1+rf+3l+N0+}l+4l+Vj+'l+D0+5l+6l+7l+Rg+]b+l9+[l+8l+9l+0l+al+bl+5e+cl+dl+6l+;k+el+fl+gl+hl+il+=k+jl+ri+4b+Gc+B0+ic+kl+Zj+ll+ml+$g+;a+iV.(B.=:+nl+ol+pl+ql++d+rl+ue+sl+tl+ul+vl+wl+xl+yl+zl+Al+Bl+;0++5+m~.o~.Cl+Dl+El+Fl+Ia >e Gl+Hl+6} y2 Il+`i+ j+Jl+1%+%w cg+=w Kl+$c.`'+ka+Ll+d,+Pg.Ml+Nl+Ol+fR Pl+A-.D..[j.YH.Ql+Rl+ll.Sl+)G.9_+Tl+uD.C(+S-+2}+Z4+Ul+Vl+(*.Wl+Xl+Yl+kh+|P.Al+:# C$+/#+Zl+`l+ m+.m++m+=U.S +`:.P'.@m+#m+$m+p4+aT.%m+.6.&m+-u.h=.&2+Hk+p!+*m+eg+=m+-m+;m+>m+,m+'m+)m+!m+~m+{m+]m+^m+/m+D7+(m+_m+:m+<m+&b+[m+}m+*T.|m+1m+W|+bI.2m+gj+3m+_.+cf+af+4m+5m+/.+8;+8;+Yk+6m+Lg+7m+bf+Gg+8m+9m+0m+am+bm+cm+dm+em+fm+gm+ff+",
"hm+im+nl+jm+km+=h+lm+mm+vi+nm+Mj+om+pm+}l+=k+qm+rm+sm+mf+S0+tm+79+Sf+/l+um+vm+/i+um+G6+wm+]b+<e+B0+oi+'l+'l+9l+xm+/h+@k+P[+ym+B[+il+zm+bh+Am+a9+~~+Bm+u5+|h+Cm+Dm+qi+[l+Em+Fm+Gm+Zg+Hm+Im+ei+Jm+ k+Km+6e+>h+qi+Lm+ll+Mm+Nm+)k+kl+Om+Pm+Qm+Rm+Sm+Tm+al+Zj+Ei+Um+jl+Rm+Vm+Lm+Wm+Xm+Lm+Ym+>k+qi+$k+Zm+`@+yw.`m+ n+.n+te++n+@n+,h+#n+$n+%n+&n+*n+=n+-n+;n+>n+,n+yy.nL.*N.'n+za+)n+!n+~n+Xi+;e {n+Ia Ia [[ ]n+Xi+sh+^n+/n+(n+;2+M$+mV _n+6%+iy.@N :n+pZ hd+DU.%C <n+[n++>.}n+`M.U&+|n+}p.1n+IY.D4+M$+oT.y/+ [+g7+2n+`I.G^+Vl+3n+L.+4n+ <.5n+6n+7n+m7 Bb.K@+8n+9n+0n+an+bn+cn+dn+Z{.m~.d0+Z[+en+fn+gn+hn+#6+in+s=+jn+kn+kn+IS.U9+ln+mn+nn+on+pn+qn+rn+sn+tn+un+vn+wn+xn+yn+zn+Ta+An+Bn+&9+Cn+Cr.Dn+]'+6c+En+Fn+Td+V8+n(+5f+|y.,9+_2+6f+WR.r*+8;+Yk+-y.Gg+K7+u;+7m+Ig+4m+.H.bm+Gn+Hn+/.+}m+In+Jn+Kn+vC.",
"N]+Lf+-k+Fm+Ln+hi+Mn+Nn+Vm+*k+Mc+D0+=k+On+k9+'l+'h+W0+U0+1i+V}+Pn+Qn+Rn+K0+zc+k(+gc+n9+}9+ji+Sn+B[+Tn+vi+D0+Un+2b+Vn+Wn+Xn+r9+Yn+Df+Zn+g9+K2+`n+ o+<8+cb+Un+.o+ri+.k++o+@o+al+#o+ei+-h+$o+Fm+%o+jl+qi+ri+al+Um+&o+*o+=o+-o+;o+>o+,o+=o+'o+)o+jl+Ii+Ii+!o+~o+)k+)k+'k+-h+ui+jl+jl+Ei+$o+{o+]o+^o+I9+hb+/o+C[+L9+(o+L9+_o+:o+<o+[o+}o+|o+1o+2o+3o+4o+5o+6o+7o+8o+9o+00+0o+7}+ao+bo+co+sh+Ha :[ 7} sh+sh+sh+Xi+do+eo+fo+f=.go+|8.ho+io+Tq.H +Xv.PZ.d,+>V.:}+jo+ko+lo+mo+h8.no+oo+po+gv.qo+u{+jW.E-+v^+ro+nh+so+.R.to+uo+vo+wo+xo+>c+yo+g|+zo+hD.i; Ao+>1+Bo+Co+Do+Eo+Fo+:!.Go+Ho+E/.1V.Io+Jo+en+Bd.%m+M8+Ko+Fk+i}+Lo+Mo+eg+No+Oo+Po+Qo+Ro+So+To+Uo+Vo+Wo+Xo+Yo+Zo+`o+ p+.p++p+@p+v6+X:+#p+yM./.+q++WW.BC.$p+%p+5f+Va+&p+*p+&p+=p+8f+x;+r*+-p+4m+wQ.Gg+Ig+v++}~+;p+>p+,p+'p+)p+!p+~p+s*+/.+{p+]p+;L.",
"1b+^p+Mc+oi+/p+Kf+(p+_p+:p+-h+-h+lm+<p+[p+7i+m9+hc+V0+}p+|p+79+wc+a{+U%+3/+O_+vc+i(+5$+9(+$e+Lj+Wj+Oj+Mj+ic+Mn+oi+'l+Kf+]h+)e+1p+3b+2p+3p+4p+5p+6p+lm+jm+7p+8p+ll+Sm+9p+Jm+0p+ap+Gm+Gm+bl+bp+qi+nl+Ii+7p+ol+7p+*o+cp+dp+ep+=o+=o+Ii+fp+gp+,o+'k+hp+)o+Um+)k+ip+Ei+jp+Zg+mm+qi+qi+ll+kp+lp+mp+np+71+ab+0b+op+pp+qp++d+0h+rp+sp+tp+up+vp+Ji+pl+wp+xp+yp+zp+Ap+Bp+L1+Hv.Cp+Dp+Ep+Fp+Gp+Hp+s0 Zb Ip+p0 q0 q0 Io Jp+Kp+Lp+Mp+Np+_f.Op+JS Pp+Qp+Rp+Dx.Sp+Tp+38.Up+|,.%o.]`.Kn.`M.Vp+Wp+Xp+Gq.!s.+f.E'+f@+C +{%+MU.Yp+9u./0+2D.Zp+`:.M5+,!+`p+qx.hH. q+3)+G%+7)+.q+Eo+Eo++q+a`.@q+]g+<++d8+#q+$q+@6+hn+yd+%q+H4+X%.&q+to+*q+nk+=q+]x.-q+;q+>q+,q+'q+)q+!q+~q+{q+]q+W:+Wa+yn+^q+8f+/q+}5+j_+(q+_q+:q+<q+[q+}q+z7+8f+1c+/2+Q7+1f+|q+T:+$p+(B.q++1q+2q+L>+kj+7m+wQ.}~+w;+7m+8m+5c+mj+[Y.6m+1U.8h+In+3q+Jc+",
"5l+4q+/h+rm+{l+5q+6q+nl+-k+Hm+ei+<e+7q+8q+qc+`7+Uj+}-+y[+X!+59+9(+<9+u5+vc+k(+9q+k{+3/+`0+0q+ji+aq+Kf+vi+5l+bq+=k+cq+dq+eq+fq+gq+mf+>l+hq+7q+Ei+iq+ti+-h+`j+;h+kl+@o+0l++o+@o+*k+Ei+>k+Nm+Ei+ri+]o+jq+'k+kq+lq+>h+=o+mq+nq+oq+fp+pq+qq+dp+rq+=o+jl+cp+sq+pq+qi+tq+(i+-|+uq+of+eq+vq+wq+(8+xq+.o+yq+Ii+zq+Aq+8p+8p+!o+sp+ah+Bq+Cq+Dq+Eq+tp+)k+Fq+Gq+Hq+Iq+Jq+Kq+Lq+Mq+Nq+Oq+Pq+Qq+Rq+Sq+Tq+Uq+Vq+Wq+Xq+Yq+Zq+`q+ r+.r++r+=N op.$ +@r+.>+#r+$r+3,+p.+|,.C-.*g.%r+&r+*r+[i.b~+{7+=r+CK.-r+;r+>r+->+-6+Oo+,r+],+'r+54+;6+)r+=*+|!.af.!r++M.~r+{r+]r+J=+j++g++^r+Eo+/r+(r+c=._r+:r+<r+[r+80+80+}r+|r+cb.+V.=V.DN.1r+-u.2r+3r+ln+4r+5r+6r+>q+7r+8r+9r+0r+ar+br+cr+dr+0f+=5+er+w;+ b+fr+gr+(q+hr+p;+Yk+)'+-p+ir+L)+0c+L)+Wd+&9+;9+v0+*b+$q.2m+jr+/.+2q+Kn+4m+Y@+SW.xQ.}~+kr+5c+u;+'p+lr+VR.>p+s*+mr+<B.",
"Mc+'4+Tn+nr+Qj+or+fi+pr+5l+qr+rr+m9+sr+tr+ur+vr+wr+]/+xr+]~+K2+b(+<b+r9+`m+j5+N]+ym+&e+_<+yr+zr+4l+ k+hm+Un+eq+ic+'l+*k+]i+Ar+&h+nm+Br+dl+%o+Wm+Cr+Dr+Er+yr+B[+Br+Fr+$k+Gr+Hr+Gm+7l+&o+Ir+Mm+>h+qi+Nm+Jr+al+Dm+Dm+ll+!o+Kr+Kr+Cq+Lr+Ji+mq+,o+;o+!o+Ii+Wm+nl+]o+-h+Mr+Nr+Dc+Ar+'h+=h+fi+#o+&k+=o+Or+Dq+Eq+sp+;o+Pr+mq+sp+ah+Eq+Qr+Qr+Rr+Sr+hp+Tr+Ur+Vr+Wr+Xr+;e Ia Yr+Zr+`r+r0 Ha  s+.s+-Y bV hJ.Lx.OA.8A OB +s+@s+#s+$s+R-.%s+&s+E(.*s+=s+q.+;}+-s+R1.;s+>s+,s+-s.Pq.'s+Nt.)s+!s+~s+tv.*p.=[+$++{s+]s+^s+/>+xo+ra+/s+(s+_s+O'.:s+<s+[s+}s+|s+1s+2s+_*+_O.3s+Eo+4s+5s+6s+7s+B#+z8+D,+8s+L8+80+IT.dQ.9s+%$+N|+b#.0s+as+HO.p,+bs+cs+ds+es+fs+gs+hs+is+js+ks+ls+ms+ns+os+yr.ps+;i+W:+Q7+qs+rs+5f+8t.].+~1+'p+K7+x}+ss+ts+Ua+us+Rd+Ya+Va+Ag+vs+(B.2q+/.+8;+q++jr+8;+ws+u;+x;+Z@+xs+ys+TW.cf+zs+As+JJ.",
"Jf+Jf+Nf+zi+Bs+Cs+Ds+lm+}l+|e+Es+a9+Fs+Gs+Hs+Is+}p+h*+a{+:8+U0+;8+O]+b(+Js+gq+(h+Gc+Ff+Gm+iq+Ks+Em+Mj+Ff+B[+&a+Ls+Ln+9l+=h+iq+ui+Ms+Ci+>k+qi+/p+Om+9l+Ns+Di+Im+Os+Ps+Qs+Rs+%e+Ss+Ts+Us+Ts+Vs+Ws+8l+bl+Xs+Ys+>k+Kr+Kr+ip+jl+Kr+Zs+)k+Pr+Pr+ol+)k+jl+Om+ri+5q+'k+Pm+hi+%o+8l+]o+nq+Wm+7p+pi+`s+ t+.t+Eq+Dq+Qr+tp+sp++t+Qr+@t+#t+$t+%t+Pr+)k+&t+Or+*t+=t+-t+;t+`r+3g+Ia Ia sh+Ha Ia >t+,t+JW -Y CS 5z.5z.5z.|D 't+)t+!t+~t+^j+(!+{t+]t+L/+^t+/t+u:.q.+(t+;]+_t+[^+A'+`'+Ye+/^+:t+&V.<t+AZ.#;+|,+ I./S.[t+}t+U2+|t+No+1t+,c+._.._.2t+3t+,z.4t+5t+6t+ Y.YS.9Z.7t+8t+9t+M'.0t+at+R#+bt+ct+A|+n}+ 6.fb.xW. 6..}+1M.dt+et+JX.'@. @+ft+gt+ht+it+jt+kt+lt+!!.-I.mt+nt+ot++p+pt+uQ.F`.F`.Cn+qt+rt+st+|m+#v.Yk+tt+I)+WR.kj+ l+K7+1c+ut+&9+3c+ b+4'+3[+Cn+vt+dm+In+jr+2q+In+ff+&i+}m+jr+Yk+~p+cf+'p+As+9m+F`.",
"-h+wq+1b+wt+Tn+or+rm+'l+Zn+^~+0)+a;+<J.bG.(-+n)+-/+##+^~+9(+$e+n9+*e+xt+}9+n9+N0+$h+v2+O]+yt+>4+zt+|l+zt+Wn+d{+Lc+At+ui+9l+ic+%k+vi+=k+-k+2b+yt+Bt+Ms+9l+Ms+$k+Ct+Ms++k+$k+Dt+xt+Us+Us+Et+;k+Ft+Gt+Ht+5e+,k+8l+7p+7p+Ii+7p+ep+nq+ah+pq+pq+sp+0b+6q+It+ t+;o+Ji+Jt+nq+-o+nq+;o+jl+ri+7p+Kt+sp+Dq+Lt+Cq+Lt+Qr+Mt+Dq+Nt+Qr+Ot+@t+hp+jl+ll+)o+Pt+bp+ch+Qt+Rt+St+Xi+Xi+sh+sh+Xi+;e ;e Tt+Ut+JW 3U cN 5$.Vt+Wt+^I Xt+Yt+y@+Zt+V[+|C.m@+'g.`t+Qb+ u+.u+J/++u+@u+{^+nn.#u+o'+d,+}A.$u+%u+}0+C$.o3+&u+*u+=u+-u+;u+T2+>u+,u+'u+)u+n}+._.hK.!u+~u+{u+]u+^)+o3.,_.^u+/u+(u+ER.KY.4 +TT.S$+*++|0+_u+ZB.ME.>c+l~.j~.:u+1&+dt+i3+<u+[u+I..'s.}u+|u+1u+2u+3u+4u+5u+6u+7u+8u+S:+x}+9u+0u+ij+;L.Ig+;O.Fn+au+st+bu+cu+R:+du+;L.~1+UW.eu+5U.8f+|f+du+Ud+f6+a[+fu+p0+x0+Zk+gu+'i+I7+(&+Zd+dm+/.+hu+Y@+dm+iu++l+ju+ku+",
"{l+ji+Hf+2h+&h+h<+li+lu+mu+o++u*+h;+<.+[.+nu+ou+69+r9+N0+Js+n9+a(+yi+&a+n9+pu+=e+X6+mf+n9+yt+!b+qu+k{+ru+li+su+tu+uu+v5+~~+vu+wu+xu+@#+yu+N6+zu+J0+K2+K2+Au+m]+/b+5/+7/+Bu+L_+Mg+Br+Cu+Du+xt+hc+Eu+Fu+Br+Fm+Mm+ui+ri+'k+Gu+cp+ep+nq+=k+)l+nl+pq+Gu+Hu+Hu+#t+Nt+Iu+Ju+#t+Ku+Lu+Mu+Nu+Ou+Pu+Ot+Qu+Ot+#t+Lt+Lt+Cq+Lt+Sr+Ru+Su+nq+9l+Tu+Tu+'k+Uu+bp+Vu+Wu+Xu+Yu+Ia sh+Xi+Ia `r+Ia sh+Zu+`u+ v+3U Gn .v+S2 5Y |D +v+@v+#v+;)+$v+f,+%v+8-+pn.Dx.fk+&v+*v+o#+=v+&,+-v+hg+]e.:n+;v+-v+5%+>v+0x.,v+'v+p|+~x.)v+^A.!v+so+~v+{v+]v+[r+^v+/v+(v+_v+:v+E$+Ee.)2.<v+'_.[v+UL.}v+aq.|v+1v+'@.2v+7>+It._u+3v+4v+/!.5v+6v+cJ.F|+'%+D:+Gy.%u.7v+8v+9v+0v+av+bv+nY.RJ cv+dv+ev+s}+'9+1c+,&+ij+vC.af+z7+fv+gv+hv+iv+jv+kv+lv+)#+<Y.Bz.r*+F`.mv+nv+ov+pv+qv+rv+sv+k6+tv+#b+uv+vv+kf+kf+Za+wv+1U.xv+hF./t.x;+vs+yv+'p+",
"zv+6b+)8+Av+Bv+0;+(-+s++[J.oK.oK.=-+W3+:/+35+Cv+~b+,l+Mf+oi+eq+Dv+zt+Xn+Cs+c1+qj+&a+sm+jc+Ev+{b+ki+89+Fv+he+Gv+q9+n9+Hv+|i+Iv+Jv+Kv+Lv+yi+yi+Mv+t9+~b+1b+Nv+ee+Ov+I0+|h+Gf+G0+-|+2b+Tn+P6+G0+ym+Pv+Qv+|h+H0+>4+Q6+^p+0p+(p+.o+Ei+lm+]i+Ln+!o+Ot+Qu+Rv+Sv+Ju+[o+Tv+Ku+Uv+Ju+Ku+Ot+Ku+Lt+Vv+Ku+Wv+Ku+Xv+Rv+Ku+Ot+Xv+Yv+Yj+Gm+Zv+ap+0l+Jt+Um+0i+nl+]o+`v+ w+.w+Ia ;e ;e Ia sh+3g+;e +w+@w+#w+5Y cN /s Gn JW |D $w+%w+Z{.&w+/:+)Y *w+j@+=w+(x.$R.%R.-w+fd.;w+.N.7v+h}+>w+Z6.,w+'w+)w+!w+s .{e.Gm.ml.~w+[G.{w+w|+L:+]w+^w+/w+(w+_w+fE.:w+<w+[w+}w++m ;}.h3.jK |w+#_+1w+|,+5%.2w+&u.3w+3w+4w+5w+xT.xa+6w+.}+7w+@7+-u.s3+8w+9w+0w+aw+bw+cw+dw+ew+fw+gw+hw+Z@.iw+[8+hr+#b+*i+jw+K7+V8+BC.hF.v;+n$+p(+kw+lw+mw+nw+ow+pw+E[+qw+SW.eu+1~+XR.9f+rw+sw+tw+4'+Xa+dc+Cn+_9+Ag+uw+7f+v0+P*+`d+5c+I7+I7+VR.ys+WR.",
"vw+ww+89+&_+tz.cR.%M.&M.xw+;<+Bv+Nf+'4+yw+zw+Lf+)b+nr+oi+oi+Aw+Pg+ym+Bw+`m+Cw+Dw+Ew+a9+_l+@~+:h+Fw+D6+Gw+/o+4q+Nj+/h+d{+Hw+vi+Vj+bi+Lj+Eu+hm+Iw+Jw+4e+<l+Kw+Vc+Lw+;a+f{+gc+Mw+Nw+a9+N6+N6+ni+6b+Ow+6p+wt+Pv+Pw+Qw+~h+Rw+Sw+Mn+{h+Tw+Uw+Su+Dq+Rv+Ju+Qu+Ru+Ki+Ku+Vw+Uv+Xv+Ww+Ot+Rr+Iu+Qr+Sv+Lu+Sv+Rr+Qr+Lt+Vv+Xw+Yw+Zw+9l+`w+Kr+=o+Pr+pq+ t+ t+Pr+Gu+ x+.x++x+sh+sh+>e >e Xi+sh+`r+@x+#x+bV 3t ej 5$.p .hJ.~!.$x+%x+O'.&x+bA.7_+[4.*x+=x+-x+l-+;x+j&+*2+>x+,x+'x+{e.)x+o#+`{+!x+~x+{x+ln+{e.&u+z<+]x+[|+^x+/x+(x+_x+:x+<x+@C.[x+/}+}x+|x+1x+2x+=}.Gj.R0 3x+4x+Y5+5x+6x+7x+8x+dk.%J.`P.9x+]s+i/+p7+za+0x+T'+.u+kL qG.,w+X/+ax+bx+cx+dx+ex+fx+gx+hx+RJ Q%.ix+;|+1m+jx+z7+kx+kx+3~+*i+Jc+J}+`@+n{+q5+ow+lx+mx+nx+ox+px+g(+5t.)#+In+hu+/.+9m+J)+&i+`k+}$+Gg+F3+XR.Kg+zg+qx+ b+6f+rx+0c+x0+5c+sx+tx+oV.",
"Cv+09+ux+-'+IH.$M.t++<{+vx+@a+wt+eb+wx+xx+nm+Mn+op+/p+Hm+yx+8q+zx+Z6+Nr+)h+Cw+Ax+35+J0+Ax+Bx+Cx+Dx+Ex+Fx+Mn+Gx+Hx+Q[+{l+hi+Mc+_p+tq+6l+;k++k+tq+#k+Ix+Br+Sn+Jx+Kx+$k+Lx+6l+2e+xt+Fm+cl+Wn+wx+Mn+lm+Mx+Nx+yq+Ow+Ox+Px+6q+Uw+I9+pp+tj+Om+Qx+Lt+#t+Iu+Ww+Ju+Ot+#t+#t+Qu+#t+Ki+Ru+Ki+Ku+Rx+Rr+@t+Dq+%t+.t+Ot+ol+Sx+Tx+Km+Br+Zj+mq+tp+Qx+ t+Yv+Ux+%t+ah+Vx+Wx+Xx+Xi+Il+`i+Il+>e .j+3g+Yx+Zx+/I =U `x+oR !!.~^.|D  y+.y+93.+y+@y+#y+$y+I$+Xp+kp.C'+;x+%y+Xf.&y+*y+%J. J.&}+=y+-y+;y+>y+MT.dv.u(.,y+bK.'y+)y+!y+~y+.C.Zp+{y+]y+lL.^y+VF./y+(y+Q[ Ah sX _y+:y+<y+Y5+[y+T-+}y+|y+ps.h&+`P.`P.1y+2y+np.3y+4y+04+5y+6y+7y+8y+}#.9y+VV 6 +0y+ay+by+cy+dy+ey+fy+gy+hy+iy+jy+n(+6f+Nd+ky+ox+G*+ar.iV.*/+X3+au+ly+my+ny+ny+oy+py+qy++^+p;+2m+5m+hu+2q+J}+8h+JH._.+ry+J}+-p+8m+jj+8f+;i+os+os+6c+sy+1c+`d+Za+8f+",
"ty+j;+uy+a;+Y!+vy+Js+Bi+wy+op+eb+xy+Tn+Px+G9+&h+D0+ri+yy+zy+Ay+D0+By+Lf+5b+P[+J0+O9+1l+Qj+Ys+,k+fi+4b+ym+Cy+#d+Dy+)h+Ey+'l+Fy+/p+Gy+Gm+Hy+D0+Iy+Jy+Ky+Ly+My+Ny+;k+Oy+Py+Qy+Ry+Sy+Ty+Uy+'o+Kr+cp+Vy+kp+Wy+Zv+Gx+Xy+Lr+Yy+Sr+Eq+Dq+.t+Eq+!k+Bq+Sv+Iu+Ww+Ju+Sv+Xv+#t+Ju+Uv+Zy+[o+Rr+Ki+Rv+Sv+$t+Bq+@t+ah+,o+`y+ z+Pm+Um+Kr+~o+ah+.t+Eq+Eq+%t+Eq+Eq+.z++z+@z+#z+7k+$z+]n+Il+Xi+Xi+q0 %z+&z+) .zD.*z+=z+~!._F./I -z+;z+>z+,z+(:+D4+:}+; +.!+'z+lW.|8.)z+6_+!z+~z+{z+]z+^z+,,.#f+/z+(z+_z+:z+<z+/@+bx.D#+:@+[z+}z+A4.k%+|z+1z+ER.)R.DB.2z+)0+$_.3z+4z+5z+6z+UL.xd+(s+7z+'Y -_+*v+@r.8z+ln+9z+;^+A5+0z+7}+,f+4u.jk+az+az+@i.bz+cz+dz+SV.ez+jJ.fz+gz+,P hz+iz+jz+kz+hV.@^+lz+*i+`]+mz+nz+oz+v;+#T.wQ.ps+pz+mz+qz+rz+sz+tz+uz+vz+wz+xz+3<+E)+}$+yz+r*+L>+hu+s*+jr+8;+4m+1c+zz+1m+Az+Bz+Cz+Dz+Ez+Fz+Gz+mx+",
"Hz+^Q.aG.aG.Iz+Kw+'4+eb+Bw+/o+D9+(o+Tu+!8+Jz+Kf+/h+Kz+Lz+0i+sm+sf+N0+b(+t9+c1+=|+rm+Nx+,k+>h+Nx+Gx+-h+ap+:p+@d+Mz+Nz+Oz+cq+Em+Nn+Pz+Qz+Rz+Hr+Sz+Tz+Pz+Us+Uz+Vz+^o+'o+Wz+Xz+^o+Yz+Zz+Zz+`z+ A+.A+$t+Eq+Qu++A+Qx+`s+Qr+#t+Ot+Sv+Rr+up+@t+Qr+Rv+Ju+Ju+@A+#A+[o+Zy+Xv+#A+Iu+$A+Uv+Ww+Vw+Ju+Qr+Eq+Ji+%A+ah+&A+tp+ t+,o+ t+.t+Eq+~o+Eq+Dq+%t+$t+Eq+Bq+Rr+Qr+*A+=A+-A+;A+>A+,A+'A+)A+!A+~A+{A+oR hJ.#w+hJ.hw+]A+^A+/A+(A++V._A+:A+A.+Cn.m=+<A+L{++@+6_+[A+L..Oo+}A+Gt.|A+1A+iW.5N.2A+^u.kH.!w+3A+s .4A+Nb+5A+6A+7A+8A+0g.9A+=A.q4+0A+aA+bA+cA+}k+dA+eA+fA+gA+00+hA+,:+Cx._S.P++iA+_u+jA+kA+{%+lA+jn+mA+nA+9X.oA+pA+qA+7 +rA+sA+tA+uA+vA+Q%.wA+xA+yA+zA+AA+BA+CA+DA+EA+FA+GA+$^+HA+IA+JA+KA+LA+MA+v++Zd+MA+NA+OA+PA+QA+]4+]4+RA+SA+TA+UA+VA+hv+oz+WA+l{+r*+hu+)'+XA+hu+YA+Fn+ZA+`A+ B+.B++B+@B+#B+$B+%B+",
"&B+*B+=B+O9+Bc+op+-B+lm+vq+;B+Ei+Nx+Gi+;B+>B+Tu+or+Hx+'l+'l+,B+l9+'B+)B+!B+vj+~b+@d+kp+Gx+*k+fi+fi+lp+Vm+pr+Oj+~B+{B+ap+6e+Hy+Xs+]B+Ms+^B+qf+/B+sf+`j+7l+(B+.k+_B+:B+Tm+<B+ip+ep+pq+[B+}B+|B+1B+Xv+2B+3B+Ww+4B+3B+Ww+Xv+Ot+1B+5B+Xv+Xv+Ki+Ww+Ju+Ki+Iu+[o+Xv+Ru+Iu+Ru+Rr+Vv+Vw+Iu+#t+Lu+Sr+.t+Ji+Dq+ah+$t+Eq+ah+Ji+%t+ah+Eq+ah++t+ah+%t+ah+6B+$t+Eq+7B+8B+7Y.X[.9B+Y:.%X.0B+=>.aC.aB+bB+Wt+RB kG XS /I 3L OB cB+dB+cb.:!.G5+E^+Zv.;s.]u.qW.eB+W%.Lo+fB+gB+10+o7+hB+iB+jB+k/+kB+sH.g=+c=+lB+|0+mB+qB._%+nB+oB+KO.pB+qB+rB+sB+9N.#z.rE.tB+)R.uB+vB+YL.46+wB+et++r.]@+@R.oZ cJ.xB+yB+zB+AB+BB+CB+l,+/d+DB+EB+-g.FB+GB+sA+HB+IB+JB+KB+LB+MB+NB+OB+PB+QB+RB+SB+TB+UB+VB+WB+XB+YB+ZB+`B+ C+.C++C+7m+}~+@C+#C+$C+%C+&C+.C+*C+=C+-C+;C+=C+>C+,C+]4+RA+'C+J2+)C+(4+C)+ -+[<+!C+~C+31+{C+]C+Yc+^C+/C+#B+(C+",
"Pt+_C+nq+:C+Gu+<C+]o+Dm+lm+5q+'k+gi+Ii+Lr+ol+'k+Um+Dm+,l+gq+|i+nm+Hx+[C+By+Bt+(o+yq+mp+(p+Vm+;B+Nm+Mc+Gm+-k+5e+dl+}C+|C+1C+2C+Ns+&o+qr+Jm+3C+7l+Di+&k+ll+4C+Aq+pq+-o+Um+zy+bp+Lr+5C+6C+7C+$t+Qr+8C+8C+Ku+Qu+Qu+Qu+Ju+5B+Qu+Xv+Iu+Zy+9C+Ju+0C+Uv+Xv+Rx+Xv+Ww+Uv+Ju+Vv+Ju+Xv+Ju+aC+aC+Ki+Lt+Ot+Cq+$t+Eq+Eq+Sr+Ot+Qr+Qr+Dq+Eq+Nt+up+@t+Dq+Dq+$t+Ux+Qu+bC+cC+dC+6,.9z.Z<.eC+fC+G-.gC+hC+iC+jC+mG ~^._F.kC+lC+mC+nC+oC+`(+M5+pC+'=+bA.qC+rC+sC+tC+uC+~|+43+vC+>u+;6+/:+*N wC+{6+xC+2D.yC+E8+0_+zC+AC+BC+CC+DC+EC+}v+zd+FC+GC+cN.SL.HC+IC+17+[P.p~.JC+KC+4`.g=.D(+LC+I;+MC+NC+9j.No+6N.Cv.OC+9@+~D.L'+U2+PC+QC+RC+SC+TC+UC+VC+WC+XC+YC+ZC+`C+ D+.D++D+@D+#D+$D+%D+&D+*D+=D+&t+-D+;D+>D+,D+'D+%|+)D+!D+~D+{D+]D+^D+/D+(D+_D+:D+<D+[D+}D+^D+|D+1D+2D+3D+4D+5D+6D+7D+8D+9D+0D+aD+bD+cD+dD+eD+fD+gD+hD+iD+",
"sp+Lu+Yy+Sr+jD+kD+lD+mD+nD+sq+Gu+Nu+nD+oD+&A+Gu+pD+ui+qD+8e+Ev+rD+Ei+jm+gi+hp+Ei+Ii+;B+'k+jl+Ei+Ei+,k+Mm+8l+sD+tD+Ir+uD+Ir+^o+ip+pq+vD+wD+pi+.k+Om+ti+xD+pD+yD++t+.t+%A+Kt+zD+Kt+AD+BD+CD+Ki+CD+Cq+DD+2B+2B+CD+4B+$t+$t+vp+ED+Rr+FD+Ki+Iu+0C+0C+GD+aC+GD+HD+ID+JD+JD+KD+Zy+Zy+Uv+Ww+Sv+HD+Ju+Nt+Rv+Vw+Qu+Xv+Ki+Uv+Qu+Ku+Ju+Ki+#t+Lt+Ki+Qu+Qu+Ww+Ju+LD+MD+ND+7z.]v.v$.OD+OD+U|.M%.PD+QD+_F.1D 1D CS 8A hz+RD+SD+TD+UD+$6+VD+WD+0x+XD+*Q.YD+ZD+`D+ E+B8+rB..E+N.+b8+Ea++E+@E+#E+$E+b7+%E+&E+*E+=E+-E+1R.;E+jx.>E+,E++3+lx.'E+Y[+yH.)E+yp+oj.!E+iR.@5+~E+GL.{E+|A.]E+^E+/E+kn+to+id+(E+lB+_E+OC+:E+eS.<E+[E+}E+|E+hz+1E+2E+3E+4E+5E+6E+7E+8E+9E+0E+aE+bE+cE+dE+eE+fE+gE+hE+Hm+iE+jE+2C+Ym+kE+lE+mE+nE+oE+pE+qE+rE+sE+tE+uE+vE+wE+xE+yE+zE+AE+BE+CE+DE+EE+FE+GE+HE+IE+JE+KE+LE+ME+NE+OE+PE+QE+RE+SE+",
"TE+UE+VE+WE+XE+YE+ZE+`E+ F+.F++F+@F+#F+$F+%F+&F+*F+=F+-F+;F+>F+,F+'F+)F+!F+~F+{F+]F+Yv+^F+/F+(F+_F+:F+<F+[F+}F+|F+1F+2F+3F+4F+5F+6F+7F+)F+8F+9F+0F+aF+bF+cF+dF+eF+fF+gF+hF+=F+iF+jF+kF+_F+lF+mF+nF+oF+pF+qF+rF+sF+tF+uF+vF+wF+xF+yF+zF+AF+BF+CF+DF+EF+FF+GF+HF+IF+JF+KF+LF+MF+NF+OF+xF+PF+QF+RF+SF+TF+UF+VF+WF+XF+YF+ZF+`F+ G+.G++G+@G+#G+$G+%G+&G+*G+=G+-G+;G+]v.-!.Y}.nJ.-!.1J.>G+,G+_F.hJ.-Y JW oR jC+'G+)G+!G+~G+{G+W[+]G+ZB.^G+!6+5}+/G+(G+_G+:G+<G+[G+)6+td+}G+,f+E8.]v+|G+_%+r1+1G+P'+2G+3G+4G+5G+P'.6G+r +7G+8G+9|+9G+0G+aG+ 1.%q+bG+<++cG+dG+i}+ ^.Rq.Z3.R++Z++V[+eG+fG+$2+gG+hG+Ey.iG+DB+jG+kG+lG+hJ.HK.jJ.mG+nG+oG+pG+pG+W[.qG+rG+`<.X[.tK.sG+tG+uG+vG+wG+xG+yG+zG+AG+BG+CG+}F+DG+EG+FG+sD+GG+HG+IG+JG+KG+Jt+LG+MG+NG+'o+OG+PG+QG+RG+SG+TG+UG+VG+WG+XG+YG+ZG+`G+ H+.H++H+@H+#H+$H+%H+",
"&H+*H+=H+-H+;H+>H+,H+'H+)H+!H+~H+{H+]H+^H+/H+(H+_H+:H+<H+[H+}H+|H+1H+2H+3H+4H+5H+6H+7H+8H+9H+0H+aH+bH+cH+dH+eH+fH+gH+hH+iH+jH+kH+lH+mH+nH+oH+pH+qH+rH+sH+tH+uH+vH+wH+xH+yH+zH+AH+BH+CH+DH+EH+FH+GH+HH+IH+JH+KH+LH+MH+NH+OH+PH+QH+RH+SH+TH+UH+VH+WH+XH+YH+ZH+`H+ I+.I++I+@I+#I+$I+%I+&I+*I+=I+-I+;I+>I+,I+'I+)I+!I+~I+{I+]I+^I+/I+(I+_I+:I+<I+[I+}I+|I+1I+2I+6,.bC.XV OD+Y}.7z.W[.3I+QD+kG 5$.~!.mG 4I+]A+5I+6I+88+7I+Z(+8I+F4+r|+9I+0I+Fv.q2. )+Wy.aI+bI+cI+.W.dI+BA.xC+(3+]v+eI+fI+/6+5}+IP.1D.gI+hI+@E+zS.iI+jI+-A.hK.kI+HC+lI+mI+>)+nI+j~. }.oI+ z.>o.Xf.Z3.pI+wU.qI+'|+i/+rI+rI+sI+tI+xT.M-+)r+uI+vI+/I wI+g..|D Xr.xI+yI+zI+aC.AI+BI+CD.W|.9C.Y|.CI+DI+EI+FI+GI+HI+II+JI+Wz+JG+KI+LI+MI+NI+OI+PI+QI+FG+RI+SI+TI+UI+VI+WI+XI+YI+ZI+`I+ J+.J++J+@J+SG+#J+#J+$J+%J+.J+&J+*J+=J+-J+;J+>J+,J+'J+",
")J+!J+~J+{J+]J+^J+/J+(J+_J+_J+:J+<J+[J+}J+|J+1J+2J+3J+4J+5J+6J+7J+8J+9J+0J+aJ+bJ+cJ+dJ+eJ+fJ+gJ+gJ+gJ+=H+hJ+iJ+jJ+kJ+mH+lJ+-H+gJ+mJ+nJ+oJ+pJ+qJ+rJ+sJ+tJ+uJ+vJ+wJ+xJ+yJ+zJ+AJ+BJ+CJ+DJ+EJ+FJ+GJ+HJ+IJ+JJ+KJ+LJ+MJ+NJ+OJ+PJ+QJ+RJ+SJ+TJ+TJ+UJ+TJ+VJ+WJ+XJ+YJ+ZJ+`J+ K+ K+.K++K+@K+#K+$K+%K+&K+*K+=K+-K+;K+>K+,K+'K+)K+(I+~I+!K+~K+]I+{K+]K+^K+/K+(K+_K+:K+<K+]v.fC+[K+}K+X|.]v.>!.|K+1K+DY /I |D |D mG 2K+RJ 3K+4K+5K+6K+g&+cX.R;+7K+8K+9K+0K+Wf.aK+bK+cK+dK+eK+PZ.*u+sd+fK+gK+hK+iK+og+{W.jK+3@+kK+0A+t&+lK+mK+nK+eK.oK+pK+P<+qK+U4+g-+]4.2k+rK+sK+tK+uK+)G..7.vK+wK+xK+gG+nh+yK+tb+L5+F#+Q'+U2+/6+zK+AK+/I OB Xr.|D Xr.BK+CK+VA.9B+DK+9z.6,.6,.W[.SK.EK+FK+GK+HK+IK+JK+KK+LK+MK+NK+KI+OK+PK+QK+RK+SK+PK+TK+UK+VK+SI+WK+Xz+XK+YK+ZK+`K+YK+ L+.L++L+@L+#L+$L+%L+&L+*L+=L+-L+;L+$J+>L+,L+'L+)L+!L+",
"~L+{L+]L+^L+/L+(L+_L+:L+<L+[L+}L+|L+1L+2L+3L+4L+4L+5L+6L+7L+8L+9L+0L+aL+bL+cL+dL+eL+dJ+fL+fL+nJ+mJ+gL+hL+iL+jL+kL+lL+mL+>H+nL+oL+pL+qL+rL+sL+tL+uL+vL+wL+xL+yL+zL+AL+BL+CH+CL+DL+EL+FL+GL+HL+IL+JL+KL+LL+ML+NL+OL+PL+QL+RL+QJ+TJ+SL+TL+UL+VL+WL+XL+YL+ZL+`L+ M+.M++M+@M+#M+$M+%M+&M+*M+%K+%M+=M+-M+,K+;M+>M+,M+'M+>M+)M+!M+~M+{M+(I+]M+^M+/M+(M+_M+:M+<M+[M+;G+Vx.}M+fC+9z.RK.tK.|M+1M+hJ.2M+1D 2M+/I 3M+=U 4M+*7+5M+1z+bv.n_.6M+yU.+}+y^+7M+t8+/4.8M+9M+0M+aM+bM+aM+vb+fK+$m+cM+dM+q@+A&+eM+fM+gM+F1+hM+[]+iM+jM+kM+lM+kL.}7+hO.@0+mM+L(+nM+y@+oM+4K.h!+pM+qM+rM+(f.sM+tM+uM+vM+L'+wM+xM+yM+zM+AM+BM+CM+OB DM+EM+fw+8A FM+GM+HM+X|.W|.W|.;G+X[./r Y|.IM+JM+KM+LM+MM+NM+OM+PM+QM+RM+SM+TM+UM+VM+WM+UK+QK+XM+YM+ZM+`M+ N+.N++N+VM+@N+#N+$N+XI+%N+&N+*N+=N+-N+;N+&L+>N+,N+'N+)N+.J+!N+~N+%L+#L+{N+",
"]N+^N+/H+/N+(N+_N+:N+<N+[N+}N+|N+1N+aL+2N+3N+4N+5N+6N+7N+rJ+|H+8N+9N+qH+0N+aN+bN+cN+LH+dN+eN+fN+eN+gN+hN+iN+jN+kN+lN+mN+nN+oN+pN+pN+qN+rN+sN+tN+uN+vN+wN+xN+yN+zN+AN+rN+BN+CN+DN+EN+FN+GN+HN+IN+cL+JN+KN+.I+LN+PH+MN+NN+ON+PN+QN+RN+SN+TN+UN+VN+WN+XN+QN+YN+ZN+`N+ O+LN+.O++O+@O+#O+$O+%O+;I+&O+*O+=O+-O+;O+>O+~I+,O+'O+%K+)O+,K+!O+~O+{O+]O+^O+/O+(O+_O+:O+pG+0z.QK.<O+aC.RK.>!.[O+}O+RJ hJ.|D fy+|O+5z.oR 1O+2O+5v+UD+)%+>d.)x+iK+3O+4O+5O+[ +Eh+6O+7O+8O+op.9O+0O+U2+04+SL.q4+aO+bO+]z+<:+cO+dO+eO+9&+{W.fO+gO+hK+OE.hO+'0+iO+_r+'=+Y(+jO+kO+_!+lO+ps.mO+.>+7m.Ex.g=.nO+!D.tI+Q'+oO+H#+pO+E,+qO+rO+sO+]I sP.tO+RJ ez+uO+vO+wO+1J.eB.Z<.6,.9C.6,.OC.xO+yO+zO+AO+BO+CO+DO+EO+DO+FO+GO+HO+IO+JO+KO+LO+MO+NO+OO+PO+QO+RO+SO+TO+UO+VO+WO+XO+YO+ZO+`O+ P+.P++P+@P+*L+#P+$P+.J+%P+&P+*P+=P+-P+;P+>P+",
",P+'P+)P+7N+!P+~P+{P+]P+<N+^P+/P+(P+_P+:P+tL+7N+<P+_P+~P+[P+}P+|P+1P+2P+3P+qH+qJ+4P+5P+6P+7P+3P+3P+8P+9P+0P+aP+bP+cP+dP+eP+fP+6P+gP+hP+hP+iP+jP+kP+lP+mP+bJ+nP+oP+pP+qN+qP+rP+sP+tP+pP+qN+uP+sP+vP+wP+xP+yP+VH+zP+AP+BP+CP+CP+DP+EP+FP+MN+NN+GP+HP+IP+JP+KP+LP+DP+CP+MP+NP+OP+hL+PP+fJ+gJ+hL+mH+QP+RP+SP+TP+UP+VP+WP+XP+YP+ZP+`P+ Q+.Q++Q+@Q+#Q+$Q+%Q+&Q+*Q+OC.=Q+WA.-Q+;Q+>Q+G'.,Q+'Q+}D 2M+)Q+_F.hz+1D |O+4M+!Q+pO+MY.~Q+Z/+{Q+%E+]Q+3,+'g.9&+Eh+8@+^Q+yM+7d+lH./Q+:g+(Q+q8+)R.Y{._Q+CS.:Q+<Q+[Q+}Q+r5.|Q+1Q+2Q+3Q+4Q+5Q+4k+r-+[r+6Q+KY.l,+[}+wK+7Q+8Q+9Q+0Q+x_.,F aQ+bQ+cQ+R.+dQ+eQ+>7+E,+fQ+gQ+hQ+c~.iQ+5O.jQ+]I kQ+lQ+mQ+Y|.Y}.9B+`<.az.W[.pG+nQ+oQ+pQ+qQ+rQ+rQ+sQ+tQ+uQ+vQ+rQ+RM+wQ+xQ+yQ+zQ+AQ+BQ+CQ+DQ+EQ+FQ+GQ+HQ+IQ+JQ+KQ+LQ+MQ+NQ+GQ+OQ+PQ+QQ+RQ+SQ+TQ+UQ+VQ+WQ+XQ+YQ+ZQ+`Q+ R+ R+.R+",
"+R+@R+tJ+tH+#R+$R+%R+&R+*R+=R+-R+;R+>R+,R+'R+EN+dN+)R+mN+!R+~R+{R+]R+^R+/R+(R+_R+^L+:R+<R+[R+}R+|R+1R+2R+dP+3R+4R+5R+6R+4R+7R+8R+9R+0R+aR+bR+iP+qN+dL+cR+lL+dR+eR+fR+dL+sP+gR+hR+8R+pP+iR+bR+mJ+jR+kR+QH+QH+kR+TH+QH+lR+DP+RH+TJ+TJ+FP+ON+MN+LN+IP+LN+mR+nR+oR+pR+qR+rR+sR+tR+uR+vR+gJ+fJ+wR+wR+xR+mH+gL+mH+yR+zR+AR+oH+BR+CR+CR+DR+ER+FR+GR+HR+LJ+IR+JR+KR+VA.ED.cC.tK.bC.LR+tK.MR+NR+ez+|D /I ~!.3L RB OR+PR+QR+~6+gK+RR+SR+g#+TR+UR+VR+WR+^e.*3+XR+YR+mK+ZR+P).`R+ S+.S++S+rc.@S+4K.]e.#S+D#+$S+%S+&S+*S+mS.=S+BU.-S+Wo.;S+SL.s1+>S+,S+<g+'S+)S+!S+wZ 38.:,+~S+{S+S-+]S+P'+tI+^S+:N.)`./S+80+(S+_S+:S+<S+[S+}S+|S+1S+7O.2S+,!.,!.,!.CD.az.3S+4S+5S+6S+%N+7S+8S+rQ+uQ+DO+EO+tQ+wQ+9S+tQ+0S+aS+bS+cS+dS+cS+eS+AQ+fS+gS+hS+iS+jS+CQ+kS+lS+mS+LQ+nS+oS+pS+qS+rS+sS+tS+uS+vS+wS+YQ+xS+yS+yS+zS+AS+",
"BS+CS+DS+ES+FS+GS+FS+ES+HS+IS+JS+KS+LS+MS+NS+OS+PS+IS+QS+RS+SS+TS+US+VS+WS+XS+YS+ZS+`S+ T+.T++T+@T+#T+$T+$T+%T+.T+&T+*T+=T+-T+;T+>T+,T+'T+)T+!T+~T+{T+]T+^T+/T+(T+_T+:T+<T+[T+}T+|T+1T+2T+3T+4T+BJ+5T+6T+7T+8T+9T+0T+LL+aT+bT+cT+dT+dT+eT+JH+fT+gT+hT+iT+jT+kT+lT+mT+nT+oT+pT+qT+qT+rT+sT+tT+CR+uT+AR+AR+vT+wT+xT+lJ+yT+zT+iL+AT+BT+CT+DT+ET+FT+GT+HT+IT+JT+HM+WA.Rx.Y|.QK.KT+W[.LT+MT+/I /I 2M+|O+OR+|O+}D PR+NT+ii.OT+PT+6d+QT+RT+ST+TT+Q1.b +id.UT+VT+WT+Vf.J:.`R+)x.XT+YT+cf.Y{.ZT+Tl+1&+E8+`T+ U+.U++U+rT.@U+#U+$U+%U+&U+*U+=U+-U+B(+pd+Qg.;U+>U+sY .s.=%+Iy.,U+'U+)U+!U+~U+U.+{U+!v+zW.in+]U+^U+/U+(U+_U+:U+<U+[U+}U+|U+1U+2U+3U+4U+5U+6U+7U+8U+9U+0U+aU+bU+cU+dU+eU+fU+fU+gU+hU+iU+jU+kU+lU+mU+nU+oU+pU+qU+MQ+JQ+rU+sU+tU+fS+HQ+uU+eU+vU+JQ+wU+xU+yU+zU+AU+BU+yS+CU+DU+EU+FU+GU+HU+IU+JU+",
"KU+LU+MU+NU+LU+LU+OU+PU+QU+RU+SU+TU+UU+VU+WU+SU+XU+YU+ZU+`U+ V+.V++V+@V+#V+$V+%V+&V+*V+=V+-V+;V+>V+,V+'V+)V+!V+~V+{V+]V+^V+/V+(V+_V+:V+<V+[V+}V+|V+1V+2V+3V+4V+5V+6V+7V+8V+9V+0V+aV+bV+cV+dV+eV+fV+gV+hV+iV+jV+kV+lV+kV+iV+mV+nV+oV+pV+qV+hV+rV+sV+tV+uV+vV+wV+xV+yV+zV+AV+PP+vP+BV+CV+DV+EV+FV+GV+HV+IV+JV+KV+LV+MV+NV+OV+PV+QV+RV+SV+TV+UV+VV+WV+XV+YV+ZV+VA.HG.`V+TK. W+KT+tK..W++W+kG mG ~!.RJ ez+2M+/I @W+#W+$W+%W+&W+*W+=W+-W+;W+>W+,W+'W+)W+!W+~W+=*+l-+Op+{W+D(+xa+pO+]W+LO.,y+v,+^W+t +/W+(W+_W+d#+:W+<W+cO.~u.7&+[W+}W+|W+-}+1W+H{+2W+3W+;@+HS !V.4W+b#+d%+8=+5W+b,.6W+7W+3O+nM+ 1.Ym.8W+9W+0W+E8.aW+bW+cW+dW+eW+fW+gW+hW+iW+jW+kW+lW+mW+nW+oW+pW+qW+rW+sW+tW+uW+vW+wW+xW+yW+zW+AW+BW+CW+DW+EW+FW+GW+HW+IW+JW+ P+KW+LW+MW+NW+OW+PW+QW+RW+SW+HQ+TW+UW+KW+wW+VW+WW+wS+JU+XW+YW+XQ+ZW+`W+",
" X+.X++X+NU+MU+MU+@X+ES+#X+$X+%X+&X+*X+WU+OU+=X+-X+;X+>X+,X+'X+)X+!X+~X+{X+]X+^X+/X+(X+_X+:X+<X+QH+[X+}X+|X+|X+1X+2X+3X+4X+5X+_V+6X+7X+8X+9X+0X+aX+bX+cX+dX+eX+fX+gX+hX+iX+jX+kX+lX+mX+nX+oX+pX+qX+rX+sX+tX+uX+vX+wX+xX+yX+zX+AX+BX+CX+DX+mV+mV+EX+FX+GX+HX+EX+IX+JX+KX+LX+MX+NX+OX+PX+QX+RX+SX+TX+ET+UX+VX+WX+XX+YX+ZX+`X+ Y+.Y++Y+@Y+#Y+$M+$Y+%Y+&Y+*Y+=Y+QK.DD.ED.dC.-Y+;Y+Vx.HM+>Y+XS ~!.,Y+8A }D }D OR+'Y+)Y+O'.k~+'D.!Y+~Y+{Y+]Y+$x.^Y+{s+/Y+(Y+_Y+:Y+<Y+9&+7M+tD.[Y+}Y+|Y+1Y+!6+2Y+3Y+4Y+5Y+6Y+z-+7Y+8Y+9Y+@N.0Y+%J.aY+bY+cY+dY+eY+fY+U&+)d.~>+gY+L9.E~+hY+X%.iY+jY+kY+lY+mY+nY+oY+pY+qY+}Q+rY+LY.sY+tY+uY+KD+vY+wY+xY+yY+zY+AY+BY+CY+DY+EY+FY+GY+HY+IY+JY+KY+LY+MY+NY+OY+PY+QY+RY+SY+TY+yY+UY+VY+WY+XY+YY+XY+NQ+DW+ZY+`Y+xW+ Z+.Z++Z+@Z+#Z+$Z+fS+rU+%Z+&Z+*Z+=Z+-Z+;Z+>Z+ZW+,Z+'Z+)Z+!Z+",
"~Z+{Z+]Z+^Z+/Z+(Z+dN+_Z+:Z+<Z+[Z+}Z+|Z+1Z+2Z+3Z+4Z+5Z+4Z+6Z+7Z+8Z+9Z+0Z+aZ+bZ+cZ+dZ+eZ+fZ+gZ+hZ+iZ+jZ+fZ+kZ+lZ+mZ+nZ+oZ+pZ+|T+qZ+rZ+sZ+tZ+uZ+vZ+wZ+xZ+pZ+oZ+yZ+zZ+AZ+BZ+mX+cV+CZ+DZ+EZ+FZ+GZ+HZ+IZ+JZ+KZ+LZ+MZ+NZ+OZ+PZ+QZ+RZ+SZ+TZ+UZ+xX+xX+VZ+qV+WZ+XZ+YZ+ZZ+`Z+ `+.`+FR++`+@`+#`+$`+%`+&`+*`+=`+-`+;`+>`+,`+'`+)`+!`+~`+{`+]`+^`+/`+(`+_`+:`+<`+[`+}`+|`+cz.IG.WA.Qx.Tx.HG.HG.1`+2`+kC+4I+JM 8A }D 8A 8A 3`+4`+0`.$q+&A.5`+G&+6`+7`+!`.8`+9`+0`+93+VL.a`+b`+c`+*Z.d`+*E+YD+e`+f`+g`+h`+i`+j`+k`+V9+:!+P;+l`+Ad.m`+n`+NT+o`+p`+^D.q`+r`+s`+O(+.++M5.[j.=a.4!+sL t`+X2+kH.u`+v`+w`+x`+y`+z`+A`+B`+C`+D`+E`+F`+G`+H`+I`+J`+K`+L`+qF+M`+N`+O`+P`+Q`+R`+S`+T`+U`+V`+$X+W`+X`+Y`+X`+Z`+``+  @. @+ @@ @# @$ @% @& @* @= @- @; @SW+zU+> @, @KW+' @) @tW+tW+QW+aU+! @~ @{ @] @^ @/ @( @_ @: @AU+< @[ @",
"} @| @1 @2 @3 @4 @5 @6 @7 @8 @9 @0 @a @b @c @OS+d @e @f @g @h @i @j @k @AW+l @l @m @n @n @YW+`Q+n @o @p @q @r @s @s @t @u @v @w @WV+x @y @z @VV+A @B @$Y+C @D @E @F @G @H @I @J @^L+K @L @M @N @O @P @Q @R @S @T @U @V @wN+W @X @7N+Y @^L+Z @#T+` @ .@{R+H @..@+.@@.@#.@$.@%.@&.@*.@=.@-.@;.@>.@,.@'.@).@!.@~.@{.@].@^.@/.@(.@_.@:.@<.@#Q+[.@@Q+}.@|.@aL+ZV+-Y+Qx.Sx.1.@TA.2.@2.@3S+3.@RD+JM ]A+}D |O+}D OR+4.@5.@a`.m8+6.@mk+7.@R1+8.@9.@0.@a.@b.@WD+)r+c.@d.@e.@iO pZ [6+f.@g.@FB.hI h.@i.@j.@k.@CI.fs.l.@m.@n.@m +o.@p.@q.@r.@iy.Qb+j'+s.@t.@7k.u.@v.@w.@-y+b}+x.@y.@z.@A.@B.@C.@D.@E.@F.@G.@H.@I.@J.@K.@L.@M.@N.@O.@O.@P.@Q.@R.@pF+S.@T.@U.@V.@W.@X.@Y.@Z.@`.@ +@.+@++@@+@#+@$+@Z`+%+@&+@%+@*+@=+@-+@;+@>+@,+@uW+/ @'+@)+@L`+!+@~+@{+@]+@^+@/+@(+@] @_+@:+@hW+<+@[+@}+@|+@1+@2+@3+@4+@5+@6+@",
"7+@8+@4 @4 @9+@0+@4 @a+@b+@c+@d+@e+@f+@g+@XU+h+@WU+WU+i+@e @j+@>Z+k+@YW+YW+m @vS+i @`Q+i @>Z+p @k+@j @o @l+@m+@n+@o+@p+@q+@r+@s+@t+@u+@v+@w+@x+@y+@z+@A+@lR+B+@UJ+C+@D+@,H+E+@F+@G+@H+@}Z+I+@J+@c @K+@L+@BV+M+@N+@O+@P+@Q+@R+@S+@T+@U+@V+@W+@X+@G+@Y+@Z+@`+@wV+ @@.@@+@@@@@#@@$@@%@@&@@*@@=@@-@@;@@>@@,@@'@@)@@!@@~@@{@@]@@^@@/@@'@@(@@_@@:@@<@@[@@}@@|@@1@@cz.TA.WA.2@@oJ.IG.HG.VA.3@@4@@kC+5@@6@@7@@jQ+lC+7O.8@@a`.fQ+9@@^e.)S+0@@ N.4s.a@@b@@c@@d@@c}++I.e@@Fb+f@@@w.i/+g@@h@@i@@j@@SR+m7+k@@l@@m@@n@@o@@p@@q@@r@@s@@t@@Ey.Ze+Iy.I;+J|.u@@v@@w@@x@@y@@g:+z@@1*.A@@B@@C@@D@@E@@F@@G@@H@@I@@J@@K@@L@@M@@N@@O@@P@@7B+Q@@R@@S@@T@@U@@V@@W@@X@@S`+Y@@Z@@`@@ #@.#@$X++#@@#@Z`+##@$+@#+@``+$#@%#@&#@%+@  @*#@$#@=#@-#@;#@>#@,#@'#@)#@!#@~#@{#@]#@^#@/#@(#@_#@:#@:+@hW+<#@|+@[#@hW+|+@}#@|#@1#@2#@3#@",
"4#@5#@6#@7#@8#@9#@0#@a#@b#@c#@d#@e#@x @f#@NU+g#@h#@i#@j#@k#@l#@AW+YW+k+@xS+k @`Q+BU+k @k+@i @i @vS+o @m#@n#@o#@p#@p#@r+@q#@q#@eZ+r#@s#@t#@u#@v#@BP+w#@WH+XH+z+@x#@KN+y#@z#@A#@B#@C#@D#@E#@F#@G#@H#@I#@oL+J#@J#@'T+K#@L#@M#@N#@O#@eN+X+@P#@Q#@R#@S#@T#@U#@V#@W#@;.@X#@_M+Y#@Z#@]@@`#@ $@.$@{@@Z#@+$@@$@#$@$$@%$@&$@*$@=$@-$@Z#@;$@>$@,$@'$@)$@!$@~$@{$@]$@^$@/$@($@_$@:$@<$@[$@}$@|$@1$@2$@3$@4$@5$@6$@7$@8$@9$@0$@a$@b$@c$@d$@e$@f$@g$@h$@i$@j$@k$@W$+l$@p3+`.+ 7.i<.m$@'r+3k+n$@L:+o$@p$@q$@{,+r$@s$@t$@u$@v$@;u+w$@x$@y$@|R.z$@5>+_p.A$@B$@3>+;p.#>.5j.C$@D$@E$@E#+F$@G$@H$@I$@J$@K$@L$@M$@N$@O$@P$@Q$@R$@S$@T$@U$@V$@W$@X$@Y$@Z$@`$@ %@.%@+%@@%@#%@$%@%%@&%@*%@@#@++@++@=%@-%@-%@%+@``+&#@;%@%+@SY+  @>%@,%@'%@)%@!%@~%@{%@!#@]%@^%@/%@(%@_%@:%@(#@<%@|#@[%@[+@}%@<#@|%@1%@2%@3%@4%@5%@6%@7%@",
"8%@9%@0%@a%@b%@c%@d%@e%@f%@g%@RS+h%@i%@j%@k%@l%@m%@n%@o%@p%@q%@n @AW+k @i @WQ+r%@s%@t%@RQ+u%@v%@w%@x%@y%@z%@A%@A%@B%@C%@D%@E%@F%@q+@G%@H%@I%@J%@K%@L%@M%@F+@N%@O%@P%@<Z+P @Q%@R%@S%@T%@U%@{O+V%@W%@X%@Y%@Z%@`%@ &@.&@+&@@&@#&@$&@%&@&&@*&@=&@-&@;&@>&@,&@'&@)&@!&@~&@{&@]&@ $@`#@^&@/&@(&@_&@:&@<&@#$@!@@[&@%@@}&@|&@1&@2&@Z#@3&@(@@4&@5&@6&@7&@8&@9&@0&@a&@b&@c&@b&@d&@e&@f&@g&@h&@i&@j&@k&@l&@m&@n&@o&@p&@q&@r&@s&@t&@u&@v&@w&@x&@y&@z&@A&@B&@V#+C&@{g.D&@#W.E&@'Y G<+F&@G&@@2.H&@I&@J&@dX.K&@L&@M&@N&@O&@P&@Q&@Og.;>+Vf.R&@S&@T&@U&@G$+.x.!_+7m.V&@}u.&p.9Q.W&@X&@Y&@Z&@`&@ *@.*@+*@@*@#*@$*@%*@&*@**@=*@-*@;*@>*@,*@;*@'*@)*@!*@~*@{*@]*@^*@`F+/*@(*@_*@++@:*@+#@V`+<*@$+@[*@*#@%+@}*@|*@1*@2*@1*@$#@3*@,%@4*@5*@6*@7*@8*@9*@0*@a*@b*@c*@(#@d*@/+@e*@f*@g*@h*@i*@j*@CY+k*@l*@m*@n*@o*@p*@q*@",
"r*@s*@t*@u*@v*@w*@x*@Q @y*@z*@A*@B*@C*@D*@E*@F*@G*@H*@I*@J*@K*@L*@M*@N*@O*@P*@.X+Q*@R*@B%@S*@x%@T*@>H+U*@V*@W*@X*@Y*@Z*@`*@|R+<P+ =@.=@+=@@=@#=@sJ+$=@%=@&=@vH+*=@wJ+==@-=@;=@>=@,=@oZ+'=@)=@!=@~=@{=@]=@^=@/=@(=@1V+_=@6X+]=@:=@qZ+<=@/T+[=@}=@eP+|=@H @`*@1=@2=@3=@4=@5=@6=@7=@8=@9=@0=@a=@b=@c=@d=@xV+e=@f=@g=@h=@i=@j=@k=@l=@m=@n=@o=@p=@q=@)`+r=@s=@t=@u=@`x+v=@|D |D cY.w=@{^.x=@y=@oU z=@A=@B=@C=@D=@E=@sK.5,.]v.`<.Z}.U|.W|.>!.F=@G=@{>+H=@xs.<z+a}+I=@J=@`'+{j+~|+K=@L=@M=@cS.5|+'=+_|+N=@O=@P=@Q=@R=@S=@5:+T=@LU.U=@V=@W=@x:+Nt.X=@Y=@ts.ae.Z=@`=@nk+ -@.-@+-@@-@#-@$-@%-@H.@&-@*-@=-@--@;-@>-@,-@'-@)-@!-@~-@{-@]-@^-@/-@(-@_-@:-@<-@[-@}-@|-@$+@Z`+W`+1-@X`+2-@$+@3-@&#@1-@SY+}*@4-@1*@5-@*#@&+@2*@SY+6-@7-@8-@9-@0-@GQ+a-@b-@zQ+vW+c-@d-@e-@f-@g-@h-@i-@j-@k-@l-@m-@n-@o-@p-@q-@r-@",
"s-@t-@u-@v-@w-@x-@y-@z-@A-@B-@C-@D-@E-@F-@G-@H-@I-@J-@K-@L-@M-@N-@O-@P-@Q-@R-@E*@S-@T-@U-@m%@BV+V-@W-@*T+5P+X-@bL+tJ+Y-@Z-@vH+yJ+`-@ ;@.;@+;@@;@#;@$;@%;@&;@*;@=;@-;@;;@>;@,;@(V+';@);@!;@~;@{;@];@^;@/;@(;@_;@5X+:;@<;@[;@xZ+7X+};@|;@1;@2;@3;@Z%@@K+u @MV+4;@r#@Z+@5;@4;@6;@7;@8;@9;@0;@|X+QH+OJ+a;@b;@v#@}X+c;@.T+d;@e;@f;@g;@h;@i;@j;@k;@l;@m;@n;@o;@p;@4$.Iy 5$./I OR+q;@ N r;@s;@t;@u;@v;@w;@x;@y;@z;@A;@G'.-!.qQ B;@C;@F'.W|.D;@E;@F;@3p.7g+<}+l$@G;@H;@I;@`v.)` SZ.J;@K;@m +L;@M;@IP.80+N;@O;@P;@Q;@R;@0w+S;@T;@n_.{z+U;@V;@v{+W;@X;@Y;@Z;@`;@ >@2v+t|+.>@+>@@>@#>@$>@%>@&>@*>@=>@->@;>@>>@,>@)-@'>@!-@(-@)>@)>@!>@!-@'>@~>@'>@!>@{>@]>@^>@/>@(>@_>@:>@``+X`+&#@<>@2*@j @[>@k+@2*@*#@}>@|>@|>@1>@2>@5*@3>@4>@5>@6>@7>@8>@9>@0>@a>@~+@b>@c>@d>@e>@<#@DY+f>@g>@h>@i>@j>@k>@l>@m>@n>@o>@p>@",
"q>@r>@s>@t>@u>@v>@w>@w>@x>@y>@z>@z>@A>@B>@C>@D>@E>@O-@F>@G>@H>@I>@J>@K>@L>@M>@N>@O>@P>@Q>@e#@W-@R>@_`+S>@T>@rH+U>@V>@W>@X>@$;@8J+.;@Y>@wH+Z>@`>@ ,@.,@+,@@,@#,@$,@%,@&,@xZ+xZ+*,@=,@-,@;,@=,@>,@,,@',@_V+),@!,@~,@{,@{;@],@^,@/,@(,@>,@/,@_,@oJ+rT+*G+v @g%@:,@R#@<,@F+@s#@[,@[,@SS+},@lR+UH+:X+kR+|,@1,@t#@G+@2,@}X+3,@4,@5,@6,@IZ+7,@8,@8,@i;@DL+9,@0,@a,@8A nn ,>.OB jQ+b,@`M K&.c,@sn.d,@e,@e,@f,@g,@v;@A;@h,@7z.U|.-!.eB.!*.]v.M%.i,@j,@k,@ck+Jh+u(.l,@m,@n,@G'+o,@xa+QT.p,@q,@r,@YT.s,@t,@u,@0s.v,@w,@x,@s,+|i.y,@z,@0s.A,@B,@C,@D,@E,@ N.Q1.wG 9c.F,@G,@H,@I,@J,@K,@L,@L,@M,@N,@O,@P,@Q,@R,@S,@T,@!>@'>@'>@U,@)-@_-@{-@!-@V,@W,@X,@Y,@Z,@{>@`,@ '@.'@+'@@'@BU+#'@5*@|>@k+@$'@l @3*@%'@&'@*'@='@-'@;'@>'@,'@''@)'@!'@3>@~'@{'@]'@^'@/'@('@_'@h-@:'@<'@['@}'@|'@1'@2'@3'@4'@5'@6'@7'@8'@9'@",
"0'@a'@b'@c'@d'@e'@f'@g'@h'@i'@j'@k'@l'@m'@n'@o'@p'@q'@r'@s'@t'@u'@v'@w'@x'@y'@z'@A'@B'@C'@D'@E'@F'@]P+G'@H'@I'@J'@K'@L'@-;@M'@N'@O'@.,@P'@Q'@L'@R'@S'@T'@U'@V'@W'@X'@Y'@sZ+Z'@`'@ )@.)@],@5X++)@xZ+!,@xZ+@)@xZ+],@`'@{;@#)@$)@%)@&)@(,@<;@*)@=)@-)@;)@>)@,)@{Z+')@))@!)@$R+w#@M*@~)@{)@])@^)@L*@~R+]Z+TS+/)@()@L*@_)@:)@<)@[)@})@7,@|)@1)@2)@3)@4)@5)@6)@7)@]I 8A Xr.kC+5@@jQ+yn `M 8)@dL '7.9)@@i.0)@+k.a)@b)@=>.X|.rG+]v.c)@*>.G-.Ox.d)@e)@f)@aM+g)@h)@sd+i)@j)@U=@k)@Xb+[r+9=+l)@m)@RZ._0+q.@Fq.Sp+^[+n)@o)@p)@n'+-x+|A.q)@r)@s)@`)+t)@u)@v)@Yo.w)@Kt.T#+x)@y)@z)@A)@B`+B)@C)@D)@E)@F)@G)@H)@#P+I)@J)@K)@L)@M)@N)@O)@P)@Q)@R)@^>@S)@T)@U)@W,@V)@W)@X)@Y)@Z)@`)@ !@.!@+!@@!@v%@#!@ R+- @>Z+$!@%!@&!@*!@=!@-!@;!@>!@,!@'!@)!@!!@~!@{!@]!@^!@/!@(!@AY+_!@:!@<!@[!@}!@|!@1!@2!@3!@4!@5!@6!@7!@8!@",
"9!@0!@a!@b!@c!@d!@e!@f!@g!@h!@i!@j!@k!@l!@m!@n!@o!@p!@q!@r!@s!@t!@u!@v!@w!@x!@y!@z!@A!@'P+B!@C!@D!@E!@F!@G!@H!@I!@J!@K!@L!@M!@N!@O!@P!@Q!@R!@S!@T!@U!@V!@W!@X!@Y!@J'@Z!@`!@ ~@.~@+~@@~@#~@$~@%~@&~@*~@=~@-~@;~@>~@,~@'~@)~@J'@!~@:N+~~@{~@]~@^~@/~@1J+(~@_~@:~@<~@[~@}~@|~@FJ+1~@2~@3~@LZ+})@CL+9L+4~@5,@5~@6~@7~@8~@9~@0~@a~@U#@b~@vH+c~@d~@e~@f~@g~@h~@i~@OB OB Q%.j~@TE ]I `M k~@l~@m~@wm.n~@o~@p~@@i.+k.q~@r~@s~@Sx.=>.rG+rG+t~@>!.u~@v~@w~@aM+V[+x~@h`+ST.y~@z~@-6+yK+A~@B~@C~@Sb+BA.ZC.D~@}i.E~@G'+:v.F~@G~@} +uG.n/+%J.H~@I~@J~@8x.K~@2W+`'+FS.L~@M~@N~@O~@P~@Q~@R~@S~@T~@U~@V~@W~@X~@Y~@Z~@`~@ {@.{@JY+JY+LY++{@@{@#{@${@%{@yY+5-@@ @&{@*{@={@-{@;{@>{@,{@'{@){@!{@~{@{{@]{@^{@/{@({@_{@:{@<{@[{@}{@|{@1{@hU+hU+2{@3{@&N+;#@4{@h*@5{@6{@7{@eN+8{@9{@0{@a{@b{@c{@d{@e{@f{@g{@h{@i{@j{@k{@",
"l{@m{@n{@o{@p{@q{@r{@s{@t{@u{@v{@w{@x{@y{@z{@A{@B{@C{@D{@E{@F{@G{@H{@I{@J{@K{@L{@M{@N{@O{@P{@Q{@R{@S{@T{@S{@U{@V{@W{@X{@Y{@Z{@`{@ ]@.]@+]@@]@#]@$]@%]@&]@*]@=]@-]@;]@>]@,]@']@)]@!]@~]@{]@]]@!]@^]@/]@(]@_]@:]@<]@[]@}]@|]@1]@2]@3]@4]@5]@6]@7]@8]@9]@0]@a]@b]@c]@d]@oV+e]@f]@g]@h]@i]@j]@k]@l]@rX+m]@n]@o]@p]@p]@q]@EL+r]@wJ+s]@t]@u]@v]@w]@x]@y]@^N+z]@A]@ N B]@C]@B]@hz+RD+D]@E]@F]@G]@H]@|!+a)@I]@]l.J]@K]@L]@cC.dC.VA.UA.M]@;Y+QK.N]@O]@IA.P]@Q]@q5.R]@,j+V*.Nl+aS.L{+/S.S]@$!.y~+ds.T]@U]@cq.V]@st.Iq.W]@X]@`j.,G.bq.Y]@Jt.jY.Cm.Z]@`]@ ^@.^@f@++^@@^@#^@$^@%^@&^@*^@=^@-^@;^@>^@,^@'^@)^@!^@~^@)^@{^@]^@^^@P`+/^@+{@IY+(^@_^@:^@@{@<^@[^@}^@|^@1^@2^@3^@4^@5^@6^@7^@8^@9^@`$@fU+0^@a^@b^@b^@c^@d^@e^@f^@g^@f^@h^@i^@j^@k^@l^@m^@PQ+n^@jJ+jN+o^@p^@q^@r^@s^@t^@u^@v^@w^@x^@y^@z^@y^@A^@B^@",
"C^@D^@E^@F^@G^@H^@I^@J^@K^@L^@M^@N^@O^@P^@Q^@R^@N^@S^@S^@E{@T^@U^@i!@V^@W^@X^@Y^@Z^@`^@ /@./@+/@@/@#/@$/@%/@&/@N!@K!@*/@=/@`{@-/@;/@>/@,/@,/@'/@)/@!/@~/@{/@]/@']@^/@//@(/@_/@:/@</@[/@)~@}/@|/@1/@2/@3/@-]@4/@5/@//@6/@7/@/L+8/@9/@0/@a/@b/@c/@d/@e/@f/@g/@h/@xX+xX+xX+i/@j/@k/@l/@m/@n/@o/@oV+p/@q/@r/@s/@t/@u/@v/@p]@w/@x/@y/@YV+z/@A/@B/@C/@D/@E/@F/@G/@jJ.H/@,>.{^.,Y+ez+cD I/@J/@xt.e,@2d.K/@L/@M/@N/@O/@P/@IG.Q/@R/@}F.ED.Sx.QK.S/@T/@U/@V/@W/@-V.X/@Y/@{U Z/@Uq.`/@TB. (@u#+e!+.(@+(@V&+-s. i.=++zv.@(@U=@1,+,P.)S.[!+%V.jY.SB.!F.9k+AN.-p.#(@pB.$(@%(@&(@*(@=(@-(@;(@>(@,(@,^@'(@)(@!(@~(@{(@](@^(@/(@((@_(@:(@[^@@{@}^@<(@+{@@ @[(@}(@}^@|(@}^@1(@2(@|^@3(@4(@5(@6(@7(@8(@9(@0(@a(@b(@c(@d(@pQ+e(@`I+f(@g(@h(@({@i(@j(@k(@l(@j#@m(@n(@o(@p(@q(@r(@s(@t(@u(@v(@w(@x(@y(@z(@A(@B(@C(@t(@",
"D(@E(@F(@G(@H(@I(@J(@K(@L(@v{@A{@M(@N(@O(@P(@Q(@B{@R(@S(@T^@T(@U(@V(@W(@X(@Y(@Z^@Z(@`(@ _@._@+_@@_@#_@$_@%_@&_@W{@*_@`{@=_@-_@=/@;_@>_@,_@'_@>/@)_@!_@~_@6/@{_@]_@^_@>~@/_@]_@(_@__@:_@<_@[_@}_@|_@1_@2_@,~@3_@4_@4_@5_@6_@Z>@2]@/J+7_@8_@9_@0_@a_@b_@c_@d_@e_@f_@oV+g_@h_@i_@p/@g]@e]@j_@l/@k_@p]@l_@LZ+1~@EL+p]@m_@n_@o_@p_@q_@r_@s_@t_@u_@v_@w_@x_@y_@z_@A_@`x+eu OB ,Y+cv+tm B_@C_@D_@f,@E_@F_@G_@H_@I_@J_@K_@L_@M_@N_@L_@O_@L_@P_@Q_@R_@S_@)d+T_@U_@$%+H:.@o.^h.|C.V_@W_@`/@g:+X_@Y_@'s.7>+Jh+HA.OL.IO.Z_@VH.| +r/+9K.H{+`_@ :@&o.!s.*p.U'+#(@.:@+:@@:@#:@$:@%:@&:@*:@=:@-:@;:@>:@,:@':@):@!:@~:@{:@]:@^:@/:@(:@_:@GY+GY+HY++{@LY+::@|^@<:@[:@@{@}:@|:@1:@2:@|:@3:@4:@5:@6:@7:@8:@9:@0:@a:@b:@c:@LM+d:@e:@f:@g:@h:@({@i:@j:@yW+k:@l:@m:@n:@o:@p:@q:@r:@y(@s:@t:@7_@u:@t(@u(@v:@w:@A(@x:@B(@",
"y:@z:@A:@B:@C:@D:@E:@F:@G:@H:@I:@J:@K:@L:@M:@N:@O:@P:@O:@Q:@R:@S:@T:@U:@V:@W:@X:@Y:@Z:@Q{@`:@ <@.<@+<@@<@@<@#<@$<@d_@%<@&<@*<@=<@$<@g/@-<@;<@><@,<@'<@)<@!<@)~@1_@X'@~<@]]@{<@>~@]<@;]@^<@1_@4/@~<@/<@Y>@;~@(<@_<@:<@@,@<<@[<@}<@|<@1<@2<@3<@4<@5<@6<@7<@8<@9<@CX+0<@a<@b<@n/@(~@c<@d<@e<@f<@pX+g<@h<@i<@j<@k<@l<@m<@n<@o<@p<@q<@r<@s<@Q/@t<@u<@v<@w<@x<@y<@4I+bG GZ kQ+z<@A<@9L.B_@B<@C<@D<@E<@E.+*]+F<@'7.G<@H<@I<@J<@K<@L<@M<@N<@O<@P<@Q<@`:.j%+R<@S<@T<@U<@V<@Kq.W<@T-+X<@o|+Z6.Z6.Kt.u$@1:+*V.`I.[}+20+Y<@Z<@*++js.sv.a-+`<@ [@.[@+[@&o.2%+2%+@[@#[@$[@%[@&[@*[@=[@-[@;[@Ww+>[@,[@'[@)[@![@~[@{[@][@P`+^[@:(@/[@([@|:@_[@+{@|:@(^@:[@|(@}^@[^@:^@|^@|(@<[@_[@_^@rW+[[@}[@5:@l^@|[@1[@l^@0(@2[@3[@4[@5[@6[@a*@7[@8[@9[@0[@a[@b[@c[@d[@e[@f[@g[@h[@i[@j[@k[@l[@w(@m[@n[@q^@o[@p[@><@q[@r[@s[@",
"t[@u[@v[@w[@x[@y[@z[@A[@B[@C[@D[@E[@F[@G[@H[@I[@J[@I[@K[@L[@M[@N[@O[@P[@Q[@R[@S[@T[@Q[@U[@V[@W[@X[@Y[@Z[@`[@ }@.}@+}@@}@#}@$}@%}@&}@*}@=}@-}@;}@>}@,}@'}@)}@!}@~}@{}@]}@^}@~}@/}@(}@_}@{}@:}@<}@[}@}}@|}@~}@1}@2}@3}@4}@5}@)]@6}@7}@8}@9}@0}@a}@b}@c}@d}@e}@6]@f}@u:@g}@h}@i}@f}@j}@k}@l}@m}@2L+n}@o}@p}@q}@<J+r}@s}@t}@u}@v}@w}@KT+KT+>Q+fC+x}@>Q+y}@z}@A}@B}@) .C}@D}@hJ.) .tm `M E}@F}@G}@jk+H}@I}@d,@x;@J}@K}@9X ^I }D ) .=U jC+=U L}@M}@N}@O}@e +P}@rd+Q}@R}@S}@s3+k7+9v.T}@%w.U}@J=@V}@W}@X}@Y}@Ev.wS.Z}@on.:a+CK.my.`}@ |@.|@+|@2%+[!+@|@kl.#|@$|@%|@&|@*|@=|@-|@;|@>|@,|@'|@}(@)|@!|@~|@(:@^^@{|@]|@^|@/|@(|@_|@IY+:^@IY+[^@:|@::@HY+!!@:^@<|@GY+@{@[|@}|@#{@||@1|@xW+xQ+2|@3|@`I+4|@/{@5|@6|@{#@]+@yO+7|@8|@9|@GS+[!@0|@1!@a|@b|@c|@d|@e|@f|@g|@h|@i|@j|@k|@l|@7_@s:@m|@n|@o|@8<@u^@y^@",
"p|@q|@r|@s|@q|@t|@u|@v|@w|@q|@x|@w|@v|@y|@z|@A|@B|@C|@D|@E|@F|@G|@),@H|@^,@^,@',@*,@I|@J|@K|@L|@M|@N|@O|@P|@M|@Q|@R|@S|@T|@I|@U|@R|@V|@S|@W|@X|@8V+Y|@Z|@`|@(}@ 1@.1@+1@~}@@1@#1@$1@%1@&1@*1@=1@-1@;1@>1@,1@'1@)1@!1@~1@{1@]1@^1@/1@(1@_1@_1@:1@_1@:1@:1@<1@[1@}1@|1@11@21@31@41@31@51@61@71@81@11@91@}1@01@91@a1@_1@b1@c1@d1@e1@]v./r Z<.]v.f1@g1@Qx.h1@i1@/e #q tm j1@FZ k1@GZ  N l1@sn.m1@n1@`&+o1@p1@q1@r1@~^.-Y JW ~^.HK.mG 1D ) .s1@t1@u1@(s+v1@w1@!v+x1@y1@;u.9j.9K+CI.z1@A1@1 +>S+B1@C1@UT+B|+Ev.D1@Bm.`t.E1@Fq.$J.F1@G1@H1@I1@}!+Ry.J1@P;+K1@L1@M1@N1@O1@P1@Q1@R1@;[@S1@T1@7>@U1@V1@W1@V1@q @X1@V1@q%@Y1@Z1@`1@ 2@.2@+2@``+ 2@@2@+2@X1@g @g @#2@$2@g @m @g @%2@&2@ZW+.2@)#@*2@=2@pS+-2@;2@kS+>2@,2@'2@)2@w*@!2@~2@{2@]2@^2@/2@(2@d{@_2@:2@<2@[2@}2@|2@12@22@32@42@52@62@72@82@92@02@k_@",
"a2@b2@t|@t|@c2@d2@a2@e2@b2@f2@g2@a2@v|@h2@q|@i2@j2@k2@l2@m2@n2@^,@),@*,@^,@^,@^,@^,@o2@p2@Q|@q2@r2@s2@t2@u2@o2@p2@U|@',@',@^,@^,@^,@v2@w2@x2@y2@z2@A2@B2@C2@<}@D2@E2@F2@G2@H2@I2@J2@K2@;1@L2@M2@N2@O2@P2@Q2@Q2@R2@S2@T2@U2@V2@W2@_1@_1@_1@X2@X2@:1@:1@:1@_1@_1@_1@_1@_1@_1@_1@_1@_1@Y2@Z2@_1@_1@Z2@:1@_1@`2@a1@_1@_1@|1@ 3@.3@+3@pG+=>.8Y.t~@dU.fC+@3@#3@$3@tl Ly lt f..Lv 7j f%.AG %3@&3@*3@x..g,@=3@p~@-3@;3@>3@CS cN `V zD.,3@|D /I '3@)3@+`.!3@>7+~3@!6+i,+v8+{3@[:+&u+CO.uE.pd+]3@^3@/3@P-+IP.h8+1}+ka+2p..(@(3@;y+_3@:3@<3@[3@}3@|3@`=@/]+13@23@33@43@53@63@73@83@93@03@a3@b3@c3@tS+d3@X`+q @e3@f3@g3@*X+i#@V1@h3@UU+VU+SU+WU+i#@i3@j3@j3@GU+k3@l3@m3@n3@i3@o3@p3@FU+GU+q3@r3@s3@t3@u3@v3@w3@x3@y3@z3@^}@A3@B3@C3@D3@E3@F3@G3@H3@I3@J3@K3@L3@M3@N3@O3@P3@Q3@R3@S3@T3@U3@V3@W3@X3@Y3@Z3@`3@",
" 4@g2@.4@f2@e2@.4@.4@f2@+4@g2@@4@#4@$4@s|@%4@&4@*4@a%@Z'@~,@xZ+xZ+^,@',@^,@o2@^,@=4@-4@L|@;4@>4@M|@,4@u2@U|@u2@'4@v2@U|@^,@^,@)4@!4@~4@{4@]4@^4@/4@(4@_4@:4@<4@[4@}4@22@%1@|4@14@24@34@/4@44@Q2@54@14@*1@64@74@84@94@54@04@a4@Z2@_1@Z2@_1@_1@_1@_1@_1@_1@_1@_1@Y2@_1@_1@_1@_1@b4@b4@c4@c4@d4@Z2@`2@01@:1@:1@X2@_1@e4@f4@g4@h4@i4@>!.Z}.Y}.f1@j4@k4@l4@m4@n4@mn <x GZ fy.dG o4@P%.AG p4@q4@r4@s4@t4@9y+u4@9y+v4@5Y ts /s eK #w+5z.hJ.|D w4@x4@E,+y4@z4@q1+$E+cA.|M.A4@pW.B4@Wb+ZP.t|+*u.C4@D4@n,+p!+^4.E4@|,+st.F4@G4@H4@I4@J4@K4@L4@M4@N4@ML.Hh+$^@O4@P4@Q4@R4@S4@T4@U4@V4@W4@93@X4@Y4@Z4@k+@k+@f @q%@q @r3@h+@TU+`4@#X+PU+SU+PU+VU+d @r3@ 5@GU+m#@.5@+5@@5@#5@#5@$5@@5@@5@%5@&5@*5@=5@-5@!<@:}@;5@>5@,5@'5@)5@!5@Y[@~5@{5@]5@^5@/5@H3@(5@_5@:5@<5@[5@}5@|5@15@25@15@35@45@55@65@75@85@95@05@a5@",
"a2@f2@.4@.4@c2@a2@.4@.4@b5@.4@#4@c5@a2@q|@d5@e5@f5@6X+*,@^,@^,@^,@^,@^,@^,@',@o2@g5@K|@h5@~4@Q|@i5@q2@',@',@j5@w2@',@',@)4@k5@',@w2@l5@m5@*1@/4@n5@o5@p5@q5@r5@s5@=1@t5@u5@s5@v5@w5@x5@y5@n5@z5@^4@14@M2@A5@B5@C5@D5@E5@F5@d4@Y2@c4@_1@_1@Z2@Y2@Z2@c4@Z2@Y2@Z2@_1@_1@_1@G5@H5@H5@c4@I5@J5@K5@_1@_1@_1@_1@X2@_1@_1@L5@M5@N5@O5@P5@aC.eB.Q5@Y}.`V+R5@S5@T5@U5@5$.ll cD A<@,Y+]I EV.V5@W5@9)@X5@1N.Y5@Z5@`5@ 6@.6@=U Gn Gn S2 `V 1D _F.) .+6@@6@L8+Y[+N.+#6@*)+fO+$6@6u.Wv.*f+!4.!,+%6@hT.&6@Ge+ma+M(+*6@uE.=6@fv.X]@V&+-6@;6@>6@,6@'6@)6@!6@~6@{6@]6@^6@/6@(6@_6@:6@<6@[6@-*@}6@-*@83@-*@|6@k @%2@$'@X`+Y1@16@26@TU+36@r3@46@d @UU+56@r3@GU+r3@n3@n3@66@o3@76@86@96@06@a6@b6@c6@d6@e6@jV+f6@g6@h6@i6@j6@k6@l6@m6@n6@o6@p6@q6@r6@s6@t6@u6@v6@w6@x6@y6@z6@A6@B6@C6@D6@D6@E6@F6@G6@H6@I6@J6@K6@L6@M6@",
"N6@O6@P6@Q6@R6@S6@T6@T6@U6@V6@W6@X6@Y6@Z6@`6@_N+H|@ 7@^,@^,@^,@^,@^,@.7@^,@^,@^,@',@v2@v2@o2@U|@u2@T|@+7@T|@@7@aX+o2@o2@^,@o2@j5@#7@$7@%7@&7@*7@74@=7@-7@*1@;7@>7@-1@=1@,7@'7@)7@>7@!7@+}@~7@{7@;1@]7@^7@=7@/7@(7@*7@_7@c4@Z2@H5@:7@Z2@_1@G5@c4@Z2@d4@d4@<7@J5@b4@d4@K5@Z2@H5@b4@[7@K5@K5@c4@}7@_1@_1@_1@:1@01@|7@17@27@37@47@57@67@77@87@@3@97@07@a7@b7@c7@Xr.) .GZ  N yn GZ 3L d7@e7@f7@F<@{l.g7@h7@i7@j7@k7@XS =H 3U 3U Wt+2M+/I RB l7@m7@._.n7@o7@';+`V.p7@Z4+q7@hd+r7@=q+hg+s7@2:+t7@u7@}0+.R.Yy.k,+v7@w7@x7@y7@z7@A7@B7@C7@1p.D7@E7@F7@G7@H7@I7@J7@K7@L7@M7@!*@ '@N7@U4@O7@,-@P7@P7@Q7@R7@d3@q%@V1@h3@i+@d @i+@WU+i#@TU+i#@n3@n3@S7@FU+T7@$5@o3@U7@V7@W7@X7@Y7@Z7@`7@ 8@.8@CX++8@*<@@8@6<@#8@$8@%8@&8@*8@%8@=8@-8@;8@>8@,8@'8@)8@!8@~8@{8@]8@^8@D6@/8@C6@(8@D6@_8@:8@A6@<8@[8@}8@|8@18@28@",
"38@48@58@68@78@hT+88@98@08@a8@b8@c8@d8@e8@5}@<;@>=@f8@(;@g8@3V+h8@i8@g8@j8@k8@bV+9X+l8@m8@n8@o8@p8@q8@J|@0X+v2@j5@r8@s8@^;@t8@u8@v8@w8@y5@#1@y5@x8@y8@$1@(7@z8@o5@A8@z8@B8@C8@D8@E8@F8@G8@H8@=7@I8@-1@J8@C5@K8@L8@M8@N8@O8@P8@Q8@R8@S8@T8@U8@V8@W8@X8@Y8@Z8@`8@ 9@.9@+9@@9@#9@$9@%9@&9@*9@=9@-9@;9@>9@,9@d4@'9@)9@!9@~9@{9@]9@^9@/9@(9@_9@:9@<9@y}@[9@}9@|9@!!.]I A<@19@]I cD uP.29@39@49@g,@59@69@+]+L/@79@89@oR SL Wt+1D BG.hJ.^I |D 99@09@a9@b9@y4+y@+c9@d9@e9@0K+<u.Zv.h`+f9@nR.z<+oh+Et.7>+(G.`.+ZI.g9@h9@i9@j9@k9@l9@m9@Y=@VT.n9@o9@%^@p9@q9@r9@s9@t9@u9@v9@w9@U4@}6@x9@y9@z9@P7@w9@A9@B9@k @l @q%@C9@*X+j#@i+@XW+r3@D9@C9@E9@S7@F9@l3@G9@H9@I9@J9@K9@L9@j/@M9@f6@e_@e_@e_@N9@O9@P9@Q9@R9@S9@T9@U9@V9@W9@X9@Y9@Z9@`9@ 0@.0@)8@+0@@0@#0@15@$0@%0@&0@*0@25@15@=0@E6@-0@45@;0@>0@,0@'0@)0@!0@",
"Y-@~0@{0@]0@n;@^0@/0@(0@_0@:0@:0@<0@[0@}0@ 1@|0@10@20@EZ+30@40@r^@50@60@70@s:@80@><@90@00@a0@b0@b0@c0@d0@e0@f0@g0@h0@i0@>7@j0@k0@l0@m0@n0@o0@p0@q0@r0@s0@q0@t0@u0@v0@w0@x0@y0@z0@A0@B0@C0@D0@E0@F0@G0@H0@I0@J0@K0@~~@L0@M0@N0@O0@P0@Q0@R0@S0@T0@U0@V0@W0@X0@Y0@Z0@`0@ a@.a@+a@@a@#a@$a@%a@&a@*a@=a@-a@;a@>a@Y0@,a@'a@'a@)a@!a@~a@{a@]a@^a@/a@(a@_a@:a@<a@[a@D}@}a@|a@6@@3L  N 3L fw+1a@2a@n1@3a@4a@5a@-3@p1@6a@7a@jC+~!.2M+|D 2M+/I hz+8a@9a@y(+uk+QX.0a@aa@ba@WJ R++wG ca@^Y n9.#w.F;+~g.n'+`_@da@ea@fa@ga@ha@ia@ja@9#+ka@t/+<t+Ey.la@ma@na@oa@pa@qa@ra@sa@y9@ '@!*@U4@U4@U4@U4@ '@ta@N7@83@!L+ua@k+@$'@f @`4@j3@#2@#2@S7@l3@C9@S7@va@wa@xa@K9@jV+ya@za@QZ+Aa@Ba@d_@Ca@Da@$<@N9@RZ+Ea@Fa@@8@Ga@Ha@Ia@Ja@q6@Ka@La@Ma@Na@;0@Oa@Pa@Qa@Ra@Sa@C6@Ta@*0@Ua@=0@Va@15@Wa@Va@15@Xa@Ya@Za@`a@ b@.b@+b@@b@",
"uL+#b@$b@%b@&b@DL+_0@*b@6N+=b@-b@;b@>b@%,@~_@,b@'b@)b@!b@~b@{b@]b@^b@/b@(b@_b@:b@<b@[b@}b@|b@1b@2b@3b@4b@c/@5b@6b@7b@8b@r^@9b@0b@ab@4T+bb@cb@db@eb@fb@db@gb@hb@ib@jb@kb@lb@mb@nb@ob@lb@pb@qb@rb@sb@tb@ub@vb@wb@xb@5}@yb@zb@Ab@Bb@Cb@W @Db@V0@Eb@Fb@Gb@Hb@Ib@Jb@Kb@Lb@Mb@Nb@Ob@Pb@Qb@Rb@Sb@Tb@Ub@Vb@Wb@Pb@Xb@Yb@Zb@`b@ c@.c@+c@@c@#c@$c@%c@&c@*c@=c@-c@;c@>c@,c@'c@)c@!c@~c@{c@]c@^c@/c@A=@'k.&c.F_@(c@9y+}n+_c@:c@mG 8A /I /I oR /I RJ <c@[c@`[.}c@|c@1c@2c@D=+3c@o].4c@5c@6c@ca@#R.9_+H +7c@|:+8c@9c@0c@ac@bc@cc@dc@ec@~^+fc@uE.]x+gc@hc@ic@jc@kc@K)@y9@lc@mc@nc@oc@pc@qc@mc@rc@93@sc@v9@U4@tc@uc@|>@'%@46@q @q%@k#@g3@HU+vc@wc@xc@yc@zc@Ac@Bc@xX+Cc@Dc@$<@N9@N9@Ec@N9@Fc@Gc@yX+Ec@P9@Hc@5b@Ic@Jc@Kc@Lc@Mc@Nc@v6@Oc@Pc@Qc@Rc@Sc@Tc@Uc@Vc@*0@*0@Ua@Wc@Xc@Yc@15@Va@E6@Zc@`c@ d@|5@.d@+d@@d@#d@$d@",
"%d@&d@*d@=d@-d@;d@^0@[0@}R+>d@,d@4_@'d@)d@!d@b<@~d@{d@]d@^d@/d@(d@_d@:d@<d@<d@RZ+[d@}d@|d@1d@2d@3d@4d@5d@2d@6d@6b@7d@8d@.,@sJ+9d@0d@ad@bd@cd@dd@dd@nb@ed@cd@fb@db@cd@nb@fd@gd@hd@vb@ed@mb@id@jd@kd@ld@md@nd@od@pd@qd@rd@d%@Ab@sd@td@ud@vd@wd@S0@xd@yd@zd@Yb@Ad@Bd@Db@Cd@Db@Dd@Db@Ed@Fd@Gd@Hd@Id@Jd@Kd@Ld@Md@Nd@Od@'d@Pd@Qd@Rd@Sd@Td@) ./I |D _F.RJ kC+Ud@Vd@Wd@f,@~d.3a@7 +Xd@Yd@Zd@`d@ e@y;@~d..e@+e@1N.@e@#e@$e@^I |D kG _F.~!.=U %e@&e@*e@=e@-e@;e@>e@,e@'e@)e@V*../.X<.05.!e@~e@JS cg+.(+{e@R;@]e@^e@/e@(e@_e@OV.:e@<e@bt+$}+[e@}e@|e@1e@2e@3e@4e@T4@5e@6e@7e@8e@9e@0e@ae@be@>|@ce@de@T4@;[@ee@fe@|>@d3@16@i3@ge@BP+he@ie@je@ke@xX+le@me@ne@oe@pe@qe@re@se@.]@te@ue@ve@g/@a]@e/@we@8d@xe@ye@ze@Ae@Be@Ce@De@Ee@Fe@Ge@He@Ie@Je@Ke@Le@Me@+d@Ne@Oe@Pe@Qe@Re@Se@Te@Ue@Ve@|5@Va@We@Xe@Ua@Ye@Ze@`e@",
" f@.f@+f@@f@#f@$f@%f@bL+&f@vH+*f@=f@'d@-f@k}@0<@;f@>f@,f@'f@)f@!f@Da@~f@e/@-<@{f@]f@}b@^f@/f@(f@_f@a_@:f@<f@2d@(f@[f@}f@|f@1f@2f@3f@0d@fb@4f@5f@6f@ed@7f@cd@8f@9f@8f@eb@0f@kd@rb@6f@cd@af@DR+bf@cf@ed@ob@df@ef@ff@gf@hf@if@jf@kf@lf@mf@nf@Tb@of@pf@qf@rf@sf@tf@rf@uf@vf@wf@xf@yf@zf@Af@Bf@Cf@Hd@Df@Kd@Ef@Ed@Ff@yJ+Gf@Hf@If@Jf@Kf@Lf@/I Mf@1D ) .ez+jQ+Nf@Of@Pf@Qf@Rf@Sf@E_@Tf@Uf@Vf@~d.Wf@Xf@x<.Yf@Zf@`f@ g@.g@`x+/I fy+hJ.~^.Wt+)Q+%e@+g@@g@K=@R<@#g@$g@%g@&g@*g@=g@=W.6i.-g@;g@>g@,g@n9.Ba+T;+:A.l#+oq.'g@)g@!g@~g@{g@4^+]s+nh+]g@9G+^g@/g@(g@_g@:g@:g@<g@<o+[g@}g@|g@Ku+Ki+Xv+Xv+9C+Qu+Rv+Ww+Ju+1g@2g@3g@4g@5g@3)@6g@7g@8g@j}@9g@0g@ag@bg@cg@dg@eg@fg@|J+m<@gg@P9@a/@a/@t(@hg@ig@50@jg@kg@lg@mg@ng@og@pg@qg@rg@sg@tg@ug@vg@wg@xg@yg@zg@Ag@Bg@Cg@Dg@Eg@Fg@Gg@Hg@Ig@Jg@Kg@Lg@Mg@Ng@Og@Pg@Qg@Rg@",
"Sg@Tg@Ug@Vg@s=@Ug@Wg@Xg@Yg@^J+Zg@`g@ h@d<@.h@+h@|J+@h@fg@#h@'a@'a@eV+r(@h}@80@+c@$h@%h@&h@*h@=h@-h@;h@>h@:f@RZ+,h@'h@)h@!h@~h@{h@]h@^h@/h@(h@7f@kd@_h@kd@dd@:h@<h@[h@dd@qb@w0@ed@ib@db@}h@|h@1h@2h@cd@x0@`!@1N+3h@7/@4h@5h@6h@~]@7h@8h@9h@0h@ah@bh@ch@dh@eh@fh@gh@hh@H'@ih@jh@kh@G'@Nd@yd@lh@Cd@mh@nh@vf@oh@ph@qh@rh@sh@th@uh@vh@hz+2M+3t wh@2M+1D ez+xh@yh@zh@69@Ah@Bh@Ch@@i.Ah@Dh@X+.F_@X+.Eh@Fh@|k.x<.Gh@Hh@Ih@/I }D HK.kG mG hJ.Jh@Kh@Lh@Mh@Nh@Oh@Ph@Qh@Rh@Sh@q].Th@Uh@@b.Vh@Wh@hY KU.s7@A1@[u+`=@Xh@Yh@Xt.Zh@`h@}T. i@.i@K&++i@@i@#i@$i@%i@&i@*i@=i@-i@;i@>i@,i@'i@)i@!i@~i@{i@]i@GD+^i@O@@/i@(i@_i@:i@<i@[i@}i@|i@1i@,<@y^@2i@3i@4i@1L+5i@/~@6i@7i@8i@jg@hg@9i@h}@0i@v^@v^@5i@ig@ai@bi@ci@n_@di@r(@ei@!_@;<@fi@gi@hi@ii@ji@ki@li@mi@ni@oi@pi@qi@ri@si@ti@ui@vi@wi@xi@yi@zi@Ai@Bi@Ci@Di@Ei@",
"Fi@k_@l]@ai@Gi@Hi@Ii@Ji@.Q+bN+BN+Ki@Li@Mi@Ni@Oi@]N+Pi@8N+Qi@Ri@Si@Ti@Ui@Qi@Vi@1_@Wi@A3@Xi@Yi@Zi@`i@ j@+R+.j@B(@5]@8J++j@@j@#j@$j@%j@W>@&j@9,@*j@=j@-j@ f@;j@>j@,j@'j@&j@)j@!j@4T+4T+hb@~j@kd@{j@]j@^j@/j@5]@|L+(j@_j@:j@<j@[j@k]@}j@|j@1j@2j@3j@4j@5j@6j@7j@8j@9j@0j@aj@bj@cj@dj@ej@fj@gj@hj@ij@dj@jj@kj@lj@mj@nj@oj@pj@qj@rj@sj@tj@g..oR Vt+~!.|O+6@@uj@vj@wj@I}@7 +xj@69@69@@i.69@Ch@f,@$k.yj@Yf@Rf@Yf@n$.zj@Aj@kQ+jQ+|O+)Q+|D |D Bj@Cj@Dj@bG+Ej@Fj@Gj@Hj@Ij@Jj@Kj@Lj@Mj@|O Nj@Oj@Pj@oT.S%.Qj@Rj@Sj@Tj@rU.B7@Uj@Vj@r)@Wj@>^+d4+Xj@Yj@Zj@`j@ k@.k@+k@@k@#k@-i@$k@%k@&k@*k@=k@-k@;k@>k@,k@'k@)k@!k@~k@{k@]k@^k@/k@(k@_k@u:@:k@k}@<k@n}@[k@}k@x:@hg@@h@z^@|k@v:@s(@50@1k@><@q^@t:@Fi@)a@b<@2k@3k@^b@h}@h}@4k@5k@g6@6k@7k@8k@cg@P!@9k@ii@0k@ak@bk@ck@dk@ek@fk@gk@hk@ik@jk@kk@ik@lk@mk@nk@ok@pk@qk@",
"2i@0<@rk@sk@'b@tk@AN+DN+uk@vk@wk@dL+iR+xk@yk@Mi@vk@zk@Ak@Bk@Ck@mP+Dk@Ki@Ek@Ek@gP+Ak@Fk@Z%@Li@Gk@Hk@Ik@Jk@~]@o}@Kk@P9@Lk@Mk@80@hg@|J+Nk@fg@Ok@Pk@Qk@l]@k]@Rk@Sk@Tk@Uk@Vk@Wk@Xk@Yk@Zk@`k@l<@4)@ l@j;@.l@+l@@l@#l@$l@%l@&l@*l@=l@-l@;l@>l@,l@'l@)l@!l@~l@@l@{l@]l@^l@/l@(l@_l@:l@<l@[l@}l@|l@1l@2l@3l@4l@5l@6l@7l@8l@9l@0l@al@bl@cl@dl@rd./I /I ez+5@@el@fl@gl@hl@Ah@il@+k.jl@kl@qn.ll@Vf@# .@i.L5.Fh@f,@n1@ml@nl@ol@fz+~!.8A OR+|O+hz+fy+pl@ql@m%+rl@sl@Ph@tl@ul@vl@wl@:(.s}.wt.d .xl@DU.,W.sv.-r+X=@yl@:s.zl@Al@S&@Bl@Cl@Dl@El@Fl@Yj@Gl@Hl@Il@Jl@Kl@Ll@Ml@Gl@Nl@-i@Ol@#k@Pl@Ql@Rl@Sl@Tl@Ul@Vl@Wl@Xl@Yl@Zl@`l@ m@.m@+m@@m@#m@og@$m@ng@%m@p}@&m@sk@*m@=m@-m@t^@w:@og@Lk@t(@q^@u:@u(@5i@;m@Ae@2i@>m@,m@'m@w^@)m@!m@b<@R!@~m@{m@]m@^m@/m@(m@_m@:m@<m@[m@}m@|m@1m@1m@2m@3m@4m@5m@6m@7m@8m@9m@0m@am@bm@",
"[L+cm@dm@em@fm@gm@hm@wk@im@gR+jm@km@lm@uk@tN+mm@jm@vk@iR+Ek@nm@Ki@Z%@lP+iR+qN+pP+om@om@pm@qm@Ki@]K+rm@sm@tm@K'@um@9<@9g@1L+vm@q/@wm@xm@ym@zm@Am@Bm@Cm@Dm@Em@Fm@Gm@Hm@o]@Im@Jm@_0@n;@.f@Km@Lm@Mm@_0@<~@c_@Nm@Om@Pm@Qm@Rm@Sm@Tm@Um@Vm@Wm@Xm@Ym@Zm@`m@ n@.n@+n@@n@#n@$n@%n@&n@*n@=n@-n@;n@>n@,n@'n@)n@2l@}l@!n@~n@{n@]n@^n@/n@(n@_n@:n@|O+ez+4I+/I ez+RJ <n@[n@}n@~d.n$.|n@1n@2n@I_@3n@n1@4n@Ah@]l.5n@6n@7n@8n@9n@0n@ez+RJ ) ./I ~!._F.|D an@bn@f,.cn@dn@l%+e3+W6.en@ /.ik+fn@eq.`&+jV gn@hn@oo+in@yl@z7@jn@kn@ln@mn@nn@r)@on@pn@qn@rn@sn@tn@un@vn@wn@xn@yn@&i@zn@An@Bn@Cn@Dn@En@Fn@Gn@Hn@In@Jn@Kn@Vl@Ln@Mn@Nn@On@Pn@.j@Qn@Rn@b_@Sn@Tn@Un@Vn@Wn@Xn@m[@Yn@Zn@c_@Mk@`n@SZ+s[@60@ o@/b@.o@+o@sk@@o@^b@)a@#o@$o@ o@m<@p]@<~@%o@&o@*o@=o@-o@;o@>o@,o@'o@)o@!o@~o@{o@gk@]o@^o@/o@(o@_o@}m@:o@9m@<o@[o@}o@",
"|o@1o@lj@2o@3o@EN+4o@5o@6o@7o@8o@w-@9o@0o@qP+yk@ao@yk@bo@co@pm@pm@do@eo@iR+bo@bR+Ak@om@uP+fo@yk@go@ho@io@AJ+jo@ko@lo@mo@HJ+j;@no@oo@po@qo@gg@ro@so@to@uo@g;@vo@wo@ l@xo@yo@zo@&b@=d@Ao@Bo@Co@`k@Do@Eo@Fo@=l@Go@Ho@Io@Ho@Ho@ n@Wm@Jo@Ko@Lo@Mo@No@!l@Oo@Po@Qo@Ro@So@To@Uo@Vo@Wo@Xo@'n@Yo@>n@Zo@`o@ p@.p@+p@@p@#p@$p@L^@al@%p@&p@*p@=p@OB kC+lG+/I -p@k1@;p@>p@,p@q1@'p@,p@^j.)p@!p@f7@3n@~p@7n@Yf@H'+{p@]p@^p@/p@(p@A]@4I+_p@:p@jJ.hz+<p@[p@}p@QX.P'.y@+.C. 5+9/.|v+'g.`J tL i8+]=+|p@1p@2p@3p@4p@5p@6p@7p@8p@kn@H~@9p@0p@ap@bp@cp@dp@ep@fp@gp@hp@ip@cp@jp@kp@lp@mp@np@op@pp@qp@rp@sp@tp@En@up@Jn@vp@wp@xp@yp@zp@Ap@Bp@Cp@Dp@Ep@Fp@Gp@8b@Gp@mg@0i@Hp@Ip@Jp@d0@Kp@><@,h@Lp@s^@CX+m/@a<@v^@Tn@,h@Mp@Np@Op@Pp@Qp@Qp@r(@Rp@Sp@Tp@Up@]m@Vp@Wp@Xp@Yp@Zp@`p@ q@.q@+q@@q@#q@+q@$q@%q@&q@*q@gk@=q@-q@;q@>q@",
",q@'q@)q@=R+!q@~q@Ld@{q@mh@r>@]q@^q@/q@(q@im@_q@5o@:q@Ek@<q@bo@,T+oJ+xk@pP+[q@yk@AR+dL+Ki@qN+Ek@}q@|q@1q@2q@3q@4q@5q@6q@]0@7q@8q@9q@=j@0q@a<@,m@aq@bq@cq@dq@eq@fq@9=@gq@hq@iq@jq@jq@kq@n;@1~@%m@g6@lq@mq@nq@oq@oq@=l@pq@qq@[d@Xm@Jo@rq@rq@sq@tq@uq@Sm@vq@wq@xq@yq@zq@Zo@<l@Aq@&n@Bq@Cq@ p@Dq@Eq@Fq@Gq@Hq@Iq@Jq@Kq@Lq@Mq@Nq@Oq@Pq@Qq@Rq@Sq@Tq@Uq@Vq@Wq@Xq@Yq@Zq@`q@ r@.r@G5.+r@@r@#r@$r@%r@&r@*r@dL )p.$r@=r@-r@;r@>r@,r@'r@)r@!r@~r@{r@]r@^r@/r@(r@_r@:r@`B.<r@-+++c.6L F(.iv.In.[r@Qn.}r@|r@1r@~X.2r@3r@2A+4r@5r@6r@7r@8r@9r@0r@ar@br@cr@dr@Bn@er@fr@gr@hr@ir@jr@kr@lr@mr@nr@or@pr@qr@Xl@Jn@Vl@rr@sr@Yl@tr@ur@vr@wr@xr@yr@zr@Ar@Br@Cr@Ia@Dr@Er@t:@m[@v:@Fr@u^@Gr@Xn@f}@~f@g/@Hr@Ir@r^@ o@Gr@Jr@jg@sk@;m@Kr@hg@Lr@0<@TZ+Mr@dg@Nr@%o@Or@E:@1m@,o@Pr@Qr@Rr@Sr@Tr@Ur@+q@Vr@{o@Wr@Xr@Yr@Zr@`r@ s@.s@",
"+s@Nd@@s@#s@$s@lm@]q@%s@&s@*s@=s@-s@;s@>s@,s@'s@)s@!s@~s@{s@]s@bo@^s@qP+qN+/s@iP+zk@qP+uP+pH+(s@~1@D2@_s@:s@@h@}k@ko@<s@[s@hq@}s@|s@bq@mo@DJ+1s@2s@GL+g;@6q@3s@4s@5s@6s@7s@8s@9s@0s@as@ei@bs@_~@cs@ds@es@fs@qq@gs@hs@qq@is@js@ks@ls@ms@ns@os@ps@Um@qs@rs@ss@ts@us@vs@Cq@ws@xs@ys@zs@As@Bs@Cs@Ds@%n@Es@Fs@Gs@Hs@0l@Lq@Is@Js@Ks@Ls@Ms@Ns@Os@L]@MR+Ps@Qs@Rs@Ss@Ts@Us@Vs@Ws@Xs@Ys@Zs@`s@ t@[p@.t@+t@@t@#t@$t@%t@&t@*t@XV.=t@-t@5w.;t@>t@,t@'t@)t@!t@Ak.n$@.C.L:+{0+~t@A:+0k.ly.{t@^X.]t@^t@/t@(t@_t@~x+:t@r)@8v.<t@[t@}t@|t@1t@2t@3t@&i@4t@5t@6t@7t@8t@9t@0t@at@bt@ct@dt@et@ft@gt@ht@it@pp@jt@kt@up@Yl@lt@mt@nt@ot@pt@qt@rt@st@tt@ut@8<@vt@wt@xt@v:@8<@b0@Gp@yt@zt@70@At@Bt@Ct@i}@sk@kg@h}@&m@c_@w^@@o@t^@9<@Dt@f}@y(@Et@n_@0g@Ft@Gt@Ht@Zr@It@Jt@Kt@Lt@Mt@Nt@Ot@Pt@Qt@Rt@St@Tt@Ut@Vt@Wt@Xt@Yt@Yt@Zt@",
"E|@`t@ u@3H+.u@+u@@u@#u@$u@%u@&u@*u@=u@-u@;u@G-@>u@,u@S>@'u@)u@!u@~u@{u@]u@^u@oP+oP+oP+/u@(u@_u@Fi@Pp@eg@~9@Op@Vk@:u@<u@Do@[u@}u@po@|u@1u@2u@n;@]0@3u@m;@4u@5u@4u@6u@jq@7q@7u@8u@9u@0u@^b@ym@82@au@bu@cu@Ym@_b@ms@ms@_b@gs@pq@du@eu@Ec@Lo@es@Ho@fu@gu@hu@iu@ju@ku@lu@mu@ws@nu@ou@pu@qu@,n@ru@su@tu@uu@K^@vu@wu@xu@yu@yu@zu@Au@Bu@9z.0z.W[.Cu@aC.CD.>!.Du@Eu@Fu@Gu@`M Hu@Iu@Ju@Ku@Lu@Mu@Nu@Ou@Pu@Qu@g..jG Ih@Ru@pG+G-.Vx.Sx.DK+DK+Sx.qG+Su@Tu@Uu@5K+pY+Vu@Wu@C$.=++b-+Xu@Yu@Zu@eL.rD.`u@7v+ v@.v@+v@@v@#v@$v@%v@&v@*v@=v@-v@;v@>v@,v@'v@)v@!v@~v@{v@]v@^v@/v@(v@_v@:v@<v@[v@}v@|v@1v@2v@3v@4v@5v@6v@7v@8v@9v@0v@av@bv@cv@dv@ev@fv@t(@gv@Tn@hv@70@iv@-m@jv@kv@lv@og@mv@9i@5k@+o@4k@h}@c_@+l@nv@ov@Mk@pv@SZ+x(@qv@rv@k]@0<@ei@#m@sv@tv@uv@vv@wv@xv@yv@zv@Av@Bv@Cv@u!@Dv@Ev@Fv@Gv@Hv@Iv@Jv@,v@Kv@Lv@",
"Mv@Nv@Ov@Pv@Qv@Rv@j'@Sv@Tv@k!@Uv@Vv@Wv@Xv@Yv@Zv@`v@ w@.w@+w@@w@#w@$w@%w@&w@*w@=w@-w@;w@>w@^m@,w@um@}L+k]@'w@xJ+i;@)w@!w@~w@i<@{w@jo@Em@1~@]w@#f@^w@]w@lo@/w@4L+@=@/h@(w@_w@:w@<w@[w@}w@|w@.=@1w@2w@3w@4w@5w@4w@6w@N9@ve@_b@rq@Mo@7w@zX+cu@8w@9w@0w@aw@bw@Zo@cw@dw@qu@ew@fw@ys@:l@2l@>n@ou@gw@hw@iw@jw@kw@lw@mw@nw@ow@pw@qw@rw@sw@az.0z.c)@Z(.tK.,!.Vx.tw@uw@0=.G/@I/@vw@ww@cv+xw@yw@zw@Aw@7C.Bw@Cw@!!.by+fw+Dw@,!.sK.9z.Rx.Ew@Fw@Gw@Hw@Iw@Jw@Kw@Lw@Mw@Nw@Ow@Pw@:A.Qw@Rw@Sw@Tw@Uw@Vw@Ww@Xw@Yw@Zw@`w@ x@.x@+x@@x@#x@$x@$x@%x@&x@*x@=x@-x@;x@>x@,x@'x@)x@!x@~x@{x@]x@^x@/x@(x@~x@_x@:x@<x@[x@}x@|x@1x@2x@3x@4x@5x@6x@7x@8x@9x@<i@ c@0x@ax@Mp@4w@7w@bx@h/@s[@0<@cx@lv@w^@|d@dx@ex@/b@Ac@o|@Lk@fx@Ct@80@9i@gx@hx@^b@ix@bi@f_@$o@jx@kx@ /@lx@mx@u!@nx@ox@px@w!@qx@rx@sx@tx@ux@vx@wx@xx@yx@zx@Ax@Bx@Cx@",
" <@Dx@Ex@Fx@Gx@Hx@Ix@Jx@Kx@Lx@Mx@Nx@Ox@Px@Qx@Wv@Rx@Sx@Tx@Ux@Vx@Tx@Wx@Xx@Yx@Zx@`x@ y@.y@+y@@y@#y@$y@+,@S'@%y@U>@[w@&y@*y@=y@-y@;y@>y@Y-@,y@'y@)y@!y@~y@{y@]y@>y@^y@=y@/y@(y@-y@:N+_y@M0@s]@:y@d%@<y@[y@}y@|y@1y@2y@3y@4y@5y@6y@'d@7y@/~@rv@8y@8g@9y@0y@ay@by@cy@dy@ey@fy@gy@hy@iy@jy@ky@ij@ly@my@ny@oy@py@qy@ry@sy@ty@uy@vy@wy@xy@Px.W|.yy@8Y.5,.UA.%X.9z.zy@7C.tO+Xz.Ay@0=.) .fy.By@RJ Cy@4$.2L Dy@<p@DG.RD+Ey@pG+/r pG+bz.R/@=Q+LR+Fy@Gy@Hy@Iy@Jy@Ky@Ly@My@Ny@Oy@Py@Qy@}A+Ry@Sy@Ty@Uy@Vy@Wy@Xy@Yy@Zy@`y@ z@.z@+z@@z@#z@$z@%z@&z@*z@=z@-z@;z@>z@,z@'z@)z@!z@~z@{z@]z@^z@/z@(z@q{@_z@:z@<z@[z@}z@|z@1z@2z@3z@4z@5z@6z@7z@8z@9x@9g@}L+9z@0z@az@bz@cz@dz@ez@sk@fz@gz@hz@iz@jz@kz@8d@b]@lz@jx@e_@mz@u:@r^@>f@k]@}L+nz@oz@rX+Lr@^b@Et@pz@qz@rz@sz@tz@uz@vz@wz@xz@n'@yz@zz@Az@Bz@Cz@Dz@Ez@Fz@Gz@Fz@Hz@",
"Iz@mx@Uv@Px@Jz@Kz@Lz@Mx@Mz@Mx@`v@Zv@Nz@Zv@Oz@Wv@Pz@K[@Qz@Qx@Rz@Sz@Tz@Uz@Vz@Wz@Xz@Yz@Zz@`z@J'@/N+2N+ A@.A@:N++A@@A@#A@$A@%A@&A@(y@}0@_y@+A@*A@=A@-A@;A@>A@#A@,A@tL+}0@$A@*A@:N+'A@)A@!A@~A@{A@]A@c~@^A@/A@jf@)q@kh@(A@<N+_A@-y@:A@<A@yJ+2q@Nk@[A@(L+2q@/L+=f@}A@|A@1A@2A@On@3A@4A@5A@6A@7A@8A@9A@0A@aA@bA@cA@dA@eA@fA@eA@gA@hA@iA@Tx.9B+C;@Q5@*>.=>.*>.jA@kA@Cy@lA@19@r;@GZ Ky eu Cy@}D mA@nA@oA@pA@qA@rA@sA@tA@>!.]v.;G+uA@vA@Hw@wA@xA@yA@zA@AA@BA@CA@DA@EA@FA@GA@HA@IA@JA@KA@LA@MA@NA@OA@PA@QA@RA@SA@TA@UA@VA@WA@XA@YA@ZA@`A@ B@.B@+B@.B@@B@#B@$B@%B@&B@*B@=B@-B@;B@>B@,B@'B@)B@s{@!B@s{@~B@{B@]B@^B@/B@(B@_B@/x@:B@<B@[B@}B@|B@_~@(L+'b@1B@mz@2B@3B@4B@pg@QZ+g6@4w@5B@bx@6B@7B@8B@_j@9B@0B@cm@aB@j]@bB@[j@cB@;_@dB@eB@re@fB@,w@gB@~/@hB@iB@jB@kB@lB@mB@1v@nB@oB@pB@qB@rB@sB@tB@uB@vB@D>@wB@xB@",
"mx@yB@zB@AB@BB@CB@Ut@DB@EB@G[@Mx@Mz@FB@EB@Tx@GB@HB@IB@JB@KB@LB@MB@NB@OB@PB@Q:@QB@RB@SB@TB@UB@VB@c~@d%@^P+WB@*A@XB@*A@^P+*A@YB@+A@)A@#A@ZB@*A@ZB@`B@td@ C@.C@3N+`B@WB@+C@%A@@C@#C@$C@%C@&C@*C@=C@-C@;C@ef@)q@8P+_P+7N+>C@.=@,C@&=@b~@W>@%=@K'@'C@)C@*f@!C@~C@%,@{C@]C@^C@/C@(C@7/@_C@:C@<C@6A@[C@}C@|C@1C@eA@2C@3C@4C@5C@6C@7C@8C@9B+f1@fC+f1@@3@DK+c)@TA.9C@RD+_p@LB+0C@aC@nY.bC@cC@4I+jG iJ.dC@eC@fC@sA@kC+gC@G-.X|.>!.IG.WA.Hw@hC@;Q+iC@Hy@BA@jC@kC@lC@mC@nC@oC@pC@-x@qC@rC@sC@;x@tC@uC@vC@wC@xC@YA@uC@yC@zC@;x@yC@AC@BC@yC@CC@DC@EC@FC@GC@HC@HC@IC@JC@KC@LC@yC@{z@MC@NC@_z@s{@OC@PC@QC@RC@SC@/z@TC@^z@,z@UC@VC@WC@XC@YC@ZC@jx@vm@-f@=f@#y@`C@pz@ D@PZ+.D@_d@g6@Et@:j@se@g6@[j@+D@@D@+<@#D@$D@%D@&D@[j@*D@=D@/m@-D@;D@>D@=D@}B@.D@S!@,D@'D@)D@wz@!D@~D@Bz@Bz@{D@]D@^D@/D@(D@_D@rB@Hv@:D@<D@[D@",
"}D@|D@1D@G[@2D@3D@Lz@4D@Mx@Mx@Nx@5D@6D@7D@CB@Jz@L:@OB@j!@8D@9D@0D@aD@bD@Yz@Q:@cD@dD@eD@fD@gf@gD@hD@$A@/P+*A@,A@iD@jD@kD@lD@mD@jD@nD@;A@oD@`B@pD@qD@rD@X @jD@#A@<H+3h@sD@tD@uD@vD@wD@xD@yD@}/@zD@1A@AD@BD@CD@2N+kh@DD@ED@FD@xL+GD@zL+GZ+HD@~C@ID@JD@KD@LD@5y@MD@1]@HL+4]@ND@OD@PD@QD@RD@'P+SD@TD@UD@VD@WD@XD@YD@ZD@`D@ E@.E@+E@@E@f1@#E@@3@fC+$E@%E@<9@TK.&E@*E@Jx.ww@=E@-E@!!.yp.;E@8A >E@,E@'E@)E@!E@~E@{E@]E@aC.9z.mJ.^E@Ux.Hw@Rx.qG+/E@(E@_E@:E@<E@[E@}E@|E@1E@2E@3E@4E@&z@5E@6E@>z@2E@}E@`A@;x@2E@HC@7E@8E@'z@9E@8E@vC@0E@-z@aE@bE@*z@cE@ZA@dE@eE@fE@4E@gE@ZA@hE@iE@jE@NC@1z@kE@lE@mE@nE@oE@pE@_B@qE@rE@sE@tE@uE@,z@^z@vE@7B@az@Pd@wE@}J+/~@Op@JZ+Sg@.<@8y@dg@ D@d]@0B@qe@4w@se@#D@K!@xE@yE@zE@&_@AE@BE@CE@DE@EE@FE@GE@HE@IE@S!@JE@KE@LE@ME@NE@OE@PE@QE@RE@pB@SE@TE@zz@UE@VE@WE@XE@YE@ZE@`E@",
" F@.F@+F@@F@#F@$F@%F@Jz@&F@*F@=F@Nx@Qx@Lx@OB@-F@;F@>F@,F@'F@q!@)F@Uz@!F@~F@{F@]F@zb@+C@sD@_A@^F@/F@]A@(F@jD@_F@ff@~1@:F@<F@ff@<F@[F@_F@}F@fm@{P+~P+y]@|F@1F@pD@2F@jD@@A@3F@4F@5F@6F@7F@/<@|0@8F@9F@/H+0F@ A@}N+fm@`B@rH+ED@uJ+8L+aF@&j@xJ+`-@bF@Zg@cF@+;@4J+dF@eF@=f@<J+4J+fF@gF@[]@M'@hF@iF@jF@UD@VD@kF@lF@mF@nF@oF@pF@qF@rF@sF@AI+>Q+<O+tF@`V+`V+97@-Y+uF@,Y+aO ay+vF@wF@xF@yF@zF@AF@BF@CF@DF@EF@FF@GF@HF@IF@aC.Vx.Sx.Vx.TK.TA.az.Gw@oJ.JF@KF@LF@MF@NF@OF@PF@QF@,x@RF@SF@TF@MF@`A@-B@gE@&z@;x@>x@yC@;x@UF@VF@WF@yC@AC@yC@XF@YF@KC@ZA@ZF@`F@ G@IC@.G@+G@.G@@G@#G@vC@CC@$G@rE@%G@&G@*G@%G@=G@-G@;G@>G@K^@0E@,G@'G@yC@&z@)G@=G@!G@~G@}L+{G@{G@4J++h@.o@Hm@9k@ix@[j@{d@bB@]G@^G@xE@&D@/G@(G@V{@_G@:G@%_@<G@[G@JE@&_@}G@|G@*_@yE@1G@_G@&D@2G@3G@4G@5G@6G@7G@8G@9G@0G@aG@bG@cG@dG@eG@r'@fG@zz@gG@hG@",
"iG@jG@kG@lG@mG@Vx@Kz@nG@DB@Oz@oG@CB@;F@pG@qG@rG@sG@tG@uG@Fx@pG@@q@vG@wG@xG@yG@zG@AG@-y@_A@;C@+~@/<@BG@^]@CG@DG@CG@EG@FG@EG@GG@HG@IG@<H+{P+WB@-A@-A@JG@KG@LG@MG@<H+NG@OG@PG@QG@RG@SG@9F@~<@>~@.C@TG@UG@(P+VG@WG@_]@XG@YG@L'@2J+9,@/y@'h@8L+ZG@)w@`G@w/@ H@.H@+H@~2@@H@ ;@Zb@`>@RD@AD@#H@$H@%H@&H@dA@*H@=H@-H@;H@>H@,H@'H@)H@!H@~H@{H@]H@^H@/H@(H@_H@:H@<H@[H@}H@|H@1H@2H@3H@4H@5H@6H@7H@8H@9H@0H@aH@bH@cH@dH@eH@fH@gH@hH@iH@jH@kH@VA.oJ.lH@mH@nH@oH@pH@qH@PF@rH@>x@vC@sH@tH@RF@RF@uH@2E@2E@vH@wH@`A@xH@oH@ZF@;x@yH@zH@RF@-B@AH@gE@BH@CH@DH@EH@FH@FH@GH@HH@IH@oH@gE@JH@KH@LH@UA@MH@NH@vC@TF@cE@OH@tE@PH@QH@RH@SH@TH@UH@VH@WH@XH@YH@ZH@`H@ji@ I@2L+.I@,b@+I@@I@Hm@#I@$I@&D@%I@&I@*I@=I@-I@;I@*D@>I@,I@gB@;_@'I@)I@gi@yE@!I@-I@$<@le@W{@K!@~I@2G@~I@Dx@{I@]I@^I@/I@(I@_I@:I@<I@[I@}I@=w@|I@1I@2I@3I@",
"4I@5I@6I@7I@8I@Oz@DB@Ux@Nx@9I@Qx@0I@LB@aI@bI@r!@cI@dI@eI@fI@sG@gI@hI@iI@dD@_A@2N+jI@ED@-y@_y@kI@XG@DG@lI@mI@nI@oI@pI@3h@+~@EG@WB@@A@WB@:N+^P+>C@/P+Pi@qI@8N+-5@^F@rI@sI@0h@tI@uI@vI@*C@wI@xI@yI@zI@~]@3/@AI@BI@/J+)d@CI@}J+DI@Gf@`>@i;@ H@EI@FI@)w@|L+GI@HI@#j@II@JI@KI@//@LI@MI@NI@S'@OI@PI@QI@RI@SI@TI@UI@VI@SI@SI@WI@XI@YI@ZI@`I@ J@.J@+J@@J@#J@$J@%J@&J@*J@=J@&J@-J@ J@;J@>J@,J@'J@)J@!J@&J@~J@{J@]J@^J@/J@(J@_J@:J@<J@[J@}J@|J@1J@2J@3J@MF@cE@WF@2E@4J@$B@5J@6J@CC@DC@7J@zC@RF@8J@*z@9J@0J@NF@4J@4J@;x@zH@DC@`A@4J@4J@-B@,z@DC@4J@aJ@bJ@cJ@dJ@eJ@fJ@gJ@hJ@sH@iJ@jJ@kJ@lJ@mJ@nJ@oJ@pJ@qJ@rJ@sJ@tJ@nJ@pJ@jJ@KH@uJ@vJ@wJ@xJ@;q@yJ@zJ@6B@AJ@k}@_~@[L+rv@~9@Hm@BJ@Np@um@0g@cz@CJ@DJ@2G@EJ@FJ@GJ@O!@%I@HJ@&_@IJ@HE@JJ@zE@$<@KJ@<G@LJ@MJ@:G@6k@NJ@GE@OJ@vv@PJ@QJ@RJ@SJ@TJ@UJ@=w@[I@VJ@WJ@XJ@YJ@ZJ@",
"zv@`J@ K@n!@.K@8I@+K@@K@fI@#K@cD@Kx@cI@$K@%K@uG@&K@*K@=K@Or@-K@;K@>K@,K@MI@'K@)K@!K@~K@{K@.=@AG@]K@2N+zb@nD@_A@^K@pD@^K@pD@)P+jI@if@2N+(A@2N+jI@pD@/K@(K@3o@_K@-A@tL+ud@:K@<K@[K@d~@d%@}K@kj@|K@kj@1K@eD@eD@2K@HI@3K@(L+4K@.H@.;@5K@FZ+HZ+%=@,C@6K@yJ+!C@7K@8K@9K@M'@0K@//@aK@VB@<y@bK@cK@dK@eK@fK@gK@hK@iK@jK@kK@lK@mK@nK@oK@fA@pK@qK@rK@sK@WD@fA@tK@uK@vK@wK@xK@yK@Vy@zK@AK@#J@BK@Zy@CK@DK@EK@FK@GK@HK@IK@JK@KK@UH@LK@MK@NK@*G@OK@cE@PK@)G@AC@WF@oH@zH@QK@;x@RK@XF@=B@vC@SK@TF@TK@5J@;z@GC@DC@2E@yC@@B@PH@yH@PH@4J@NF@ZF@YA@UK@VK@WK@XK@YK@ZK@`K@ L@.L@+L@UF@@L@xC@YA@tE@#L@^z@BC@}E@VH@$L@>G@kJ@kJ@JH@wC@%L@&L@*L@kJ@=L@-L@{B@;L@>L@,L@Ae@Ft@g6@+D@'L@)L@!L@>m@l]@k}@~L@{L@]L@3w@^L@0g@g6@(j@/L@gi@9k@(L@_L@O!@:L@2G@<L@[L@+D@ej@}L@Ht@|L@1L@2L@3L@;I@4L@<m@5L@Y^@6L@7L@8L@9L@Xt@0L@aL@bL@cL@",
"dL@px@F:@eL@fL@Cv@iB@Vv@gL@'F@hL@iL@jL@kL@lL@mL@nL@oL@OB@pL@qL@rL@sL@tL@uL@vL@wL@xL@yL@yL@zL@nR+AL@BL@CL@DL@EL@f;@FL@<P+GL@HL@IL@JL@xL+!2@dP+KL@A*@LL@vL+ML@NL@OL@PL@QL@SX+W*@RL@SL@TL@UL@Ht@VL@WL@XL@`^@YL@ZL@`L@ M@Mv@.M@Y^@+M@@M@#M@$M@Y^@W!@%M@&M@*M@X3@|8@=M@-M@;M@>M@,M@AE@'M@)M@!M@~M@{M@=C@]M@^M@/M@/_@(M@XG@_M@:M@<M@[M@}M@|M@1M@2M@3M@4M@5M@6M@7M@8M@9A@9M@9M@0M@aM@bM@cM@dM@eM@fM@gM@hM@iM@jM@kM@lM@mM@nM@oM@TC@pM@qM@tE@UK@rM@*L@WF@sM@tM@;x@tE@VF@OK@DH@uM@TF@'G@vM@KC@TH@3E@wM@5J@ G@xM@yM@OA@&L@zM@sE@;G@AM@BM@CM@DM@EM@FM@GM@HM@IM@JM@KM@LM@MM@NM@OM@PM@QM@RM@SM@TM@UM@VM@WM@;B@XM@YM@ZM@`M@ N@.N@+N@@N@#N@$N@%N@&N@*N@=N@-N@;N@cm@>N@KZ+,N@'N@=;@)N@!N@eg@~N@{N@]N@^N@/N@az@'b@.h@(N@.;@#h@%,@2L+h_@_N@:N@Gf@{y@ph@NI@<N@[N@}N@BH+|N@1N@@y@2N@3N@4N@At@5N@[B@6N@7N@8N@9N@0N@Xt@",
"aN@bN@cN@dN@eN@fN@gN@hN@iN@jN@kN@lN@mN@nN@H-@oN@pN@qN@rN@sN@tN@uN@vN@wN@xN@yN@zN@AN@LP+BN@BN@MN+CN@yL@LN+BN@DN@EN@FN@GN@DN@HN@IN@JN@KN@LN@MN@NN@ON@PN@QN@RN@PN@SN@TN@UN@VN@WN@XN@S(@YN@ZN@`N@ O@.O@+O@@O@#O@$O@%O@&O@*O@[m@rG@Qx@MB@=O@-O@k!@;O@>O@MB@0D@=O@,O@JB@<x@'O@)O@!O@~O@{O@]O@^O@u:@/O@(O@3}@3}@ 1@<}@D2@<}@_O@~}@:O@A2@<O@[O@}O@|O@1O@2O@3O@4O@5O@6O@7O@8O@9O@0O@aO@bO@cO@dO@eO@fO@gO@hO@iO@jO@kO@lO@mO@nO@oO@pO@qO@rO@sO@tO@uO@rJ@vO@wO@&p@xO@yO@vO@zO@Mq@AO@BO@CO@DO@EO@FO@GO@HO@IO@~B@JO@KO@LO@MO@NO@OO@PO@QO@RO@SO@TO@UO@VO@WO@XO@YO@ZO@`O@ P@.P@+P@@P@#P@$P@%P@&P@*P@=P@-P@;P@>P@,P@'P@)P@!P@~P@{P@]P@^P@^P@/P@(P@_P@:P@<P@[P@}P@/w@|P@1P@2P@2f@3P@4P@0f@`!@{~@5P@6P@7P@iD@8P@9P@0P@jD@aP@bP@aP@cP@dP@eP@fP@gP@hP@]K+iR+iP@vT+nm@jP@kP@qJ+ef@lP@mP@mP@v(@nP@oP@xt@pP@qP@+D@rP@sP@",
"tP@uP@vP@wP@xP@yP@zP@AP@BP@CP@wP+DP@EP@FP@DP@GP@HP@IP@JP@KP@LP@>)@MP@NP@OP@PP@QP@RP@SP@TP@nR+oR+UP@RP@VP@`N+`N+WP@XP@IN@YP@ZP@UP@FP+UL+`P@ Q@.Q@+Q@@Q@#Q@$Q@%Q@&Q@*Q@=Q@-Q@;Q@>Q@,Q@'Q@)Q@!Q@~Q@{Q@E{@]Q@^Q@/Q@(Q@_Q@,O@:Q@<Q@DB@Zv@Nx@Uv@Zv@Mz@:Q@CB@'F@9D@[Q@D:@}Q@|Q@1Q@2Q@3Q@4Q@5Q@Et@'m@6Q@7Q@/O@/O@{M@8Q@9Q@8Q@0Q@aQ@bQ@cQ@dQ@eQ@w5@Kk@fQ@gQ@hQ@iQ@jQ@kQ@$7@lQ@mQ@nQ@oQ@pQ@qQ@rQ@sQ@tQ@pQ@uQ@vQ@wQ@xQ@yQ@zQ@AQ@BQ@CQ@DQ@EQ@FQ@GQ@HQ@IQ@HQ@JQ@KQ@LQ@MQ@NQ@OQ@PQ@QQ@RQ@oM@vu@SQ@TQ@UQ@VQ@WQ@XQ@YQ@ZQ@`Q@QO@UH@ R@.R@+R@IO@@R@#R@$R@%R@&R@*R@=R@-R@;R@>R@,R@'R@)R@!R@~R@{R@]R@^R@/R@(R@_R@,R@'R@/P@:R@<R@[R@}R@|R@1R@2R@3R@4R@5R@6R@UO@7R@8R@9R@.m@ 1@=y@0R@aR@bR@cR@dR@eR@fR@ C@bR@gR@eR@~T+hR@iR@mP+jR@kR@rN+lR@mR@nR@do@oR@[q@{K+pR@qR@rR@sR@hm@tR@uR@vR@wR@xR@|i@+l@P9@Mk@a/@yR@$m@9k@zR@",
"AR@GP@BR@CR@DR@ER@FR@GR@HP@HR@IR@IR@JR@KR@LR@MR@NR@OR@PR@QR@RR@SR@OP@TR@UR@EP+EP+VR@WR@XR@YR@ZR@`R@ S@.S@+S@@S@#S@$S@%S@&S@*S@=S@-S@;S@UL+>S@SN@,S@'S@)S@!S@~S@{S@]S@^S@/S@(S@_S@Rx@L:@T^@~x@:S@<S@[S@}S@|S@1S@,Q@2S@3S@4S@-F@@F@5S@Jz@o!@6S@Ut@7S@8S@Pr@Yp@9S@0S@aS@~m@bS@cS@dS@eS@fS@$o@6Q@<<@<<@gS@/j@hS@iS@jS@w5@kS@lS@mS@nS@oS@x5@pS@w5@qS@0Q@rS@pS@sS@aQ@tS@uS@oQ@;5@vS@wS@xS@yS@zS@AS@BS@CS@DS@ES@FS@GS@HS@IS@JS@KS@LS@LQ@MS@qO@NS@RQ@OS@PS@QS@KQ@RQ@RS@SS@TS@JO@US@VS@WS@XS@YS@ZS@`S@ T@.T@+T@qM@@T@#T@$T@%T@TQ@sE@&T@*T@=T@-T@;T@>T@,T@;R@'T@/P@)T@$R@!T@~T@{T@]T@]T@^T@/T@(T@_T@:T@<T@[T@!R@}R@{R@}T@}T@|T@1T@}T@[T@2T@!T@3T@4T@]T@5T@6T@+I@.;@7T@8T@9T@Ek@0T@aT@bT@aR@aR@cT@dT@pH+mR@]K+lP+bo@bo@Y%@eT@fT@gT@om@9T@Ki@[q@hT@]K+rR@iT@jT@kT@lP+lT@mT@nT@oT@pT@qT@rT@hv@ci@jx@Ae@ez@sT@",
"tT@uT@vT@CR@wT@xT@yT@zT@AT@wT@BT@yT@eZ+GR@CT@DT@ET@FT@GT@[X+HT@XJ+IT@JT@KT@LT@MT@NT@OT@PT@QT@RT@ST@TT@UT@OT@he@VT@WT@XT@YT@XT@$S@ZT@`T@ U@=Q@FP+.U@#I++U@@U@#Q@#U@$U@%U@&U@Hx@G[@*U@=U@-U@:Q@I:@%F@;U@#F@o!@-U@;U@Sz@>U@,U@J:@'U@=O@%F@)U@)U@!U@~U@{U@]U@^U@/U@(U@Mv@LE@{m@_U@:U@<U@[U@/j@ 1@}U@|U@s=@1U@eQ@2U@3U@22@nQ@4U@5U@lS@lS@6U@7U@8U@lS@nS@9U@0U@aU@_}@nX+x8@bU@)7@cU@dU@eU@fU@yS@gU@lQ@hU@iU@jU@kU@lU@mU@nU@oU@pU@-J@qU@OQ@rU@sU@tU@FQ@uU@vU@wU@xU@yU@zU@AU@BU@CU@DU@VS@EU@FU@GU@HU@IU@JU@KU@LU@MU@NU@OU@PU@QU@RU@SU@TU@^J@UU@VU@WU@XU@YU@ZU@3R@`U@6R@3T@ V@.V@+V@@V@#V@$V@[T@%V@&V@:P@|R@*V@!R@{T@}T@/P@=V@-V@;V@YO@>V@,V@'V@)V@!V@~V@{V@]V@^V@/V@(V@Dk@9T@pH+hR@_V@BN+:V@rN+<V@Y%@rN+eT@BN+uP+Ki@qP+yk@Ki@qN+Ek@]K+Y%@Ki@rR@[q@yk@[V@eJ+iT@}V@zR+pH+rN+|V@1V@{9@lv@2V@r^@Lk@x^@3V@4V@",
"5V@6V@7V@8V@9V@0V@aV@bV@cV@dV@eV@fV@gV@hV@iV@jV@kV@lV@:X+mV@nV@oV@pV@qV@rV@sV@tV@uV@he@vV@wV@xV@yV@zV@AV@BV@CV@DV@EV@FV@MN+GV@FP+AN@*S@]S@HV@{S@IV@JV@KV@LV@MV@NV@OV@PV@QV@RV@SV@*F@Jz@TV@H[@*F@Mx@*U@Oz@UV@3S@VV@Q(@WV@XV@,O@YV@ZV@`V@ W@.W@+W@[B@@W@#W@$W@oi@%W@aS@&D@&W@*W@=W@-W@Od@;W@D0@>W@,W@'W@)W@!W@~W@{W@]W@^W@/W@(W@_W@tS@:W@<W@fQ@[W@}W@|W@1W@1U@I2@v8@34@22@/7@|4@3U@2W@5O@3W@N5@[W@lP@4W@5W@6W@7W@8W@9W@DK@0W@aW@bW@cW@dW@eW@fW@gW@hW@iW@jW@kW@lW@mW@nW@oW@pW@qW@rW@sW@tW@uW@al@vW@DU@wW@xW@yW@zW@AW@BW@CW@DW@EW@FW@GW@HW@IW@JW@KW@LW@;V@MW@NW@*V@|R@OW@PW@_T@QW@RW@SW@TW@UW@VW@}T@;V@WW@XW@%V@YW@MW@ZW@;R@-R@`W@ X@.X@+X@@X@#X@$X@%X@&X@Y>@vR@aR@lP+*X@gP+BN+Ek@pH+=X@9T@-X@tN+Y%@vk@bo@zk@8R+hR+{K+oJ+]K+>T+;X@8R+8R+~s@mm@tP+`P+AR+gP+pH+iR+2T+wk@>X@,X@2_@'X@s:@)X@m[@Lk@r^@aB@",
"!X@eV@~X@{X@]X@^X@/X@(X@_X@:X@OR@<X@[X@}X@|X@1X@2X@3X@4X@5X@6X@7X@8X@9X@0X@aX@bX@cX@dX@eX@fX@gX@PP@hX@iX@hX@jX@kX@lX@mX@UL+hX@JP+&S@LN+nX@~S@)S@oX@pX@qX@rX@sX@tX@uX@vX@wX@Sx@28@xX@FB@Oz@yX@3D@4D@zX@AX@BX@CX@DX@F{@EX@FX@GX@;F@H:@UV@HX@IX@JX@KX@LX@$W@MX@NX@OX@95@PX@*o@Yp@xG@QX@Dm@RX@o0@SX@I0@TX@l0@UX@VX@WX@)7@2W@XX@YX@ZX@[W@`X@ Y@`X@fQ@.Y@+Y@+Y@[W@bU@K2@@Y@#Y@z8@$Y@%Y@&Y@G2@kS@*Y@nQ@=Y@-Y@;Y@>Y@,Y@'Y@)Y@!Y@~Y@{Y@]Y@^Y@/Y@(Y@_Y@:Y@<Y@[Y@}Y@|Y@^Y@1Y@2Y@3Y@4Y@5Y@6Y@7Y@8Y@:Y@SS@9Y@0Y@uU@oO@aY@bY@cY@dY@eY@fY@gY@hY@GW@iY@jY@kY@lY@mY@nY@oY@pY@qY@#V@rY@sY@tY@uY@vY@wY@2R@xY@/P@3T@}T@^R@/P@yY@zY@AY@BY@CY@DY@EY@FY@GY@HY@IY@JY@KY@LY@MY@NY@OY@PY@QY@pm@bo@pP+hP+qP+qN+iP+oP+jm@om@mm@jm@mm@oP+RY@yk@cJ+>T+sR@SY@bo@TY@UY@VY@Y%@WY@iR+wk@pH+0T@mP+Ek@Fk@qP+XY@VG@YY@ZY@`Y@ Z@s[@b<@"};
