/* XPM */
static char * pack_xpm[] = {
"64 128 11 1",
" 	c #B8945F",
".	c #A6824D",
"+	c #967441",
"@	c #67502C",
"#	c #513D24",
"$	c #000000",
"%	c #808B95",
"&	c #B58D50",
"*	c #7E6237",
"=	c #6F6F6F",
"-	c #6B6F7A",
"    ........                ....                ....        ++++",
"    ........                ....                ....        ++++",
"    ........                ....                ....        ++++",
"    ........                ....                ....        ++++",
"....++++++++++++++++++++++++++++++++++++++++++++++++++++++++@@@@",
"....++++++++++++++++++++++++++++++++++++++++++++++++++++++++@@@@",
"....++++++++++++++++++++++++++++++++++++++++++++++++++++++++@@@@",
"....++++++++++++++++++++++++++++++++++++++++++++++++++++++++@@@@",
"    ++++####@@@@@@@@@@@@@@@@++++####@@@@@@@@@@@@@@@@++++++++@@@@",
"    ++++####@@@@@@@@@@@@@@@@++++####@@@@@@@@@@@@@@@@++++++++@@@@",
"    ++++####@@@@@@@@@@@@@@@@++++####@@@@@@@@@@@@@@@@++++++++@@@@",
"    ++++####@@@@@@@@@@@@@@@@++++####@@@@@@@@@@@@@@@@++++++++@@@@",
"    ++++@@@@$$$$$$$$$$$$$$$$....@@@@$$$$$$$$$$$$$$$$....++++####",
"    ++++@@@@$$$$$$$$$$$$$$$$....@@@@$$$$$$$$$$$$$$$$....++++####",
"    ++++@@@@$$$$$$$$$$$$$$$$....@@@@$$$$$$$$$$$$$$$$....++++####",
"    ++++@@@@$$$$$$$$$$$$$$$$....@@@@$$$$$$$$$$$$$$$$....++++####",
"%%%%++++@@@@$$$$$$$$$$$$$$$$&&&&@@@@$$$$$$$$$$$$$$$$&&&&++++****",
"%%%%++++@@@@$$$$$$$$$$$$$$$$&&&&@@@@$$$$$$$$$$$$$$$$&&&&++++****",
"%%%%++++@@@@$$$$$$$$$$$$$$$$&&&&@@@@$$$$$$$$$$$$$$$$&&&&++++****",
"%%%%++++@@@@$$$$$$$$$$$$$$$$&&&&@@@@$$$$$$$$$$$$$$$$&&&&++++****",
"====++++@@@@$$$$$$$$$$$$$$$$....@@@@$$$$$$$$$$$$$$$$....++++@@@@",
"====++++@@@@$$$$$$$$$$$$$$$$....@@@@$$$$$$$$$$$$$$$$....++++@@@@",
"====++++@@@@$$$$$$$$$$$$$$$$....@@@@$$$$$$$$$$$$$$$$....++++@@@@",
"====++++@@@@$$$$$$$$$$$$$$$$....@@@@$$$$$$$$$$$$$$$$....++++@@@@",
"....++++****....&&&&&&&&........****....&&&&&&&&........++++@@@@",
"....++++****....&&&&&&&&........****....&&&&&&&&........++++@@@@",
"....++++****....&&&&&&&&........****....&&&&&&&&........++++@@@@",
"....++++****....&&&&&&&&........****....&&&&&&&&........++++@@@@",
"    ++++####@@@@@@@@@@@@@@@@++++####@@@@@@@@@@@@@@@@++++++++####",
"    ++++####@@@@@@@@@@@@@@@@++++####@@@@@@@@@@@@@@@@++++++++####",
"    ++++####@@@@@@@@@@@@@@@@++++####@@@@@@@@@@@@@@@@++++++++####",
"    ++++####@@@@@@@@@@@@@@@@++++####@@@@@@@@@@@@@@@@++++++++####",
"    ++++@@@@$$$$$$$$$$$$$$$$....@@@@$$$$$$$$$$$$$$$$....++++****",
"    ++++@@@@$$$$$$$$$$$$$$$$....@@@@$$$$$$$$$$$$$$$$....++++****",
"    ++++@@@@$$$$$$$$$$$$$$$$....@@@@$$$$$$$$$$$$$$$$....++++****",
"    ++++@@@@$$$$$$$$$$$$$$$$....@@@@$$$$$$$$$$$$$$$$....++++****",
"....++++@@@@$$$$$$$$$$$$$$$$&&&&@@@@$$$$$$$$$$$$$$$$&&&&++++@@@@",
"....++++@@@@$$$$$$$$$$$$$$$$&&&&@@@@$$$$$$$$$$$$$$$$&&&&++++@@@@",
"....++++@@@@$$$$$$$$$$$$$$$$&&&&@@@@$$$$$$$$$$$$$$$$&&&&++++@@@@",
"....++++@@@@$$$$$$$$$$$$$$$$&&&&@@@@$$$$$$$$$$$$$$$$&&&&++++@@@@",
"    ++++@@@@$$$$$$$$$$$$$$$$....@@@@$$$$$$$$$$$$$$$$....++++@@@@",
"    ++++@@@@$$$$$$$$$$$$$$$$....@@@@$$$$$$$$$$$$$$$$....++++@@@@",
"    ++++@@@@$$$$$$$$$$$$$$$$....@@@@$$$$$$$$$$$$$$$$....++++@@@@",
"    ++++@@@@$$$$$$$$$$$$$$$$....@@@@$$$$$$$$$$$$$$$$....++++@@@@",
"    ++++****....&&&&&&&&........****....&&&&&&&&........++++####",
"    ++++****....&&&&&&&&........****....&&&&&&&&........++++####",
"    ++++****....&&&&&&&&........****....&&&&&&&&........++++####",
"    ++++****....&&&&&&&&........****....&&&&&&&&........++++####",
"    ++++............++++********............++++********++++****",
"    ++++............++++********............++++********++++****",
"    ++++............++++********............++++********++++****",
"    ++++............++++********............++++********++++****",
"    ++++####@@@@@@@@@@@@@@@@++++####@@@@@@@@@@@@@@@@++++++++@@@@",
"    ++++####@@@@@@@@@@@@@@@@++++####@@@@@@@@@@@@@@@@++++++++@@@@",
"    ++++####@@@@@@@@@@@@@@@@++++####@@@@@@@@@@@@@@@@++++++++@@@@",
"    ++++####@@@@@@@@@@@@@@@@++++####@@@@@@@@@@@@@@@@++++++++@@@@",
"....++++@@@@++++++++++++++++....@@@@++++++++%%%%%%%%----++++@@@@",
"....++++@@@@++++++++++++++++....@@@@++++++++%%%%%%%%----++++@@@@",
"....++++@@@@++++++++++++++++....@@@@++++++++%%%%%%%%----++++@@@@",
"....++++@@@@++++++++++++++++....@@@@++++++++%%%%%%%%----++++@@@@",
"%%%%++++@@@@++++++++++++****....@@@@++++++++----####****++++####",
"%%%%++++@@@@++++++++++++****....@@@@++++++++----####****++++####",
"%%%%++++@@@@++++++++++++****....@@@@++++++++----####****++++####",
"%%%%++++@@@@++++++++++++****....@@@@++++++++----####****++++####",
"----++++@@@@++++++++********&&&&@@@@++++++++########&&&&++++****",
"----++++@@@@++++++++********&&&&@@@@++++++++########&&&&++++****",
"----++++@@@@++++++++********&&&&@@@@++++++++########&&&&++++****",
"----++++@@@@++++++++********&&&&@@@@++++++++########&&&&++++****",
"....++++****....&&&&&&&&&&&&....****....&&&&&&&&&&&&....++++@@@@",
"....++++****....&&&&&&&&&&&&....****....&&&&&&&&&&&&....++++@@@@",
"....++++****....&&&&&&&&&&&&....****....&&&&&&&&&&&&....++++@@@@",
"....++++****....&&&&&&&&&&&&....****....&&&&&&&&&&&&....++++@@@@",
"....++++........++++++++********++++++++++++********++++++++@@@@",
"....++++........++++++++********++++++++++++********++++++++@@@@",
"....++++........++++++++********++++++++++++********++++++++@@@@",
"....++++........++++++++********++++++++++++********++++++++@@@@",
"    ++++####@@@@@@@@@@@@@@@@++++####@@@@@@@@@@@@@@@@....++++####",
"    ++++####@@@@@@@@@@@@@@@@++++####@@@@@@@@@@@@@@@@....++++####",
"    ++++####@@@@@@@@@@@@@@@@++++####@@@@@@@@@@@@@@@@....++++####",
"    ++++####@@@@@@@@@@@@@@@@++++####@@@@@@@@@@@@@@@@....++++####",
"    ++++@@@@++++++++++++++++....@@@@++++++++++++++++....++++****",
"    ++++@@@@++++++++++++++++....@@@@++++++++++++++++....++++****",
"    ++++@@@@++++++++++++++++....@@@@++++++++++++++++....++++****",
"    ++++@@@@++++++++++++++++....@@@@++++++++++++++++....++++****",
"    ++++@@@@++++++++++++****&&&&@@@@++++++++++++****&&&&++++@@@@",
"    ++++@@@@++++++++++++****&&&&@@@@++++++++++++****&&&&++++@@@@",
"    ++++@@@@++++++++++++****&&&&@@@@++++++++++++****&&&&++++@@@@",
"    ++++@@@@++++++++++++****&&&&@@@@++++++++++++****&&&&++++@@@@",
"    ++++@@@@++++++++********&&&&@@@@++++++++********&&&&++++@@@@",
"    ++++@@@@++++++++********&&&&@@@@++++++++********&&&&++++@@@@",
"    ++++@@@@++++++++********&&&&@@@@++++++++********&&&&++++@@@@",
"    ++++@@@@++++++++********&&&&@@@@++++++++********&&&&++++@@@@",
"    ++++****....&&&&&&&&&&&&....****....&&&&&&&&&&&&....****####",
"    ++++****....&&&&&&&&&&&&....****....&&&&&&&&&&&&....****####",
"    ++++****....&&&&&&&&&&&&....****....&&&&&&&&&&&&....****####",
"    ++++****....&&&&&&&&&&&&....****....&&&&&&&&&&&&....****####",
"....++++............++++********++++........++++****************",
"....++++............++++********++++........++++****************",
"....++++............++++********++++........++++****************",
"....++++............++++********++++........++++****************",
"    ++++####@@@@@@@@@@@@@@@@++++****@@@@@@@@@@@@@@@@....++++@@@@",
"    ++++####@@@@@@@@@@@@@@@@++++****@@@@@@@@@@@@@@@@....++++@@@@",
"    ++++####@@@@@@@@@@@@@@@@++++****@@@@@@@@@@@@@@@@....++++@@@@",
"    ++++####@@@@@@@@@@@@@@@@++++****@@@@@@@@@@@@@@@@....++++@@@@",
"%%%%++++@@@@++++++++++++++++....@@@@++++++++++++++++....++++@@@@",
"%%%%++++@@@@++++++++++++++++....@@@@++++++++++++++++....++++@@@@",
"%%%%++++@@@@++++++++++++++++....@@@@++++++++++++++++....++++@@@@",
"%%%%++++@@@@++++++++++++++++....@@@@++++++++++++++++....++++@@@@",
"----++++@@@@++++++++++++****&&&&@@@@++++++++++++****&&&&++++####",
"----++++@@@@++++++++++++****&&&&@@@@++++++++++++****&&&&++++####",
"----++++@@@@++++++++++++****&&&&@@@@++++++++++++****&&&&++++####",
"----++++@@@@++++++++++++****&&&&@@@@++++++++++++****&&&&++++####",
"....++++@@@@++++++++********&&&&@@@@++++++++********&&&&++++****",
"....++++@@@@++++++++********&&&&@@@@++++++++********&&&&++++****",
"....++++@@@@++++++++********&&&&@@@@++++++++********&&&&++++****",
"....++++@@@@++++++++********&&&&@@@@++++++++********&&&&++++****",
"....++++****....&&&&&&&&&&&&....****....&&&&&&&&&&&&....****@@@@",
"....++++****....&&&&&&&&&&&&....****....&&&&&&&&&&&&....****@@@@",
"....++++****....&&&&&&&&&&&&....****....&&&&&&&&&&&&....****@@@@",
"....++++****....&&&&&&&&&&&&....****....&&&&&&&&&&&&....****@@@@",
"    ********++++........++++********++++........++++********@@@@",
"    ********++++........++++********++++........++++********@@@@",
"    ********++++........++++********++++........++++********@@@@",
"    ********++++........++++********++++........++++********@@@@",
"@@@@############################################################",
"@@@@############################################################",
"@@@@############################################################",
"@@@@############################################################"};
