/* XPM */
static char * south_xpm[] = {
"256 256 20308 3",
"   	c #191B1B",
".  	c #151919",
"+  	c #141818",
"@  	c #141717",
"#  	c #131717",
"$  	c #121515",
"%  	c #121516",
"&  	c #0F1413",
"*  	c #0E1312",
"=  	c #0F1414",
"-  	c #111616",
";  	c #121616",
">  	c #121716",
",  	c #141817",
"'  	c #171A1A",
")  	c #17191A",
"!  	c #16191A",
"~  	c #171A19",
"{  	c #171A1B",
"]  	c #171B1B",
"^  	c #181B1B",
"/  	c #181C1C",
"(  	c #191D1C",
"_  	c #171B1A",
":  	c #161A19",
"<  	c #131718",
"[  	c #111515",
"}  	c #101414",
"|  	c #121617",
"1  	c #141918",
"2  	c #131817",
"3  	c #101515",
"4  	c #111615",
"5  	c #1A1C1C",
"6  	c #212221",
"7  	c #1F2120",
"8  	c #232322",
"9  	c #292927",
"0  	c #1B1F1F",
"a  	c #1F2121",
"b  	c #202121",
"c  	c #1A1E1E",
"d  	c #1E211F",
"e  	c #222322",
"f  	c #232422",
"g  	c #252624",
"h  	c #222422",
"i  	c #1B1D1D",
"j  	c #1A1D1D",
"k  	c #1A1E1D",
"l  	c #1A1F1E",
"m  	c #1D201F",
"n  	c #1C1F1F",
"o  	c #1E2120",
"p  	c #1D211F",
"q  	c #1F211E",
"r  	c #1B1F1D",
"s  	c #1D1F1E",
"t  	c #1E201F",
"u  	c #1C201F",
"v  	c #1B1E1E",
"w  	c #1B1E1D",
"x  	c #161A18",
"y  	c #181D1C",
"z  	c #1A1D1E",
"A  	c #181C1A",
"B  	c #181B1C",
"C  	c #171C1B",
"D  	c #151A19",
"E  	c #161A1A",
"F  	c #161919",
"G  	c #181B1A",
"H  	c #191C1B",
"I  	c #1C1E1F",
"J  	c #1C1D20",
"K  	c #1A1C1B",
"L  	c #1B1C1E",
"M  	c #1A1C1D",
"N  	c #191B1C",
"O  	c #191B1A",
"P  	c #191C1A",
"Q  	c #191D1B",
"R  	c #1B1F1E",
"S  	c #1B1E1F",
"T  	c #181C1B",
"U  	c #141816",
"V  	c #161918",
"W  	c #151918",
"X  	c #171C1C",
"Y  	c #171C19",
"Z  	c #181B19",
"`  	c #1B1F1B",
" . 	c #1A1E1B",
".. 	c #151917",
"+. 	c #191C1C",
"@. 	c #212222",
"#. 	c #1C1E1E",
"$. 	c #131617",
"%. 	c #121615",
"&. 	c #101514",
"*. 	c #0D1111",
"=. 	c #0E1212",
"-. 	c #121514",
";. 	c #101413",
">. 	c #111413",
",. 	c #0F1313",
"'. 	c #0E1313",
"). 	c #131818",
"!. 	c #141919",
"~. 	c #141917",
"{. 	c #151A18",
"]. 	c #141819",
"^. 	c #161B1A",
"/. 	c #131616",
"(. 	c #131716",
"_. 	c #121717",
":. 	c #1B1C1C",
"<. 	c #1B1C1D",
"[. 	c #0D1211",
"}. 	c #0C0F10",
"|. 	c #0D1011",
"1. 	c #111514",
"2. 	c #121614",
"3. 	c #1B1D1C",
"4. 	c #1A1D1C",
"5. 	c #0F1312",
"6. 	c #0C1010",
"7. 	c #111516",
"8. 	c #131715",
"9. 	c #171B19",
"0. 	c #1B1E1C",
"a. 	c #1F201F",
"b. 	c #131615",
"c. 	c #131816",
"d. 	c #151818",
"e. 	c #141716",
"f. 	c #161B19",
"g. 	c #212321",
"h. 	c #121715",
"i. 	c #1A1D1B",
"j. 	c #111614",
"k. 	c #0E1311",
"l. 	c #0E1211",
"m. 	c #0F1412",
"n. 	c #101412",
"o. 	c #1C1E1C",
"p. 	c #111414",
"q. 	c #232320",
"r. 	c #252523",
"s. 	c #101312",
"t. 	c #1B1D1B",
"u. 	c #252520",
"v. 	c #1D1F1C",
"w. 	c #26251F",
"x. 	c #1E1E1B",
"y. 	c #1D1F1D",
"z. 	c #171A17",
"A. 	c #161917",
"B. 	c #181A17",
"C. 	c #1B1C1A",
"D. 	c #171A18",
"E. 	c #171A16",
"F. 	c #141715",
"G. 	c #151817",
"H. 	c #2A2926",
"I. 	c #1B1C1B",
"J. 	c #222320",
"K. 	c #272621",
"L. 	c #2A2823",
"M. 	c #262623",
"N. 	c #282723",
"O. 	c #252521",
"P. 	c #1D1E1C",
"Q. 	c #1C1F1C",
"R. 	c #1C201C",
"S. 	c #1B1E1B",
"T. 	c #1A1C1A",
"U. 	c #191B19",
"V. 	c #181B17",
"W. 	c #181A18",
"X. 	c #181A16",
"Y. 	c #131514",
"Z. 	c #20221F",
"`. 	c #252422",
" + 	c #292824",
".+ 	c #3A3531",
"++ 	c #433C36",
"@+ 	c #493F38",
"#+ 	c #4A4239",
"$+ 	c #3C352F",
"%+ 	c #2D2A26",
"&+ 	c #252522",
"*+ 	c #1F2221",
"=+ 	c #1C1F1D",
"-+ 	c #222321",
";+ 	c #23231D",
">+ 	c #201E1A",
",+ 	c #201D19",
"'+ 	c #1C1D1B",
")+ 	c #20211D",
"!+ 	c #232321",
"~+ 	c #232421",
"{+ 	c #272724",
"]+ 	c #181916",
"^+ 	c #171916",
"/+ 	c #21231F",
"(+ 	c #2D2A27",
"_+ 	c #3E372E",
":+ 	c #5A4E45",
"<+ 	c #6D5F56",
"[+ 	c #6C5E54",
"}+ 	c #6B5D55",
"|+ 	c #6A5B52",
"1+ 	c #5F5146",
"2+ 	c #584B3E",
"3+ 	c #433B2E",
"4+ 	c #322F2B",
"5+ 	c #2F2D2A",
"6+ 	c #292825",
"7+ 	c #282724",
"8+ 	c #272521",
"9+ 	c #272522",
"0+ 	c #2B2925",
"a+ 	c #2E2C28",
"b+ 	c #36332F",
"c+ 	c #353330",
"d+ 	c #3A3430",
"e+ 	c #3B332D",
"f+ 	c #34322F",
"g+ 	c #312F2C",
"h+ 	c #161916",
"i+ 	c #0F1311",
"j+ 	c #161A17",
"k+ 	c #212220",
"l+ 	c #1E201E",
"m+ 	c #23221E",
"n+ 	c #2E2A25",
"o+ 	c #4F4135",
"p+ 	c #6B5A4A",
"q+ 	c #8A7466",
"r+ 	c #8F7869",
"s+ 	c #8E7869",
"t+ 	c #927D6A",
"u+ 	c #8D7769",
"v+ 	c #8A7464",
"w+ 	c #897464",
"x+ 	c #806E63",
"y+ 	c #6E6058",
"z+ 	c #68594F",
"A+ 	c #574A40",
"B+ 	c #443B32",
"C+ 	c #453B32",
"D+ 	c #413B37",
"E+ 	c #443D39",
"F+ 	c #50463F",
"G+ 	c #5E544F",
"H+ 	c #60544A",
"I+ 	c #64574D",
"J+ 	c #63574E",
"K+ 	c #66584A",
"L+ 	c #5E524A",
"M+ 	c #4F453C",
"N+ 	c #3F392F",
"O+ 	c #1F201D",
"P+ 	c #1E1C1A",
"Q+ 	c #141815",
"R+ 	c #101513",
"S+ 	c #181B18",
"T+ 	c #1D1F1F",
"U+ 	c #2D2B27",
"V+ 	c #38342B",
"W+ 	c #574B3B",
"X+ 	c #7B6859",
"Y+ 	c #9A7E69",
"Z+ 	c #AC8C71",
"`+ 	c #B29275",
" @ 	c #AE8F73",
".@ 	c #B39373",
"+@ 	c #B69477",
"@@ 	c #B99676",
"#@ 	c #B49373",
"$@ 	c #AC9071",
"%@ 	c #A98D70",
"&@ 	c #A0836D",
"*@ 	c #997F6C",
"=@ 	c #947B67",
"-@ 	c #756457",
";@ 	c #66574C",
">@ 	c #6B5C54",
",@ 	c #77685E",
"'@ 	c #897966",
")@ 	c #857467",
"!@ 	c #8B7868",
"~@ 	c #94806B",
"{@ 	c #947F6B",
"]@ 	c #96826B",
"^@ 	c #917D6A",
"/@ 	c #7B6758",
"(@ 	c #605148",
"_@ 	c #4B4035",
":@ 	c #2D2B28",
"<@ 	c #232221",
"[@ 	c #151716",
"}@ 	c #0D1110",
"|@ 	c #24231E",
"1@ 	c #262621",
"2@ 	c #282722",
"3@ 	c #2A2722",
"4@ 	c #27241C",
"5@ 	c #201F1D",
"6@ 	c #21201D",
"7@ 	c #2A2825",
"8@ 	c #302E29",
"9@ 	c #3F3A31",
"0@ 	c #54483F",
"a@ 	c #6F5E4B",
"b@ 	c #927D67",
"c@ 	c #B29272",
"d@ 	c #BC9775",
"e@ 	c #BE9876",
"f@ 	c #C59C79",
"g@ 	c #C49C78",
"h@ 	c #C29A75",
"i@ 	c #C69C75",
"j@ 	c #C79E78",
"k@ 	c #C7A078",
"l@ 	c #C9A077",
"m@ 	c #C89F78",
"n@ 	c #C79C75",
"o@ 	c #C59B75",
"p@ 	c #BF9975",
"q@ 	c #AF9581",
"r@ 	c #A38D77",
"s@ 	c #9C8670",
"t@ 	c #AA9079",
"u@ 	c #A99175",
"v@ 	c #B09881",
"w@ 	c #B79C83",
"x@ 	c #BC9B7F",
"y@ 	c #B9977A",
"z@ 	c #B69373",
"A@ 	c #B38F6E",
"B@ 	c #A18066",
"C@ 	c #7E6755",
"D@ 	c #5A4F48",
"E@ 	c #4B443E",
"F@ 	c #2C2A26",
"G@ 	c #282621",
"H@ 	c #1C1C1A",
"I@ 	c #1A1B16",
"J@ 	c #161815",
"K@ 	c #0D1210",
"L@ 	c #1C201D",
"M@ 	c #272623",
"N@ 	c #363431",
"O@ 	c #373431",
"P@ 	c #36322F",
"Q@ 	c #362E27",
"R@ 	c #362F28",
"S@ 	c #3B3630",
"T@ 	c #4B423D",
"U@ 	c #534A45",
"V@ 	c #5B504A",
"W@ 	c #736354",
"X@ 	c #978065",
"Y@ 	c #A78C6F",
"Z@ 	c #A78B6F",
"`@ 	c #B7926E",
" # 	c #C59C7A",
".# 	c #C49E7B",
"+# 	c #CAA37F",
"@# 	c #C9A079",
"## 	c #CAA27A",
"$# 	c #CAA47E",
"%# 	c #C39B75",
"&# 	c #BF9873",
"*# 	c #C29972",
"=# 	c #BF966E",
"-# 	c #C1976F",
";# 	c #C59C75",
"># 	c #C09C7B",
",# 	c #C39F7D",
"'# 	c #BA9676",
")# 	c #BC9877",
"!# 	c #BF9A76",
"~# 	c #C69F78",
"{# 	c #C49569",
"]# 	c #BA8D66",
"^# 	c #A98A6E",
"/# 	c #89705C",
"(# 	c #5E4F43",
"_# 	c #55493B",
":# 	c #544835",
"<# 	c #4E4433",
"[# 	c #51463D",
"}# 	c #40372C",
"|# 	c #28231C",
"1# 	c #24211A",
"2# 	c #1D1D19",
"3# 	c #1D1C19",
"4# 	c #1C1F1E",
"5# 	c #242522",
"6# 	c #312E2A",
"7# 	c #3B3735",
"8# 	c #453F3C",
"9# 	c #514743",
"0# 	c #5A504C",
"a# 	c #61544E",
"b# 	c #6C5D55",
"c# 	c #706159",
"d# 	c #706055",
"e# 	c #75665B",
"f# 	c #857361",
"g# 	c #9D846D",
"h# 	c #B19073",
"i# 	c #B59273",
"j# 	c #BB9675",
"k# 	c #B4916F",
"l# 	c #BA9268",
"m# 	c #C9A583",
"n# 	c #C9A37E",
"o# 	c #CEAA86",
"p# 	c #C9A27B",
"q# 	c #C69E77",
"r# 	c #C49B74",
"s# 	c #C49A73",
"t# 	c #C49971",
"u# 	c #C29870",
"v# 	c #C69B74",
"w# 	c #C19A76",
"x# 	c #BD9876",
"y# 	c #BB9776",
"z# 	c #C7A17C",
"A# 	c #CCA783",
"B# 	c #CBA683",
"C# 	c #CAA683",
"D# 	c #CAA581",
"E# 	c #C79D76",
"F# 	c #C1956A",
"G# 	c #C5976C",
"H# 	c #BB946B",
"I# 	c #B28F6E",
"J# 	c #90755A",
"K# 	c #8C7258",
"L# 	c #907760",
"M# 	c #8E7660",
"N# 	c #987E6A",
"O# 	c #91745D",
"P# 	c #715C47",
"Q# 	c #54473E",
"R# 	c #4A3D30",
"S# 	c #393029",
"T# 	c #282620",
"U# 	c #111513",
"V# 	c #151816",
"W# 	c #161715",
"X# 	c #1B1C18",
"Y# 	c #24221D",
"Z# 	c #2B2823",
"`# 	c #2E2A24",
" $ 	c #3E372F",
".$ 	c #584C42",
"+$ 	c #6F5F53",
"@$ 	c #807162",
"#$ 	c #8B7667",
"$$ 	c #927F6B",
"%$ 	c #9A8670",
"&$ 	c #A7907D",
"*$ 	c #A68E70",
"=$ 	c #A58F72",
"-$ 	c #AA937A",
";$ 	c #B59679",
">$ 	c #C6A281",
",$ 	c #C59D7C",
"'$ 	c #C29D81",
")$ 	c #C59E82",
"!$ 	c #C19A79",
"~$ 	c #BB9571",
"{$ 	c #C19B77",
"]$ 	c #C29F7E",
"^$ 	c #C7A381",
"/$ 	c #CDAB8B",
"($ 	c #CEAA88",
"_$ 	c #CBA784",
":$ 	c #CBA47D",
"<$ 	c #C49D79",
"[$ 	c #BC9774",
"}$ 	c #C39A75",
"|$ 	c #C4A07D",
"1$ 	c #C7A17E",
"2$ 	c #CBA480",
"3$ 	c #D0AA84",
"4$ 	c #CCA989",
"5$ 	c #CDAA89",
"6$ 	c #CBA786",
"7$ 	c #CAA684",
"8$ 	c #CBA47E",
"9$ 	c #C79F76",
"0$ 	c #C69D74",
"a$ 	c #C3986F",
"b$ 	c #B98D65",
"c$ 	c #AB845C",
"d$ 	c #AC8C6B",
"e$ 	c #B4906B",
"f$ 	c #B49170",
"g$ 	c #B89472",
"h$ 	c #B89371",
"i$ 	c #AC8D71",
"j$ 	c #9B846C",
"k$ 	c #856B54",
"l$ 	c #6E5C4A",
"m$ 	c #483F30",
"n$ 	c #3A352B",
"o$ 	c #121412",
"p$ 	c #151715",
"q$ 	c #111411",
"r$ 	c #0E1412",
"s$ 	c #211F1B",
"t$ 	c #27241D",
"u$ 	c #322D27",
"v$ 	c #453B33",
"w$ 	c #544940",
"x$ 	c #786655",
"y$ 	c #9A8474",
"z$ 	c #AF9684",
"A$ 	c #B99E88",
"B$ 	c #C09F83",
"C$ 	c #BBA189",
"D$ 	c #BBA088",
"E$ 	c #BA9B81",
"F$ 	c #BB997C",
"G$ 	c #C5A182",
"H$ 	c #C7A68B",
"I$ 	c #C6A485",
"J$ 	c #C7A07C",
"K$ 	c #C69F7E",
"L$ 	c #C8A385",
"M$ 	c #C8A485",
"N$ 	c #C49E7F",
"O$ 	c #C49E7A",
"P$ 	c #C6A07C",
"Q$ 	c #C7A27E",
"R$ 	c #D0AE8F",
"S$ 	c #D0AF93",
"T$ 	c #CBAA8C",
"U$ 	c #C8A78B",
"V$ 	c #BC9F87",
"W$ 	c #C4A283",
"X$ 	c #C49F7D",
"Y$ 	c #C59C76",
"Z$ 	c #C8A17B",
"`$ 	c #CDA986",
" % 	c #D3AC87",
".% 	c #D6B08B",
"+% 	c #D1AC88",
"@% 	c #CAA786",
"#% 	c #CAA480",
"$% 	c #C7A07B",
"%% 	c #C79E77",
"&% 	c #CAA178",
"*% 	c #CBA379",
"=% 	c #CBA37A",
"-% 	c #C49970",
";% 	c #B58A61",
">% 	c #B78C63",
",% 	c #C1976E",
"'% 	c #C89E76",
")% 	c #C89F79",
"!% 	c #C79F78",
"~% 	c #BE9771",
"{% 	c #BC946F",
"]% 	c #B58C65",
"^% 	c #9A7A61",
"/% 	c #856953",
"(% 	c #725B49",
"_% 	c #493F32",
":% 	c #312B24",
"<% 	c #151614",
"[% 	c #171714",
"}% 	c #0E1210",
"|% 	c #0F1211",
"1% 	c #0F1513",
"2% 	c #252420",
"3% 	c #3F352D",
"4% 	c #4B3D33",
"5% 	c #5D514B",
"6% 	c #8A7865",
"7% 	c #AF957F",
"8% 	c #BD9F86",
"9% 	c #CAA98D",
"0% 	c #CAA887",
"a% 	c #CDA987",
"b% 	c #CCAA8B",
"c% 	c #CBA98B",
"d% 	c #CBAA8D",
"e% 	c #CDAD93",
"f% 	c #D0B095",
"g% 	c #D1B094",
"h% 	c #D9B593",
"i% 	c #C8A585",
"j% 	c #C6A487",
"k% 	c #C4A487",
"l% 	c #CBA98F",
"m% 	c #CCA98A",
"n% 	c #CFAA88",
"o% 	c #D2B192",
"p% 	c #D8B696",
"q% 	c #D1B194",
"r% 	c #D3B499",
"s% 	c #D4B6A0",
"t% 	c #D5B59B",
"u% 	c #D5B59A",
"v% 	c #CDAB8E",
"w% 	c #CBA787",
"x% 	c #C9A380",
"y% 	c #C9A481",
"z% 	c #D0AB88",
"A% 	c #CFAD8D",
"B% 	c #D8B28E",
"C% 	c #D1AF8F",
"D% 	c #D0AA87",
"E% 	c #C9A17A",
"F% 	c #BF9771",
"G% 	c #C0976F",
"H% 	c #C79F77",
"I% 	c #CFA780",
"J% 	c #CEA57D",
"K% 	c #CDA67E",
"L% 	c #D0A881",
"M% 	c #C9A078",
"N% 	c #C8A07A",
"O% 	c #BF956B",
"P% 	c #BE9469",
"Q% 	c #BA9067",
"R% 	c #B1855E",
"S% 	c #A37650",
"T% 	c #956D4B",
"U% 	c #866648",
"V% 	c #5A4935",
"W% 	c #41352B",
"X% 	c #151815",
"Y% 	c #191613",
"Z% 	c #181613",
"`% 	c #101311",
" & 	c #121513",
".& 	c #1C1C1B",
"+& 	c #25221C",
"@& 	c #2D2822",
"#& 	c #38332D",
"$& 	c #4E4037",
"%& 	c #917967",
"&& 	c #B99E86",
"*& 	c #C3A58C",
"=& 	c #CCAC91",
"-& 	c #CCAB8E",
";& 	c #CCAB8F",
">& 	c #CEAE94",
",& 	c #CDAD94",
"'& 	c #D9B796",
")& 	c #D8B796",
"!& 	c #D4B295",
"~& 	c #D6B494",
"{& 	c #CFB095",
"]& 	c #D4B395",
"^& 	c #D3B194",
"/& 	c #D4B192",
"(& 	c #D6B495",
"_& 	c #D3B295",
":& 	c #D8B798",
"<& 	c #D7B79C",
"[& 	c #D7B89E",
"}& 	c #DDBFA6",
"|& 	c #DFBFA6",
"1& 	c #DABBA3",
"2& 	c #D6B596",
"3& 	c #D0AD8E",
"4& 	c #CBA681",
"5& 	c #D2AE8D",
"6& 	c #D8B390",
"7& 	c #D8B491",
"8& 	c #D9B695",
"9& 	c #D9B28B",
"0& 	c #D3AD86",
"a& 	c #C79F79",
"b& 	c #B98F67",
"c& 	c #BB9269",
"d& 	c #BB9369",
"e& 	c #BB936A",
"f& 	c #C0966E",
"g& 	c #CCA279",
"h& 	c #D5AD87",
"i& 	c #D2AA83",
"j& 	c #D0A87F",
"k& 	c #C89C73",
"l& 	c #C3966B",
"m& 	c #BD9066",
"n& 	c #B98F66",
"o& 	c #BB9268",
"p& 	c #B78B63",
"q& 	c #AE8058",
"r& 	c #A4754E",
"s& 	c #9A6943",
"t& 	c #7F5D3F",
"u& 	c #584637",
"v& 	c #3E3225",
"w& 	c #201D18",
"x& 	c #181714",
"y& 	c #111412",
"z& 	c #101313",
"A& 	c #1A1B19",
"B& 	c #1D1B17",
"C& 	c #24211D",
"D& 	c #2F2B26",
"E& 	c #3D3630",
"F& 	c #544943",
"G& 	c #68584C",
"H& 	c #867265",
"I& 	c #988471",
"J& 	c #BDA28F",
"K& 	c #CDAE95",
"L& 	c #CEAF95",
"M& 	c #CDAF99",
"N& 	c #D1B195",
"O& 	c #D4B396",
"P& 	c #D8B493",
"Q& 	c #D8B594",
"R& 	c #D8B699",
"S& 	c #DAB897",
"T& 	c #DDB999",
"U& 	c #DAB797",
"V& 	c #D2B295",
"W& 	c #DAB798",
"X& 	c #DEBBA2",
"Y& 	c #D9BAA1",
"Z& 	c #E0BFA5",
"`& 	c #DEC2A7",
" * 	c #E5C4A6",
".* 	c #E4C3A6",
"+* 	c #DFBD9E",
"@* 	c #CEA984",
"#* 	c #C99F77",
"$* 	c #CAA27B",
"%* 	c #D5B18F",
"&* 	c #DAB592",
"** 	c #D9B694",
"=* 	c #D9B490",
"-* 	c #DAB591",
";* 	c #D7B28F",
">* 	c #CBA37D",
",* 	c #C39B73",
"'* 	c #CBA279",
")* 	c #C49A71",
"!* 	c #BF956A",
"~* 	c #C4966A",
"{* 	c #C59669",
"]* 	c #BB9067",
"^* 	c #B98F65",
"/* 	c #B88B64",
"(* 	c #B5875D",
"_* 	c #B28156",
":* 	c #A7744C",
"<* 	c #966848",
"[* 	c #755B41",
"}* 	c #52402C",
"|* 	c #2F291F",
"1* 	c #1A1B18",
"2* 	c #151916",
"3* 	c #1D1D1A",
"4* 	c #1C1C19",
"5* 	c #221F19",
"6* 	c #332C25",
"7* 	c #4A3D35",
"8* 	c #5D5048",
"9* 	c #69584C",
"0* 	c #867363",
"a* 	c #A08A7A",
"b* 	c #BCA391",
"c* 	c #CAAFA2",
"d* 	c #CFB19E",
"e* 	c #CDAE94",
"f* 	c #CDAF98",
"g* 	c #CFAF95",
"h* 	c #D1B299",
"i* 	c #D5B598",
"j* 	c #D7B799",
"k* 	c #D6B698",
"l* 	c #D7B596",
"m* 	c #DAB796",
"n* 	c #E1BE9F",
"o* 	c #E5C2A3",
"p* 	c #E5C1A3",
"q* 	c #E4BF9F",
"r* 	c #DBB897",
"s* 	c #D7B696",
"t* 	c #DBBA9E",
"u* 	c #D9B898",
"v* 	c #DEBD9D",
"w* 	c #E3C1A0",
"x* 	c #DEBC9B",
"y* 	c #E1BD9C",
"z* 	c #D8B48F",
"A* 	c #C8A07B",
"B* 	c #C69B75",
"C* 	c #D4AD86",
"D* 	c #DEB58E",
"E* 	c #DCB794",
"F* 	c #D9B795",
"G* 	c #D9B592",
"H* 	c #DBB694",
"I* 	c #DBB795",
"J* 	c #D9B18C",
"K* 	c #CAA27D",
"L* 	c #BA9168",
"M* 	c #C79D75",
"N* 	c #C5966B",
"O* 	c #BF946A",
"P* 	c #BE9268",
"Q* 	c #B2855C",
"R* 	c #B08259",
"S* 	c #B6865B",
"T* 	c #B48256",
"U* 	c #A57149",
"V* 	c #996846",
"W* 	c #785A42",
"X* 	c #56422E",
"Y* 	c #382E24",
"Z* 	c #28241E",
"`* 	c #3F362B",
" = 	c #52473E",
".= 	c #5C4E46",
"+= 	c #6F5E52",
"@= 	c #827063",
"#= 	c #AA9483",
"$= 	c #B7A08D",
"%= 	c #C5AA93",
"&= 	c #D0B3A0",
"*= 	c #D2B5A5",
"== 	c #D3B59E",
"-= 	c #D5B599",
";= 	c #D2AF8F",
">= 	c #C7A58A",
",= 	c #D1B29B",
"'= 	c #D7B79A",
")= 	c #D8B797",
"!= 	c #CEAD90",
"~= 	c #D3AE8C",
"{= 	c #D5B08E",
"]= 	c #DBB899",
"^= 	c #E3C1A1",
"/= 	c #DFBD9D",
"(= 	c #DDB998",
"_= 	c #DDB895",
":= 	c #DAB896",
"<= 	c #DBB997",
"[= 	c #DEBB97",
"}= 	c #D9B28C",
"|= 	c #D7AF87",
"1= 	c #CFA67E",
"2= 	c #BF966D",
"3= 	c #C79E76",
"4= 	c #D6AE89",
"5= 	c #DFB993",
"6= 	c #E1BC99",
"7= 	c #DAB795",
"8= 	c #DDB794",
"9= 	c #DBB896",
"0= 	c #DFB793",
"a= 	c #D4AC86",
"b= 	c #CAA27C",
"c= 	c #BC926A",
"d= 	c #B78D64",
"e= 	c #BD936A",
"f= 	c #C59B73",
"g= 	c #C59A71",
"h= 	c #C6986E",
"i= 	c #B98D64",
"j= 	c #B4875D",
"k= 	c #AE7E55",
"l= 	c #AF8056",
"m= 	c #B48258",
"n= 	c #A36F47",
"o= 	c #996742",
"p= 	c #7A5C3F",
"q= 	c #5C4A32",
"r= 	c #403428",
"s= 	c #292723",
"t= 	c #1C1D1A",
"u= 	c #2C2822",
"v= 	c #41392D",
"w= 	c #66584B",
"x= 	c #716155",
"y= 	c #7C695D",
"z= 	c #9D8877",
"A= 	c #B29C89",
"B= 	c #B6A18E",
"C= 	c #C0A791",
"D= 	c #D3B49C",
"E= 	c #D7B9A2",
"F= 	c #D7B79B",
"G= 	c #D1B298",
"H= 	c #D4B498",
"I= 	c #C7A88E",
"J= 	c #D5B496",
"K= 	c #C6A890",
"L= 	c #BDA18B",
"M= 	c #B99E89",
"N= 	c #B79E8B",
"O= 	c #C1A58D",
"P= 	c #D1B093",
"Q= 	c #CEAE92",
"R= 	c #CAA787",
"S= 	c #DCB898",
"T= 	c #D7B18D",
"U= 	c #D9B38F",
"V= 	c #D7B393",
"W= 	c #D3B191",
"X= 	c #D9B797",
"Y= 	c #CDA57C",
"Z= 	c #C5996F",
"`= 	c #C5986D",
" - 	c #CD9F75",
".- 	c #C0966C",
"+- 	c #BD946B",
"@- 	c #CDA782",
"#- 	c #E1BA98",
"$- 	c #E0BC9C",
"%- 	c #E5C09F",
"&- 	c #E1BD99",
"*- 	c #E2BC98",
"=- 	c #DBB38F",
"-- 	c #D4AB86",
";- 	c #C8A078",
">- 	c #C49B72",
",- 	c #CEA67F",
"'- 	c #D0A883",
")- 	c #C39971",
"!- 	c #C4976D",
"~- 	c #C6966B",
"{- 	c #BE9368",
"]- 	c #B2845A",
"^- 	c #AC7C53",
"/- 	c #AC8258",
"(- 	c #B38357",
"_- 	c #A9754B",
":- 	c #986540",
"<- 	c #7D5A36",
"[- 	c #675131",
"}- 	c #52452F",
"|- 	c #473C2E",
"1- 	c #352F2A",
"2- 	c #25231D",
"3- 	c #0D110F",
"4- 	c #3E3630",
"5- 	c #5C4D41",
"6- 	c #816E60",
"7- 	c #998473",
"8- 	c #B09A86",
"9- 	c #C4A892",
"0- 	c #C7AB93",
"a- 	c #CCAE96",
"b- 	c #D1B4A1",
"c- 	c #D7BAA3",
"d- 	c #D9BBA3",
"e- 	c #D9BAA2",
"f- 	c #D6B69B",
"g- 	c #D5B69D",
"h- 	c #D2B39A",
"i- 	c #CEAE93",
"j- 	c #C3A388",
"k- 	c #BF9E83",
"l- 	c #B8987D",
"m- 	c #B89679",
"n- 	c #B89678",
"o- 	c #BA9879",
"p- 	c #C6A384",
"q- 	c #D4B394",
"r- 	c #D4B293",
"s- 	c #D4B294",
"t- 	c #D5AF8C",
"u- 	c #CCA580",
"v- 	c #D3B08C",
"w- 	c #D6B28E",
"x- 	c #D6B18D",
"y- 	c #CDA680",
"z- 	c #C69C73",
"A- 	c #BD9268",
"B- 	c #C3976E",
"C- 	c #C49A70",
"D- 	c #D8B18A",
"E- 	c #DCB692",
"F- 	c #E0BD9E",
"G- 	c #E3BFA0",
"H- 	c #E0BEA0",
"I- 	c #E5C19B",
"J- 	c #DFBA98",
"K- 	c #CCA47D",
"L- 	c #CEA67D",
"M- 	c #CFA884",
"N- 	c #D0AA86",
"O- 	c #D4AE87",
"P- 	c #D0AB86",
"Q- 	c #D5AF88",
"R- 	c #D5AE87",
"S- 	c #CCA57F",
"T- 	c #C39970",
"U- 	c #C29469",
"V- 	c #B3865D",
"W- 	c #AE8158",
"X- 	c #AF7F55",
"Y- 	c #A8764C",
"Z- 	c #97623C",
"`- 	c #8A5B37",
" ; 	c #745531",
".; 	c #6B553F",
"+; 	c #665542",
"@; 	c #574733",
"#; 	c #42392C",
"$; 	c #322D29",
"%; 	c #272722",
"&; 	c #21211C",
"*; 	c #191C19",
"=; 	c #171917",
"-; 	c #101310",
";; 	c #0C100F",
">; 	c #282623",
",; 	c #473D34",
"'; 	c #64564D",
"); 	c #A18977",
"!; 	c #B89E89",
"~; 	c #C7AA93",
"{; 	c #CEAF94",
"]; 	c #D5B7A2",
"^; 	c #D8BBA5",
"/; 	c #DBBEA6",
"(; 	c #D9BBA4",
"_; 	c #DABEA5",
":; 	c #DCBEA5",
"<; 	c #DCBDA2",
"[; 	c #D9B89A",
"}; 	c #DABB9F",
"|; 	c #DEC0A6",
"1; 	c #E0C1A8",
"2; 	c #D2B49B",
"3; 	c #CCAC90",
"4; 	c #C29F81",
"5; 	c #C1A085",
"6; 	c #BC9878",
"7; 	c #BD9E82",
"8; 	c #DEBCA2",
"9; 	c #DEBB9A",
"0; 	c #D0AA85",
"a; 	c #C59E75",
"b; 	c #C9A27A",
"c; 	c #CFAA84",
"d; 	c #CFAA85",
"e; 	c #C39C76",
"f; 	c #BE946B",
"g; 	c #BE956B",
"h; 	c #BC946A",
"i; 	c #C29971",
"j; 	c #C59D78",
"k; 	c #DAB48E",
"l; 	c #DEBB99",
"m; 	c #E1BFA0",
"n; 	c #E2C0A3",
"o; 	c #DEBC9D",
"p; 	c #E3C09F",
"q; 	c #DDBA99",
"r; 	c #D3AB83",
"s; 	c #D9B189",
"t; 	c #DAB38D",
"u; 	c #DAB691",
"v; 	c #DBB793",
"w; 	c #D8B592",
"x; 	c #D9B693",
"y; 	c #D4B08C",
"z; 	c #B88D64",
"A; 	c #B3855C",
"B; 	c #B18056",
"C; 	c #B07D54",
"D; 	c #A8754B",
"E; 	c #9B653E",
"F; 	c #915B36",
"G; 	c #8A5835",
"H; 	c #8A5E3B",
"I; 	c #936A4A",
"J; 	c #8D6746",
"K; 	c #705942",
"L; 	c #594B34",
"M; 	c #433A2C",
"N; 	c #2B2721",
"O; 	c #242521",
"P; 	c #1F211F",
"Q; 	c #0E120F",
"R; 	c #1E1F1D",
"S; 	c #20201E",
"T; 	c #2A2723",
"U; 	c #49423E",
"V; 	c #8A7869",
"W; 	c #B99F8B",
"X; 	c #D5B497",
"Y; 	c #D8BAA1",
"Z; 	c #DCBFA6",
"`; 	c #E3C3A8",
" > 	c #D9BCA4",
".> 	c #E0C2A8",
"+> 	c #DFC0A6",
"@> 	c #E6C5A9",
"#> 	c #DBBEA3",
"$> 	c #E1C4AA",
"%> 	c #E7C7AE",
"&> 	c #E8CAB3",
"*> 	c #E3C3AA",
"=> 	c #D9BA9E",
"-> 	c #DABA9D",
";> 	c #D3B397",
">> 	c #CBA98A",
",> 	c #C8A686",
"'> 	c #C7A586",
")> 	c #D9B99B",
"!> 	c #E0C2A6",
"~> 	c #D9BAA0",
"{> 	c #B48A62",
"]> 	c #B68A60",
"^> 	c #C79D74",
"/> 	c #BC9570",
"(> 	c #B99067",
"_> 	c #B68E69",
":> 	c #BA8F67",
"<> 	c #BE966F",
"[> 	c #D0AC89",
"}> 	c #DFBC9A",
"|> 	c #E2C0A0",
"1> 	c #E1C0A2",
"2> 	c #E0BE9E",
"3> 	c #E4C2A1",
"4> 	c #D4B08D",
"5> 	c #CFA882",
"6> 	c #D8B28D",
"7> 	c #D7B391",
"8> 	c #D8B492",
"9> 	c #DAB694",
"0> 	c #D5B089",
"a> 	c #C19871",
"b> 	c #BF956D",
"c> 	c #BB8F67",
"d> 	c #B78A61",
"e> 	c #AC7B51",
"f> 	c #9F6A42",
"g> 	c #945C36",
"h> 	c #955E38",
"i> 	c #A36D45",
"j> 	c #9F6B43",
"k> 	c #A3734D",
"l> 	c #8E6D4A",
"m> 	c #82664E",
"n> 	c #675644",
"o> 	c #53442F",
"p> 	c #383126",
"q> 	c #272723",
"r> 	c #22221E",
"s> 	c #10130F",
"t> 	c #312C27",
"u> 	c #5F514A",
"v> 	c #A28C7A",
"w> 	c #C9AC93",
"x> 	c #D9B99D",
"y> 	c #D9B99C",
"z> 	c #DABCA5",
"A> 	c #E3C6AE",
"B> 	c #E7C8B1",
"C> 	c #E7C7AD",
"D> 	c #E8C6AA",
"E> 	c #E8C6A9",
"F> 	c #E6C6AB",
"G> 	c #E7C7AF",
"H> 	c #E7C9B3",
"I> 	c #E9CBB4",
"J> 	c #E9C9B1",
"K> 	c #E4C5AA",
"L> 	c #DCC1A7",
"M> 	c #D1B297",
"N> 	c #BA9D85",
"O> 	c #B79B86",
"P> 	c #CBA888",
"Q> 	c #CFAD90",
"R> 	c #D9B899",
"S> 	c #E1C2A7",
"T> 	c #E4C4A9",
"U> 	c #DABDA5",
"V> 	c #D2B297",
"W> 	c #B28A62",
"X> 	c #AC8259",
"Y> 	c #C0966D",
"Z> 	c #C69E75",
"`> 	c #C59C74",
" , 	c #B88C66",
"., 	c #B78F6C",
"+, 	c #B9906B",
"@, 	c #C19D7C",
"#, 	c #CCAB8D",
"$, 	c #D6B597",
"%, 	c #DCBCA0",
"&, 	c #E2C1A3",
"*, 	c #E6C4A6",
"=, 	c #E3C3A6",
"-, 	c #DCB997",
";, 	c #D4AF8D",
">, 	c #DCB48D",
",, 	c #D9B48F",
"', 	c #BF936A",
"), 	c #B28259",
"!, 	c #A06D46",
"~, 	c #9A6741",
"{, 	c #A06C45",
"], 	c #A26E47",
"^, 	c #9E704A",
"/, 	c #916B47",
"(, 	c #906D4E",
"_, 	c #76604D",
":, 	c #5E5141",
"<, 	c #3F372C",
"[, 	c #24221C",
"}, 	c #1B1915",
"|, 	c #0F120F",
"1, 	c #141718",
"2, 	c #1B1D1A",
"3, 	c #262522",
"4, 	c #312E2B",
"5, 	c #35332F",
"6, 	c #3D3732",
"7, 	c #78685F",
"8, 	c #B39880",
"9, 	c #D9B89B",
"0, 	c #DBBEA4",
"a, 	c #E3C7AF",
"b, 	c #E7C8AF",
"c, 	c #E7C6AA",
"d, 	c #E8C8AF",
"e, 	c #E9CAB2",
"f, 	c #DFC4A8",
"g, 	c #D3B59B",
"h, 	c #C3A38A",
"i, 	c #C09E86",
"j, 	c #CAA888",
"k, 	c #DAB99B",
"l, 	c #E0C4A9",
"m, 	c #E2C6AF",
"n, 	c #DEBFA6",
"o, 	c #C69F7A",
"p, 	c #AD8057",
"q, 	c #AD8158",
"r, 	c #B98E64",
"s, 	c #C29970",
"t, 	c #BD956B",
"u, 	c #C59E76",
"v, 	c #D1AA84",
"w, 	c #D4AF8B",
"x, 	c #D8B695",
"y, 	c #DCBEA2",
"z, 	c #E1BFA4",
"A, 	c #E5C3A4",
"B, 	c #E7C5A8",
"C, 	c #DDC1A6",
"D, 	c #CAA582",
"E, 	c #D3AC86",
"F, 	c #D6AE87",
"G, 	c #DBB28A",
"H, 	c #DBB38B",
"I, 	c #D5AF8A",
"J, 	c #D2AC87",
"K, 	c #D6AD86",
"L, 	c #D3AB86",
"M, 	c #D5AC86",
"N, 	c #CFA57E",
"O, 	c #C2956C",
"P, 	c #A67750",
"Q, 	c #9E6C45",
"R, 	c #A77953",
"S, 	c #A5724A",
"T, 	c #A16F48",
"U, 	c #9C6A43",
"V, 	c #97663F",
"W, 	c #986B47",
"X, 	c #8F6D4F",
"Y, 	c #776250",
"Z, 	c #574C3E",
"`, 	c #443A31",
" ' 	c #23201B",
".' 	c #171815",
"+' 	c #141615",
"@' 	c #393632",
"#' 	c #453D39",
"$' 	c #5C5146",
"%' 	c #8D7B69",
"&' 	c #B99D81",
"*' 	c #D2B195",
"=' 	c #D6B392",
"-' 	c #D8B694",
";' 	c #D7B697",
">' 	c #E6C6AC",
",' 	c #EACBB4",
"'' 	c #EACAB2",
")' 	c #E8C8AE",
"!' 	c #E4C2A5",
"~' 	c #E7C5A9",
"{' 	c #E6C4A7",
"]' 	c #E6C3A5",
"^' 	c #E5C3A5",
"/' 	c #E6C5A8",
"(' 	c #DEC3A8",
"_' 	c #D7BAA1",
":' 	c #C4A48A",
"<' 	c #C19E82",
"[' 	c #C9A786",
"}' 	c #D4B59C",
"|' 	c #DABCA2",
"1' 	c #DEC3A9",
"2' 	c #E4C7B1",
"3' 	c #CEB094",
"4' 	c #B58D68",
"5' 	c #A87B56",
"6' 	c #AC8058",
"7' 	c #B5875C",
"8' 	c #B6895F",
"9' 	c #C69E79",
"0' 	c #D8B490",
"a' 	c #DAB794",
"b' 	c #DBBA9B",
"c' 	c #DABA9F",
"d' 	c #E0C3A6",
"e' 	c #DFC3A7",
"f' 	c #E5C5A9",
"g' 	c #E3C5A9",
"h' 	c #E5C5AA",
"i' 	c #D9BBA1",
"j' 	c #CBAA8E",
"k' 	c #C9A17B",
"l' 	c #C29A72",
"m' 	c #CDA57E",
"n' 	c #CDA67D",
"o' 	c #C39C75",
"p' 	c #C6A17D",
"q' 	c #C9A47E",
"r' 	c #D5B28F",
"s' 	c #D8B08A",
"t' 	c #D5AD86",
"u' 	c #D7AE86",
"v' 	c #D1A67E",
"w' 	c #D6AC84",
"x' 	c #CEA47C",
"y' 	c #C09269",
"z' 	c #B78B62",
"A' 	c #B0845C",
"B' 	c #AF8158",
"C' 	c #AD7F55",
"D' 	c #A87850",
"E' 	c #AD7F57",
"F' 	c #A97A51",
"G' 	c #A5764F",
"H' 	c #99704E",
"I' 	c #906B4F",
"J' 	c #6A5847",
"K' 	c #4B3D31",
"L' 	c #34312D",
"M' 	c #21201B",
"N' 	c #0E110F",
"O' 	c #0F130F",
"P' 	c #1D2020",
"Q' 	c #2E2B28",
"R' 	c #423D39",
"S' 	c #47413B",
"T' 	c #524843",
"U' 	c #584E48",
"V' 	c #7D6C60",
"W' 	c #A18C72",
"X' 	c #C09E7F",
"Y' 	c #D9B390",
"Z' 	c #D2AD88",
"`' 	c #DEBB96",
" ) 	c #DFBE9F",
".) 	c #E2C1A4",
"+) 	c #E4C2A2",
"@) 	c #E6C3A1",
"#) 	c #E5C3A2",
"$) 	c #E1BF9E",
"%) 	c #E3BFA1",
"&) 	c #E6C4A5",
"*) 	c #E7C3A3",
"=) 	c #E3BF9E",
"-) 	c #E2BE9C",
";) 	c #E5C3A1",
">) 	c #E5C4A5",
",) 	c #E2C4A7",
"') 	c #E4C5A9",
")) 	c #D6B89E",
"!) 	c #B8997F",
"~) 	c #C5A487",
"{) 	c #D6B79E",
"]) 	c #D8BBA3",
"^) 	c #DBBFA6",
"/) 	c #E1C6AE",
"() 	c #D6BAA3",
"_) 	c #BFA085",
":) 	c #B88E67",
"<) 	c #AE835B",
"[) 	c #AB8158",
"}) 	c #B58A62",
"|) 	c #CCA37A",
"1) 	c #DFBD9F",
"2) 	c #DCBFA5",
"3) 	c #DBBCA1",
"4) 	c #DEC0A5",
"5) 	c #CCA98B",
"6) 	c #C59B74",
"7) 	c #C29368",
"8) 	c #C1956C",
"9) 	c #BE9670",
"0) 	c #C49B76",
"a) 	c #C49E77",
"b) 	c #B78D66",
"c) 	c #B98F68",
"d) 	c #C59E78",
"e) 	c #CCA67F",
"f) 	c #D8B28B",
"g) 	c #D5AB82",
"h) 	c #D3A980",
"i) 	c #D1A67D",
"j) 	c #CBA178",
"k) 	c #D4AB84",
"l) 	c #D0A884",
"m) 	c #CBA27B",
"n) 	c #B6875B",
"o) 	c #AE8157",
"p) 	c #AC7E54",
"q) 	c #AB7B52",
"r) 	c #B88A5E",
"s) 	c #B58559",
"t) 	c #AD7C53",
"u) 	c #9D7150",
"v) 	c #816751",
"w) 	c #5C4D3E",
"x) 	c #4A4232",
"y) 	c #36312C",
"z) 	c #21201C",
"A) 	c #161816",
"B) 	c #101411",
"C) 	c #1C1E1D",
"D) 	c #403832",
"E) 	c #50443C",
"F) 	c #61534B",
"G) 	c #7C695B",
"H) 	c #8C7869",
"I) 	c #AE9785",
"J) 	c #B8A08C",
"K) 	c #BD9979",
"L) 	c #CEA783",
"M) 	c #DBB490",
"N) 	c #D4AD87",
"O) 	c #D2AA84",
"P) 	c #D1A982",
"Q) 	c #CEA883",
"R) 	c #DBB794",
"S) 	c #DDBA97",
"T) 	c #E1BA96",
"U) 	c #E1BA95",
"V) 	c #DFB892",
"W) 	c #D6B089",
"X) 	c #D8B188",
"Y) 	c #DBB790",
"Z) 	c #E0BD9C",
"`) 	c #E1BE9E",
" ! 	c #E3C1A2",
".! 	c #C2A388",
"+! 	c #C29E7D",
"@! 	c #D2B193",
"#! 	c #D6B99F",
"$! 	c #DFC3AB",
"%! 	c #D5B9A5",
"&! 	c #D2B39B",
"*! 	c #CFA883",
"=! 	c #C8A17A",
"-! 	c #BD936D",
";! 	c #C59F79",
">! 	c #CBA47C",
",! 	c #CBA47B",
"'! 	c #CDA781",
")! 	c #CEA985",
"!! 	c #CFAC8A",
"~! 	c #D2B194",
"{! 	c #D1B196",
"]! 	c #D6B79B",
"^! 	c #D3B091",
"/! 	c #C0956D",
"(! 	c #B9895E",
"_! 	c #BC8E63",
":! 	c #B88E65",
"<! 	c #BA9169",
"[! 	c #BA926C",
"}! 	c #BC9269",
"|! 	c #BD946C",
"1! 	c #BA8E65",
"2! 	c #CAA076",
"3! 	c #CCA479",
"4! 	c #D8B18B",
"5! 	c #D7AF88",
"6! 	c #CCA075",
"7! 	c #C3966C",
"8! 	c #BA8D65",
"9! 	c #BD9269",
"0! 	c #CBA27A",
"a! 	c #D5AC84",
"b! 	c #B5865A",
"c! 	c #BE9167",
"d! 	c #B5865B",
"e! 	c #AF8055",
"f! 	c #AB794F",
"g! 	c #AA784E",
"h! 	c #996D4F",
"i! 	c #916E4E",
"j! 	c #725E4D",
"k! 	c #594E3E",
"l! 	c #4D422F",
"m! 	c #2E2A22",
"n! 	c #191B17",
"o! 	c #3A3530",
"p! 	c #4F4035",
"q! 	c #5F5145",
"r! 	c #8F7C69",
"s! 	c #AA937F",
"t! 	c #BBA28E",
"u! 	c #C8AB94",
"v! 	c #CBAB8F",
"w! 	c #C4A084",
"x! 	c #CAA685",
"y! 	c #D4AF8C",
"z! 	c #D7B08B",
"A! 	c #C59D74",
"B! 	c #BB936C",
"C! 	c #B68C63",
"D! 	c #B88C64",
"E! 	c #D1AB87",
"F! 	c #DDB994",
"G! 	c #DCB58E",
"H! 	c #C99F76",
"I! 	c #BB9168",
"J! 	c #CBA478",
"K! 	c #D5AF89",
"L! 	c #D6B18B",
"M! 	c #D9B692",
"N! 	c #CAA481",
"O! 	c #D7B38D",
"P! 	c #DDBC9D",
"Q! 	c #D8B89C",
"R! 	c #D8B9A2",
"S! 	c #D7B89F",
"T! 	c #D1B4A2",
"U! 	c #D1AD8A",
"V! 	c #CEA986",
"W! 	c #D3B08F",
"X! 	c #CFAB8A",
"Y! 	c #D2AE8C",
"Z! 	c #CEAC8D",
"`! 	c #D6B598",
" ~ 	c #CCA887",
".~ 	c #B7885D",
"+~ 	c #B2855B",
"@~ 	c #B68A61",
"#~ 	c #B88A60",
"$~ 	c #B78961",
"%~ 	c #B5885F",
"&~ 	c #CEA379",
"*~ 	c #D5A77D",
"=~ 	c #D1A981",
"-~ 	c #D5AD85",
";~ 	c #D0A981",
">~ 	c #BF956C",
",~ 	c #B4845A",
"'~ 	c #AE7C53",
")~ 	c #B2885F",
"!~ 	c #CEA67E",
"~~ 	c #D3AD88",
"{~ 	c #C2986E",
"]~ 	c #C19165",
"^~ 	c #B08055",
"/~ 	c #B48157",
"(~ 	c #A87A54",
"_~ 	c #977150",
":~ 	c #816346",
"<~ 	c #695649",
"[~ 	c #564C3F",
"}~ 	c #3D372D",
"|~ 	c #21221D",
"1~ 	c #141614",
"2~ 	c #1D1E1D",
"3~ 	c #2E2D2A",
"4~ 	c #3C3733",
"5~ 	c #53473C",
"6~ 	c #7B6959",
"7~ 	c #B19986",
"8~ 	c #CFB3A2",
"9~ 	c #CDAC91",
"0~ 	c #CFAA87",
"a~ 	c #D6AE88",
"b~ 	c #C69D76",
"c~ 	c #BF976F",
"d~ 	c #CEA781",
"e~ 	c #C8A27F",
"f~ 	c #D6B291",
"g~ 	c #DAB490",
"h~ 	c #D9B18B",
"i~ 	c #D7AF89",
"j~ 	c #B88F66",
"k~ 	c #B18961",
"l~ 	c #BC956F",
"m~ 	c #C9A278",
"n~ 	c #D8B186",
"o~ 	c #D9B289",
"p~ 	c #D2A97F",
"q~ 	c #CBA57E",
"r~ 	c #D2B399",
"s~ 	c #CEAF96",
"t~ 	c #D4B496",
"u~ 	c #D2B08F",
"v~ 	c #CCA47A",
"w~ 	c #C79D73",
"x~ 	c #CEA67B",
"y~ 	c #D6AD85",
"z~ 	c #D6B393",
"A~ 	c #D2AF90",
"B~ 	c #D9B594",
"C~ 	c #D8B28F",
"D~ 	c #D7B493",
"E~ 	c #D1AD8E",
"F~ 	c #D3AE8B",
"G~ 	c #C79F7A",
"H~ 	c #BC9169",
"I~ 	c #B9895F",
"J~ 	c #B08359",
"K~ 	c #AE8459",
"L~ 	c #AE8359",
"M~ 	c #B7895E",
"N~ 	c #C6996F",
"O~ 	c #D2A57A",
"P~ 	c #CFA379",
"Q~ 	c #D1A478",
"R~ 	c #C89E75",
"S~ 	c #C59971",
"T~ 	c #BF946B",
"U~ 	c #AD7E55",
"V~ 	c #AA7A50",
"W~ 	c #A37047",
"X~ 	c #A6744D",
"Y~ 	c #AD835A",
"Z~ 	c #BC926B",
"`~ 	c #BE956E",
" { 	c #C8A27E",
".{ 	c #D8B089",
"+{ 	c #D2A77E",
"@{ 	c #C09469",
"#{ 	c #C7996F",
"${ 	c #C39267",
"%{ 	c #B6875C",
"&{ 	c #B08056",
"*{ 	c #AF7D52",
"={ 	c #B07D53",
"-{ 	c #A8784F",
";{ 	c #926C4C",
">{ 	c #715B4B",
",{ 	c #645348",
"'{ 	c #4F4438",
"){ 	c #292823",
"!{ 	c #171915",
"~{ 	c #242321",
"{{ 	c #2E2B27",
"]{ 	c #5A4C44",
"^{ 	c #937D6D",
"/{ 	c #C6AA96",
"({ 	c #D4B8A3",
"_{ 	c #DCBEA3",
":{ 	c #D6B79A",
"<{ 	c #D7B594",
"[{ 	c #D5B292",
"}{ 	c #CFAC8E",
"|{ 	c #D2AC86",
"1{ 	c #D5AF8B",
"2{ 	c #DEB895",
"3{ 	c #CFAC8C",
"4{ 	c #D5B394",
"5{ 	c #DFBD9B",
"6{ 	c #E2BC97",
"7{ 	c #DAB692",
"8{ 	c #CCA681",
"9{ 	c #C59D77",
"0{ 	c #B48D66",
"a{ 	c #B38B66",
"b{ 	c #BC9672",
"c{ 	c #CCA578",
"d{ 	c #D7B186",
"e{ 	c #D7AE87",
"f{ 	c #D8AF88",
"g{ 	c #CEA782",
"h{ 	c #D3B08E",
"i{ 	c #D6B492",
"j{ 	c #CAA789",
"k{ 	c #C6A382",
"l{ 	c #CEAD91",
"m{ 	c #D9BB9E",
"n{ 	c #DCBA98",
"o{ 	c #BA8F65",
"p{ 	c #C59B71",
"q{ 	c #CDA379",
"r{ 	c #CCA37C",
"s{ 	c #C89D74",
"t{ 	c #C59C73",
"u{ 	c #C39B76",
"v{ 	c #B18860",
"w{ 	c #B68C64",
"x{ 	c #BA8F66",
"y{ 	c #B1885E",
"z{ 	c #AF855B",
"A{ 	c #C2976D",
"B{ 	c #CDA47A",
"C{ 	c #D9B187",
"D{ 	c #D7A97F",
"E{ 	c #D4A478",
"F{ 	c #D3A579",
"G{ 	c #CDA076",
"H{ 	c #C5996E",
"I{ 	c #BB8C61",
"J{ 	c #AE7F55",
"K{ 	c #A27047",
"L{ 	c #98643D",
"M{ 	c #996842",
"N{ 	c #A27652",
"O{ 	c #AA7E58",
"P{ 	c #B2865E",
"Q{ 	c #BD936B",
"R{ 	c #D8AE85",
"S{ 	c #CCA177",
"T{ 	c #C7986C",
"U{ 	c #BE9065",
"V{ 	c #B3845B",
"W{ 	c #B38359",
"X{ 	c #A8734A",
"Y{ 	c #AB764D",
"Z{ 	c #A26D44",
"`{ 	c #9A6944",
" ] 	c #88623D",
".] 	c #6D5435",
"+] 	c #5C4F39",
"@] 	c #362F27",
"#] 	c #1F1F1C",
"$] 	c #353230",
"%] 	c #423A35",
"&] 	c #6A5A4F",
"*] 	c #B39A86",
"=] 	c #D4B8A5",
"-] 	c #DCC2A8",
";] 	c #DEC4A9",
">] 	c #E3C7B0",
",] 	c #E5C7B0",
"'] 	c #D6B69A",
")] 	c #DCBC9D",
"!] 	c #D9B897",
"~] 	c #DABB9D",
"{] 	c #DFC0A2",
"]] 	c #DEBB9B",
"^] 	c #E5C4A7",
"/] 	c #E4C7A8",
"(] 	c #DCBEA4",
"_] 	c #D6B699",
":] 	c #DCBEA1",
"<] 	c #E1C2A5",
"[] 	c #DDBB9C",
"}] 	c #D5B28E",
"|] 	c #CFAA86",
"1] 	c #C19B76",
"2] 	c #BA936E",
"3] 	c #BB9672",
"4] 	c #CBA479",
"5] 	c #D4AD83",
"6] 	c #D8B088",
"7] 	c #BF9870",
"8] 	c #C6A07B",
"9] 	c #D3B190",
"0] 	c #DABA9C",
"a] 	c #D7B89B",
"b] 	c #BD9672",
"c] 	c #CEA57E",
"d] 	c #C89F77",
"e] 	c #C2976E",
"f] 	c #C4996F",
"g] 	c #B5895E",
"h] 	c #AD7E54",
"i] 	c #AE8258",
"j] 	c #BC8F66",
"k] 	c #B78D63",
"l] 	c #B0865C",
"m] 	c #BB9066",
"n] 	c #D1A87D",
"o] 	c #D9B287",
"p] 	c #D6AC83",
"q] 	c #D6A77B",
"r] 	c #CDA277",
"s] 	c #CDA176",
"t] 	c #D5A57B",
"u] 	c #C89A71",
"v] 	c #9C6F4B",
"w] 	c #A97E57",
"x] 	c #AC8159",
"y] 	c #C79C73",
"z] 	c #CFA57D",
"A] 	c #CFA177",
"B] 	c #B88C63",
"C] 	c #B6875F",
"D] 	c #AE7F56",
"E] 	c #A9774D",
"F] 	c #98633C",
"G] 	c #97623B",
"H] 	c #8E5C37",
"I] 	c #765532",
"J] 	c #68543D",
"K] 	c #4E4531",
"L] 	c #2E2923",
"M] 	c #1E1E19",
"N] 	c #171715",
"O] 	c #141514",
"P] 	c #0F1310",
"Q] 	c #1D1F1B",
"R] 	c #1C1E1B",
"S] 	c #232220",
"T] 	c #383330",
"U] 	c #816E5A",
"V] 	c #BEA48E",
"W] 	c #D3B6A5",
"X] 	c #DFC4AC",
"Y] 	c #E8CDB6",
"Z] 	c #ECD0BC",
"`] 	c #E6CAB4",
" ^ 	c #D8B899",
".^ 	c #E1C4AB",
"+^ 	c #E4C7B0",
"@^ 	c #E5C7AF",
"#^ 	c #DCBA9B",
"$^ 	c #DCBA99",
"%^ 	c #E6C5A7",
"&^ 	c #DEC2A6",
"*^ 	c #DDBEA2",
"=^ 	c #CFAE93",
"-^ 	c #CCA888",
";^ 	c #C7A27F",
">^ 	c #C8A27B",
",^ 	c #C8A179",
"'^ 	c #C7A17A",
")^ 	c #D0A880",
"!^ 	c #C49D76",
"~^ 	c #B78D65",
"{^ 	c #C29B74",
"]^ 	c #D3B192",
"^^ 	c #C8A483",
"/^ 	c #D9B591",
"(^ 	c #DEBA94",
"_^ 	c #C9A47F",
":^ 	c #BA9167",
"<^ 	c #B18459",
"[^ 	c #AA7C53",
"}^ 	c #A77A54",
"|^ 	c #A67851",
"1^ 	c #AA7C54",
"2^ 	c #BC8D62",
"3^ 	c #C6986F",
"4^ 	c #C2976C",
"5^ 	c #B78C62",
"6^ 	c #B88C62",
"7^ 	c #D2A982",
"8^ 	c #CEA57C",
"9^ 	c #CDA177",
"0^ 	c #C0956B",
"a^ 	c #D0A277",
"b^ 	c #AE8057",
"c^ 	c #A27751",
"d^ 	c #D0A479",
"e^ 	c #D3A57A",
"f^ 	c #D4A77C",
"g^ 	c #CFA076",
"h^ 	c #C4956B",
"i^ 	c #B98C64",
"j^ 	c #A97952",
"k^ 	c #AB7D54",
"l^ 	c #B17F55",
"m^ 	c #A67349",
"n^ 	c #955F39",
"o^ 	c #865A37",
"p^ 	c #70573E",
"q^ 	c #625242",
"r^ 	c #473E35",
"s^ 	c #352E29",
"t^ 	c #24211C",
"u^ 	c #181815",
"v^ 	c #131513",
"w^ 	c #202221",
"x^ 	c #25231F",
"y^ 	c #2A2824",
"z^ 	c #413732",
"A^ 	c #77675A",
"B^ 	c #9D866F",
"C^ 	c #CAAC91",
"D^ 	c #DBC0A6",
"E^ 	c #E2C7AF",
"F^ 	c #E7CBB5",
"G^ 	c #E1C5AC",
"H^ 	c #DABB9C",
"I^ 	c #DFC5AB",
"J^ 	c #EACFB6",
"K^ 	c #ECCCB3",
"L^ 	c #E8C7AC",
"M^ 	c #E4C2A3",
"N^ 	c #DBB898",
"O^ 	c #BD9772",
"P^ 	c #C7A17D",
"Q^ 	c #CEAA87",
"R^ 	c #CBA580",
"S^ 	c #D6B28C",
"T^ 	c #DAB590",
"U^ 	c #D5AC85",
"V^ 	c #C59B72",
"W^ 	c #B58B62",
"X^ 	c #AF855C",
"Y^ 	c #AF865C",
"Z^ 	c #B2875F",
"`^ 	c #BD9670",
" / 	c #B6906D",
"./ 	c #C09B76",
"+/ 	c #D7B38F",
"@/ 	c #E5C29D",
"#/ 	c #E6C29A",
"$/ 	c #DFBB98",
"%/ 	c #D9B48C",
"&/ 	c #D7B088",
"*/ 	c #B58B61",
"=/ 	c #A6744A",
"-/ 	c #A16E47",
";/ 	c #9B6A45",
">/ 	c #C19066",
",/ 	c #D5A980",
"'/ 	c #C69B72",
")/ 	c #D1A881",
"!/ 	c #CCA278",
"~/ 	c #B88E66",
"{/ 	c #CA9B70",
"]/ 	c #C59A70",
"^/ 	c #A97950",
"// 	c #AA7E56",
"(/ 	c #D3A880",
"_/ 	c #CFA479",
":/ 	c #CEA479",
"</ 	c #CEA378",
"[/ 	c #D2A378",
"}/ 	c #C89B73",
"|/ 	c #BF9268",
"1/ 	c #AA7B51",
"2/ 	c #A47047",
"3/ 	c #A57249",
"4/ 	c #A9764C",
"5/ 	c #A77248",
"6/ 	c #A26D45",
"7/ 	c #905D39",
"8/ 	c #7E5633",
"9/ 	c #6C553C",
"0/ 	c #574D41",
"a/ 	c #312C26",
"b/ 	c #1C1B16",
"c/ 	c #151511",
"d/ 	c #675A4F",
"e/ 	c #A28D75",
"f/ 	c #AD9175",
"g/ 	c #CCAD92",
"h/ 	c #DCC1A6",
"i/ 	c #E6C9B4",
"j/ 	c #DFC4AB",
"k/ 	c #DFC3A9",
"l/ 	c #E5C9B2",
"m/ 	c #E9D0B6",
"n/ 	c #E8CDB3",
"o/ 	c #E5C4A9",
"p/ 	c #E1C0A3",
"q/ 	c #E2C0A1",
"r/ 	c #CCA680",
"s/ 	c #D6B28F",
"t/ 	c #D6B290",
"u/ 	c #DFBC99",
"v/ 	c #CFA881",
"w/ 	c #A97D55",
"x/ 	c #AD845A",
"y/ 	c #B68A62",
"z/ 	c #B28960",
"A/ 	c #AE855B",
"B/ 	c #D7B38E",
"C/ 	c #D9B58F",
"D/ 	c #DCB995",
"E/ 	c #DFBC98",
"F/ 	c #DFBC97",
"G/ 	c #D7B18B",
"H/ 	c #BB8F65",
"I/ 	c #AC7D53",
"J/ 	c #9E6A43",
"K/ 	c #98653E",
"L/ 	c #9F6C46",
"M/ 	c #AD8156",
"N/ 	c #BB8D64",
"O/ 	c #C4956A",
"P/ 	c #D9AC83",
"Q/ 	c #DCB089",
"R/ 	c #D5AD84",
"S/ 	c #D5AE84",
"T/ 	c #D4AD85",
"U/ 	c #D8B18C",
"V/ 	c #D8AF89",
"W/ 	c #B1835B",
"X/ 	c #CD9E73",
"Y/ 	c #C89D73",
"Z/ 	c #C0946A",
"`/ 	c #A4744D",
" ( 	c #AE825A",
".( 	c #CCA277",
"+( 	c #D4A77D",
"@( 	c #D5A579",
"#( 	c #C99C73",
"$( 	c #CA996E",
"%( 	c #BC8E64",
"&( 	c #A5734A",
"*( 	c #A27048",
"=( 	c #A7734A",
"-( 	c #9F6B44",
";( 	c #9C6941",
">( 	c #98633D",
",( 	c #915A34",
"'( 	c #825230",
")( 	c #715432",
"!( 	c #62503C",
"~( 	c #534836",
"{( 	c #40352B",
"]( 	c #201E19",
"^( 	c #1C1D1C",
"/( 	c #2A2927",
"(( 	c #47403D",
"_( 	c #6E6158",
":( 	c #A5917C",
"<( 	c #A88F75",
"[( 	c #B39172",
"}( 	c #BB9C80",
"|( 	c #D8BA9C",
"1( 	c #E5C7AE",
"2( 	c #E7C9B4",
"3( 	c #E9CAB4",
"4( 	c #E6C5AA",
"5( 	c #E7C4A7",
"6( 	c #E5C3A7",
"7( 	c #DDBA9A",
"8( 	c #DBB691",
"9( 	c #DAB18B",
"0( 	c #DFBC9C",
"a( 	c #E1BB98",
"b( 	c #DCB48F",
"c( 	c #D0A77E",
"d( 	c #CFA87E",
"e( 	c #DDB48D",
"f( 	c #DDB68F",
"g( 	c #DCB792",
"h( 	c #E2BF9C",
"i( 	c #E6C3A2",
"j( 	c #E9C7A8",
"k( 	c #E3C1A4",
"l( 	c #E0BE9D",
"m( 	c #C79C72",
"n( 	c #B7875A",
"o( 	c #AA7F57",
"p( 	c #B9916A",
"q( 	c #BE9773",
"r( 	c #C8A380",
"s( 	c #D2AC84",
"t( 	c #D2AF8C",
"u( 	c #D7B08C",
"v( 	c #DFB995",
"w( 	c #B7895F",
"x( 	c #A7744A",
"y( 	c #9D6942",
"z( 	c #A06E46",
"A( 	c #B28257",
"B( 	c #BB895D",
"C( 	c #C49469",
"D( 	c #D6A77D",
"E( 	c #D2A77F",
"F( 	c #D8AB82",
"G( 	c #DCB58C",
"H( 	c #D9B388",
"I( 	c #DBB48E",
"J( 	c #DDB58F",
"K( 	c #DCB58F",
"L( 	c #CBA27C",
"M( 	c #AD815A",
"N( 	c #A87A55",
"O( 	c #CCA175",
"P( 	c #D8A87D",
"Q( 	c #C4966C",
"R( 	c #B3855B",
"S( 	c #B1865B",
"T( 	c #D5A87F",
"U( 	c #DAAF86",
"V( 	c #D8A87C",
"W( 	c #D1A175",
"X( 	c #A3744C",
"Y( 	c #9C6842",
"Z( 	c #9B663F",
"`( 	c #97633B",
" _ 	c #97623A",
"._ 	c #8C5530",
"+_ 	c #855430",
"@_ 	c #785330",
"#_ 	c #6A543E",
"$_ 	c #554C3F",
"%_ 	c #483D2D",
"&_ 	c #302C26",
"*_ 	c #191915",
"=_ 	c #2C2B28",
"-_ 	c #4C443F",
";_ 	c #7D6E63",
">_ 	c #C1A99A",
",_ 	c #CAB098",
"'_ 	c #B79B81",
")_ 	c #B4906E",
"!_ 	c #CBA886",
"~_ 	c #DEBC9E",
"{_ 	c #E6C7AD",
"]_ 	c #E7C6A9",
"^_ 	c #E1BB9A",
"/_ 	c #DAB28C",
"(_ 	c #D2A981",
"__ 	c #D5AD88",
":_ 	c #DDB38A",
"<_ 	c #D1A47A",
"[_ 	c #CFA375",
"}_ 	c #D1A678",
"|_ 	c #D0A87B",
"1_ 	c #DEB78E",
"2_ 	c #E1BC95",
"3_ 	c #DEBD9E",
"4_ 	c #E2C3A6",
"5_ 	c #E7C8B0",
"6_ 	c #E8C9B3",
"7_ 	c #E7C9AF",
"8_ 	c #DEBC98",
"9_ 	c #BC8C60",
"0_ 	c #B08156",
"a_ 	c #A97850",
"b_ 	c #A77A55",
"c_ 	c #A87C56",
"d_ 	c #A87B55",
"e_ 	c #AC8059",
"f_ 	c #B58C66",
"g_ 	c #B38A64",
"h_ 	c #B38961",
"i_ 	c #B2875E",
"j_ 	c #BB916A",
"k_ 	c #C0976E",
"l_ 	c #CDA47D",
"m_ 	c #D8B38E",
"n_ 	c #D1A780",
"o_ 	c #B4855A",
"p_ 	c #A36E46",
"q_ 	c #A56F46",
"r_ 	c #C08F63",
"s_ 	c #D3A377",
"t_ 	c #D5A87E",
"u_ 	c #D2A87E",
"v_ 	c #D5AA80",
"w_ 	c #DAB289",
"x_ 	c #D7AD85",
"y_ 	c #DCB48C",
"z_ 	c #DAB18A",
"A_ 	c #D1AB86",
"B_ 	c #AF8157",
"C_ 	c #C39469",
"D_ 	c #BA8C63",
"E_ 	c #B18359",
"F_ 	c #BD8F63",
"G_ 	c #C5976D",
"H_ 	c #D5A478",
"I_ 	c #D0A378",
"J_ 	c #CB9F75",
"K_ 	c #C1946C",
"L_ 	c #B68A5E",
"M_ 	c #BA8B60",
"N_ 	c #C39A71",
"O_ 	c #A7754B",
"P_ 	c #9D673E",
"Q_ 	c #925A34",
"R_ 	c #8E5833",
"S_ 	c #7E4D2C",
"T_ 	c #705330",
"U_ 	c #6F5431",
"V_ 	c #5D4E36",
"W_ 	c #4E3F2F",
"X_ 	c #38312A",
"Y_ 	c #191B18",
"Z_ 	c #1E1F1C",
"`_ 	c #7E6D62",
" : 	c #B9A08F",
".: 	c #D9BFA8",
"+: 	c #D2B296",
"@: 	c #BD9771",
"#: 	c #BB926D",
"$: 	c #D4AF89",
"%: 	c #E3C09D",
"&: 	c #E6C29B",
"*: 	c #E5BF9A",
"=: 	c #D0A67C",
"-: 	c #CA9F77",
";: 	c #C4986E",
">: 	c #C69B73",
",: 	c #D4AC87",
"': 	c #D6AF8A",
"): 	c #DBB38C",
"!: 	c #D7A97C",
"~: 	c #C8986A",
"{: 	c #C79467",
"]: 	c #D1A479",
"^: 	c #DDB68D",
"/: 	c #E0B992",
"(: 	c #E4BE97",
"_: 	c #E5C2A1",
":: 	c #E6C4A4",
"<: 	c #E7C6AC",
"[: 	c #E8C8AD",
"}: 	c #E6C8AE",
"|: 	c #E6C7A9",
"1: 	c #E0BC98",
"2: 	c #C79568",
"3: 	c #A26D46",
"4: 	c #A77750",
"5: 	c #AB8258",
"6: 	c #B0865D",
"7: 	c #B58B63",
"8: 	c #B78E66",
"9: 	c #C69F77",
"0: 	c #C09872",
"a: 	c #BE946D",
"b: 	c #B78B60",
"c: 	c #C89F76",
"d: 	c #D6AE86",
"e: 	c #C79970",
"f: 	c #BB8B5F",
"g: 	c #A16D45",
"h: 	c #9E6841",
"i: 	c #A8744A",
"j: 	c #B7855A",
"k: 	c #BA875C",
"l: 	c #CFA277",
"m: 	c #CA9D72",
"n: 	c #CA9A6E",
"o: 	c #D4A67B",
"p: 	c #D5AD80",
"q: 	c #D1A87C",
"r: 	c #D2A87F",
"s: 	c #D0A77F",
"t: 	c #B2875C",
"u: 	c #B08258",
"v: 	c #B4875C",
"w: 	c #AF8459",
"x: 	c #B1855B",
"y: 	c #AC7C52",
"z: 	c #A4724A",
"A: 	c #A37048",
"B: 	c #B68659",
"C: 	c #C1946A",
"D: 	c #B9895D",
"E: 	c #A9774C",
"F: 	c #B28353",
"G: 	c #C89869",
"H: 	c #C99E75",
"I: 	c #AD7C51",
"J: 	c #9D653B",
"K: 	c #935C36",
"L: 	c #86502B",
"M: 	c #895632",
"N: 	c #855533",
"O: 	c #734E2D",
"P: 	c #72502E",
"Q: 	c #684C2D",
"R: 	c #4F4030",
"S: 	c #3A322A",
"T: 	c #131614",
"U: 	c #332D28",
"V: 	c #5B4F42",
"W: 	c #9B8772",
"X: 	c #D2B69E",
"Y: 	c #DCC2A7",
"Z: 	c #DDC3A8",
"`: 	c #DCC0A5",
" < 	c #C59F7D",
".< 	c #B48961",
"+< 	c #C49F7A",
"@< 	c #DDB893",
"#< 	c #E5C09A",
"$< 	c #E0B993",
"%< 	c #D0A67F",
"&< 	c #C0956C",
"*< 	c #B98C65",
"=< 	c #C2966C",
"-< 	c #D1A67F",
";< 	c #D4AA84",
">< 	c #D9B18A",
",< 	c #DDB691",
"'< 	c #D6AD87",
")< 	c #D1A57B",
"!< 	c #C09368",
"~< 	c #BF9066",
"{< 	c #C79B6E",
"]< 	c #D7AE81",
"^< 	c #E1B78B",
"/< 	c #E1BB92",
"(< 	c #E2BD96",
"_< 	c #E6C099",
":< 	c #E4BE96",
"<< 	c #E3BC94",
"[< 	c #DBB48C",
"}< 	c #D4AB83",
"|< 	c #D9B087",
"1< 	c #DBB58F",
"2< 	c #D9AA7F",
"3< 	c #B48154",
"4< 	c #9B6A44",
"5< 	c #A0734E",
"6< 	c #A27651",
"7< 	c #B48860",
"8< 	c #B68C66",
"9< 	c #C49D77",
"0< 	c #D2AE88",
"a< 	c #E0BD9B",
"b< 	c #D4AD84",
"c< 	c #D2A77D",
"d< 	c #D0A57C",
"e< 	c #C8986C",
"f< 	c #C18F64",
"g< 	c #A57047",
"h< 	c #9C6740",
"i< 	c #A47149",
"j< 	c #B38257",
"k< 	c #B58358",
"l< 	c #BE9166",
"m< 	c #B6895E",
"n< 	c #C6996E",
"o< 	c #C4986D",
"p< 	c #B88C61",
"q< 	c #B88B61",
"r< 	c #A26F46",
"s< 	c #A6734A",
"t< 	c #A8754A",
"u< 	c #9E6740",
"v< 	c #9F6941",
"w< 	c #A77349",
"x< 	c #B9885B",
"y< 	c #C69669",
"z< 	c #9E6840",
"A< 	c #99623A",
"B< 	c #854E2A",
"C< 	c #7E4A29",
"D< 	c #825633",
"E< 	c #774829",
"F< 	c #74492A",
"G< 	c #644C2E",
"H< 	c #514330",
"I< 	c #3F3329",
"J< 	c #161614",
"K< 	c #151514",
"L< 	c #37302A",
"M< 	c #665644",
"N< 	c #A38669",
"O< 	c #DDC2A8",
"P< 	c #D1AC8C",
"Q< 	c #B1865F",
"R< 	c #BA9068",
"S< 	c #C8A077",
"T< 	c #C39A72",
"U< 	c #BB8F66",
"V< 	c #D4AA85",
"W< 	c #D3AA84",
"X< 	c #D2AB87",
"Y< 	c #E0B996",
"Z< 	c #E4BE99",
"`< 	c #D7B089",
" [ 	c #D4A87E",
".[ 	c #CB9E72",
"+[ 	c #C39569",
"@[ 	c #C3976D",
"#[ 	c #D7AA7D",
"$[ 	c #D6AC7F",
"%[ 	c #D6AF86",
"&[ 	c #CDA57D",
"*[ 	c #D6AA7E",
"=[ 	c #CC9F75",
"-[ 	c #C99C72",
";[ 	c #CD9E6C",
">[ 	c #D0A26F",
",[ 	c #D5AB73",
"'[ 	c #D8A77B",
")[ 	c #A5744B",
"![ 	c #996A45",
"~[ 	c #A47751",
"{[ 	c #B88D65",
"][ 	c #D5AE86",
"^[ 	c #C79A70",
"/[ 	c #BB8C60",
"([ 	c #A9784E",
"_[ 	c #9B6943",
":[ 	c #996740",
"<[ 	c #A6744B",
"[[ 	c #AB784F",
"}[ 	c #AF7C53",
"|[ 	c #AA794E",
"1[ 	c #BB895F",
"2[ 	c #B7865A",
"3[ 	c #B08157",
"4[ 	c #B6885E",
"5[ 	c #AD7F54",
"6[ 	c #B68759",
"7[ 	c #B68957",
"8[ 	c #B4865B",
"9[ 	c #97633C",
"0[ 	c #9D6B45",
"a[ 	c #A67248",
"b[ 	c #A77449",
"c[ 	c #A06D45",
"d[ 	c #9B653D",
"e[ 	c #A77347",
"f[ 	c #B78758",
"g[ 	c #BA8D61",
"h[ 	c #AA784D",
"i[ 	c #A46D42",
"j[ 	c #8F5730",
"k[ 	c #814B29",
"l[ 	c #7D4F2D",
"m[ 	c #774729",
"n[ 	c #734A2B",
"o[ 	c #6A4528",
"p[ 	c #57432E",
"q[ 	c #41352C",
"r[ 	c #262624",
"s[ 	c #433D2C",
"t[ 	c #6F5C49",
"u[ 	c #AE8A6B",
"v[ 	c #DEC1A4",
"w[ 	c #E3C2A7",
"x[ 	c #D3B090",
"y[ 	c #AB8058",
"z[ 	c #BC936A",
"A[ 	c #CDA47C",
"B[ 	c #C19A70",
"C[ 	c #BF966C",
"D[ 	c #C9A076",
"E[ 	c #D0A47C",
"F[ 	c #E0B891",
"G[ 	c #E5BD9C",
"H[ 	c #E5BF99",
"I[ 	c #E2BC94",
"J[ 	c #DFB58B",
"K[ 	c #C99F75",
"L[ 	c #C39468",
"M[ 	c #B18659",
"N[ 	c #B78A5B",
"O[ 	c #C19266",
"P[ 	c #BF9369",
"Q[ 	c #BB8D62",
"R[ 	c #BA8C61",
"S[ 	c #C69569",
"T[ 	c #D4A476",
"U[ 	c #CCA074",
"V[ 	c #A1724B",
"W[ 	c #966C4A",
"X[ 	c #A17651",
"Y[ 	c #B88F67",
"Z[ 	c #BD9671",
"`[ 	c #E2BE98",
" } 	c #DDB791",
".} 	c #D9B389",
"+} 	c #C79C74",
"@} 	c #B4865A",
"#} 	c #AB7D53",
"$} 	c #A8764B",
"%} 	c #A8764D",
"&} 	c #9C6E49",
"*} 	c #9A6740",
"=} 	c #9A6842",
"-} 	c #B17F54",
";} 	c #B18358",
">} 	c #B38055",
",} 	c #AB7A51",
"'} 	c #A77952",
")} 	c #B28559",
"!} 	c #B58754",
"~} 	c #AC7B4E",
"{} 	c #9E6A44",
"]} 	c #99663F",
"^} 	c #95613B",
"/} 	c #96623B",
"(} 	c #996641",
"_} 	c #9A6843",
":} 	c #996640",
"<} 	c #95653C",
"[} 	c #98643C",
"}} 	c #97643B",
"|} 	c #A1673C",
"1} 	c #A77547",
"2} 	c #B38356",
"3} 	c #B9895C",
"4} 	c #B3865A",
"5} 	c #BD8B5D",
"6} 	c #B58352",
"7} 	c #99633A",
"8} 	c #874F2B",
"9} 	c #7A4829",
"0} 	c #754B2B",
"a} 	c #75492A",
"b} 	c #6B4427",
"c} 	c #5D4934",
"d} 	c #3F3328",
"e} 	c #2F2C29",
"f} 	c #534A3F",
"g} 	c #806652",
"h} 	c #B6906F",
"i} 	c #D0AF92",
"j} 	c #BD9168",
"k} 	c #BC9168",
"l} 	c #C29A71",
"m} 	c #BA9166",
"n} 	c #CC9D73",
"o} 	c #D3A881",
"p} 	c #D8B08B",
"q} 	c #E5BF9B",
"r} 	c #E7C29A",
"s} 	c #E3BC96",
"t} 	c #D5AB81",
"u} 	c #CEA376",
"v} 	c #BD9065",
"w} 	c #B58756",
"x} 	c #B68858",
"y} 	c #BC9267",
"z} 	c #C39A70",
"A} 	c #B4875B",
"B} 	c #AC7F55",
"C} 	c #AD8253",
"D} 	c #CC9D6E",
"E} 	c #D4A67A",
"F} 	c #C69A6F",
"G} 	c #AD8258",
"H} 	c #9C6F4A",
"I} 	c #9F724D",
"J} 	c #BB936B",
"K} 	c #C59E77",
"L} 	c #CFA77E",
"M} 	c #DBB28B",
"N} 	c #DBB48B",
"O} 	c #D8B087",
"P} 	c #D1A77E",
"Q} 	c #B8875D",
"R} 	c #B07F56",
"S} 	c #AA794F",
"T} 	c #A77850",
"U} 	c #9D6F4A",
"V} 	c #996843",
"W} 	c #9C6B45",
"X} 	c #9E6B44",
"Y} 	c #A67047",
"Z} 	c #AF7E54",
"`} 	c #AC7A50",
" | 	c #9C6943",
".| 	c #98663F",
"+| 	c #8F5A36",
"@| 	c #8F5C36",
"#| 	c #8D5A36",
"$| 	c #8F5B36",
"%| 	c #935F39",
"&| 	c #94603A",
"*| 	c #9A653D",
"=| 	c #9F663C",
"-| 	c #AC8056",
";| 	c #AE8257",
">| 	c #A97D53",
",| 	c #A7774E",
"'| 	c #B6875A",
")| 	c #B38354",
"!| 	c #9B663D",
"~| 	c #824F2D",
"{| 	c #71522F",
"]| 	c #6F532F",
"^| 	c #6E4D2C",
"/| 	c #634F37",
"(| 	c #3E3227",
"_| 	c #20211E",
":| 	c #0F1210",
"<| 	c #343230",
"[| 	c #524A3E",
"}| 	c #8C715C",
"|| 	c #C09976",
"1| 	c #D3AE8D",
"2| 	c #D8B99D",
"3| 	c #DABB9E",
"4| 	c #D5AE89",
"5| 	c #CDA37B",
"6| 	c #D1AA85",
"7| 	c #CDA783",
"8| 	c #B6885D",
"9| 	c #B8885C",
"0| 	c #C69A70",
"a| 	c #E4BE9C",
"b| 	c #E7C4A3",
"c| 	c #E6C29E",
"d| 	c #E0BB99",
"e| 	c #D6AE84",
"f| 	c #C6996D",
"g| 	c #BE8F61",
"h| 	c #B8895E",
"i| 	c #A97C4D",
"j| 	c #A67046",
"k| 	c #A87449",
"l| 	c #C1966C",
"m| 	c #C99E74",
"n| 	c #AC8057",
"o| 	c #A36F48",
"p| 	c #A47048",
"q| 	c #BC946C",
"r| 	c #CAA177",
"s| 	c #D8AC7C",
"t| 	c #DBB084",
"u| 	c #D8AD80",
"v| 	c #CDA075",
"w| 	c #C09267",
"x| 	c #B88B60",
"y| 	c #B08257",
"z| 	c #B28357",
"A| 	c #A7754C",
"B| 	c #AC7F58",
"C| 	c #AB8059",
"D| 	c #A37752",
"E| 	c #986F4C",
"F| 	c #946D4B",
"G| 	c #956C4B",
"H| 	c #996741",
"I| 	c #98633B",
"J| 	c #99643B",
"K| 	c #9B663E",
"L| 	c #9E6941",
"M| 	c #A16E45",
"N| 	c #A56E45",
"O| 	c #96643B",
"P| 	c #91613C",
"Q| 	c #895835",
"R| 	c #895733",
"S| 	c #845633",
"T| 	c #7D5431",
"U| 	c #8C5A35",
"V| 	c #98653D",
"W| 	c #A06F47",
"X| 	c #A47249",
"Y| 	c #B6875D",
"Z| 	c #B98A5E",
"`| 	c #9C663E",
" 1 	c #956039",
".1 	c #875533",
"+1 	c #7E5130",
"@1 	c #734F2D",
"#1 	c #634F31",
"$1 	c #382F24",
"%1 	c #23221B",
"&1 	c #181A19",
"*1 	c #0E1111",
"=1 	c #55473D",
"-1 	c #8E715B",
";1 	c #D4AE8A",
">1 	c #D3B396",
",1 	c #DDC2A7",
"'1 	c #E3C4A8",
")1 	c #DBB692",
"!1 	c #D0A67D",
"~1 	c #D0A982",
"{1 	c #D1AE8E",
"]1 	c #D4B191",
"^1 	c #DCB797",
"/1 	c #BF956E",
"(1 	c #E5C1A1",
"_1 	c #E3C0A0",
":1 	c #DCB998",
"<1 	c #D9B28E",
"[1 	c #DEB890",
"}1 	c #CBA278",
"|1 	c #C8A073",
"11 	c #CEA775",
"21 	c #D0A779",
"31 	c #CBA176",
"41 	c #C0926A",
"51 	c #A06840",
"61 	c #A36F46",
"71 	c #AB8155",
"81 	c #A87A52",
"91 	c #B2865D",
"01 	c #C4986F",
"a1 	c #D4A87A",
"b1 	c #CFA476",
"c1 	c #BF9367",
"d1 	c #BB8A60",
"e1 	c #B6885F",
"f1 	c #B27E54",
"g1 	c #AC7D54",
"h1 	c #A6764E",
"i1 	c #AA7F58",
"j1 	c #BA926A",
"k1 	c #B58F6A",
"l1 	c #AF855F",
"m1 	c #9A714E",
"n1 	c #996A46",
"o1 	c #925C36",
"p1 	c #935D37",
"q1 	c #966039",
"r1 	c #97613B",
"s1 	c #945F39",
"t1 	c #95613A",
"u1 	c #946039",
"v1 	c #8E5A36",
"w1 	c #966740",
"x1 	c #8C5F38",
"y1 	c #805733",
"z1 	c #7D4B2A",
"A1 	c #7D4A2A",
"B1 	c #844F2B",
"C1 	c #8C5834",
"D1 	c #96613A",
"E1 	c #976641",
"F1 	c #976B48",
"G1 	c #A7774F",
"H1 	c #AE7E54",
"I1 	c #885937",
"J1 	c #895B3A",
"K1 	c #70522F",
"L1 	c #6E5330",
"M1 	c #4E3F2B",
"N1 	c #302A21",
"O1 	c #3C3631",
"P1 	c #5B4D3F",
"Q1 	c #957862",
"R1 	c #D1A983",
"S1 	c #DDC0A6",
"T1 	c #E8C6AB",
"U1 	c #DEBA96",
"V1 	c #D2AA7F",
"W1 	c #D5AD82",
"X1 	c #D4B190",
"Y1 	c #D6B292",
"Z1 	c #D7B495",
"`1 	c #D5AE8A",
" 2 	c #D8B593",
".2 	c #DEB894",
"+2 	c #CFA67D",
"@2 	c #CFA877",
"#2 	c #D5AF7E",
"$2 	c #DAAF83",
"%2 	c #D7AF84",
"&2 	c #B88A62",
"*2 	c #AC7B52",
"=2 	c #C19369",
"-2 	c #AC7B50",
";2 	c #A67148",
">2 	c #AA7D53",
",2 	c #B48A60",
"'2 	c #AC8359",
")2 	c #AA7D56",
"!2 	c #B2855E",
"~2 	c #C69970",
"{2 	c #C3946A",
"]2 	c #A5744D",
"^2 	c #BB9673",
"/2 	c #BB9671",
"(2 	c #B9926D",
"_2 	c #B0845E",
":2 	c #9D7350",
"<2 	c #976B49",
"[2 	c #94613C",
"}2 	c #88532D",
"|2 	c #87532E",
"12 	c #895834",
"22 	c #895732",
"32 	c #8B5631",
"42 	c #895734",
"52 	c #895530",
"62 	c #895631",
"72 	c #966844",
"82 	c #90613B",
"92 	c #8A5E38",
"02 	c #755230",
"a2 	c #7C4F2E",
"b2 	c #784729",
"c2 	c #83502D",
"d2 	c #8C5A36",
"e2 	c #935E39",
"f2 	c #8A5935",
"g2 	c #8B5D3B",
"h2 	c #93663C",
"i2 	c #A06F48",
"j2 	c #B3855D",
"k2 	c #8D5730",
"l2 	c #996841",
"m2 	c #926747",
"n2 	c #735432",
"o2 	c #675035",
"p2 	c #443728",
"q2 	c #2F2B20",
"r2 	c #22221B",
"s2 	c #0E1110",
"t2 	c #3B372F",
"u2 	c #6C5E52",
"v2 	c #A68B6F",
"w2 	c #D09F75",
"x2 	c #C7966A",
"y2 	c #CA9F76",
"z2 	c #D1B090",
"A2 	c #E2C6AD",
"B2 	c #E8C9B2",
"C2 	c #E7C3A2",
"D2 	c #D5B08A",
"E2 	c #C39D7A",
"F2 	c #C19C7A",
"G2 	c #CEA680",
"H2 	c #D1AB85",
"I2 	c #D1AA81",
"J2 	c #D7AD83",
"K2 	c #D9B089",
"L2 	c #D6AF8B",
"M2 	c #DCB795",
"N2 	c #DEB99A",
"O2 	c #DEB994",
"P2 	c #C89F75",
"Q2 	c #CDA478",
"R2 	c #D8AD85",
"S2 	c #D7B087",
"T2 	c #DCB38B",
"U2 	c #D3AB82",
"V2 	c #D6AB81",
"W2 	c #C8996F",
"X2 	c #AA744B",
"Y2 	c #B18559",
"Z2 	c #B68B63",
"`2 	c #BD9369",
" 3 	c #BA8D62",
".3 	c #B3855A",
"+3 	c #AD7D54",
"@3 	c #AC7E55",
"#3 	c #B4875E",
"$3 	c #C39B74",
"%3 	c #D3AD8A",
"&3 	c #BD946D",
"*3 	c #AD815B",
"=3 	c #A07652",
"-3 	c #966C4B",
";3 	c #986843",
">3 	c #8D5B37",
",3 	c #855330",
"'3 	c #834D2B",
")3 	c #844C29",
"!3 	c #87512D",
"~3 	c #89542E",
"{3 	c #89552F",
"]3 	c #946E4D",
"^3 	c #966B47",
"/3 	c #8B5E38",
"(3 	c #865834",
"_3 	c #84522F",
":3 	c #7D4C2C",
"<3 	c #835230",
"[3 	c #8F5D38",
"}3 	c #915F38",
"|3 	c #895935",
"13 	c #986741",
"23 	c #95673F",
"33 	c #996944",
"43 	c #A4764F",
"53 	c #9E6C43",
"63 	c #AA7A53",
"73 	c #976E4D",
"83 	c #855E42",
"93 	c #624C37",
"03 	c #3C3126",
"a3 	c #27251C",
"b3 	c #1E201B",
"c3 	c #1A1C19",
"d3 	c #47403B",
"e3 	c #705F51",
"f3 	c #BE9E82",
"g3 	c #D4A57B",
"h3 	c #CB9C73",
"i3 	c #E5C1A0",
"j3 	c #E7C9B1",
"k3 	c #E5C2A2",
"l3 	c #D9B38B",
"m3 	c #BA9572",
"n3 	c #BD9775",
"o3 	c #CEA784",
"p3 	c #D9B491",
"q3 	c #D8AA80",
"r3 	c #D5A97F",
"s3 	c #D6B08D",
"t3 	c #EBC7A9",
"u3 	c #E8C3A2",
"v3 	c #E2BD98",
"w3 	c #C99D75",
"x3 	c #DBB187",
"y3 	c #DAB48D",
"z3 	c #D3AC83",
"A3 	c #D9AF84",
"B3 	c #D7A779",
"C3 	c #CC9D72",
"D3 	c #B4865C",
"E3 	c #B98B5F",
"F3 	c #B48559",
"G3 	c #AD8359",
"H3 	c #C3976F",
"I3 	c #BF9065",
"J3 	c #B28458",
"K3 	c #AE7D54",
"L3 	c #C69D75",
"M3 	c #DCB691",
"N3 	c #D0AC8C",
"O3 	c #AB805A",
"P3 	c #A57954",
"Q3 	c #966D4B",
"R3 	c #986641",
"S3 	c #885532",
"T3 	c #86502D",
"U3 	c #8C5935",
"V3 	c #996945",
"W3 	c #A87952",
"X3 	c #9E734F",
"Y3 	c #936E4E",
"Z3 	c #956A46",
"`3 	c #8C5F36",
" 4 	c #855432",
".4 	c #764A2B",
"+4 	c #865734",
"@4 	c #925F3A",
"#4 	c #94663C",
"$4 	c #986842",
"%4 	c #966A47",
"&4 	c #9A6A44",
"*4 	c #99633B",
"=4 	c #A47147",
"-4 	c #B98B62",
";4 	c #9F7453",
">4 	c #846147",
",4 	c #59472F",
"'4 	c #382E25",
")4 	c #24241D",
"!4 	c #1A1D1A",
"~4 	c #21221E",
"{4 	c #302D2A",
"]4 	c #5C5046",
"^4 	c #83705A",
"/4 	c #C4A486",
"(4 	c #D6B08E",
"_4 	c #E3BE9A",
":4 	c #DCBB9D",
"<4 	c #DBBA99",
"[4 	c #C6A17B",
"}4 	c #B38A60",
"|4 	c #DAB38F",
"14 	c #DAB28A",
"24 	c #D0A780",
"34 	c #D0AD8F",
"44 	c #D8B18D",
"54 	c #E8C5A8",
"64 	c #E7C3A4",
"74 	c #E6C09B",
"84 	c #C4976C",
"94 	c #DBB185",
"04 	c #D8AF86",
"a4 	c #DAB389",
"b4 	c #E3BF98",
"c4 	c #C2996F",
"d4 	c #C99C71",
"e4 	c #D1A475",
"f4 	c #D6A577",
"g4 	c #CA996C",
"h4 	c #C59569",
"i4 	c #B5885E",
"j4 	c #BC936B",
"k4 	c #B5855C",
"l4 	c #AA7A51",
"m4 	c #AB7A50",
"n4 	c #B07F55",
"o4 	c #C09167",
"p4 	c #D4AA81",
"q4 	c #E2BA93",
"r4 	c #E3BB96",
"s4 	c #DFB794",
"t4 	c #D1AA87",
"u4 	c #BF9976",
"v4 	c #B9926C",
"w4 	c #B1855F",
"x4 	c #A2744C",
"y4 	c #996D49",
"z4 	c #8C5E36",
"A4 	c #895833",
"B4 	c #AB7F56",
"C4 	c #AB7F57",
"D4 	c #996E4B",
"E4 	c #8C6638",
"F4 	c #895C35",
"G4 	c #764C2C",
"H4 	c #7B4B2B",
"I4 	c #875734",
"J4 	c #825734",
"K4 	c #8A5936",
"L4 	c #8D5D39",
"M4 	c #895B35",
"N4 	c #8B5C37",
"O4 	c #8C5B37",
"P4 	c #925D37",
"Q4 	c #AA774C",
"R4 	c #9E704F",
"S4 	c #865F43",
"T4 	c #4E3F2C",
"U4 	c #2F2A24",
"V4 	c #1F201C",
"W4 	c #121613",
"X4 	c #101415",
"Y4 	c #262723",
"Z4 	c #61544B",
"`4 	c #907968",
" 5 	c #C8AB91",
".5 	c #E5C3A3",
"+5 	c #CFAF93",
"@5 	c #C29A73",
"#5 	c #AE845B",
"$5 	c #DEB68F",
"%5 	c #C19267",
"&5 	c #B98C63",
"*5 	c #DCB896",
"=5 	c #DEBA9A",
"-5 	c #E6BF9C",
";5 	c #DAB28B",
">5 	c #BC9066",
",5 	c #C99B6F",
"'5 	c #D1A474",
")5 	c #D2A674",
"!5 	c #DBB182",
"~5 	c #D2A877",
"{5 	c #BA8C60",
"]5 	c #C69367",
"^5 	c #C99669",
"/5 	c #CA976A",
"(5 	c #BF8D61",
"_5 	c #B98C62",
":5 	c #B28760",
"<5 	c #AC7E58",
"[5 	c #A97851",
"}5 	c #AB7B51",
"|5 	c #D5AA81",
"15 	c #E3BB94",
"25 	c #E3BB9A",
"35 	c #E0B894",
"45 	c #C29A76",
"55 	c #996C49",
"65 	c #96653D",
"75 	c #8C5F35",
"85 	c #8D5A35",
"95 	c #99653E",
"05 	c #AB7E55",
"a5 	c #AC7F56",
"b5 	c #A47650",
"c5 	c #94673F",
"d5 	c #8E6438",
"e5 	c #845632",
"f5 	c #774D2C",
"g5 	c #77512F",
"h5 	c #7A4F2E",
"i5 	c #825331",
"j5 	c #855734",
"k5 	c #865733",
"l5 	c #835D43",
"m5 	c #4C3F2B",
"n5 	c #2F2B24",
"o5 	c #1C1D18",
"p5 	c #191B16",
"q5 	c #0E1413",
"r5 	c #25241D",
"s5 	c #322F2A",
"t5 	c #5B4F47",
"u5 	c #9A816F",
"v5 	c #CEAC8F",
"w5 	c #E4C5A5",
"x5 	c #DEBA97",
"y5 	c #C7A17B",
"z5 	c #A67953",
"A5 	c #A87A51",
"B5 	c #B48960",
"C5 	c #CFA77F",
"D5 	c #DEB790",
"E5 	c #BE9168",
"F5 	c #CCA47E",
"G5 	c #E2BE9D",
"H5 	c #C4976B",
"I5 	c #BC8C5B",
"J5 	c #C18D5B",
"K5 	c #C58F5D",
"L5 	c #C89362",
"M5 	c #BE8A5A",
"N5 	c #B08356",
"O5 	c #BA895B",
"P5 	c #C89569",
"Q5 	c #BA885A",
"R5 	c #B28358",
"S5 	c #BC946B",
"T5 	c #BB9774",
"U5 	c #B68D68",
"V5 	c #A3724B",
"W5 	c #AF8359",
"X5 	c #C9986D",
"Y5 	c #D7A87D",
"Z5 	c #DBAF87",
"`5 	c #E3BB95",
" 6 	c #E6BE9B",
".6 	c #E4BC9B",
"+6 	c #E4BC9A",
"@6 	c #DEB792",
"#6 	c #D2AB86",
"$6 	c #C49C75",
"%6 	c #B68B62",
"&6 	c #A9794F",
"*6 	c #A4734A",
"=6 	c #966B48",
"-6 	c #906139",
";6 	c #8A5A35",
">6 	c #895A35",
",6 	c #8B5A35",
"'6 	c #95603A",
")6 	c #A87950",
"!6 	c #B58659",
"~6 	c #A87953",
"{6 	c #96673F",
"]6 	c #8A6136",
"^6 	c #7C4C2D",
"/6 	c #76492A",
"(6 	c #754A2A",
"_6 	c #744C2C",
":6 	c #794E2D",
"<6 	c #814E2C",
"[6 	c #996C48",
"}6 	c #856240",
"|6 	c #59492D",
"16 	c #332D24",
"26 	c #1B1B17",
"36 	c #191A16",
"46 	c #181C19",
"56 	c #645548",
"66 	c #A58567",
"76 	c #D3A983",
"86 	c #E6C2A4",
"96 	c #E0C4A7",
"06 	c #CFAD8E",
"a6 	c #D9B38E",
"b6 	c #A6774E",
"c6 	c #B1855D",
"d6 	c #D1A77F",
"e6 	c #E4BC94",
"f6 	c #DEB38B",
"g6 	c #D2A67D",
"h6 	c #C0936A",
"i6 	c #BC9069",
"j6 	c #D3AA83",
"k6 	c #E3BD96",
"l6 	c #DCB897",
"m6 	c #B3865B",
"n6 	c #AF8254",
"o6 	c #B78559",
"p6 	c #BD8A5E",
"q6 	c #BC895B",
"r6 	c #B88658",
"s6 	c #B18458",
"t6 	c #B28356",
"u6 	c #B8875A",
"v6 	c #B7865B",
"w6 	c #B68961",
"x6 	c #BB9775",
"y6 	c #B48E69",
"z6 	c #B0855F",
"A6 	c #AE825C",
"B6 	c #AC7D55",
"C6 	c #A9774F",
"D6 	c #AA7A52",
"E6 	c #AB7C53",
"F6 	c #B78B61",
"G6 	c #D3A376",
"H6 	c #E1B58E",
"I6 	c #E5BB95",
"J6 	c #E9C29E",
"K6 	c #E9C29F",
"L6 	c #E7BF9E",
"M6 	c #E2BB96",
"N6 	c #DEB690",
"O6 	c #D3AB84",
"P6 	c #AB7A4F",
"Q6 	c #986C49",
"R6 	c #976A47",
"S6 	c #92663C",
"T6 	c #8C6537",
"U6 	c #956239",
"V6 	c #966139",
"W6 	c #9C653D",
"X6 	c #A27049",
"Y6 	c #93653C",
"Z6 	c #885934",
"`6 	c #764729",
" 7 	c #754729",
".7 	c #744629",
"+7 	c #8E5934",
"@7 	c #945E38",
"#7 	c #A46E46",
"$7 	c #9C6B48",
"%7 	c #866447",
"&7 	c #624C2F",
"*7 	c #0F1212",
"=7 	c #35302C",
"-7 	c #4F463C",
";7 	c #766354",
">7 	c #AF8C6A",
",7 	c #E0BD9F",
"'7 	c #E6C6AA",
")7 	c #DEC1A7",
"!7 	c #D1AD8C",
"~7 	c #CFA986",
"{7 	c #C0966F",
"]7 	c #D0A67E",
"^7 	c #DEB992",
"/7 	c #E4BD95",
"(7 	c #DBAF86",
"_7 	c #B3865C",
":7 	c #D7AC81",
"<7 	c #D5A67B",
"[7 	c #CA9D74",
"}7 	c #D3A479",
"|7 	c #D6AE85",
"17 	c #DDB795",
"27 	c #E2BB9C",
"37 	c #B6885B",
"47 	c #B07C50",
"57 	c #B68152",
"67 	c #B68356",
"77 	c #B68558",
"87 	c #BE9874",
"97 	c #BB9674",
"07 	c #B9926A",
"a7 	c #B98E66",
"b7 	c #B78860",
"c7 	c #AF7E55",
"d7 	c #AA7B54",
"e7 	c #B38458",
"f7 	c #D6A578",
"g7 	c #D9AB81",
"h7 	c #E2B790",
"i7 	c #E7BE9B",
"j7 	c #EBC39E",
"k7 	c #EAC4A3",
"l7 	c #E7C0A0",
"m7 	c #E4BC99",
"n7 	c #E4BB95",
"o7 	c #E2B993",
"p7 	c #D2A67E",
"q7 	c #B3875D",
"r7 	c #9D6F49",
"s7 	c #966C49",
"t7 	c #99643C",
"u7 	c #AB7F55",
"v7 	c #B6885C",
"w7 	c #BF9368",
"x7 	c #AB7C52",
"y7 	c #9C6A44",
"z7 	c #916038",
"A7 	c #7A4C2C",
"B7 	c #744628",
"C7 	c #6D4427",
"D7 	c #734628",
"E7 	c #6E4126",
"F7 	c #704026",
"G7 	c #724729",
"H7 	c #7D4E2D",
"I7 	c #956845",
"J7 	c #856043",
"K7 	c #624D35",
"L7 	c #393228",
"M7 	c #24221F",
"N7 	c #24231F",
"O7 	c #423C3B",
"P7 	c #95765C",
"Q7 	c #C19770",
"R7 	c #CAA484",
"S7 	c #E2C2A8",
"T7 	c #E5C6AC",
"U7 	c #DAB793",
"V7 	c #E6C29D",
"W7 	c #DAB898",
"X7 	c #D4AC85",
"Y7 	c #CEA47A",
"Z7 	c #E2BC96",
"`7 	c #E1B890",
" 8 	c #CC9C71",
".8 	c #BC8B60",
"+8 	c #BD8D61",
"@8 	c #CA9D73",
"#8 	c #CE9D73",
"$8 	c #CB9B70",
"%8 	c #C89B72",
"&8 	c #C99F7B",
"*8 	c #D0A986",
"=8 	c #BF9260",
"-8 	c #AA7A4D",
";8 	c #A67147",
">8 	c #B07C52",
",8 	c #B07C53",
"'8 	c #A3754D",
")8 	c #B0845D",
"!8 	c #BF9872",
"~8 	c #C8A17E",
"{8 	c #D0A987",
"]8 	c #BE9A7A",
"^8 	c #C2986F",
"/8 	c #C3956A",
"(8 	c #C49468",
"_8 	c #B78659",
":8 	c #BA895C",
"<8 	c #CD9C72",
"[8 	c #D9B085",
"}8 	c #DEB78F",
"|8 	c #E8C2A0",
"18 	c #E2BB99",
"28 	c #E2B994",
"38 	c #DCB38C",
"48 	c #DCB28B",
"58 	c #D1A67C",
"68 	c #AF845A",
"78 	c #A97B52",
"88 	c #9F6B45",
"98 	c #AE8055",
"08 	c #C29164",
"a8 	c #BF8D63",
"b8 	c #BB8B60",
"c8 	c #9E6B45",
"d8 	c #6E4527",
"e8 	c #6C4427",
"f8 	c #754A2B",
"g8 	c #774A2B",
"h8 	c #845533",
"i8 	c #976540",
"j8 	c #98643F",
"k8 	c #966543",
"l8 	c #8C674B",
"m8 	c #5A4A33",
"n8 	c #373027",
"o8 	c #23231F",
"p8 	c #1F201B",
"q8 	c #312E27",
"r8 	c #544B42",
"s8 	c #726055",
"t8 	c #AB8562",
"u8 	c #C99E76",
"v8 	c #D4B090",
"w8 	c #D9B99E",
"x8 	c #BE8E63",
"y8 	c #D3AB81",
"z8 	c #DBB58D",
"A8 	c #D9B38C",
"B8 	c #C69C74",
"C8 	c #DFB991",
"D8 	c #E4BD96",
"E8 	c #D3A67D",
"F8 	c #BE9066",
"G8 	c #C19064",
"H8 	c #BC8B5F",
"I8 	c #C08D61",
"J8 	c #C79569",
"K8 	c #CF9E72",
"L8 	c #D4A67C",
"M8 	c #D5A67C",
"N8 	c #D0A47A",
"O8 	c #B8865B",
"P8 	c #AD774E",
"Q8 	c #A26E46",
"R8 	c #A47148",
"S8 	c #A77B55",
"T8 	c #B78C66",
"U8 	c #DCB99A",
"V8 	c #DDBA9D",
"W8 	c #C99F7A",
"X8 	c #D09F76",
"Y8 	c #CF9C70",
"Z8 	c #BD8C64",
"`8 	c #C08E64",
" 9 	c #BD8C61",
".9 	c #BE8E64",
"+9 	c #CC9C73",
"@9 	c #D8AC81",
"#9 	c #DBB48F",
"$9 	c #E8C5A7",
"%9 	c #E1BA97",
"&9 	c #E5BB96",
"*9 	c #E1B892",
"=9 	c #E0B58D",
"-9 	c #B78960",
";9 	c #A87A53",
">9 	c #A67751",
",9 	c #9C6E4A",
"'9 	c #9F704B",
")9 	c #A87951",
"!9 	c #BB8E65",
"~9 	c #C49265",
"{9 	c #C69468",
"]9 	c #BD8A5F",
"^9 	c #AD7D52",
"/9 	c #A26E45",
"(9 	c #925E39",
"_9 	c #784628",
":9 	c #6E3F25",
"<9 	c #724427",
"[9 	c #6F4528",
"}9 	c #744D2C",
"|9 	c #735330",
"19 	c #8F6041",
"29 	c #7F5E3F",
"39 	c #4D422C",
"49 	c #2B2824",
"59 	c #21211B",
"69 	c #111410",
"79 	c #39362C",
"89 	c #574D37",
"99 	c #796658",
"09 	c #B18963",
"a9 	c #C49B73",
"b9 	c #D4AF8E",
"c9 	c #CCAB90",
"d9 	c #E2C3A8",
"e9 	c #DFBB99",
"f9 	c #AF7F54",
"g9 	c #CAA176",
"h9 	c #CDA278",
"i9 	c #C79E75",
"j9 	c #BE9671",
"k9 	c #DDB38C",
"l9 	c #DBAE86",
"m9 	c #C5956A",
"n9 	c #B8865A",
"o9 	c #B48257",
"p9 	c #B7875C",
"q9 	c #C18D61",
"r9 	c #CA9668",
"s9 	c #C69163",
"t9 	c #D09C6F",
"u9 	c #D3A074",
"v9 	c #D09E72",
"w9 	c #CA966A",
"x9 	c #98623A",
"y9 	c #945D35",
"z9 	c #915C37",
"A9 	c #99633C",
"B9 	c #A57751",
"C9 	c #E5C2A7",
"D9 	c #D5B290",
"E9 	c #D3A277",
"F9 	c #D39F74",
"G9 	c #C6956B",
"H9 	c #C9966B",
"I9 	c #CC996D",
"J9 	c #CE9A6F",
"K9 	c #D29E73",
"L9 	c #D7AC83",
"M9 	c #E9C7AA",
"N9 	c #E3BE9B",
"O9 	c #E2BB95",
"P9 	c #E4BB94",
"Q9 	c #E2B891",
"R9 	c #CDA27A",
"S9 	c #B78A62",
"T9 	c #AD8357",
"U9 	c #C69568",
"V9 	c #CE9A6C",
"W9 	c #CB986A",
"X9 	c #C18C61",
"Y9 	c #B8875C",
"Z9 	c #AE7C52",
"`9 	c #7D4B2B",
" 0 	c #6A3D22",
".0 	c #6F4226",
"+0 	c #754629",
"@0 	c #774D2D",
"#0 	c #765431",
"$0 	c #725431",
"%0 	c #8B5C3B",
"&0 	c #785A3D",
"*0 	c #4F442E",
"=0 	c #2B2924",
"-0 	c #1E1D19",
";0 	c #141513",
">0 	c #191A17",
",0 	c #262620",
"'0 	c #3C382B",
")0 	c #5E5240",
"!0 	c #7B6757",
"~0 	c #B28A67",
"{0 	c #BE946C",
"]0 	c #C49D7A",
"^0 	c #DFBB97",
"/0 	c #C49870",
"(0 	c #AA7B53",
"_0 	c #A97951",
":0 	c #A97C55",
"<0 	c #B1865D",
"[0 	c #B38960",
"}0 	c #B58961",
"|0 	c #BA8A5F",
"10 	c #B48458",
"20 	c #B07E53",
"30 	c #AB774D",
"40 	c #B78256",
"50 	c #C18C5F",
"60 	c #C38C5B",
"70 	c #C68C5A",
"80 	c #CE9766",
"90 	c #C89263",
"00 	c #C68E5F",
"a0 	c #C08A5D",
"b0 	c #945D37",
"c0 	c #A27149",
"d0 	c #B88E69",
"e0 	c #DBB999",
"f0 	c #DFC3A8",
"g0 	c #D6A478",
"h0 	c #D7A679",
"i0 	c #D5A377",
"j0 	c #D4A074",
"k0 	c #D09D72",
"l0 	c #D4A378",
"m0 	c #DBAC82",
"n0 	c #E2B791",
"o0 	c #EAC9AD",
"p0 	c #EECFB4",
"q0 	c #EDCDB2",
"r0 	c #E8C4A4",
"s0 	c #E1B996",
"t0 	c #E1BA94",
"u0 	c #E4BC96",
"v0 	c #E5B995",
"w0 	c #DDB28B",
"x0 	c #D0A47B",
"y0 	c #BC9067",
"z0 	c #B5875B",
"A0 	c #C08D60",
"B0 	c #CA9869",
"C0 	c #D49D6D",
"D0 	c #D39C6C",
"E0 	c #CE9A6E",
"F0 	c #C49368",
"G0 	c #B6855A",
"H0 	c #895634",
"I0 	c #76482A",
"J0 	c #78502F",
"K0 	c #724F2D",
"L0 	c #735430",
"M0 	c #785531",
"N0 	c #885835",
"O0 	c #845734",
"P0 	c #6B4D2D",
"Q0 	c #4F422F",
"R0 	c #2A2720",
"S0 	c #1C1B17",
"T0 	c #1C1C18",
"U0 	c #27261F",
"V0 	c #423A33",
"W0 	c #695A51",
"X0 	c #7C6754",
"Y0 	c #A78060",
"Z0 	c #B38258",
"`0 	c #CD9B70",
" a 	c #D7AD86",
".a 	c #B18258",
"+a 	c #AB8057",
"@a 	c #B1835A",
"#a 	c #B28459",
"$a 	c #B38157",
"%a 	c #B37E55",
"&a 	c #A56E46",
"*a 	c #AD784C",
"=a 	c #B67F53",
"-a 	c #B88153",
";a 	c #C28A57",
">a 	c #C58C59",
",a 	c #C68B57",
"'a 	c #C18A58",
")a 	c #B98559",
"!a 	c #B48155",
"~a 	c #A26B43",
"{a 	c #9E6942",
"]a 	c #9A6640",
"^a 	c #A87B54",
"/a 	c #AE825B",
"(a 	c #C19870",
"_a 	c #DBB693",
":a 	c #E2BFA0",
"<a 	c #E3C5AA",
"[a 	c #D9AD84",
"}a 	c #D6A378",
"|a 	c #D6A477",
"1a 	c #D6A67B",
"2a 	c #D6AA82",
"3a 	c #E4BC98",
"4a 	c #E8C5A5",
"5a 	c #ECCBB2",
"6a 	c #EDCEB5",
"7a 	c #ECCCB4",
"8a 	c #E7C9B2",
"9a 	c #E8C7AB",
"0a 	c #E7C1A1",
"aa 	c #E4BB97",
"ba 	c #E5BA95",
"ca 	c #E3B992",
"da 	c #DFB288",
"ea 	c #D4A479",
"fa 	c #C6976C",
"ga 	c #BE8F64",
"ha 	c #C59367",
"ia 	c #CD996C",
"ja 	c #D39E6E",
"ka 	c #D6A275",
"la 	c #D6A173",
"ma 	c #D39E73",
"na 	c #CF9B70",
"oa 	c #C8976B",
"pa 	c #C79469",
"qa 	c #93613B",
"ra 	c #79482A",
"sa 	c #885834",
"ta 	c #875834",
"ua 	c #74502E",
"va 	c #66492C",
"wa 	c #49392B",
"xa 	c #2A261E",
"ya 	c #1A1A16",
"za 	c #3C3530",
"Aa 	c #69584D",
"Ba 	c #766555",
"Ca 	c #96755B",
"Da 	c #B58962",
"Ea 	c #AD8056",
"Fa 	c #AB7950",
"Ga 	c #B68357",
"Ha 	c #CA976C",
"Ia 	c #A36D42",
"Ja 	c #A77246",
"Ka 	c #AF8865",
"La 	c #C9A584",
"Ma 	c #B18357",
"Na 	c #B68358",
"Oa 	c #B17D52",
"Pa 	c #A36A3F",
"Qa 	c #A56E44",
"Ra 	c #AA764A",
"Sa 	c #AE774A",
"Ta 	c #B27B4E",
"Ua 	c #B48050",
"Va 	c #B88254",
"Wa 	c #AB774B",
"Xa 	c #AB784C",
"Ya 	c #AE794E",
"Za 	c #A06B43",
"`a 	c #A46D44",
" b 	c #A6754C",
".b 	c #A97A53",
"+b 	c #E5C4A8",
"@b 	c #E7CAB5",
"#b 	c #E6C8B1",
"$b 	c #E2C3A7",
"%b 	c #DBB592",
"&b 	c #DDB189",
"*b 	c #E1B38B",
"=b 	c #E1B68E",
"-b 	c #DDB58E",
";b 	c #E0BD99",
">b 	c #E3BE9C",
",b 	c #EBC9AC",
"'b 	c #E9C9B0",
")b 	c #EBCBB3",
"!b 	c #E9C8AD",
"~b 	c #E5C0A2",
"{b 	c #DFB998",
"]b 	c #E1B993",
"^b 	c #E1B891",
"/b 	c #E2B992",
"(b 	c #E4BA94",
"_b 	c #E3BB93",
":b 	c #E3B68C",
"<b 	c #E5B589",
"[b 	c #DAAA7F",
"}b 	c #D1A377",
"|b 	c #D29F73",
"1b 	c #D5A273",
"2b 	c #CB9869",
"3b 	c #D4A170",
"4b 	c #D29F71",
"5b 	c #D4A275",
"6b 	c #D7A577",
"7b 	c #D4A175",
"8b 	c #D1A176",
"9b 	c #CB9A6E",
"0b 	c #BD8C62",
"ab 	c #825130",
"bb 	c #714528",
"cb 	c #75512F",
"db 	c #73502E",
"eb 	c #72492A",
"fb 	c #5C412B",
"gb 	c #3F3426",
"hb 	c #26231B",
"ib 	c #191815",
"jb 	c #22221D",
"kb 	c #37322D",
"lb 	c #6C5B4D",
"mb 	c #6F5C4E",
"nb 	c #8C7159",
"ob 	c #B08966",
"pb 	c #AD8157",
"qb 	c #A9764B",
"rb 	c #AD7A4E",
"sb 	c #B88357",
"tb 	c #B98459",
"ub 	c #A36B41",
"vb 	c #986039",
"wb 	c #996139",
"xb 	c #C39C78",
"yb 	c #CB9E74",
"zb 	c #B7895D",
"Ab 	c #B58458",
"Bb 	c #B38156",
"Cb 	c #A77148",
"Db 	c #B78657",
"Eb 	c #C28B5B",
"Fb 	c #BC8455",
"Gb 	c #A66F44",
"Hb 	c #986038",
"Ib 	c #9D643B",
"Jb 	c #A57046",
"Kb 	c #A9764A",
"Lb 	c #A77146",
"Mb 	c #A56B3E",
"Nb 	c #A56B3F",
"Ob 	c #D9B08A",
"Pb 	c #DDB896",
"Qb 	c #E3C5AC",
"Rb 	c #E8CAB4",
"Sb 	c #E1C4A9",
"Tb 	c #DFBDA0",
"Ub 	c #E5BE9F",
"Vb 	c #E2BC9A",
"Wb 	c #E5BF9D",
"Xb 	c #E5C0A0",
"Yb 	c #E5C1A2",
"Zb 	c #E4C1A2",
"`b 	c #E8C4A6",
" c 	c #EAC8AB",
".c 	c #ECCAAD",
"+c 	c #ECCBB1",
"@c 	c #E7C5A7",
"#c 	c #E5BFA0",
"$c 	c #DFBA99",
"%c 	c #DFB690",
"&c 	c #E1B68F",
"*c 	c #DCB088",
"=c 	c #DDB088",
"-c 	c #DFB28A",
";c 	c #E0B087",
">c 	c #E0B088",
",c 	c #D5A376",
"'c 	c #D8A677",
")c 	c #D19C6B",
"!c 	c #D2A072",
"~c 	c #D49F6D",
"{c 	c #D6A170",
"]c 	c #D09D71",
"^c 	c #D39F70",
"/c 	c #CFA074",
"(c 	c #C29267",
"_c 	c #915F3B",
":c 	c #78482A",
"<c 	c #724628",
"[c 	c #6E4528",
"}c 	c #6A4126",
"|c 	c #553B2A",
"1c 	c #352F22",
"2c 	c #26241B",
"3c 	c #191916",
"4c 	c #37342F",
"5c 	c #615347",
"6c 	c #6E5B4D",
"7c 	c #886B52",
"8c 	c #AD825C",
"9c 	c #A56D45",
"0c 	c #A46B40",
"ac 	c #9E643A",
"bc 	c #955D37",
"cc 	c #A37049",
"dc 	c #D0A984",
"ec 	c #DDB793",
"fc 	c #BC8C61",
"gc 	c #C19065",
"hc 	c #B17C50",
"ic 	c #BA8455",
"jc 	c #B07E50",
"kc 	c #AA7549",
"lc 	c #A67044",
"mc 	c #9B6138",
"nc 	c #A46C43",
"oc 	c #AB7448",
"pc 	c #AB744A",
"qc 	c #AF825A",
"rc 	c #D7A980",
"sc 	c #E3C6AD",
"tc 	c #E8CAB6",
"uc 	c #E6C9B3",
"vc 	c #E8C8B1",
"wc 	c #E6C5AB",
"xc 	c #E4C6AB",
"yc 	c #EBCBB2",
"zc 	c #EAC9AF",
"Ac 	c #ECCAAC",
"Bc 	c #ECC8AA",
"Cc 	c #EAC5A6",
"Dc 	c #E6BE9F",
"Ec 	c #E1B48C",
"Fc 	c #DCAC82",
"Gc 	c #D9A97E",
"Hc 	c #D8A77A",
"Ic 	c #DDAC84",
"Jc 	c #DBAB81",
"Kc 	c #DAAB81",
"Lc 	c #D29D6E",
"Mc 	c #D59F71",
"Nc 	c #D1A074",
"Oc 	c #D29F74",
"Pc 	c #D29D72",
"Qc 	c #D6A372",
"Rc 	c #D1A174",
"Sc 	c #CA986D",
"Tc 	c #9B6A43",
"Uc 	c #7A4A2B",
"Vc 	c #704528",
"Wc 	c #683C23",
"Xc 	c #4A3727",
"Yc 	c #2C271E",
"Zc 	c #201F19",
"`c 	c #35312D",
" d 	c #5C4E45",
".d 	c #705D4F",
"+d 	c #866A51",
"@d 	c #A17954",
"#d 	c #B38056",
"$d 	c #A16940",
"%d 	c #A3693E",
"&d 	c #A4693C",
"*d 	c #A46C44",
"=d 	c #955E37",
"-d 	c #AE7A51",
";d 	c #DDB894",
">d 	c #BE8F66",
",d 	c #BF8E64",
"'d 	c #B58257",
")d 	c #A67146",
"!d 	c #A46A3F",
"~d 	c #AD7549",
"{d 	c #A77249",
"]d 	c #AA7449",
"^d 	c #B27849",
"/d 	c #AA764B",
"(d 	c #A66F45",
"_d 	c #A5693B",
":d 	c #A56A3E",
"<d 	c #AF794D",
"[d 	c #B0794D",
"}d 	c #AA754B",
"|d 	c #B4855D",
"1d 	c #CA9C72",
"2d 	c #DFB891",
"3d 	c #E5C29F",
"4d 	c #E6C8B0",
"5d 	c #E9CEB8",
"6d 	c #E9CCB8",
"7d 	c #EBCFBB",
"8d 	c #EBCEBA",
"9d 	c #ECCCB5",
"0d 	c #ECCDBB",
"ad 	c #ECCCB7",
"bd 	c #ECCAAE",
"cd 	c #EBC9AB",
"dd 	c #EBCAAE",
"ed 	c #F0C8A7",
"fd 	c #ECC4A5",
"gd 	c #E5BB9B",
"hd 	c #E0B690",
"id 	c #DDB18A",
"jd 	c #D7A06A",
"kd 	c #D3A072",
"ld 	c #D4A075",
"md 	c #D3A175",
"nd 	c #D4A376",
"od 	c #D2A073",
"pd 	c #CE9C70",
"qd 	c #C49266",
"rd 	c #A2734D",
"sd 	c #815030",
"td 	c #6C4226",
"ud 	c #6A4326",
"vd 	c #694025",
"wd 	c #693D22",
"xd 	c #6B4226",
"yd 	c #623C26",
"zd 	c #403423",
"Ad 	c #27231B",
"Bd 	c #0D1010",
"Cd 	c #1F201E",
"Dd 	c #35322F",
"Ed 	c #54493A",
"Fd 	c #6D594C",
"Gd 	c #856950",
"Hd 	c #A57D58",
"Id 	c #CB986E",
"Jd 	c #A0673E",
"Kd 	c #9A643C",
"Ld 	c #9A643D",
"Md 	c #DEB38E",
"Nd 	c #CE9B6F",
"Od 	c #C8966A",
"Pd 	c #BB8558",
"Qd 	c #A56D44",
"Rd 	c #AB7449",
"Sd 	c #B07A4F",
"Td 	c #A9754A",
"Ud 	c #AA754A",
"Vd 	c #A66E45",
"Wd 	c #AF7749",
"Xd 	c #AE764A",
"Yd 	c #A76E42",
"Zd 	c #A56C40",
"`d 	c #A56B40",
" e 	c #9E673F",
".e 	c #9F6D45",
"+e 	c #BD8F65",
"@e 	c #D4A57A",
"#e 	c #DFB48D",
"$e 	c #E3BE97",
"%e 	c #E6C4A3",
"&e 	c #E9CEB7",
"*e 	c #EACFBA",
"=e 	c #ECD1BC",
"-e 	c #ECD2BC",
";e 	c #ECD1BE",
">e 	c #ECD1BD",
",e 	c #ECCEBA",
"'e 	c #E9CAB5",
")e 	c #ECCAAB",
"!e 	c #EBC7A8",
"~e 	c #EBC8A9",
"{e 	c #ECC7A7",
"]e 	c #EBC5A4",
"^e 	c #EBC4A1",
"/e 	c #ECC4A0",
"(e 	c #EAC39F",
"_e 	c #E6BB99",
":e 	c #E4B791",
"<e 	c #DDAF86",
"[e 	c #D7A77A",
"}e 	c #D8A575",
"|e 	c #D5A06F",
"1e 	c #D29F72",
"2e 	c #D5A175",
"3e 	c #D2A075",
"4e 	c #D5A578",
"5e 	c #D5A172",
"6e 	c #CB986C",
"7e 	c #AB7D55",
"8e 	c #8B5A37",
"9e 	c #6F4427",
"0e 	c #693F25",
"ae 	c #693E24",
"be 	c #693B22",
"ce 	c #714327",
"de 	c #513720",
"ee 	c #392F24",
"fe 	c #27251B",
"ge 	c #0C100E",
"he 	c #1B1C19",
"ie 	c #2E2D29",
"je 	c #474134",
"ke 	c #6A584B",
"le 	c #866950",
"me 	c #A97F58",
"ne 	c #C5986F",
"oe 	c #C49267",
"pe 	c #AC784E",
"qe 	c #A36E44",
"re 	c #A47853",
"se 	c #A88160",
"te 	c #B68C68",
"ue 	c #AF825B",
"ve 	c #E6C098",
"we 	c #C69165",
"xe 	c #C18857",
"ye 	c #A66B3E",
"ze 	c #B27A4D",
"Ae 	c #A36C44",
"Be 	c #A66E44",
"Ce 	c #A56C41",
"De 	c #A56B41",
"Ee 	c #A56D43",
"Fe 	c #A56A3D",
"Ge 	c #A36A40",
"He 	c #A2724C",
"Ie 	c #C89C72",
"Je 	c #DAAD84",
"Ke 	c #E2BB98",
"Le 	c #EBD0BA",
"Me 	c #EAD1B9",
"Ne 	c #E9CFB8",
"Oe 	c #ECD0BD",
"Pe 	c #ECCFBC",
"Qe 	c #ECCDB9",
"Re 	c #EDD0B9",
"Se 	c #EAC9AC",
"Te 	c #EAC7A9",
"Ue 	c #EBC7A7",
"Ve 	c #E8C29B",
"We 	c #E9C29B",
"Xe 	c #E7BE98",
"Ye 	c #E6BD96",
"Ze 	c #E7BE97",
"`e 	c #E9BF99",
" f 	c #E7BD97",
".f 	c #E9BE99",
"+f 	c #E7BA97",
"@f 	c #E2B58D",
"#f 	c #DDAD85",
"$f 	c #D7A579",
"%f 	c #D7A576",
"&f 	c #D7A270",
"*f 	c #D5A276",
"=f 	c #D7A678",
"-f 	c #D09B6B",
";f 	c #D5A174",
">f 	c #CEA177",
",f 	c #D1A376",
"'f 	c #D2A478",
")f 	c #D2A276",
"!f 	c #D7A16E",
"~f 	c #C8976C",
"{f 	c #8F603C",
"]f 	c #6E4427",
"^f 	c #683D23",
"/f 	c #683D24",
"(f 	c #693C22",
"_f 	c #704628",
":f 	c #553B26",
"<f 	c #332C1C",
"[f 	c #24221B",
"}f 	c #1D1D1B",
"|f 	c #121512",
"1f 	c #3D392F",
"2f 	c #594E42",
"3f 	c #7C624B",
"4f 	c #A27654",
"5f 	c #C4956C",
"6f 	c #A6754D",
"7f 	c #AB7F59",
"8f 	c #C19B79",
"9f 	c #CCA582",
"0f 	c #C79F7D",
"af 	c #D2A47A",
"bf 	c #E2B78D",
"cf 	c #DFB389",
"df 	c #C9976C",
"ef 	c #C69064",
"ff 	c #CB9463",
"gf 	c #C59364",
"hf 	c #AE7749",
"if 	c #A86E41",
"jf 	c #B37F51",
"kf 	c #B27D51",
"lf 	c #9D653D",
"mf 	c #98613B",
"nf 	c #98613A",
"of 	c #9C643B",
"pf 	c #A36A41",
"qf 	c #9E6E49",
"rf 	c #AF8259",
"sf 	c #C2956A",
"tf 	c #E2B78F",
"uf 	c #E5C19F",
"vf 	c #E7CCB6",
"wf 	c #EBD1BB",
"xf 	c #EAD0B9",
"yf 	c #ECD0BB",
"zf 	c #EDCFB9",
"Af 	c #E0BC9B",
"Bf 	c #E3BA96",
"Cf 	c #E2B68F",
"Df 	c #E0B38A",
"Ef 	c #DEAF87",
"Ff 	c #DDAD83",
"Gf 	c #D8A87E",
"Hf 	c #DAAB82",
"If 	c #D9AA80",
"Jf 	c #E4B691",
"Kf 	c #E6B995",
"Lf 	c #E3B58E",
"Mf 	c #DEAD84",
"Nf 	c #D6A375",
"Of 	c #D49F74",
"Pf 	c #CA986A",
"Qf 	c #D4A174",
"Rf 	c #D19D72",
"Sf 	c #CF9F74",
"Tf 	c #D19E72",
"Uf 	c #CE9B6D",
"Vf 	c #CC996C",
"Wf 	c #CC996E",
"Xf 	c #CD986B",
"Yf 	c #C39165",
"Zf 	c #693F24",
"`f 	c #693C23",
" g 	c #6F3D24",
".g 	c #6D4327",
"+g 	c #6C4729",
"@g 	c #5D4428",
"#g 	c #312913",
"$g 	c #4B432F",
"%g 	c #645340",
"&g 	c #946C4E",
"*g 	c #BE8E65",
"=g 	c #B58F6C",
"-g 	c #B79577",
";g 	c #DAB593",
">g 	c #CFA886",
",g 	c #BB9068",
"'g 	c #DDAE84",
")g 	c #DAAC81",
"!g 	c #CD9E74",
"~g 	c #BB885C",
"{g 	c #C99363",
"]g 	c #C9925F",
"^g 	c #C18B59",
"/g 	c #BD8555",
"(g 	c #B98458",
"_g 	c #B07A4E",
":g 	c #8E562F",
"<g 	c #8B532D",
"[g 	c #88512B",
"}g 	c #8A542E",
"|g 	c #935B35",
"1g 	c #975F38",
"2g 	c #9A633C",
"3g 	c #B58960",
"4g 	c #D9AC84",
"5g 	c #E9C9AF",
"6g 	c #E9CCB7",
"7g 	c #EACEB9",
"8g 	c #E9CDB7",
"9g 	c #EACDB7",
"0g 	c #EBCDB3",
"ag 	c #EBCBB0",
"bg 	c #E9C8AB",
"cg 	c #E7C4A6",
"dg 	c #E2B893",
"eg 	c #D6A276",
"fg 	c #C28F63",
"gg 	c #BA865B",
"hg 	c #C08D64",
"ig 	c #BB8B62",
"jg 	c #BB8C63",
"kg 	c #CB9C72",
"lg 	c #DCAF86",
"mg 	c #D7A578",
"ng 	c #D9A97F",
"og 	c #CB996C",
"pg 	c #D09C70",
"qg 	c #CE9B6E",
"rg 	c #CE9B6C",
"sg 	c #CB996D",
"tg 	c #CD9C71",
"ug 	c #C28E60",
"vg 	c #C18E5E",
"wg 	c #B58256",
"xg 	c #996E4A",
"yg 	c #7D5030",
"zg 	c #6A4125",
"Ag 	c #6C4327",
"Bg 	c #6E4F2D",
"Cg 	c #563F2B",
"Dg 	c #382E23",
"Eg 	c #151819",
"Fg 	c #292621",
"Gg 	c #4F4530",
"Hg 	c #765C44",
"Ig 	c #A47956",
"Jg 	c #B48A65",
"Kg 	c #B48C6A",
"Lg 	c #C8A586",
"Mg 	c #B99F89",
"Ng 	c #CDAC8F",
"Og 	c #CCA178",
"Pg 	c #CE9F76",
"Qg 	c #CB996E",
"Rg 	c #C08A59",
"Sg 	c #C79060",
"Tg 	c #CA9261",
"Ug 	c #B78558",
"Vg 	c #9D653E",
"Wg 	c #9D6740",
"Xg 	c #915832",
"Yg 	c #935A34",
"Zg 	c #9F6C44",
"`g 	c #B08158",
" h 	c #D4AA82",
".h 	c #E6C199",
"+h 	c #EACBB2",
"@h 	c #EBCDB5",
"#h 	c #EBCBB1",
"$h 	c #E3BB97",
"%h 	c #DFB58F",
"&h 	c #DCAB81",
"*h 	c #D6A377",
"=h 	c #CC986D",
"-h 	c #C28D62",
";h 	c #AC794F",
">h 	c #AA764D",
",h 	c #BB8D63",
"'h 	c #CD9B6F",
")h 	c #D7A67A",
"!h 	c #D19D71",
"~h 	c #D4A277",
"{h 	c #C9986C",
"]h 	c #C59266",
"^h 	c #BE8C5F",
"/h 	c #BC895C",
"(h 	c #AE794D",
"_h 	c #AB784E",
":h 	c #8D5C38",
"<h 	c #734528",
"[h 	c #6E3C24",
"}h 	c #6A3E24",
"|h 	c #6D4A2B",
"1h 	c #5C432C",
"2h 	c #403426",
"3h 	c #2E2A26",
"4h 	c #564A3A",
"5h 	c #82654E",
"6h 	c #96755F",
"7h 	c #A28167",
"8h 	c #B89579",
"9h 	c #C3A48A",
"0h 	c #C09166",
"ah 	c #D1A075",
"bh 	c #CA986C",
"ch 	c #B28154",
"dh 	c #AD794C",
"eh 	c #B08054",
"fh 	c #B88659",
"gh 	c #B98659",
"hh 	c #C38E60",
"ih 	c #C38C5D",
"jh 	c #B78255",
"kh 	c #B37C51",
"lh 	c #B17C51",
"mh 	c #A46E45",
"nh 	c #9D6741",
"oh 	c #98643E",
"ph 	c #98633E",
"qh 	c #905A35",
"rh 	c #925A33",
"sh 	c #955F38",
"th 	c #9C6942",
"uh 	c #AB7A52",
"vh 	c #B88B62",
"wh 	c #DDB58D",
"xh 	c #E7C4A4",
"yh 	c #E9C6A8",
"zh 	c #E6BE9D",
"Ah 	c #E3BA98",
"Bh 	c #E0B68F",
"Ch 	c #DFB28B",
"Dh 	c #C38F64",
"Eh 	c #9B6944",
"Fh 	c #9B6843",
"Gh 	c #9C6C46",
"Hh 	c #C39368",
"Ih 	c #C79669",
"Jh 	c #D7A477",
"Kh 	c #DBAA7E",
"Lh 	c #CF9C71",
"Mh 	c #CD9A6E",
"Nh 	c #CC9A70",
"Oh 	c #C8976D",
"Ph 	c #BB895E",
"Qh 	c #A46F47",
"Rh 	c #9A643E",
"Sh 	c #935B34",
"Th 	c #8B5733",
"Uh 	c #8A5733",
"Vh 	c #744327",
"Wh 	c #704D2C",
"Xh 	c #63462B",
"Yh 	c #413427",
"Zh 	c #27251E",
"`h 	c #221F1A",
" i 	c #40392B",
".i 	c #695A49",
"+i 	c #917B6A",
"@i 	c #94755D",
"#i 	c #DBB99A",
"$i 	c #CBA889",
"%i 	c #CBA685",
"&i 	c #C39266",
"*i 	c #AB764B",
"=i 	c #AE7E4F",
"-i 	c #AF8153",
";i 	c #BD8A5C",
">i 	c #C79468",
",i 	c #C69062",
"'i 	c #C08859",
")i 	c #B98456",
"!i 	c #AD774B",
"~i 	c #A16A42",
"{i 	c #9A6742",
"]i 	c #935D38",
"^i 	c #8D5935",
"/i 	c #95613C",
"(i 	c #A16E48",
"_i 	c #AF8058",
":i 	c #C2946B",
"<i 	c #E8C29D",
"[i 	c #EAC4A4",
"}i 	c #E8C4A5",
"|i 	c #E6C19C",
"1i 	c #E6C09A",
"2i 	c #E9C19A",
"3i 	c #E6BD97",
"4i 	c #E5B893",
"5i 	c #DEAE86",
"6i 	c #E1B089",
"7i 	c #DDAE86",
"8i 	c #DBAC83",
"9i 	c #C8976A",
"0i 	c #C2946A",
"ai 	c #BB8C62",
"bi 	c #97643F",
"ci 	c #925E38",
"di 	c #B4855C",
"ei 	c #BB8D65",
"fi 	c #C9976B",
"gi 	c #D19E73",
"hi 	c #DAA97D",
"ii 	c #DFAD85",
"ji 	c #DCAA80",
"ki 	c #C19166",
"li 	c #B4855B",
"mi 	c #A16E46",
"ni 	c #905C36",
"oi 	c #86502C",
"pi 	c #7E4B2A",
"qi 	c #814D2B",
"ri 	c #885633",
"si 	c #80502F",
"ti 	c #7A5431",
"ui 	c #724C2C",
"vi 	c #61482B",
"wi 	c #47382B",
"xi 	c #2A271F",
"yi 	c #0B0F0E",
"zi 	c #252421",
"Ai 	c #312F26",
"Bi 	c #635542",
"Ci 	c #917B67",
"Di 	c #9E836A",
"Ei 	c #C5A387",
"Fi 	c #C29E7F",
"Gi 	c #C7A181",
"Hi 	c #DCB189",
"Ii 	c #CC9E74",
"Ji 	c #C18D62",
"Ki 	c #C18C60",
"Li 	c #AB7549",
"Mi 	c #A66D41",
"Ni 	c #A36C43",
"Oi 	c #BB8A5E",
"Pi 	c #B98457",
"Qi 	c #AE784C",
"Ri 	c #A8764E",
"Si 	c #C79B74",
"Ti 	c #D9B28D",
"Ui 	c #E5BB99",
"Vi 	c #E6C19A",
"Wi 	c #E7C29D",
"Xi 	c #E4C09D",
"Yi 	c #E8C29F",
"Zi 	c #E6BE9A",
"`i 	c #DFB38B",
" j 	c #DEAD85",
".j 	c #E0AE86",
"+j 	c #DBAA80",
"@j 	c #D6A67A",
"#j 	c #C89D77",
"$j 	c #CFA681",
"%j 	c #D4AE8C",
"&j 	c #D6AC86",
"*j 	c #D1A57D",
"=j 	c #C29167",
"-j 	c #A17049",
";j 	c #8C5A37",
">j 	c #8B5935",
",j 	c #905C37",
"'j 	c #96613B",
")j 	c #A87851",
"!j 	c #B7875E",
"~j 	c #DBA87E",
"{j 	c #DDAB81",
"]j 	c #CC9A6F",
"^j 	c #C59468",
"/j 	c #A6764D",
"(j 	c #935E37",
"_j 	c #8D5831",
":j 	c #89532C",
"<j 	c #864F2B",
"[j 	c #7C4929",
"}j 	c #844E2B",
"|j 	c #824E2B",
"1j 	c #7B4A2A",
"2j 	c #7A4E2D",
"3j 	c #6F492A",
"4j 	c #6F4829",
"5j 	c #664529",
"6j 	c #453729",
"7j 	c #312A22",
"8j 	c #0C0F0F",
"9j 	c #2F2B27",
"0j 	c #655544",
"aj 	c #87705F",
"bj 	c #99806C",
"cj 	c #BF9E81",
"dj 	c #D5B293",
"ej 	c #CCA784",
"fj 	c #C39A74",
"gj 	c #D4AB82",
"hj 	c #B68458",
"ij 	c #C28A5A",
"jj 	c #AD784E",
"kj 	c #A16B42",
"lj 	c #9F683F",
"mj 	c #9D663E",
"nj 	c #A36D44",
"oj 	c #AB764A",
"pj 	c #A16941",
"qj 	c #9B6740",
"rj 	c #935A33",
"sj 	c #B17D54",
"tj 	c #C2956B",
"uj 	c #E1B893",
"vj 	c #E4BD9B",
"wj 	c #E8C09C",
"xj 	c #E4B994",
"yj 	c #D8A77C",
"zj 	c #D29E74",
"Aj 	c #C9A281",
"Bj 	c #D5B396",
"Cj 	c #E1BEA3",
"Dj 	c #E1B791",
"Ej 	c #DAAD85",
"Fj 	c #D5A57C",
"Gj 	c #9C6841",
"Hj 	c #A3734B",
"Ij 	c #B9885D",
"Jj 	c #D8A87B",
"Kj 	c #DCAC81",
"Lj 	c #DEAC83",
"Mj 	c #DDAB82",
"Nj 	c #DFAE85",
"Oj 	c #B9885E",
"Pj 	c #A37149",
"Qj 	c #85502D",
"Rj 	c #834C29",
"Sj 	c #7F4A29",
"Tj 	c #814B2A",
"Uj 	c #864E2B",
"Vj 	c #844D29",
"Wj 	c #6C4527",
"Xj 	c #6E492A",
"Yj 	c #6C4A2A",
"Zj 	c #6B4528",
"`j 	c #684328",
" k 	c #483B29",
".k 	c #2E2924",
"+k 	c #1F211D",
"@k 	c #0B0F0F",
"#k 	c #20211F",
"$k 	c #433A31",
"%k 	c #685849",
"&k 	c #8B705C",
"*k 	c #A0846B",
"=k 	c #C4A183",
"-k 	c #D9B697",
";k 	c #CCA583",
">k 	c #B88A5F",
",k 	c #9D673F",
"'k 	c #9A623B",
")k 	c #9E663D",
"!k 	c #A66E42",
"~k 	c #9A6138",
"{k 	c #965E38",
"]k 	c #AA754D",
"^k 	c #BF8F65",
"/k 	c #D3A57C",
"(k 	c #E3B691",
"_k 	c #E5BB97",
":k 	c #E3BE99",
"<k 	c #E5BD9B",
"[k 	c #E4BB98",
"}k 	c #DCAE85",
"|k 	c #DDAD84",
"1k 	c #D2A074",
"2k 	c #C7986E",
"3k 	c #CDA681",
"4k 	c #DEBC9C",
"5k 	c #E0B998",
"6k 	c #DEB087",
"7k 	c #A37550",
"8k 	c #D7A67B",
"9k 	c #DBA97B",
"0k 	c #DEAD82",
"ak 	c #D9A97C",
"bk 	c #DBA97E",
"ck 	c #C7956A",
"dk 	c #7B4A2B",
"ek 	c #8F5933",
"fk 	c #97613A",
"gk 	c #97633D",
"hk 	c #7F4B2A",
"ik 	c #6A4226",
"jk 	c #6B4327",
"kk 	c #443529",
"lk 	c #2B271E",
"mk 	c #322F2C",
"nk 	c #4A4337",
"ok 	c #705E4F",
"pk 	c #8E6E53",
"qk 	c #9F866D",
"rk 	c #C29E7E",
"sk 	c #B48962",
"tk 	c #BD8E65",
"uk 	c #BF9169",
"vk 	c #A26B44",
"wk 	c #A26C44",
"xk 	c #AA7347",
"yk 	c #B67D50",
"zk 	c #A76D40",
"Ak 	c #A0673C",
"Bk 	c #99613A",
"Ck 	c #9A623A",
"Dk 	c #B37F55",
"Ek 	c #D5A479",
"Fk 	c #E1B48B",
"Gk 	c #E6B994",
"Hk 	c #E4BB96",
"Ik 	c #E4BD97",
"Jk 	c #E2B68E",
"Kk 	c #DBAD85",
"Lk 	c #DAAA80",
"Mk 	c #D8AC84",
"Nk 	c #DCB690",
"Ok 	c #E5BE9A",
"Pk 	c #D1A278",
"Qk 	c #C18E63",
"Rk 	c #C08C62",
"Sk 	c #B8865C",
"Tk 	c #A26F48",
"Uk 	c #925C37",
"Vk 	c #976743",
"Wk 	c #D8A67A",
"Xk 	c #DEAC7D",
"Yk 	c #E3B288",
"Zk 	c #DEAF86",
"`k 	c #C39166",
" l 	c #8E5933",
".l 	c #804C2B",
"+l 	c #89522C",
"@l 	c #905934",
"#l 	c #B48057",
"$l 	c #B17E53",
"%l 	c #9B6741",
"&l 	c #6A4025",
"*l 	c #674125",
"=l 	c #5C3A22",
"-l 	c #3F3325",
";l 	c #21221F",
">l 	c #2C2B27",
",l 	c #4B4438",
"'l 	c #79624F",
")l 	c #907158",
"!l 	c #9D826B",
"~l 	c #B79374",
"{l 	c #CDA582",
"]l 	c #C9A07A",
"^l 	c #B18057",
"/l 	c #A26F49",
"(l 	c #905D37",
"_l 	c #8E5832",
":l 	c #925F39",
"<l 	c #8F5832",
"[l 	c #976039",
"}l 	c #AC784B",
"|l 	c #BA8551",
"1l 	c #B27749",
"2l 	c #AA6F40",
"3l 	c #A66A3D",
"4l 	c #9B643C",
"5l 	c #BC875B",
"6l 	c #DEAE85",
"7l 	c #E3B58B",
"8l 	c #E5BD98",
"9l 	c #E7C19A",
"0l 	c #E9C39B",
"al 	c #E5C099",
"bl 	c #DAA97C",
"cl 	c #D5A47A",
"dl 	c #D8AC83",
"el 	c #D5A57A",
"fl 	c #CF9E71",
"gl 	c #CF9B6F",
"hl 	c #C9966C",
"il 	c #B9875D",
"jl 	c #AD7A51",
"kl 	c #A5724B",
"ll 	c #A7754D",
"ml 	c #BD895E",
"nl 	c #DDAC82",
"ol 	c #E4B891",
"pl 	c #DCAD83",
"ql 	c #DAA778",
"rl 	c #915E39",
"sl 	c #794829",
"tl 	c #86512E",
"ul 	c #8A532F",
"vl 	c #99623B",
"wl 	c #AC774E",
"xl 	c #A9744B",
"yl 	c #A36E48",
"zl 	c #865331",
"Al 	c #5F381D",
"Bl 	c #5B371A",
"Cl 	c #61391E",
"Dl 	c #5D381F",
"El 	c #47341F",
"Fl 	c #342D20",
"Gl 	c #2A2A27",
"Hl 	c #7B634F",
"Il 	c #957050",
"Jl 	c #B89473",
"Kl 	c #C79D78",
"Ll 	c #C39870",
"Ml 	c #AA774D",
"Nl 	c #905D38",
"Ol 	c #84502C",
"Pl 	c #7F4B29",
"Ql 	c #804A29",
"Rl 	c #8A512C",
"Sl 	c #975F37",
"Tl 	c #AA7348",
"Ul 	c #BA8356",
"Vl 	c #C69061",
"Wl 	c #BF8654",
"Xl 	c #B97E4D",
"Yl 	c #AB6F40",
"Zl 	c #A77147",
"`l 	c #9D6842",
" m 	c #A87248",
".m 	c #E0B28A",
"+m 	c #E3BA92",
"@m 	c #E4BC97",
"#m 	c #E3B991",
"$m 	c #E0B48B",
"%m 	c #E0AF87",
"&m 	c #DAA97F",
"*m 	c #DBAB80",
"=m 	c #DEB188",
"-m 	c #D6A87F",
";m 	c #CE9E74",
">m 	c #C08D63",
",m 	c #C3936A",
"'m 	c #945D38",
")m 	c #9C6741",
"!m 	c #AC7A4F",
"~m 	c #E0B18A",
"{m 	c #E0B991",
"]m 	c #D7A878",
"^m 	c #B98A60",
"/m 	c #935F3A",
"(m 	c #7E4C2B",
"_m 	c #7D4A29",
":m 	c #7B4829",
"<m 	c #87502B",
"[m 	c #8F542C",
"}m 	c #8C532C",
"|m 	c #86512D",
"1m 	c #7E4C2C",
"2m 	c #673B22",
"3m 	c #643A21",
"4m 	c #61391F",
"5m 	c #573A23",
"6m 	c #493826",
"7m 	c #352D23",
"8m 	c #2D2721",
"9m 	c #1D1A16",
"0m 	c #252623",
"am 	c #3D392E",
"bm 	c #6C5D4E",
"cm 	c #906D4F",
"dm 	c #A77D5A",
"em 	c #B8916C",
"fm 	c #C69A73",
"gm 	c #B8885E",
"hm 	c #9D6943",
"im 	c #99653F",
"jm 	c #93643F",
"km 	c #8D5E3C",
"lm 	c #865330",
"mm 	c #8B552F",
"nm 	c #A56E43",
"om 	c #BA8558",
"pm 	c #C38D60",
"qm 	c #C58E5E",
"rm 	c #BA814F",
"sm 	c #B67948",
"tm 	c #AB7548",
"um 	c #A0663B",
"vm 	c #AD7448",
"wm 	c #C58E5F",
"xm 	c #D8A579",
"ym 	c #E2B58E",
"zm 	c #E5BE97",
"Am 	c #EAC39E",
"Bm 	c #EAC4A1",
"Cm 	c #E7C29B",
"Dm 	c #E1B58D",
"Em 	c #E2B48C",
"Fm 	c #E2B089",
"Gm 	c #DBA87F",
"Hm 	c #D9A87D",
"Im 	c #E0B188",
"Jm 	c #E5B792",
"Km 	c #E4B690",
"Lm 	c #CE9E75",
"Mm 	c #CC9B70",
"Nm 	c #D5A278",
"Om 	c #D2A279",
"Pm 	c #B08058",
"Qm 	c #A4734D",
"Rm 	c #96623D",
"Sm 	c #B7865C",
"Tm 	c #CB986D",
"Um 	c #D5A379",
"Vm 	c #E6BB97",
"Wm 	c #E8C19A",
"Xm 	c #DFB78E",
"Ym 	c #DBAB79",
"Zm 	c #D9A676",
"`m 	c #B98960",
" n 	c #7F4C2B",
".n 	c #834F2D",
"+n 	c #844E2C",
"@n 	c #8A542F",
"#n 	c #905932",
"$n 	c #89512C",
"%n 	c #884F2A",
"&n 	c #87502A",
"*n 	c #67391E",
"=n 	c #693B21",
"-n 	c #673C24",
";n 	c #4B3B29",
">n 	c #362D24",
",n 	c #2A231D",
"'n 	c #221D18",
")n 	c #212320",
"!n 	c #896B50",
"~n 	c #9F7551",
"{n 	c #AF855D",
"]n 	c #C1976D",
"^n 	c #C08F64",
"/n 	c #A06942",
"(n 	c #986844",
"_n 	c #986847",
":n 	c #895430",
"<n 	c #A16A40",
"[n 	c #AE794C",
"}n 	c #B88555",
"|n 	c #BA8150",
"1n 	c #A97144",
"2n 	c #A5693A",
"3n 	c #A97348",
"4n 	c #C08B5E",
"5n 	c #D8A57A",
"6n 	c #E2B38B",
"7n 	c #E8C19C",
"8n 	c #E9C39C",
"9n 	c #E8BE9A",
"0n 	c #E8BD99",
"an 	c #E4B893",
"bn 	c #E2B38C",
"cn 	c #E0B189",
"dn 	c #DCB18A",
"en 	c #DAAE86",
"fn 	c #DCAC83",
"gn 	c #E6BB96",
"hn 	c #E5B994",
"in 	c #D9AA81",
"jn 	c #C5966C",
"kn 	c #BC8D63",
"ln 	c #BA8C62",
"mn 	c #B5855B",
"nn 	c #AD7B51",
"on 	c #C4946A",
"pn 	c #D4A176",
"qn 	c #D8AA82",
"rn 	c #E9C3A3",
"sn 	c #E8C09B",
"tn 	c #E3AF81",
"un 	c #8F5A35",
"vn 	c #854D2A",
"wn 	c #905B36",
"xn 	c #A16B43",
"yn 	c #8C552F",
"zn 	c #84512E",
"An 	c #73492A",
"Bn 	c #633518",
"Cn 	c #66381C",
"Dn 	c #673C22",
"En 	c #553A25",
"Fn 	c #3B3026",
"Gn 	c #231E18",
"Hn 	c #1A1815",
"In 	c #161613",
"Jn 	c #2B2926",
"Kn 	c #76604B",
"Ln 	c #88684D",
"Mn 	c #A37853",
"Nn 	c #AF845D",
"On 	c #BD9169",
"Pn 	c #C6966C",
"Qn 	c #B48357",
"Rn 	c #A06B44",
"Sn 	c #965F3A",
"Tn 	c #9B6842",
"Un 	c #8B5732",
"Vn 	c #98623B",
"Wn 	c #AD7A50",
"Xn 	c #B37D51",
"Yn 	c #AD7548",
"Zn 	c #A5693D",
"`n 	c #A2673B",
" o 	c #A97246",
".o 	c #BF8757",
"+o 	c #D6A479",
"@o 	c #E2B28A",
"#o 	c #E9C39D",
"$o 	c #ECC9AA",
"%o 	c #EAC5A5",
"&o 	c #E9C1A3",
"*o 	c #E7BD9D",
"=o 	c #E6BA95",
"-o 	c #E5B992",
";o 	c #E3B792",
">o 	c #E6BA96",
",o 	c #E3B893",
"'o 	c #DAAF87",
")o 	c #CEA279",
"!o 	c #D1A57C",
"~o 	c #B3875F",
"{o 	c #AD8058",
"]o 	c #AD7B52",
"^o 	c #BC8B61",
"/o 	c #D3A77D",
"(o 	c #D6AC85",
"_o 	c #E8C1A3",
":o 	c #EDC7A8",
"<o 	c #D8A578",
"[o 	c #8E5B37",
"}o 	c #8C5833",
"|o 	c #87522E",
"1o 	c #8D5631",
"2o 	c #8F5C38",
"3o 	c #754D2C",
"4o 	c #673C23",
"5o 	c #533721",
"6o 	c #5E3A23",
"7o 	c #5E3C28",
"8o 	c #4D3A2C",
"9o 	c #3D3322",
"0o 	c #28241D",
"ao 	c #161714",
"bo 	c #0D100F",
"co 	c #38322C",
"do 	c #5C4D37",
"eo 	c #6F583F",
"fo 	c #8A6641",
"go 	c #9F734C",
"ho 	c #C4966D",
"io 	c #A5734B",
"jo 	c #8F5833",
"ko 	c #9F6841",
"lo 	c #B07F54",
"mo 	c #A97449",
"no 	c #A46D43",
"oo 	c #A36D43",
"po 	c #A97349",
"qo 	c #BE8454",
"ro 	c #E5BC96",
"so 	c #EAC6A7",
"to 	c #EBC5A5",
"uo 	c #E8C1A1",
"vo 	c #E9C3A2",
"wo 	c #E9C19D",
"xo 	c #E8C09A",
"yo 	c #E5BA94",
"zo 	c #E7BC97",
"Ao 	c #E8BE99",
"Bo 	c #E8BE96",
"Co 	c #E6B992",
"Do 	c #E3B68F",
"Eo 	c #DFB48C",
"Fo 	c #D9B188",
"Go 	c #D7AD84",
"Ho 	c #C9996D",
"Io 	c #C89A70",
"Jo 	c #CC9F76",
"Ko 	c #DAAC84",
"Lo 	c #E5BE9E",
"Mo 	c #EDCBB1",
"No 	c #E8C1A0",
"Oo 	c #E2B48D",
"Po 	c #88522D",
"Qo 	c #AB7248",
"Ro 	c #B27D50",
"So 	c #B28155",
"To 	c #A5754D",
"Uo 	c #A1704A",
"Vo 	c #8E5E3A",
"Wo 	c #704629",
"Xo 	c #684529",
"Yo 	c #5C3F2A",
"Zo 	c #4D3B2F",
"`o 	c #4B3827",
" p 	c #48392C",
".p 	c #393024",
"+p 	c #242019",
"@p 	c #151613",
"#p 	c #0C110F",
"$p 	c #282824",
"%p 	c #473E2F",
"&p 	c #675342",
"*p 	c #6F5433",
"=p 	c #8A6037",
"-p 	c #AF7F57",
";p 	c #945F3A",
">p 	c #8A5734",
",p 	c #8C5733",
"'p 	c #945C37",
")p 	c #986640",
"!p 	c #98653F",
"~p 	c #B28359",
"{p 	c #B58255",
"]p 	c #AA774B",
"^p 	c #BB8353",
"/p 	c #E8BD98",
"(p 	c #EAC39C",
"_p 	c #E9C4A4",
":p 	c #EBC8AA",
"<p 	c #EAC6A8",
"[p 	c #EAC4A0",
"}p 	c #E8BF9A",
"|p 	c #E9BE9A",
"1p 	c #E7BC98",
"2p 	c #E8BF99",
"3p 	c #E7BB97",
"4p 	c #E6B890",
"5p 	c #D9AE86",
"6p 	c #D4A980",
"7p 	c #CAA077",
"8p 	c #C79A72",
"9p 	c #CC9D74",
"0p 	c #D2A176",
"ap 	c #E1B690",
"bp 	c #DAAE85",
"cp 	c #D7A87E",
"dp 	c #E9C7AD",
"ep 	c #E7BD9B",
"fp 	c #D0A37C",
"gp 	c #AF7D54",
"hp 	c #8B542E",
"ip 	c #A2673A",
"jp 	c #A3693D",
"kp 	c #AC7345",
"lp 	c #AF7A4D",
"mp 	c #B38054",
"np 	c #95623D",
"op 	c #784A2B",
"pp 	c #664027",
"qp 	c #4E3C2C",
"rp 	c #413628",
"sp 	c #40342A",
"tp 	c #3B342D",
"up 	c #342E28",
"vp 	c #111512",
"wp 	c #4F4435",
"xp 	c #5D482F",
"yp 	c #825D3A",
"zp 	c #9A6A45",
"Ap 	c #9F6D46",
"Bp 	c #9E6C46",
"Cp 	c #8F5B35",
"Dp 	c #804D2C",
"Ep 	c #8D5A37",
"Fp 	c #8B5936",
"Gp 	c #915D38",
"Hp 	c #9B6942",
"Ip 	c #A9784D",
"Jp 	c #C08A5A",
"Kp 	c #AF7B4C",
"Lp 	c #BB8755",
"Mp 	c #DFB088",
"Np 	c #EAC19B",
"Op 	c #E9C5A5",
"Pp 	c #E9C5A6",
"Qp 	c #EBC6A7",
"Rp 	c #EEC8A8",
"Sp 	c #EDC6A3",
"Tp 	c #E8BF95",
"Up 	c #E8BD94",
"Vp 	c #E5B993",
"Wp 	c #DFB189",
"Xp 	c #DCAF87",
"Yp 	c #DAAC83",
"Zp 	c #D6A77C",
"`p 	c #D0A075",
" q 	c #CF9C72",
".q 	c #E4B993",
"+q 	c #E3B990",
"@q 	c #DAAC82",
"#q 	c #EDCCAF",
"$q 	c #E9C1A2",
"%q 	c #99643D",
"&q 	c #AD7743",
"*q 	c #AE7241",
"=q 	c #A76B3D",
"-q 	c #A56A3C",
";q 	c #A36A3D",
">q 	c #9E663C",
",q 	c #945F38",
"'q 	c #87532F",
")q 	c #714628",
"!q 	c #5C422B",
"~q 	c #3D3626",
"{q 	c #373424",
"]q 	c #352C25",
"^q 	c #2E2822",
"/q 	c #201C17",
"(q 	c #171814",
"_q 	c #141512",
":q 	c #191B1D",
"<q 	c #483E2B",
"[q 	c #665133",
"}q 	c #855F42",
"|q 	c #A16C44",
"1q 	c #895532",
"2q 	c #834F2C",
"3q 	c #7E4E2E",
"4q 	c #AE7D53",
"5q 	c #C59368",
"6q 	c #C58B58",
"7q 	c #CB986B",
"8q 	c #EAC4A5",
"9q 	c #E9C6AA",
"0q 	c #EAC7AA",
"aq 	c #E8C5A6",
"bq 	c #E9C19B",
"cq 	c #EAC19A",
"dq 	c #E4B990",
"eq 	c #DFAF86",
"fq 	c #CD9D74",
"gq 	c #CB9B71",
"hq 	c #C99B73",
"iq 	c #C7976C",
"jq 	c #D5A77C",
"kq 	c #E7C09A",
"lq 	c #E4B78C",
"mq 	c #DAAB80",
"nq 	c #DEB48B",
"oq 	c #DBB590",
"pq 	c #E8C8AB",
"qq 	c #DFAC7F",
"rq 	c #B68253",
"sq 	c #BF8853",
"tq 	c #B67F4F",
"uq 	c #AC7045",
"vq 	c #9F663B",
"wq 	c #814E2B",
"xq 	c #7B5331",
"yq 	c #5E482E",
"zq 	c #423627",
"Aq 	c #342C25",
"Bq 	c #2B271F",
"Cq 	c #1F1E19",
"Dq 	c #1B1B18",
"Eq 	c #1D1E1F",
"Fq 	c #423926",
"Gq 	c #665037",
"Hq 	c #79593C",
"Iq 	c #956541",
"Jq 	c #9D6840",
"Kq 	c #7F4D2B",
"Lq 	c #8A5834",
"Mq 	c #8B5530",
"Nq 	c #BA8A60",
"Oq 	c #DBAB83",
"Pq 	c #C79061",
"Qq 	c #E4B58F",
"Rq 	c #E5C19E",
"Sq 	c #E7C4A5",
"Tq 	c #ECC6A6",
"Uq 	c #EAC29C",
"Vq 	c #E3B88F",
"Wq 	c #DFB187",
"Xq 	c #D4A579",
"Yq 	c #CDA077",
"Zq 	c #CA9D75",
"`q 	c #C89B71",
" r 	c #CDA078",
".r 	c #DDAF87",
"+r 	c #E5BE9B",
"@r 	c #E4B48A",
"#r 	c #DFAB7C",
"$r 	c #D7A778",
"%r 	c #DAB085",
"&r 	c #DEBB9C",
"*r 	c #EECBB0",
"=r 	c #EBC09F",
"-r 	c #E0AF84",
";r 	c #C18B5B",
">r 	c #C48F61",
",r 	c #B87F54",
"'r 	c #AD774C",
")r 	c #9A643B",
"!r 	c #824D2A",
"~r 	c #7F502E",
"{r 	c #805936",
"]r 	c #5A402A",
"^r 	c #3C3325",
"/r 	c #2C2720",
"(r 	c #20201A",
"_r 	c #1D1E1B",
":r 	c #2C271F",
"<r 	c #3C3326",
"[r 	c #594B37",
"}r 	c #79573B",
"|r 	c #91603B",
"1r 	c #935E38",
"2r 	c #8E5A35",
"3r 	c #925D38",
"4r 	c #804D2B",
"5r 	c #915B35",
"6r 	c #A46F46",
"7r 	c #B98B63",
"8r 	c #CEA27A",
"9r 	c #E0B38D",
"0r 	c #D2A57B",
"ar 	c #D4A37A",
"br 	c #E4BD9C",
"cr 	c #E6C3A3",
"dr 	c #E9C4A5",
"er 	c #E9C5A7",
"fr 	c #E9C5A8",
"gr 	c #ECC6A5",
"hr 	c #D1A57A",
"ir 	c #CEA478",
"jr 	c #CDA178",
"kr 	c #CFA57C",
"lr 	c #E4BD98",
"mr 	c #E7C19B",
"nr 	c #E5B892",
"or 	c #E4B087",
"pr 	c #E2AB77",
"qr 	c #EFC8AA",
"rr 	c #EFC7A8",
"sr 	c #CC9869",
"tr 	c #BE8E5D",
"ur 	c #C99466",
"vr 	c #C38B5A",
"wr 	c #B3804E",
"xr 	c #935C35",
"yr 	c #925B35",
"zr 	c #93603B",
"Ar 	c #866140",
"Br 	c #5B432A",
"Cr 	c #2F2A1F",
"Dr 	c #1C1E1A",
"Er 	c #262622",
"Fr 	c #3E352D",
"Gr 	c #624F39",
"Hr 	c #6F5841",
"Ir 	c #815D41",
"Jr 	c #88532F",
"Kr 	c #6C4326",
"Lr 	c #825532",
"Mr 	c #CE9F75",
"Nr 	c #D4A981",
"Or 	c #D8AE86",
"Pr 	c #E5BA96",
"Qr 	c #E5C09D",
"Rr 	c #E8C199",
"Sr 	c #D9AE85",
"Tr 	c #D7AC85",
"Ur 	c #D9AD86",
"Vr 	c #EBC39C",
"Wr 	c #E6BF99",
"Xr 	c #E4B790",
"Yr 	c #E3AE7F",
"Zr 	c #DFAA75",
"`r 	c #D6A878",
" s 	c #E0B68E",
".s 	c #EBC4A2",
"+s 	c #EFC6A3",
"@s 	c #E4B588",
"#s 	c #CF9D71",
"$s 	c #BC895D",
"%s 	c #C9976A",
"&s 	c #B98558",
"*s 	c #825E42",
"=s 	c #5A422D",
"-s 	c #302A1D",
";s 	c #25231B",
">s 	c #4F4231",
",s 	c #5F4C31",
"'s 	c #76512F",
")s 	c #895633",
"!s 	c #8F5934",
"~s 	c #6E3D24",
"{s 	c #6D4527",
"]s 	c #8A552F",
"^s 	c #B48158",
"/s 	c #D8A87F",
"(s 	c #E4BA97",
"_s 	c #E1B994",
":s 	c #E5C09C",
"<s 	c #E5C2A4",
"[s 	c #ECC9AB",
"}s 	c #EAC4A2",
"|s 	c #E9C3A0",
"1s 	c #E0BC97",
"2s 	c #EBC39D",
"3s 	c #E4B68C",
"4s 	c #E4B080",
"5s 	c #DCA877",
"6s 	c #DDA976",
"7s 	c #D7A77B",
"8s 	c #DBAD84",
"9s 	c #DDB28A",
"0s 	c #E3B88D",
"as 	c #E9BFA0",
"bs 	c #EFC7A6",
"cs 	c #E4B48C",
"ds 	c #BC8B5E",
"es 	c #CD9B6E",
"fs 	c #C8956A",
"gs 	c #C48F64",
"hs 	c #7E5C37",
"is 	c #5B442C",
"js 	c #312A21",
"ks 	c #26231A",
"ls 	c #28261F",
"ms 	c #342C23",
"ns 	c #423628",
"os 	c #513D28",
"ps 	c #654727",
"qs 	c #805532",
"rs 	c #94603B",
"ss 	c #6E3F24",
"ts 	c #875633",
"us 	c #8C552E",
"vs 	c #8E542C",
"ws 	c #B2825A",
"xs 	c #CFA47B",
"ys 	c #E6BC99",
"zs 	c #E6BF9E",
"As 	c #E5BEA0",
"Bs 	c #E5C1A4",
"Cs 	c #E8C39F",
"Ds 	c #E7C39E",
"Es 	c #E6C19B",
"Fs 	c #E6BD99",
"Gs 	c #E6BC98",
"Hs 	c #EAC29D",
"Is 	c #E7BF9B",
"Js 	c #E4B78E",
"Ks 	c #E3AC76",
"Ls 	c #DCA976",
"Ms 	c #D9A97D",
"Ns 	c #E0B48C",
"Os 	c #E4B892",
"Ps 	c #E9BF9C",
"Qs 	c #E6B891",
"Rs 	c #D5A378",
"Ss 	c #C29065",
"Ts 	c #D3A075",
"Us 	c #A9764D",
"Vs 	c #7A5733",
"Ws 	c #5A432C",
"Xs 	c #2F2921",
"Ys 	c #141616",
"Zs 	c #1C1D17",
"`s 	c #24221A",
" t 	c #312A24",
".t 	c #373025",
"+t 	c #3F3425",
"@t 	c #694C2E",
"#t 	c #8D5731",
"$t 	c #85512D",
"%t 	c #704326",
"&t 	c #6A3B20",
"*t 	c #8B5734",
"=t 	c #8B5834",
"-t 	c #8D552D",
";t 	c #925B34",
">t 	c #D8AB83",
",t 	c #DFB58E",
"'t 	c #E4BB99",
")t 	c #DCB796",
"!t 	c #E6C3A4",
"~t 	c #E9C39F",
"{t 	c #E9C19C",
"]t 	c #E8C39C",
"^t 	c #EAC3A1",
"/t 	c #E8C3A3",
"(t 	c #E7BF99",
"_t 	c #E5BC97",
":t 	c #E1B78C",
"<t 	c #E5B586",
"[t 	c #DFAA76",
"}t 	c #D8A679",
"|t 	c #E5B78C",
"1t 	c #E4B890",
"2t 	c #E0B38C",
"3t 	c #E7BB92",
"4t 	c #CE9B70",
"5t 	c #49392A",
"6t 	c #302922",
"7t 	c #232019",
"8t 	c #52432F",
"9t 	c #8A5F3D",
"0t 	c #8E5630",
"at 	c #7C4A29",
"bt 	c #6D4023",
"ct 	c #75482A",
"dt 	c #915E3A",
"et 	c #8F562E",
"ft 	c #A0683E",
"gt 	c #E5BEA1",
"ht 	c #E6C09D",
"it 	c #E7C3A1",
"jt 	c #E6C19F",
"kt 	c #E1BB97",
"lt 	c #E4BE98",
"mt 	c #EBC3A0",
"nt 	c #EBC39F",
"ot 	c #E4BC95",
"pt 	c #E2B890",
"qt 	c #E3B183",
"rt 	c #DFAB75",
"st 	c #D9A674",
"tt 	c #E3B386",
"ut 	c #E9BD92",
"vt 	c #DEB28C",
"wt 	c #E9BF97",
"xt 	c #CB976C",
"yt 	c #C28E62",
"zt 	c #C69368",
"At 	c #C89C74",
"Bt 	c #C29468",
"Ct 	c #B58860",
"Dt 	c #916C49",
"Et 	c #6C5531",
"Ft 	c #221F18",
"Gt 	c #181915",
"Ht 	c #48402F",
"It 	c #826348",
"Jt 	c #824F2C",
"Kt 	c #794929",
"Lt 	c #96623C",
"Mt 	c #925931",
"Nt 	c #C89D76",
"Ot 	c #D7B18C",
"Pt 	c #D7B08A",
"Qt 	c #E1BB99",
"Rt 	c #E0BA98",
"St 	c #E2BD97",
"Tt 	c #E1BC9A",
"Ut 	c #E7C19D",
"Vt 	c #E2BB97",
"Wt 	c #E3BC95",
"Xt 	c #E5BF98",
"Yt 	c #E6BF9B",
"Zt 	c #EBC49E",
"`t 	c #E6BF98",
" u 	c #E3BA93",
".u 	c #D9A87B",
"+u 	c #D7A373",
"@u 	c #DFAD83",
"#u 	c #E8BC93",
"$u 	c #E5BA97",
"%u 	c #EBC3A2",
"&u 	c #EBC2A0",
"*u 	c #C7966C",
"=u 	c #BB8B61",
"-u 	c #A57853",
";u 	c #906A47",
">u 	c #685432",
",u 	c #46392A",
"'u 	c #29261D",
")u 	c #181A1A",
"!u 	c #20201D",
"~u 	c #232218",
"{u 	c #1E2018",
"]u 	c #232116",
"^u 	c #212117",
"/u 	c #222219",
"(u 	c #1F2118",
"_u 	c #1F2016",
":u 	c #1E1F17",
"<u 	c #433A2A",
"[u 	c #705A35",
"}u 	c #986740",
"|u 	c #945D36",
"1u 	c #8C5630",
"2u 	c #8B5632",
"3u 	c #8E5B36",
"4u 	c #D2A47B",
"5u 	c #CCA077",
"6u 	c #C69A71",
"7u 	c #D0AA83",
"8u 	c #CDA884",
"9u 	c #DDB997",
"0u 	c #E0BA97",
"au 	c #DEB996",
"bu 	c #DFB893",
"cu 	c #DEB892",
"du 	c #E7C09B",
"eu 	c #E8C19B",
"fu 	c #EBC49F",
"gu 	c #EBC39B",
"hu 	c #E7BD95",
"iu 	c #D9A87A",
"ju 	c #D8A471",
"ku 	c #DAA77A",
"lu 	c #E3B185",
"mu 	c #E7B990",
"nu 	c #EDC49E",
"ou 	c #EDC3A0",
"pu 	c #E9C19E",
"qu 	c #E9C3A4",
"ru 	c #EDC8A8",
"su 	c #C99B72",
"tu 	c #B68559",
"uu 	c #B8855B",
"vu 	c #B78B64",
"wu 	c #9E7552",
"xu 	c #8B6847",
"yu 	c #614E32",
"zu 	c #44362A",
"Au 	c #28241C",
"Bu 	c #191814",
"Cu 	c #141411",
"Du 	c #121411",
"Eu 	c #555030",
"Fu 	c #CDC37C",
"Gu 	c #C7C572",
"Hu 	c #C3C16C",
"Iu 	c #C1BF6B",
"Ju 	c #C0BF67",
"Ku 	c #C3C26C",
"Lu 	c #C0BF66",
"Mu 	c #BCBC64",
"Nu 	c #A2A059",
"Ou 	c #292816",
"Pu 	c #393125",
"Qu 	c #675031",
"Ru 	c #936945",
"Su 	c #8D5732",
"Tu 	c #8F5D37",
"Uu 	c #A8774F",
"Vu 	c #D9AD85",
"Wu 	c #C9A480",
"Xu 	c #CEA885",
"Yu 	c #DAB693",
"Zu 	c #DEB58F",
"`u 	c #DDB590",
" v 	c #E1B48D",
".v 	c #EBC49A",
"+v 	c #EBC39A",
"@v 	c #E1B58C",
"#v 	c #E2AF87",
"$v 	c #D2A67C",
"%v 	c #D9AB82",
"&v 	c #DDA97A",
"*v 	c #E5B68B",
"=v 	c #E7BA93",
"-v 	c #EEC5A1",
";v 	c #F2C9A7",
">v 	c #EDC6A5",
",v 	c #EAC3A2",
"'v 	c #EAC5A4",
")v 	c #CE9F74",
"!v 	c #BA895D",
"~v 	c #BF9168",
"{v 	c #B99169",
"]v 	c #B68A63",
"^v 	c #9B7350",
"/v 	c #87613D",
"(v 	c #604C30",
"_v 	c #26231D",
":v 	c #171713",
"<v 	c #1A1B1A",
"[v 	c #514C26",
"}v 	c #E6E67D",
"|v 	c #E8EA76",
"1v 	c #EBEA79",
"2v 	c #E9E96F",
"3v 	c #E9E96D",
"4v 	c #E9E96A",
"5v 	c #E8E96F",
"6v 	c #CCCC6D",
"7v 	c #2B290F",
"8v 	c #161914",
"9v 	c #0C1110",
"0v 	c #383325",
"av 	c #604E3A",
"bv 	c #926847",
"cv 	c #9D6338",
"dv 	c #996037",
"ev 	c #915E38",
"fv 	c #AD7F58",
"gv 	c #D9AF88",
"hv 	c #E0B790",
"iv 	c #DCB590",
"jv 	c #D7AE88",
"kv 	c #E1B790",
"lv 	c #DBB289",
"mv 	c #DAB388",
"nv 	c #DAB38A",
"ov 	c #E8C39B",
"pv 	c #E8BF98",
"qv 	c #E7BB91",
"rv 	c #E2B58B",
"sv 	c #E6BB95",
"tv 	c #E9C099",
"uv 	c #ECC7A8",
"vv 	c #EEC9AA",
"wv 	c #EDC5A3",
"xv 	c #DEB38D",
"yv 	c #B4845B",
"zv 	c #AA764C",
"Av 	c #A57854",
"Bv 	c #946B48",
"Cv 	c #7B5632",
"Dv 	c #3D3128",
"Ev 	c #231F19",
"Fv 	c #151615",
"Gv 	c #58552A",
"Hv 	c #E6E676",
"Iv 	c #E9E96C",
"Jv 	c #EAE96A",
"Kv 	c #EAE966",
"Lv 	c #EAE965",
"Mv 	c #EAE964",
"Nv 	c #E9E969",
"Ov 	c #CACB5E",
"Pv 	c #2A2917",
"Qv 	c #262521",
"Rv 	c #363025",
"Sv 	c #584831",
"Tv 	c #845E3C",
"Uv 	c #965E37",
"Vv 	c #B4885E",
"Wv 	c #E0B38B",
"Xv 	c #D4AD88",
"Yv 	c #E0B890",
"Zv 	c #E4BA93",
"`v 	c #E3B78E",
" w 	c #E2B58C",
".w 	c #DCB38A",
"+w 	c #DBB38A",
"@w 	c #E4BB93",
"#w 	c #E3B78B",
"$w 	c #E0AE85",
"%w 	c #D9A87C",
"&w 	c #D4A276",
"*w 	c #DCA875",
"=w 	c #E3AF79",
"-w 	c #E3AF7A",
";w 	c #E5B27E",
">w 	c #E6B88B",
",w 	c #E6BC92",
"'w 	c #E6BC93",
")w 	c #ECC398",
"!w 	c #E8BE92",
"~w 	c #B1825A",
"{w 	c #B1845C",
"]w 	c #B0855D",
"^w 	c #A07251",
"/w 	c #916B4B",
"(w 	c #795632",
"_w 	c #5B482F",
":w 	c #352D25",
"<w 	c #191B14",
"[w 	c #5C5A2C",
"}w 	c #E7E673",
"|w 	c #EBE966",
"1w 	c #CBCA5C",
"2w 	c #232513",
"3w 	c #24231C",
"4w 	c #362E23",
"5w 	c #61503D",
"6w 	c #895D3A",
"7w 	c #9D643C",
"8w 	c #A46B41",
"9w 	c #935B36",
"0w 	c #8A5A36",
"aw 	c #91643C",
"bw 	c #9D6B44",
"cw 	c #AE7B51",
"dw 	c #B6865C",
"ew 	c #C19268",
"fw 	c #E4BA96",
"gw 	c #E3B894",
"hw 	c #E1B992",
"iw 	c #DFB68F",
"jw 	c #DFB78F",
"kw 	c #E2BA92",
"lw 	c #E3B88E",
"mw 	c #E0B58B",
"nw 	c #E5BB93",
"ow 	c #D2A983",
"pw 	c #D89F69",
"qw 	c #DBA36B",
"rw 	c #DAA26C",
"sw 	c #D9A168",
"tw 	c #DAA26A",
"uw 	c #DFA870",
"vw 	c #E4AC74",
"ww 	c #E5B381",
"xw 	c #E2B181",
"yw 	c #D9A77A",
"zw 	c #CF9E74",
"Aw 	c #AD7F56",
"Bw 	c #A97C57",
"Cw 	c #9B6F50",
"Dw 	c #8E6644",
"Ew 	c #745731",
"Fw 	c #54442F",
"Gw 	c #3A3025",
"Hw 	c #1D1B15",
"Iw 	c #565424",
"Jw 	c #E7E66C",
"Kw 	c #E9E867",
"Lw 	c #ECE765",
"Mw 	c #DFD653",
"Nw 	c #CCC53C",
"Ow 	c #B0A939",
"Pw 	c #28291A",
"Qw 	c #1C1F1B",
"Rw 	c #242420",
"Sw 	c #373125",
"Tw 	c #6F543A",
"Uw 	c #8C5C38",
"Vw 	c #A1683D",
"Ww 	c #93653E",
"Xw 	c #936A45",
"Yw 	c #A4744C",
"Zw 	c #D0A57D",
"`w 	c #DBB28C",
" x 	c #DCB38D",
".x 	c #DEB68D",
"+x 	c #E0B68D",
"@x 	c #E4B58A",
"#x 	c #DEB28B",
"$x 	c #EAC39A",
"%x 	c #E2B991",
"&x 	c #DCB188",
"*x 	c #D6A87E",
"=x 	c #CAA278",
"-x 	c #C89465",
";x 	c #CB9768",
">x 	c #CD9767",
",x 	c #CE9867",
"'x 	c #CF9969",
")x 	c #D4A77B",
"!x 	c #CD9C70",
"~x 	c #B68459",
"{x 	c #A07450",
"]x 	c #956B4B",
"^x 	c #895E3A",
"/x 	c #705431",
"(x 	c #5B442E",
"_x 	c #1C1915",
":x 	c #121410",
"<x 	c #1A1D19",
"[x 	c #4F4A22",
"}x 	c #E6E672",
"|x 	c #E9E866",
"1x 	c #E9E868",
"2x 	c #DBD64F",
"3x 	c #BFBB29",
"4x 	c #B8B420",
"5x 	c #B3AF3D",
"6x 	c #302E1D",
"7x 	c #3A3326",
"8x 	c #7B6045",
"9x 	c #94674A",
"0x 	c #9D663F",
"ax 	c #9D653C",
"bx 	c #9E663E",
"cx 	c #955D36",
"dx 	c #A87349",
"ex 	c #B58258",
"fx 	c #D6A57A",
"gx 	c #E2BA96",
"hx 	c #DEB48E",
"ix 	c #E7C099",
"jx 	c #E8C29A",
"kx 	c #E3B98F",
"lx 	c #E1B68D",
"mx 	c #DEB48A",
"nx 	c #DFB48B",
"ox 	c #EAC397",
"px 	c #D9AF86",
"qx 	c #D5A77B",
"rx 	c #D1A073",
"sx 	c #C38F62",
"tx 	c #BB8A5F",
"ux 	c #AA7950",
"vx 	c #A97B54",
"wx 	c #9F724F",
"xx 	c #996B47",
"yx 	c #946443",
"zx 	c #795532",
"Ax 	c #6E5536",
"Bx 	c #5D4432",
"Cx 	c #3A3024",
"Dx 	c #1C1A16",
"Ex 	c #161817",
"Fx 	c #1A1C18",
"Gx 	c #48431F",
"Hx 	c #E6E573",
"Ix 	c #EAE96B",
"Jx 	c #EAE666",
"Kx 	c #EAE665",
"Lx 	c #E6E35D",
"Mx 	c #CAC437",
"Nx 	c #B8B521",
"Ox 	c #B8B421",
"Px 	c #C1B44B",
"Qx 	c #3A3622",
"Rx 	c #141613",
"Sx 	c #141712",
"Tx 	c #121712",
"Ux 	c #121816",
"Vx 	c #352F23",
"Wx 	c #70553A",
"Xx 	c #8B5C3A",
"Yx 	c #905A36",
"Zx 	c #945C35",
"`x 	c #AC764B",
" y 	c #B37E53",
".y 	c #CF9F75",
"+y 	c #DEB187",
"@y 	c #E2BA95",
"#y 	c #E9C29C",
"$y 	c #EAC39B",
"%y 	c #E4B78A",
"&y 	c #E0B58A",
"*y 	c #DFB489",
"=y 	c #E2B389",
"-y 	c #E3B489",
";y 	c #E3B689",
">y 	c #D6AA80",
",y 	c #D0A076",
"'y 	c #CB9B6F",
")y 	c #D8AD86",
"!y 	c #E0B693",
"~y 	c #D7AD88",
"{y 	c #B08459",
"]y 	c #9A6841",
"^y 	c #B8875B",
"/y 	c #B28157",
"(y 	c #A3714B",
"_y 	c #B2835B",
":y 	c #AB7C56",
"<y 	c #976B4A",
"[y 	c #715330",
"}y 	c #5C422D",
"|y 	c #373023",
"1y 	c #1A1916",
"2y 	c #403B1C",
"3y 	c #E4E16E",
"4y 	c #D9D250",
"5y 	c #C7C23B",
"6y 	c #C5C036",
"7y 	c #C1BD2E",
"8y 	c #BAB723",
"9y 	c #BAB623",
"0y 	c #BDB047",
"ay 	c #37311E",
"by 	c #1D1E18",
"cy 	c #1E1F1A",
"dy 	c #1B1D18",
"ey 	c #1A1C16",
"fy 	c #1D1F15",
"gy 	c #1C1C16",
"hy 	c #1B1A16",
"iy 	c #1A1B17",
"jy 	c #1B1B16",
"ky 	c #1B1C17",
"ly 	c #131710",
"my 	c #322E21",
"ny 	c #6E5234",
"oy 	c #955F3A",
"py 	c #965F38",
"qy 	c #A06941",
"ry 	c #B68153",
"sy 	c #B18558",
"ty 	c #BC8D61",
"uy 	c #D7A87F",
"vy 	c #E3B993",
"wy 	c #DFB38E",
"xy 	c #E5BD96",
"yy 	c #EAC29B",
"zy 	c #E5BE96",
"Ay 	c #E4BC93",
"By 	c #E0B48A",
"Cy 	c #DDB188",
"Dy 	c #E2B388",
"Ey 	c #E2B48A",
"Fy 	c #E4B789",
"Gy 	c #E0B791",
"Hy 	c #D2A579",
"Iy 	c #E8C3A7",
"Jy 	c #E6C0A1",
"Ky 	c #D2AA7D",
"Ly 	c #945E37",
"My 	c #A8754C",
"Ny 	c #A7744B",
"Oy 	c #B4865E",
"Py 	c #AD805A",
"Qy 	c #71512F",
"Ry 	c #6F5430",
"Sy 	c #59422C",
"Ty 	c #342E23",
"Uy 	c #1E1C17",
"Vy 	c #2F2B15",
"Wy 	c #BFBA3F",
"Xy 	c #B9B622",
"Yy 	c #B8B63B",
"Zy 	c #353116",
"`y 	c #292618",
" z 	c #28251D",
".z 	c #28261D",
"+z 	c #29261C",
"@z 	c #25241C",
"#z 	c #1E201C",
"$z 	c #5F5B32",
"%z 	c #8B8633",
"&z 	c #8D8833",
"*z 	c #96933B",
"=z 	c #9A984C",
"-z 	c #AEA061",
";z 	c #ADA15F",
">z 	c #B7AC6E",
",z 	c #AC9E6D",
"'z 	c #2A281E",
")z 	c #4C4339",
"!z 	c #675738",
"~z 	c #4A3C1A",
"{z 	c #433715",
"]z 	c #463716",
"^z 	c #473613",
"/z 	c #3F3713",
"(z 	c #303615",
"_z 	c #1C1E18",
":z 	c #1F1F1A",
"<z 	c #3E3527",
"[z 	c #65502F",
"}z 	c #875835",
"|z 	c #965F39",
"1z 	c #B88557",
"2z 	c #C38F61",
"3z 	c #E3BB98",
"4z 	c #E2B892",
"5z 	c #D2A881",
"6z 	c #DAB38C",
"7z 	c #E5BC95",
"8z 	c #E3BA91",
"9z 	c #E4B88E",
"0z 	c #E7BF92",
"az 	c #E5B78A",
"bz 	c #DEAC7E",
"cz 	c #E4B488",
"dz 	c #DDB289",
"ez 	c #DBB389",
"fz 	c #DEB692",
"gz 	c #D6A97F",
"hz 	c #D5AB83",
"iz 	c #E0B995",
"jz 	c #EAC9AE",
"kz 	c #ECCBB0",
"lz 	c #D4AC84",
"mz 	c #B78459",
"nz 	c #A9774E",
"oz 	c #83512F",
"pz 	c #6F4E2D",
"qz 	c #51422B",
"rz 	c #22201A",
"sz 	c #1A1A17",
"tz 	c #2A2913",
"uz 	c #B3AD33",
"vz 	c #BDB624",
"wz 	c #C8B837",
"xz 	c #9F8722",
"yz 	c #9E7E1A",
"zz 	c #9F7B1F",
"Az 	c #9F7820",
"Bz 	c #9E761F",
"Cz 	c #A47D24",
"Dz 	c #95721A",
"Ez 	c #947624",
"Fz 	c #5A532F",
"Gz 	c #7D762B",
"Hz 	c #B9B526",
"Iz 	c #BAB424",
"Jz 	c #C9C03A",
"Kz 	c #E7DD60",
"Lz 	c #E8E870",
"Mz 	c #E8EA77",
"Nz 	c #E7E785",
"Oz 	c #383920",
"Pz 	c #99935C",
"Qz 	c #E8CE4E",
"Rz 	c #E9C839",
"Sz 	c #EAC52A",
"Tz 	c #E9C427",
"Uz 	c #E9C423",
"Vz 	c #E8C736",
"Wz 	c #E9C736",
"Xz 	c #C0B450",
"Yz 	c #221E19",
"Zz 	c #655130",
"`z 	c #815935",
" A 	c #8C5631",
".A 	c #976139",
"+A 	c #B48558",
"@A 	c #BE8B61",
"#A 	c #B7865E",
"$A 	c #BC9068",
"%A 	c #CFA985",
"&A 	c #D3AB85",
"*A 	c #E2BB93",
"=A 	c #EBC397",
"-A 	c #E5BA90",
";A 	c #E5B588",
">A 	c #E2B288",
",A 	c #E2B589",
"'A 	c #DBB388",
")A 	c #E1B58B",
"!A 	c #DBB895",
"~A 	c #BC8C62",
"{A 	c #C38E62",
"]A 	c #B88559",
"^A 	c #7F4D2C",
"/A 	c #68482A",
"(A 	c #4B3E2B",
"_A 	c #25201B",
":A 	c #1B1A17",
"<A 	c #363215",
"[A 	c #B4B138",
"}A 	c #B7B320",
"|A 	c #B9B522",
"1A 	c #B9B321",
"2A 	c #C4AB1F",
"3A 	c #D09106",
"4A 	c #CF9106",
"5A 	c #CE9006",
"6A 	c #CF9107",
"7A 	c #D19511",
"8A 	c #745B20",
"9A 	c #151811",
"0A 	c #1C1D19",
"aA 	c #797026",
"bA 	c #B8B427",
"cA 	c #C3BD2F",
"dA 	c #E5DF5F",
"eA 	c #E9E96E",
"fA 	c #E8EA75",
"gA 	c #E7E782",
"hA 	c #3B3A1E",
"iA 	c #181614",
"jA 	c #1B1E13",
"kA 	c #968C3B",
"lA 	c #EFCC34",
"mA 	c #F3CA15",
"nA 	c #F2C916",
"oA 	c #F2C915",
"pA 	c #F3C917",
"qA 	c #F3CA1D",
"rA 	c #C9B842",
"sA 	c #252216",
"tA 	c #41382F",
"uA 	c #635030",
"vA 	c #895D39",
"wA 	c #99643E",
"xA 	c #9B633B",
"yA 	c #945B35",
"zA 	c #B7845A",
"AA 	c #CFA075",
"BA 	c #D8A77D",
"CA 	c #C7976D",
"DA 	c #C1966E",
"EA 	c #BE966D",
"FA 	c #DFB890",
"GA 	c #E6BE96",
"HA 	c #EDC598",
"IA 	c #EAC093",
"JA 	c #E5B789",
"KA 	c #E3B289",
"LA 	c #DDB591",
"MA 	c #E7CAB0",
"NA 	c #EACCB4",
"OA 	c #DCB48E",
"PA 	c #9F6E48",
"QA 	c #855230",
"RA 	c #925B36",
"SA 	c #C49165",
"TA 	c #BA895E",
"UA 	c #9D6B43",
"VA 	c #7D4C2B",
"WA 	c #754829",
"XA 	c #644628",
"YA 	c #513D26",
"ZA 	c #3B3226",
"`A 	c #2D2924",
" B 	c #383715",
".B 	c #B1A92B",
"+B 	c #B9B521",
"@B 	c #B9B422",
"#B 	c #C7AA20",
"$B 	c #CF9105",
"%B 	c #D19105",
"&B 	c #D09105",
"*B 	c #C9900C",
"=B 	c #6F6322",
"-B 	c #18190F",
";B 	c #6B661D",
">B 	c #BDB625",
",B 	c #BBB724",
"'B 	c #D6CE49",
")B 	c #E8EA74",
"!B 	c #E7E77F",
"~B 	c #3E3A20",
"{B 	c #1A1C17",
"]B 	c #949042",
"^B 	c #EFCD39",
"/B 	c #F3CA14",
"(B 	c #F3CA18",
"_B 	c #CCB93D",
":B 	c #2F2915",
"<B 	c #4B4238",
"[B 	c #6D5433",
"}B 	c #90623E",
"|B 	c #97643C",
"1B 	c #92572F",
"2B 	c #945B34",
"3B 	c #A16B44",
"4B 	c #A16C43",
"5B 	c #B9855A",
"6B 	c #D6AA83",
"7B 	c #DAB089",
"8B 	c #E7BF9C",
"9B 	c #E8BF9B",
"0B 	c #E7BC96",
"aB 	c #E7BC93",
"bB 	c #E8BC92",
"cB 	c #E4B689",
"dB 	c #DAB086",
"eB 	c #DAB087",
"fB 	c #D6AB83",
"gB 	c #DBB38D",
"hB 	c #E4BF9D",
"iB 	c #E9CFB6",
"jB 	c #E8CDB5",
"kB 	c #E8CBB4",
"lB 	c #DBB48D",
"mB 	c #CFA37A",
"nB 	c #C39367",
"oB 	c #B5865D",
"pB 	c #8B5A36",
"qB 	c #824F2E",
"rB 	c #82502E",
"sB 	c #8B5934",
"tB 	c #BF8F63",
"uB 	c #BE8D61",
"vB 	c #8D5A34",
"wB 	c #8B5731",
"xB 	c #654527",
"yB 	c #613B25",
"zB 	c #3D3225",
"AB 	c #252119",
"BB 	c #3A3E17",
"CB 	c #B0AA27",
"DB 	c #BAB622",
"EB 	c #B8B320",
"FB 	c #BBB423",
"GB 	c #CDA018",
"HB 	c #CF9006",
"IB 	c #D29204",
"JB 	c #D49303",
"KB 	c #C6900B",
"LB 	c #635418",
"MB 	c #1C1B15",
"NB 	c #6E661E",
"OB 	c #BEB726",
"PB 	c #C1B728",
"QB 	c #C4BA2C",
"RB 	c #DAD04B",
"SB 	c #E9E869",
"TB 	c #DDDB73",
"UB 	c #322F18",
"VB 	c #131512",
"WB 	c #191A15",
"XB 	c #949047",
"YB 	c #EDCD39",
"ZB 	c #F4CA15",
"`B 	c #F0C715",
" C 	c #F1C814",
".C 	c #CDB43B",
"+C 	c #312B15",
"@C 	c #363331",
"#C 	c #4F453F",
"$C 	c #795F49",
"%C 	c #91633F",
"&C 	c #925830",
"*C 	c #97603A",
"=C 	c #9F6942",
"-C 	c #9D6941",
";C 	c #AD7C52",
">C 	c #DFB790",
",C 	c #E2BA94",
"'C 	c #D0AC87",
")C 	c #C9A27F",
"!C 	c #CBA484",
"~C 	c #D5AF8F",
"{C 	c #E3B790",
"]C 	c #E2B68A",
"^C 	c #E4B88C",
"/C 	c #DAB187",
"(C 	c #DBAD83",
"_C 	c #D7A97E",
":C 	c #D7AA81",
"<C 	c #E4BD99",
"[C 	c #E3BC98",
"}C 	c #E0B892",
"|C 	c #D8AD84",
"1C 	c #CEA178",
"2C 	c #9A6C47",
"3C 	c #804E2D",
"4C 	c #94633E",
"5C 	c #BE8E62",
"6C 	c #D09E71",
"7C 	c #925E37",
"8C 	c #6B4D2C",
"9C 	c #593D2B",
"0C 	c #493B2B",
"aC 	c #2F2923",
"bC 	c #393C15",
"cC 	c #B1AC2A",
"dC 	c #CAA119",
"eC 	c #D39304",
"fC 	c #D69404",
"gC 	c #D49304",
"hC 	c #64501A",
"iC 	c #1A1B12",
"jC 	c #1C1F1A",
"kC 	c #736D23",
"lC 	c #BCB626",
"mC 	c #C4B729",
"nC 	c #C2B728",
"oC 	c #C3B92A",
"pC 	c #D8CB48",
"qC 	c #E9E768",
"rC 	c #CDCC6C",
"sC 	c #2C2918",
"tC 	c #171512",
"uC 	c #817035",
"vC 	c #EDCE39",
"wC 	c #F4C916",
"xC 	c #F4C915",
"yC 	c #F2C813",
"zC 	c #D9C04A",
"AC 	c #322E1A",
"BC 	c #1D211C",
"CC 	c #262523",
"DC 	c #393432",
"EC 	c #5B5043",
"FC 	c #705534",
"GC 	c #956540",
"HC 	c #935932",
"IC 	c #9B633C",
"JC 	c #A16C45",
"KC 	c #9A653E",
"LC 	c #B58459",
"MC 	c #CE9C71",
"NC 	c #D1A277",
"OC 	c #C69F7B",
"PC 	c #D1AB8A",
"QC 	c #E3B78D",
"RC 	c #E5B98E",
"SC 	c #DFB588",
"TC 	c #DEB285",
"UC 	c #D9AF82",
"VC 	c #DDB388",
"WC 	c #DBAE82",
"XC 	c #D6A679",
"YC 	c #DBB088",
"ZC 	c #E3BD97",
"`C 	c #E6C19D",
" D 	c #E7C0A1",
".D 	c #E5C5A8",
"+D 	c #E4C4A8",
"@D 	c #DFB791",
"#D 	c #E3BB99",
"$D 	c #D6AE7F",
"%D 	c #D8AB7D",
"&D 	c #A5754E",
"*D 	c #895836",
"=D 	c #7F4F2E",
"-D 	c #B6895C",
";D 	c #D2A577",
">D 	c #87522D",
",D 	c #88522E",
"'D 	c #814C2A",
")D 	c #714F2E",
"!D 	c #674E2E",
"~D 	c #5A381D",
"{D 	c #4C3A2C",
"]D 	c #3E342B",
"^D 	c #23211D",
"/D 	c #2F2A14",
"(D 	c #ABA531",
"_D 	c #C3AB22",
":D 	c #D39204",
"<D 	c #D69405",
"[D 	c #C8900B",
"}D 	c #67511C",
"|D 	c #1E1D17",
"1D 	c #1E1D16",
"2D 	c #706924",
"3D 	c #B8B327",
"4D 	c #BBB723",
"5D 	c #BEB928",
"6D 	c #D3CC48",
"7D 	c #E7D85B",
"8D 	c #CECE68",
"9D 	c #2B2A17",
"0D 	c #1A1B15",
"aD 	c #776F2D",
"bD 	c #ECCB38",
"cD 	c #F6CB18",
"dD 	c #F5CB16",
"eD 	c #F5CB17",
"fD 	c #F2C512",
"gD 	c #322D19",
"hD 	c #34312F",
"iD 	c #3C3734",
"jD 	c #695749",
"kD 	c #775632",
"lD 	c #996C47",
"mD 	c #A06E47",
"nD 	c #A57248",
"oD 	c #96643C",
"pD 	c #A46D45",
"qD 	c #BE8C61",
"rD 	c #D2A174",
"sD 	c #C7996E",
"tD 	c #DAB188",
"uD 	c #E0B489",
"vD 	c #E0B289",
"wD 	c #E2B78E",
"xD 	c #E2B68B",
"yD 	c #DDB48B",
"zD 	c #DCB389",
"AD 	c #D6A97D",
"BD 	c #DCB187",
"CD 	c #E5B689",
"DD 	c #E0AE79",
"ED 	c #D5AA76",
"FD 	c #E1BB96",
"GD 	c #E3BE98",
"HD 	c #C3986D",
"ID 	c #CA9F74",
"JD 	c #DAB088",
"KD 	c #C49A6E",
"LD 	c #D5AD7E",
"MD 	c #8B5A38",
"ND 	c #7F4D2D",
"OD 	c #875430",
"PD 	c #A4774E",
"QD 	c #D1A275",
"RD 	c #8D5832",
"SD 	c #864F2C",
"TD 	c #7F6046",
"UD 	c #6F583D",
"VD 	c #623C21",
"WD 	c #51402E",
"XD 	c #21211D",
"YD 	c #0F1614",
"ZD 	c #282413",
"`D 	c #AAA539",
" E 	c #B6B11E",
".E 	c #B7B21F",
"+E 	c #C1AB22",
"@E 	c #D79505",
"#E 	c #CE9007",
"$E 	c #68521A",
"%E 	c #1D1C1A",
"&E 	c #1E1F1B",
"*E 	c #222017",
"=E 	c #65611E",
"-E 	c #B9B525",
";E 	c #BAB724",
">E 	c #D2C743",
",E 	c #D0CA5E",
"'E 	c #2C2C11",
")E 	c #161A16",
"!E 	c #79732D",
"~E 	c #EDD039",
"{E 	c #F3C614",
"]E 	c #F4CA16",
"^E 	c #F2C612",
"/E 	c #D3B431",
"(E 	c #322D1A",
"_E 	c #24241E",
":E 	c #26251D",
"<E 	c #26241C",
"[E 	c #23231B",
"}E 	c #22231F",
"|E 	c #2B2A28",
"1E 	c #393633",
"2E 	c #51463F",
"3E 	c #726151",
"4E 	c #816645",
"5E 	c #A0714B",
"6E 	c #9E6F4A",
"7E 	c #9F6E49",
"8E 	c #AC7B53",
"9E 	c #AF7C54",
"0E 	c #9C663F",
"aE 	c #BA8E64",
"bE 	c #BC9167",
"cE 	c #D7AB83",
"dE 	c #D4A377",
"eE 	c #D7AB81",
"fE 	c #E1B488",
"gE 	c #E7BC8F",
"hE 	c #E3B98E",
"iE 	c #D2A67A",
"jE 	c #DDAB74",
"kE 	c #D7AA72",
"lE 	c #E3AB73",
"mE 	c #DAA571",
"nE 	c #D9A46C",
"oE 	c #D69E68",
"pE 	c #D8A370",
"qE 	c #E6C2A0",
"rE 	c #E5BE99",
"sE 	c #E7BF98",
"tE 	c #D8AF87",
"uE 	c #DCB289",
"vE 	c #CDA279",
"wE 	c #D7AC7F",
"xE 	c #A57851",
"yE 	c #91603C",
"zE 	c #AD7D53",
"AE 	c #7F5534",
"BE 	c #846346",
"CE 	c #6D512F",
"DE 	c #613D27",
"EE 	c #4D3B2E",
"FE 	c #3D3226",
"GE 	c #292622",
"HE 	c #0D120E",
"IE 	c #202111",
"JE 	c #AAA538",
"KE 	c #BCB624",
"LE 	c #BEA71E",
"ME 	c #D39303",
"NE 	c #C7900A",
"OE 	c #5B4A16",
"PE 	c #1F2019",
"QE 	c #1E1E17",
"RE 	c #1D1D17",
"SE 	c #1D1E1A",
"TE 	c #1E1D1A",
"UE 	c #1A1D17",
"VE 	c #201C16",
"WE 	c #1F1E16",
"XE 	c #262116",
"YE 	c #2B271B",
"ZE 	c #302A18",
"`E 	c #6B651B",
" F 	c #BAB626",
".F 	c #CEC753",
"+F 	c #2D2E12",
"@F 	c #7B6330",
"#F 	c #EFD13B",
"$F 	c #F2C411",
"%F 	c #F2C613",
"&F 	c #F3C813",
"*F 	c #DABE37",
"=F 	c #413A1A",
"-F 	c #2C291D",
";F 	c #2B281D",
">F 	c #2C2A1E",
",F 	c #2D2C22",
"'F 	c #2B2A20",
")F 	c #2C2A22",
"!F 	c #252622",
"~F 	c #191A18",
"{F 	c #34302C",
"]F 	c #594B3D",
"^F 	c #796350",
"/F 	c #806751",
"(F 	c #8F6848",
"_F 	c #A1744E",
":F 	c #9F6F49",
"<F 	c #AA784F",
"[F 	c #9A663F",
"}F 	c #A06A42",
"|F 	c #E2B58A",
"1F 	c #D8AD82",
"2F 	c #D8A673",
"3F 	c #DBAA71",
"4F 	c #D69E67",
"5F 	c #D59B67",
"6F 	c #D7A476",
"7F 	c #DFB58C",
"8F 	c #E6C29C",
"9F 	c #C1966F",
"0F 	c #AC7C54",
"aF 	c #A3714A",
"bF 	c #A06D44",
"cF 	c #B4865D",
"dF 	c #A77852",
"eF 	c #AD8259",
"fF 	c #BF946C",
"gF 	c #8C5936",
"hF 	c #9A683F",
"iF 	c #814E2D",
"jF 	c #784829",
"kF 	c #8C6446",
"lF 	c #7F6040",
"mF 	c #6A4D2C",
"nF 	c #623D26",
"oF 	c #4A392A",
"pF 	c #242421",
"qF 	c #1B1E19",
"rF 	c #1B1E16",
"sF 	c #1E1F19",
"tF 	c #1F1F19",
"uF 	c #ABA434",
"vF 	c #B7B31F",
"wF 	c #BCB725",
"xF 	c #C0A91E",
"yF 	c #D59305",
"zF 	c #CD9007",
"AF 	c #855119",
"BF 	c #77361D",
"CF 	c #78331A",
"DF 	c #78361B",
"EF 	c #6E3A1B",
"FF 	c #623117",
"GF 	c #64341B",
"HF 	c #74421E",
"IF 	c #725A20",
"JF 	c #7A5A2B",
"KF 	c #78651A",
"LF 	c #7E6213",
"MF 	c #896C17",
"NF 	c #A27F1D",
"OF 	c #A3831B",
"PF 	c #A6861E",
"QF 	c #B0971D",
"RF 	c #B9B421",
"SF 	c #BFB626",
"TF 	c #B5AE37",
"UF 	c #302F11",
"VF 	c #7D663C",
"WF 	c #F2D343",
"XF 	c #F2C713",
"YF 	c #F0D137",
"ZF 	c #D3CF63",
"`F 	c #C9C96D",
" G 	c #C3C369",
".G 	c #C5C46A",
"+G 	c #C6C66A",
"@G 	c #C1C16A",
"#G 	c #C1C16C",
"$G 	c #ADA36E",
"%G 	c #29271A",
"&G 	c #282725",
"*G 	c #5D5042",
"=G 	c #826955",
"-G 	c #926E4E",
";G 	c #8E6544",
">G 	c #8C5D3B",
",G 	c #996B49",
"'G 	c #A37148",
")G 	c #9E673E",
"!G 	c #A06E48",
"~G 	c #A3724A",
"{G 	c #A0734F",
"]G 	c #A3754E",
"^G 	c #B98D63",
"/G 	c #C49366",
"(G 	c #D0A178",
"_G 	c #E0B288",
":G 	c #E1B389",
"<G 	c #E0AD84",
"[G 	c #E4BA91",
"}G 	c #E4B98E",
"|G 	c #E1B991",
"1G 	c #D5A67A",
"2G 	c #D7AB7C",
"3G 	c #D5A774",
"4G 	c #D5A06E",
"5G 	c #DAAA7E",
"6G 	c #E5BE9C",
"7G 	c #AC7A52",
"8G 	c #93613C",
"9G 	c #9D6E4A",
"0G 	c #A1724D",
"aG 	c #9C6B47",
"bG 	c #96603B",
"cG 	c #915D39",
"dG 	c #8F5D39",
"eG 	c #96643E",
"fG 	c #8A5631",
"gG 	c #8E5C36",
"hG 	c #96623A",
"iG 	c #885430",
"jG 	c #8B603F",
"kG 	c #755431",
"lG 	c #63432A",
"mG 	c #4F3A2C",
"nG 	c #453826",
"oG 	c #342D25",
"pG 	c #21211E",
"qG 	c #1B1E1A",
"rG 	c #554837",
"sG 	c #8F8353",
"tG 	c #9C9A56",
"uG 	c #9C9B56",
"vG 	c #A19F5B",
"wG 	c #B6AB6C",
"xG 	c #ADA863",
"yG 	c #AAA85D",
"zG 	c #AAA85E",
"AG 	c #6E6943",
"BG 	c #191C16",
"CG 	c #272514",
"DG 	c #A9A42E",
"EG 	c #C0B727",
"FG 	c #C6AB20",
"GG 	c #D6900C",
"HG 	c #C14E0D",
"IG 	c #C2460D",
"JG 	c #C1440E",
"KG 	c #C0440D",
"LG 	c #C1440D",
"MG 	c #C1450D",
"NG 	c #D06A19",
"OG 	c #D3940F",
"PG 	c #D6950F",
"QG 	c #D39307",
"RG 	c #D29205",
"SG 	c #D39305",
"TG 	c #D79506",
"UG 	c #CF9D14",
"VG 	c #BEB625",
"WG 	c #AEAA2C",
"XG 	c #2D2D13",
"YG 	c #5C4C1D",
"ZG 	c #ECCC38",
"`G 	c #F5CA17",
" H 	c #EFC922",
".H 	c #EAE765",
"+H 	c #E8EA73",
"@H 	c #E8E972",
"#H 	c #E0DA7E",
"$H 	c #302B17",
"%H 	c #171918",
"&H 	c #3E3830",
"*H 	c #605140",
"=H 	c #7F6650",
"-H 	c #916F51",
";H 	c #906845",
">H 	c #8C6139",
",H 	c #A6744C",
"'H 	c #AE8056",
")H 	c #AD7C55",
"!H 	c #A77954",
"~H 	c #B98A61",
"{H 	c #DDB187",
"]H 	c #E7BC92",
"^H 	c #E8BE94",
"/H 	c #E3B389",
"(H 	c #E4B68A",
"_H 	c #E9BF91",
":H 	c #D6AD84",
"<H 	c #DEAE82",
"[H 	c #E1B78E",
"}H 	c #DEB791",
"|H 	c #BA8D64",
"1H 	c #9D6A42",
"2H 	c #94623C",
"3H 	c #8F5B37",
"4H 	c #7C4A2A",
"5H 	c #7B492A",
"6H 	c #7C4C2C",
"7H 	c #7F4E2E",
"8H 	c #87522F",
"9H 	c #7E4A2A",
"0H 	c #875532",
"aH 	c #865532",
"bH 	c #835331",
"cH 	c #804F2E",
"dH 	c #8D5E3B",
"eH 	c #936B4A",
"fH 	c #5C3C27",
"gH 	c #4C3A2E",
"hH 	c #3E372D",
"iH 	c #302B25",
"jH 	c #1C1F19",
"kH 	c #A49778",
"lH 	c #E8E48F",
"mH 	c #E8EA79",
"nH 	c #E9E66A",
"oH 	c #DBD459",
"pH 	c #8D853D",
"qH 	c #1B1D16",
"rH 	c #242216",
"sH 	c #A8A132",
"tH 	c #B6B21F",
"uH 	c #CBA71F",
"vH 	c #D59404",
"wH 	c #D5900A",
"xH 	c #C9470B",
"yH 	c #C9430C",
"zH 	c #C9420D",
"AH 	c #C6400C",
"BH 	c #C53E0C",
"CH 	c #D57413",
"DH 	c #D9960A",
"EH 	c #D89506",
"FH 	c #CFA017",
"GH 	c #ADAA2C",
"HH 	c #312F11",
"IH 	c #493914",
"JH 	c #E3C029",
"KH 	c #F1C512",
"LH 	c #EFCA24",
"MH 	c #EBE762",
"NH 	c #E9E96B",
"OH 	c #E8EA72",
"PH 	c #E4E477",
"QH 	c #373219",
"RH 	c #181917",
"SH 	c #352E26",
"TH 	c #5C4B3B",
"UH 	c #7F654E",
"VH 	c #8B6C4E",
"WH 	c #856744",
"XH 	c #8C6642",
"YH 	c #976541",
"ZH 	c #8D5B36",
"`H 	c #A9784F",
" I 	c #B07E54",
".I 	c #A57349",
"+I 	c #A66F46",
"@I 	c #A8774E",
"#I 	c #A1734C",
"$I 	c #EAC096",
"%I 	c #ECC49A",
"&I 	c #E6BC95",
"*I 	c #D9AE84",
"=I 	c #D4A97F",
"-I 	c #CAA078",
";I 	c #CDA37C",
">I 	c #E2B78B",
",I 	c #E6BA91",
"'I 	c #B4885F",
")I 	c #89542F",
"!I 	c #7A4929",
"~I 	c #825231",
"{I 	c #744729",
"]I 	c #714427",
"^I 	c #6B4024",
"/I 	c #754527",
"(I 	c #7D4D2D",
"_I 	c #734727",
":I 	c #885330",
"<I 	c #916744",
"[I 	c #71502E",
"}I 	c #5C3E2B",
"|I 	c #4A3A2E",
"1I 	c #393532",
"2I 	c #1B1E14",
"3I 	c #9A9565",
"4I 	c #E8EA7C",
"5I 	c #E9E76D",
"6I 	c #D7CF49",
"7I 	c #C1BA2D",
"8I 	c #86842F",
"9I 	c #191D15",
"0I 	c #212015",
"aI 	c #A39D31",
"bI 	c #BCA81B",
"cI 	c #D19006",
"dI 	c #D2450F",
"eI 	c #CC420F",
"fI 	c #C63F0C",
"gI 	c #D4720F",
"hI 	c #CD9F14",
"iI 	c #A8A62C",
"jI 	c #303014",
"kI 	c #49381A",
"lI 	c #E3BF38",
"mI 	c #F1C613",
"nI 	c #F2C511",
"oI 	c #F3C913",
"pI 	c #F0CB28",
"qI 	c #EBE65D",
"rI 	c #E4E476",
"sI 	c #393917",
"tI 	c #37332F",
"uI 	c #4F4334",
"vI 	c #775F4B",
"wI 	c #926C4E",
"xI 	c #80684B",
"yI 	c #866A49",
"zI 	c #8B6341",
"AI 	c #8E5C38",
"BI 	c #9C6B44",
"CI 	c #B17E55",
"DI 	c #B28056",
"EI 	c #B2865B",
"FI 	c #B0865B",
"GI 	c #C6996B",
"HI 	c #E7BD98",
"II 	c #C79B72",
"JI 	c #D7AB82",
"KI 	c #E3B78A",
"LI 	c #9D6A43",
"MI 	c #915D37",
"NI 	c #9F6C45",
"OI 	c #693B20",
"PI 	c #6F4023",
"QI 	c #754528",
"RI 	c #824D2B",
"SI 	c #8A5B38",
"TI 	c #70502E",
"UI 	c #5D402C",
"VI 	c #47392E",
"WI 	c #3A3632",
"XI 	c #2C2A27",
"YI 	c #1E1F18",
"ZI 	c #969451",
"`I 	c #EAEA6F",
" J 	c #DBD44F",
".J 	c #C3BB2C",
"+J 	c #C3B72A",
"@J 	c #878330",
"#J 	c #1B2017",
"$J 	c #131613",
"%J 	c #0D120F",
"&J 	c #1A1D15",
"*J 	c #989428",
"=J 	c #B9AA1E",
"-J 	c #CE8F06",
";J 	c #C9480D",
">J 	c #D44610",
",J 	c #C9410F",
"'J 	c #C53F0C",
")J 	c #D86E10",
"!J 	c #D79405",
"~J 	c #D59303",
"{J 	c #D59304",
"]J 	c #D39709",
"^J 	c #A19F2D",
"/J 	c #322E16",
"(J 	c #1B1D19",
"_J 	c #4A391B",
":J 	c #E6C036",
"<J 	c #F3C914",
"[J 	c #F2C510",
"}J 	c #F3C713",
"|J 	c #F0CA23",
"1J 	c #EBE75E",
"2J 	c #E8E971",
"3J 	c #E4E475",
"4J 	c #393F17",
"5J 	c #362F29",
"6J 	c #483E35",
"7J 	c #756252",
"8J 	c #8B6C50",
"9J 	c #8D6C4F",
"0J 	c #8C683D",
"aJ 	c #906641",
"bJ 	c #95633F",
"cJ 	c #A1734D",
"dJ 	c #AC7A51",
"eJ 	c #8C542E",
"fJ 	c #8D542D",
"gJ 	c #A56F45",
"hJ 	c #B6865A",
"iJ 	c #E3B58C",
"jJ 	c #E3B892",
"kJ 	c #D3A67B",
"lJ 	c #BC8F65",
"mJ 	c #D5A87C",
"nJ 	c #DBB188",
"oJ 	c #AA7E57",
"pJ 	c #8B5835",
"qJ 	c #865633",
"rJ 	c #825432",
"sJ 	c #79492B",
"tJ 	c #6D3E23",
"uJ 	c #6A3E23",
"vJ 	c #6E4326",
"wJ 	c #794527",
"xJ 	c #88532E",
"yJ 	c #95643F",
"zJ 	c #7C5632",
"AJ 	c #6D502D",
"BJ 	c #563D29",
"CJ 	c #473930",
"DJ 	c #25231E",
"EJ 	c #212119",
"FJ 	c #E6E365",
"GJ 	c #C7BF33",
"HJ 	c #C2B729",
"IJ 	c #898930",
"JJ 	c #1D2118",
"KJ 	c #121713",
"LJ 	c #0E140C",
"MJ 	c #191C14",
"NJ 	c #938F23",
"OJ 	c #C1A216",
"PJ 	c #D09006",
"QJ 	c #CC5015",
"RJ 	c #D34610",
"SJ 	c #C7400E",
"TJ 	c #C8430B",
"UJ 	c #C7410B",
"VJ 	c #D36E12",
"WJ 	c #D2980A",
"XJ 	c #BAB522",
"YJ 	c #A19E29",
"ZJ 	c #2C2A15",
"`J 	c #E6C035",
" K 	c #F2C814",
".K 	c #F1C412",
"+K 	c #F0CA22",
"@K 	c #EBE760",
"#K 	c #E5E471",
"$K 	c #3D3C19",
"%K 	c #0D110E",
"&K 	c #24231B",
"*K 	c #4E463D",
"=K 	c #66554A",
"-K 	c #766251",
";K 	c #966845",
">K 	c #976945",
",K 	c #936642",
"'K 	c #90623C",
")K 	c #9C6C45",
"!K 	c #8F5C37",
"~K 	c #9F724C",
"{K 	c #A0673D",
"]K 	c #8A5129",
"^K 	c #9A6239",
"/K 	c #B8885D",
"(K 	c #C9986E",
"_K 	c #DDB086",
":K 	c #D8AD87",
"<K 	c #D2AB85",
"[K 	c #CFA47C",
"}K 	c #D9AA7E",
"|K 	c #CE9D71",
"1K 	c #CD9D71",
"2K 	c #CD9D72",
"3K 	c #B7875D",
"4K 	c #C39063",
"5K 	c #C49164",
"6K 	c #C18F63",
"7K 	c #B17E54",
"8K 	c #966540",
"9K 	c #855532",
"0K 	c #794B2B",
"aK 	c #724326",
"bK 	c #6F3C23",
"cK 	c #774628",
"dK 	c #6D4C2C",
"eK 	c #543E2A",
"fK 	c #4B4031",
"gK 	c #20201C",
"hK 	c #1F1F1B",
"iK 	c #22231D",
"jK 	c #222318",
"kK 	c #A2A057",
"lK 	c #E8E569",
"mK 	c #CCC643",
"nK 	c #BCB724",
"oK 	c #C1B829",
"pK 	c #949231",
"qK 	c #1C2018",
"rK 	c #1A1C14",
"sK 	c #8B8625",
"tK 	c #BFA920",
"uK 	c #C95113",
"vK 	c #D0450F",
"wK 	c #C74210",
"xK 	c #C84311",
"yK 	c #C9430D",
"zK 	c #C7420B",
"AK 	c #CB6D13",
"BK 	c #D79406",
"CK 	c #D59609",
"DK 	c #B7B11E",
"EK 	c #999829",
"FK 	c #262611",
"GK 	c #4C3E1B",
"HK 	c #EBC938",
"IK 	c #F3CB23",
"JK 	c #EBE75F",
"KK 	c #EAE863",
"LK 	c #40401B",
"MK 	c #20221C",
"NK 	c #1E2121",
"OK 	c #1A1A18",
"PK 	c #282522",
"QK 	c #473F34",
"RK 	c #625243",
"SK 	c #6E563E",
"TK 	c #815B3F",
"UK 	c #956743",
"VK 	c #96633E",
"WK 	c #97643E",
"XK 	c #AE7F52",
"YK 	c #AF7A4E",
"ZK 	c #AF794C",
"`K 	c #90552E",
" L 	c #DDB085",
".L 	c #D5AC88",
"+L 	c #CD9E72",
"@L 	c #DCAD84",
"#L 	c #E1B189",
"$L 	c #A27148",
"%L 	c #CF9C6E",
"&L 	c #CA976B",
"*L 	c #BD885B",
"=L 	c #9F6A41",
"-L 	c #7C4B2C",
";L 	c #754428",
">L 	c #734225",
",L 	c #764628",
"'L 	c #784728",
")L 	c #754628",
"!L 	c #744A2A",
"~L 	c #764F2D",
"{L 	c #724E2D",
"]L 	c #5E4E3C",
"^L 	c #342F25",
"/L 	c #27261E",
"(L 	c #27251D",
"_L 	c #24241B",
":L 	c #141714",
"<L 	c #26241A",
"[L 	c #AAA05F",
"}L 	c #D9D357",
"|L 	c #C3B82A",
"1L 	c #C3B728",
"2L 	c #968E30",
"3L 	c #1C1F17",
"4L 	c #898322",
"5L 	c #C0AC24",
"6L 	c #D19106",
"7L 	c #C94B0F",
"8L 	c #CE450E",
"9L 	c #CE440E",
"0L 	c #C9420C",
"aL 	c #CD440D",
"bL 	c #CC6609",
"cL 	c #D99B13",
"dL 	c #BFB726",
"eL 	c #BCB524",
"fL 	c #A39F30",
"gL 	c #2C2A18",
"hL 	c #443817",
"iL 	c #E6C63C",
"jL 	c #F2CB23",
"kL 	c #ECE75D",
"lL 	c #E5E36F",
"mL 	c #42421C",
"nL 	c #272622",
"oL 	c #4A3F37",
"pL 	c #695647",
"qL 	c #715739",
"rL 	c #88603A",
"sL 	c #96633D",
"tL 	c #A16D46",
"uL 	c #B18257",
"vL 	c #B28151",
"wL 	c #B47E53",
"xL 	c #B47C4F",
"yL 	c #B0794C",
"zL 	c #9F693F",
"AL 	c #975D35",
"BL 	c #8D542E",
"CL 	c #B28055",
"DL 	c #CFA178",
"EL 	c #BB8E64",
"FL 	c #BE926A",
"GL 	c #AD8055",
"HL 	c #A06C44",
"IL 	c #A26F47",
"JL 	c #97643D",
"KL 	c #D4A477",
"LL 	c #C79264",
"ML 	c #C99668",
"NL 	c #BA8557",
"OL 	c #A46F45",
"PL 	c #9C673E",
"QL 	c #956139",
"RL 	c #7D4B2C",
"SL 	c #78492B",
"TL 	c #744528",
"UL 	c #744227",
"VL 	c #784427",
"WL 	c #855733",
"XL 	c #784B2C",
"YL 	c #7C4D2C",
"ZL 	c #846245",
"`L 	c #50432D",
" M 	c #322D25",
".M 	c #2C291F",
"+M 	c #24241C",
"@M 	c #28261E",
"#M 	c #26251E",
"$M 	c #24221E",
"%M 	c #292722",
"&M 	c #29271D",
"*M 	c #2F2C26",
"=M 	c #2C2A24",
"-M 	c #2C2A21",
";M 	c #2C2B20",
">M 	c #403A24",
",M 	c #BCB761",
"'M 	c #EAEA73",
")M 	c #E0DD5C",
"!M 	c #C4BA30",
"~M 	c #C5B72A",
"{M 	c #C1B727",
"]M 	c #BBB623",
"^M 	c #201E15",
"/M 	c #98932F",
"(M 	c #C1AC22",
"_M 	c #CD9107",
":M 	c #D39205",
"<M 	c #CD480D",
"[M 	c #D0450E",
"}M 	c #D1450F",
"|M 	c #CE670E",
"1M 	c #D89A13",
"2M 	c #A29F33",
"3M 	c #2B2B17",
"4M 	c #1C1D1E",
"5M 	c #383115",
"6M 	c #D7BD3C",
"7M 	c #F2CA21",
"8M 	c #ECE65D",
"9M 	c #E9E86B",
"0M 	c #EDE966",
"aM 	c #ECE862",
"bM 	c #E5E46B",
"cM 	c #4E4524",
"dM 	c #2A271E",
"eM 	c #2D2D24",
"fM 	c #2C2B22",
"gM 	c #302F1F",
"hM 	c #2E2B1C",
"iM 	c #282521",
"jM 	c #332F2A",
"kM 	c #4A4333",
"lM 	c #69584B",
"mM 	c #8B6B51",
"nM 	c #AE8159",
"oM 	c #9E6B43",
"pM 	c #95613D",
"qM 	c #AE7B4C",
"rM 	c #AC7A4E",
"sM 	c #B48459",
"tM 	c #B78457",
"uM 	c #B57F53",
"vM 	c #A76E41",
"wM 	c #9A633B",
"xM 	c #9D6439",
"yM 	c #9F6539",
"zM 	c #965D36",
"AM 	c #915830",
"BM 	c #B9885C",
"CM 	c #B7885E",
"DM 	c #CFA175",
"EM 	c #D4A679",
"FM 	c #BD8D64",
"GM 	c #D4A375",
"HM 	c #D2A173",
"IM 	c #D5A170",
"JM 	c #C69467",
"KM 	c #AE7C51",
"LM 	c #7D4F2E",
"MM 	c #713D25",
"NM 	c #764528",
"OM 	c #844D2A",
"PM 	c #7C4829",
"QM 	c #713A22",
"RM 	c #6F3E24",
"SM 	c #6B381B",
"TM 	c #784D2D",
"UM 	c #704427",
"VM 	c #865431",
"WM 	c #866542",
"XM 	c #58432A",
"YM 	c #514424",
"ZM 	c #494322",
"`M 	c #494623",
" N 	c #454223",
".N 	c #403C22",
"+N 	c #4C4727",
"@N 	c #4D4824",
"#N 	c #443E22",
"$N 	c #473F21",
"%N 	c #4B4222",
"&N 	c #4C3E24",
"*N 	c #41381E",
"=N 	c #362F1B",
"-N 	c #37301C",
";N 	c #594D29",
">N 	c #B0AF4E",
",N 	c #ECE96A",
"'N 	c #EBE96E",
")N 	c #CEC740",
"!N 	c #BDB725",
"~N 	c #908929",
"{N 	c #181C15",
"]N 	c #1D1E16",
"^N 	c #9F9538",
"/N 	c #BBB728",
"(N 	c #BCB928",
"_N 	c #B9B626",
":N 	c #B8B428",
"<N 	c #BAB624",
"[N 	c #B8B422",
"}N 	c #C9AF26",
"|N 	c #CE9108",
"1N 	c #CC510D",
"2N 	c #CE480E",
"3N 	c #CD5013",
"4N 	c #CE470D",
"5N 	c #CC470D",
"6N 	c #D04710",
"7N 	c #CC7011",
"8N 	c #CE9F15",
"9N 	c #BFBA36",
"0N 	c #B3AD34",
"aN 	c #B4AF33",
"bN 	c #B3AE32",
"cN 	c #B1AB32",
"dN 	c #B2AC2A",
"eN 	c #B7B32E",
"fN 	c #A4A237",
"gN 	c #2A2A16",
"hN 	c #332E18",
"iN 	c #D5BB3A",
"jN 	c #F3C915",
"kN 	c #F3C91D",
"lN 	c #EEDA52",
"mN 	c #EFE667",
"nN 	c #F0E565",
"oN 	c #EEE564",
"pN 	c #EFE668",
"qN 	c #EBE45F",
"rN 	c #F1E564",
"sN 	c #F0E365",
"tN 	c #E4DA5E",
"uN 	c #C3B86D",
"vN 	c #A4A161",
"wN 	c #A3A15C",
"xN 	c #AEA863",
"yN 	c #BDB16B",
"zN 	c #C0B865",
"AN 	c #C5BF62",
"BN 	c #191714",
"CN 	c #171614",
"DN 	c #23221D",
"EN 	c #322D28",
"FN 	c #61544C",
"GN 	c #7D6C62",
"HN 	c #AB825F",
"IN 	c #BD9167",
"JN 	c #B98B60",
"KN 	c #A3734A",
"LN 	c #B7875B",
"MN 	c #B68658",
"NN 	c #B58657",
"ON 	c #BE895A",
"PN 	c #C58D5F",
"QN 	c #BF895B",
"RN 	c #B17D4F",
"SN 	c #A46A3E",
"TN 	c #9F653A",
"UN 	c #AE7E53",
"VN 	c #C09266",
"WN 	c #C7986D",
"XN 	c #CEA075",
"YN 	c #B98A5F",
"ZN 	c #AF7E53",
"`N 	c #B58359",
" O 	c #AF8258",
".O 	c #D3A678",
"+O 	c #BF8C5C",
"@O 	c #C38F60",
"#O 	c #C69365",
"$O 	c #723B24",
"%O 	c #754427",
"&O 	c #895531",
"*O 	c #7F4A2A",
"=O 	c #6D391D",
"-O 	c #6B3C22",
";O 	c #734326",
">O 	c #834E2B",
",O 	c #AF824C",
"'O 	c #D7AD66",
")O 	c #CAA454",
"!O 	c #CDB552",
"~O 	c #DDD96E",
"{O 	c #D6D571",
"]O 	c #D0D06F",
"^O 	c #D1D170",
"/O 	c #D3D16E",
"(O 	c #D6C751",
"_O 	c #D7B82D",
":O 	c #DAB720",
"<O 	c #DCBB20",
"[O 	c #DDBC30",
"}O 	c #CBAE25",
"|O 	c #D2B426",
"1O 	c #E4C326",
"2O 	c #ECDC55",
"3O 	c #F0EA6B",
"4O 	c #F3EA6D",
"5O 	c #E6E064",
"6O 	c #C7BE2F",
"7O 	c #C3B729",
"8O 	c #C1B729",
"9O 	c #89842D",
"0O 	c #1A1E15",
"aO 	c #1D1D1D",
"bO 	c #646127",
"cO 	c #85862F",
"dO 	c #7C7B2A",
"eO 	c #736E27",
"fO 	c #6E6926",
"gO 	c #716D24",
"hO 	c #787323",
"iO 	c #8C8626",
"jO 	c #AF9B35",
"kO 	c #D38D07",
"lO 	c #D08A07",
"mO 	c #CF890E",
"nO 	c #DA8B0C",
"oO 	c #C68408",
"pO 	c #D6880F",
"qO 	c #D79305",
"rO 	c #C89318",
"sO 	c #564A17",
"tO 	c #48441D",
"uO 	c #48431D",
"vO 	c #3C3517",
"wO 	c #4E4C22",
"xO 	c #615C36",
"yO 	c #615D2A",
"zO 	c #4F4B23",
"AO 	c #232319",
"BO 	c #362E1A",
"CO 	c #DDC54A",
"DO 	c #F2C515",
"EO 	c #EF8C20",
"FO 	c #F58926",
"GO 	c #F68827",
"HO 	c #F48B26",
"IO 	c #F48C26",
"JO 	c #F78727",
"KO 	c #EC9829",
"LO 	c #E9E378",
"MO 	c #EAE98B",
"NO 	c #EAE988",
"OO 	c #E8EA78",
"PO 	c #E9E86A",
"QO 	c #1D1C17",
"RO 	c #201C18",
"SO 	c #1A1914",
"TO 	c #1F1D1A",
"UO 	c #22201C",
"VO 	c #25221B",
"WO 	c #26241F",
"XO 	c #2D2A25",
"YO 	c #37332E",
"ZO 	c #4B433C",
"`O 	c #574D47",
" P 	c #836E62",
".P 	c #A48971",
"+P 	c #A2744E",
"@P 	c #BF9067",
"#P 	c #C8986D",
"$P 	c #C48F62",
"%P 	c #C38D5F",
"&P 	c #C58F5F",
"*P 	c #BC8859",
"=P 	c #A2693F",
"-P 	c #A56A3F",
";P 	c #9D643A",
">P 	c #955C36",
",P 	c #B27F55",
"'P 	c #D3A47A",
")P 	c #CD9D73",
"!P 	c #D7A87C",
"~P 	c #DBAA81",
"{P 	c #D4A279",
"]P 	c #D5A277",
"^P 	c #C09066",
"/P 	c #DFB185",
"(P 	c #E0B083",
"_P 	c #A67249",
":P 	c #794629",
"<P 	c #724226",
"[P 	c #8A5430",
"}P 	c #9C673F",
"|P 	c #784326",
"1P 	c #754327",
"2P 	c #794A2B",
"3P 	c #7C502F",
"4P 	c #764629",
"5P 	c #714126",
"6P 	c #89522B",
"7P 	c #864F29",
"8P 	c #955F33",
"9P 	c #AE7937",
"0P 	c #BB9341",
"aP 	c #D0AA50",
"bP 	c #D6BE52",
"cP 	c #EDE36A",
"dP 	c #E9EA78",
"eP 	c #EAE97A",
"fP 	c #EFDE55",
"gP 	c #F4CB19",
"hP 	c #F6CB17",
"iP 	c #F1DD54",
"jP 	c #F0EA6E",
"kP 	c #F4EA6D",
"lP 	c #E2DC59",
"mP 	c #C0B827",
"nP 	c #87822A",
"oP 	c #1C2118",
"pP 	c #191D18",
"qP 	c #1C2019",
"rP 	c #1C201A",
"sP 	c #22221A",
"tP 	c #725E20",
"uP 	c #CE9109",
"vP 	c #C18B15",
"wP 	c #3D3017",
"xP 	c #322B18",
"yP 	c #D9C245",
"zP 	c #EEBE14",
"AP 	c #EE8A1F",
"BP 	c #F97B23",
"CP 	c #F78426",
"DP 	c #F78626",
"EP 	c #F78425",
"FP 	c #EF9429",
"GP 	c #EBE377",
"HP 	c #EAE989",
"IP 	c #26241E",
"JP 	c #28251B",
"KP 	c #27211B",
"LP 	c #302821",
"MP 	c #332B25",
"NP 	c #332E29",
"OP 	c #47403A",
"PP 	c #4A423D",
"QP 	c #544A45",
"RP 	c #716353",
"SP 	c #A38C74",
"TP 	c #CEA989",
"UP 	c #C2966E",
"VP 	c #8E5F38",
"WP 	c #9D704B",
"XP 	c #C09770",
"YP 	c #C8A17D",
"ZP 	c #CCA27A",
"`P 	c #CC9F74",
" Q 	c #C39065",
".Q 	c #9C633A",
"+Q 	c #C19167",
"@Q 	c #E1B38A",
"#Q 	c #C5956B",
"$Q 	c #E1B28A",
"%Q 	c #DEB189",
"&Q 	c #D8AC82",
"*Q 	c #D8AB81",
"=Q 	c #E3B58A",
"-Q 	c #DBAE84",
";Q 	c #DEB185",
">Q 	c #E0AD83",
",Q 	c #AB784D",
"'Q 	c #AC784D",
")Q 	c #885431",
"!Q 	c #734126",
"~Q 	c #824E2A",
"{Q 	c #7F4E2D",
"]Q 	c #7F4F2F",
"^Q 	c #683B1F",
"/Q 	c #6B3E22",
"(Q 	c #854F2A",
"_Q 	c #8D562F",
":Q 	c #8C5228",
"<Q 	c #975E35",
"[Q 	c #A46838",
"}Q 	c #A86A38",
"|Q 	c #B77A3C",
"1Q 	c #C19048",
"2Q 	c #CCA65B",
"3Q 	c #E4D083",
"4Q 	c #ECDFA0",
"5Q 	c #EBE0A7",
"6Q 	c #EDDF6F",
"7Q 	c #F4CA19",
"8Q 	c #EFDC4F",
"9Q 	c #EDE967",
"0Q 	c #F2EA6E",
"aQ 	c #E0DB58",
"bQ 	c #82802E",
"cQ 	c #1E2119",
"dQ 	c #1E1C19",
"eQ 	c #6A5018",
"fQ 	c #D19107",
"gQ 	c #B48411",
"hQ 	c #352613",
"iQ 	c #1F1D17",
"jQ 	c #312B18",
"kQ 	c #D7C046",
"lQ 	c #F4CA17",
"mQ 	c #F2C415",
"nQ 	c #EF891E",
"oQ 	c #F97A24",
"pQ 	c #F97C24",
"qQ 	c #F87D23",
"rQ 	c #F87E25",
"sQ 	c #F58B2A",
"tQ 	c #EDDF74",
"uQ 	c #EAE98A",
"vQ 	c #181814",
"wQ 	c #26221A",
"xQ 	c #302920",
"yQ 	c #2B261D",
"zQ 	c #31271F",
"AQ 	c #29251C",
"BQ 	c #241F19",
"CQ 	c #3A3127",
"DQ 	c #44382E",
"EQ 	c #433D36",
"FQ 	c #544B43",
"GQ 	c #564D47",
"HQ 	c #968370",
"IQ 	c #C3A890",
"JQ 	c #CAA279",
"KQ 	c #AB7F58",
"LQ 	c #C59970",
"MQ 	c #C79B73",
"NQ 	c #B58457",
"OQ 	c #9F6F45",
"PQ 	c #94623D",
"QQ 	c #9E6E48",
"RQ 	c #B1865E",
"SQ 	c #C8A281",
"TQ 	c #CDA885",
"UQ 	c #C48F63",
"VQ 	c #C38E63",
"WQ 	c #A7764C",
"XQ 	c #986037",
"YQ 	c #A56D41",
"ZQ 	c #E3B48B",
"`Q 	c #DFAB7E",
" R 	c #C28F61",
".R 	c #DFAF83",
"+R 	c #DDAC80",
"@R 	c #D1A177",
"#R 	c #C8966C",
"$R 	c #E0B187",
"%R 	c #E5B890",
"&R 	c #E4B88F",
"*R 	c #E1B78F",
"=R 	c #DEB38A",
"-R 	c #E2B88E",
";R 	c #DCB086",
">R 	c #C28F62",
",R 	c #BA875A",
"'R 	c #A6734B",
")R 	c #86532F",
"!R 	c #784A2C",
"~R 	c #603517",
"{R 	c #6A3B1F",
"]R 	c #7F4C2A",
"^R 	c #8F5731",
"/R 	c #A3683B",
"(R 	c #A76A38",
"_R 	c #A66938",
":R 	c #AD6D33",
"<R 	c #B27746",
"[R 	c #E4C1A4",
"}R 	c #EBD997",
"|R 	c #F4CB20",
"1R 	c #EEDC4C",
"2R 	c #F1EA6B",
"3R 	c #D5D04A",
"4R 	c #BEB626",
"5R 	c #C5B92C",
"6R 	c #81822E",
"7R 	c #1D211A",
"8R 	c #664912",
"9R 	c #BD8816",
"0R 	c #2D2313",
"aR 	c #1C1C17",
"bR 	c #2F2616",
"cR 	c #D6BF46",
"dR 	c #F1C414",
"eR 	c #EE861E",
"fR 	c #F87F25",
"gR 	c #F87C20",
"hR 	c #F87B1F",
"iR 	c #F68829",
"jR 	c #EDDA6A",
"kR 	c #E9E983",
"lR 	c #E4E368",
"mR 	c #161513",
"nR 	c #1B1B19",
"oR 	c #211F19",
"pR 	c #1F1D18",
"qR 	c #201D17",
"rR 	c #1D1B16",
"sR 	c #2A251C",
"tR 	c #332A20",
"uR 	c #3B3022",
"vR 	c #392F25",
"wR 	c #372F23",
"xR 	c #45372A",
"yR 	c #372F24",
"zR 	c #3E3325",
"AR 	c #4D4131",
"BR 	c #54473D",
"CR 	c #5C5047",
"DR 	c #554C47",
"ER 	c #5B4F48",
"FR 	c #63564E",
"GR 	c #78685E",
"HR 	c #B49D8A",
"IR 	c #CCAE95",
"JR 	c #D5A880",
"KR 	c #D19F72",
"LR 	c #B88756",
"MR 	c #9A6C48",
"NR 	c #C79E79",
"OR 	c #CFAC8D",
"PR 	c #CF9E73",
"QR 	c #C48E63",
"RR 	c #9B6237",
"SR 	c #A97043",
"TR 	c #DCAA7F",
"UR 	c #D5A272",
"VR 	c #C59264",
"WR 	c #E0AF7E",
"XR 	c #E8BA92",
"YR 	c #E5B78B",
"ZR 	c #DEAC81",
"`R 	c #E3B68E",
" S 	c #EAC098",
".S 	c #EAC198",
"+S 	c #E6BD93",
"@S 	c #E6BF9A",
"#S 	c #C9966A",
"$S 	c #C79262",
"%S 	c #B28054",
"&S 	c #95623C",
"*S 	c #915C36",
"=S 	c #9C6944",
"-S 	c #673619",
";S 	c #6D3B20",
">S 	c #8A532C",
",S 	c #A3683A",
"'S 	c #A86A35",
")S 	c #AC6C33",
"!S 	c #B07237",
"~S 	c #EBCE7C",
"{S 	c #F3CB24",
"]S 	c #EDDC4E",
"^S 	c #EDE665",
"/S 	c #C9C136",
"(S 	c #BFB72B",
"_S 	c #7D772E",
":S 	c #1E211B",
"<S 	c #604D18",
"[S 	c #CB910A",
"}S 	c #D19205",
"|S 	c #BE8817",
"1S 	c #272513",
"2S 	c #20211B",
"3S 	c #D6C04B",
"4S 	c #F3CA19",
"5S 	c #F3C515",
"6S 	c #F1831D",
"7S 	c #F88325",
"8S 	c #F78525",
"9S 	c #F9771D",
"0S 	c #F87E23",
"aS 	c #F68826",
"bS 	c #EDDA60",
"cS 	c #EAE986",
"dS 	c #E9EA80",
"eS 	c #E9EA7E",
"fS 	c #E9EA7C",
"gS 	c #151714",
"hS 	c #25221A",
"iS 	c #231D18",
"jS 	c #26221C",
"kS 	c #2B2720",
"lS 	c #28231B",
"mS 	c #342C22",
"nS 	c #4A3D2C",
"oS 	c #4E412E",
"pS 	c #4B3E2C",
"qS 	c #453829",
"rS 	c #473829",
"sS 	c #463827",
"tS 	c #453728",
"uS 	c #433527",
"vS 	c #443829",
"wS 	c #5A4B3E",
"xS 	c #69594E",
"yS 	c #6D5C52",
"zS 	c #6E5C50",
"AS 	c #65574D",
"BS 	c #726257",
"CS 	c #7A695E",
"DS 	c #A79380",
"ES 	c #CAAF9E",
"FS 	c #E3B089",
"GS 	c #D5A375",
"HS 	c #9C6C43",
"IS 	c #CBA584",
"JS 	c #E0B58E",
"KS 	c #D5A477",
"LS 	c #A8794F",
"MS 	c #935A32",
"NS 	c #A87246",
"OS 	c #AD7546",
"PS 	c #A67045",
"QS 	c #C38D5E",
"RS 	c #D3A174",
"SS 	c #D8A779",
"TS 	c #E4B68D",
"US 	c #E5B68D",
"VS 	c #DBAA7C",
"WS 	c #DBAA7F",
"XS 	c #E8BB91",
"YS 	c #EBC296",
"ZS 	c #E6BB93",
"`S 	c #EEC6A4",
" T 	c #EEC6A5",
".T 	c #E3BA95",
"+T 	c #C38F5D",
"@T 	c #CC9A6D",
"#T 	c #A06A43",
"$T 	c #613618",
"%T 	c #6C3B20",
"&T 	c #85522E",
"*T 	c #88522C",
"=T 	c #8E552E",
"-T 	c #925932",
";T 	c #A0663A",
">T 	c #A4683A",
",T 	c #AB6F3F",
"'T 	c #AE6F39",
")T 	c #AA6A33",
"!T 	c #AB6B32",
"~T 	c #B8793D",
"{T 	c #DEB44D",
"]T 	c #F3CA20",
"^T 	c #EBE964",
"/T 	c #E1DC5A",
"(T 	c #C6BD2E",
"_T 	c #BBB429",
":T 	c #7B772D",
"<T 	c #21221B",
"[T 	c #211F1C",
"}T 	c #64511C",
"|T 	c #CF9007",
"1T 	c #B98817",
"2T 	c #2A2512",
"3T 	c #2F2615",
"4T 	c #CCB45F",
"5T 	c #F3CA1A",
"6T 	c #F0831D",
"7T 	c #F97E24",
"8T 	c #F88025",
"9T 	c #F88023",
"0T 	c #F88224",
"aT 	c #F97A1E",
"bT 	c #EBD55D",
"cT 	c #EAE987",
"dT 	c #E8E973",
"eT 	c #1F1D19",
"fT 	c #211D19",
"gT 	c #241E19",
"hT 	c #26241D",
"iT 	c #2C2820",
"jT 	c #352F29",
"kT 	c #3F3327",
"lT 	c #4E4233",
"mT 	c #635344",
"nT 	c #665548",
"oT 	c #5F5249",
"pT 	c #5B4B42",
"qT 	c #54483E",
"rT 	c #514436",
"sT 	c #4F4133",
"tT 	c #69594B",
"uT 	c #766355",
"vT 	c #8F7B67",
"wT 	c #8F7969",
"xT 	c #99836F",
"yT 	c #A78F7B",
"zT 	c #B7A08C",
"AT 	c #D9B798",
"BT 	c #E0BA99",
"CT 	c #BC9369",
"DT 	c #B88B63",
"ET 	c #BE936A",
"FT 	c #E2B088",
"GT 	c #BD8857",
"HT 	c #9B6B46",
"IT 	c #A27553",
"JT 	c #A97D59",
"KT 	c #B68D69",
"LT 	c #C7A17F",
"MT 	c #E2BB9A",
"NT 	c #E4B996",
"OT 	c #D19F74",
"PT 	c #C99769",
"QT 	c #BB8E62",
"RT 	c #AB8056",
"ST 	c #A17048",
"TT 	c #8D5833",
"UT 	c #975F39",
"VT 	c #AE7842",
"WT 	c #A46C41",
"XT 	c #AD7A4F",
"YT 	c #B27E51",
"ZT 	c #D8A57B",
"`T 	c #E3B58D",
" U 	c #E4B68B",
".U 	c #DEAD83",
"+U 	c #E1B187",
"@U 	c #E5B88E",
"#U 	c #E1B289",
"$U 	c #DFB289",
"%U 	c #E0BB98",
"&U 	c #E4BD9A",
"*U 	c #E6BF9D",
"=U 	c #EBC29F",
"-U 	c #C89364",
";U 	c #D3A071",
">U 	c #B48056",
",U 	c #AC784F",
"'U 	c #9B6640",
")U 	c #5B3619",
"!U 	c #543313",
"~U 	c #663B20",
"{U 	c #88522B",
"]U 	c #8A522C",
"^U 	c #A97042",
"/U 	c #AD723D",
"(U 	c #AA6C39",
"_U 	c #B37644",
":U 	c #B07039",
"<U 	c #AB6B31",
"[U 	c #B07035",
"}U 	c #B7763A",
"|U 	c #C68C38",
"1U 	c #EEC11F",
"2U 	c #EEE967",
"3U 	c #DED451",
"4U 	c #C0B828",
"5U 	c #BCB42A",
"6U 	c #76712B",
"7U 	c #523812",
"8U 	c #C88F0A",
"9U 	c #AD8316",
"0U 	c #382A17",
"aU 	c #2A2315",
"bU 	c #C5A544",
"cU 	c #F3C91E",
"dU 	c #F27E19",
"eU 	c #FA7621",
"fU 	c #F87B20",
"gU 	c #F9791E",
"hU 	c #F9761C",
"iU 	c #F9771C",
"jU 	c #F78325",
"kU 	c #EDD760",
"lU 	c #E9E986",
"mU 	c #E8E572",
"nU 	c #25221D",
"oU 	c #29261E",
"pU 	c #302A22",
"qU 	c #383026",
"rU 	c #362D25",
"sU 	c #4F4333",
"tU 	c #655548",
"uU 	c #736255",
"vU 	c #836F63",
"wU 	c #857365",
"xU 	c #675A53",
"yU 	c #705F55",
"zU 	c #65584F",
"AU 	c #746052",
"BU 	c #9C8371",
"CU 	c #BBA191",
"DU 	c #C0A58F",
"EU 	c #BFA289",
"FU 	c #C6A78D",
"GU 	c #DDBAA3",
"HU 	c #D4B398",
"IU 	c #DBB99B",
"JU 	c #E0B185",
"KU 	c #D9A571",
"LU 	c #B07A49",
"MU 	c #A2734E",
"NU 	c #A57855",
"OU 	c #D2AA86",
"PU 	c #DEB998",
"QU 	c #E4BC9C",
"RU 	c #E5BC9E",
"SU 	c #D6A778",
"TU 	c #BE9369",
"UU 	c #A8774D",
"VU 	c #A87043",
"WU 	c #B07948",
"XU 	c #D7A77C",
"YU 	c #E6B98D",
"ZU 	c #E2B487",
"`U 	c #D6A57B",
" V 	c #E3B78F",
".V 	c #EAC3A0",
"+V 	c #E8C2A2",
"@V 	c #E7C1A0",
"#V 	c #DFB590",
"$V 	c #E5BD97",
"%V 	c #C08E62",
"&V 	c #D6A376",
"*V 	c #CC9A6E",
"=V 	c #B17D51",
"-V 	c #A36B42",
";V 	c #A67149",
">V 	c #82502F",
",V 	c #6E4024",
"'V 	c #60381C",
")V 	c #61361A",
"!V 	c #693A20",
"~V 	c #6F3D21",
"{V 	c #8C552D",
"]V 	c #9B6238",
"^V 	c #995F36",
"/V 	c #AD7244",
"(V 	c #B47843",
"_V 	c #B27239",
":V 	c #B67944",
"<V 	c #B4733A",
"[V 	c #BC8736",
"}V 	c #E9B718",
"|V 	c #EEDC4F",
"1V 	c #F0E969",
"2V 	c #DCD250",
"3V 	c #BFB727",
"4V 	c #C0B42C",
"5V 	c #756F2A",
"6V 	c #202220",
"7V 	c #2E291B",
"8V 	c #282618",
"9V 	c #272418",
"0V 	c #241D14",
"aV 	c #231D14",
"bV 	c #261E15",
"cV 	c #4A2F12",
"dV 	c #C58711",
"eV 	c #D59405",
"fV 	c #D29206",
"gV 	c #B48F1D",
"hV 	c #322816",
"iV 	c #1E1E18",
"jV 	c #251C19",
"kV 	c #211D18",
"lV 	c #1C1B18",
"mV 	c #2B2316",
"nV 	c #B8993C",
"oV 	c #F2CA20",
"pV 	c #F0C817",
"qV 	c #F0C921",
"rV 	c #EFC81A",
"sV 	c #F1C920",
"tV 	c #EFC92A",
"uV 	c #EDCB37",
"vV 	c #EF841A",
"wV 	c #FA7622",
"xV 	c #FA7520",
"yV 	c #F87E22",
"zV 	c #F68625",
"AV 	c #ECD75F",
"BV 	c #EAEA82",
"CV 	c #E9EA77",
"DV 	c #EAE983",
"EV 	c #E9EA7D",
"FV 	c #211E1B",
"GV 	c #26231E",
"HV 	c #27251F",
"IV 	c #2E2821",
"JV 	c #29261F",
"KV 	c #2A261D",
"LV 	c #342C24",
"MV 	c #41362C",
"NV 	c #4A3A2D",
"OV 	c #5A4C3F",
"PV 	c #645447",
"QV 	c #846F5C",
"RV 	c #987E6C",
"SV 	c #9E8573",
"TV 	c #A18A78",
"UV 	c #9F8A76",
"VV 	c #8F7C6C",
"WV 	c #837063",
"XV 	c #78665B",
"YV 	c #8F7868",
"ZV 	c #AE907A",
"`V 	c #CFB093",
" W 	c #E1BDA4",
".W 	c #E0BB9E",
"+W 	c #E1BDA1",
"@W 	c #E7C3A7",
"#W 	c #E1BA9A",
"$W 	c #E3BC9B",
"%W 	c #E2BA99",
"&W 	c #E5BB98",
"*W 	c #DEAF82",
"=W 	c #D7A56F",
"-W 	c #AC7548",
";W 	c #A77B56",
">W 	c #B78C64",
",W 	c #DDB693",
"'W 	c #E6C1A4",
")W 	c #E6BDA1",
"!W 	c #D6AB77",
"~W 	c #D0A171",
"{W 	c #BF9469",
"]W 	c #A97A50",
"^W 	c #96603A",
"/W 	c #AA7448",
"(W 	c #986138",
"_W 	c #985E34",
":W 	c #A36C42",
"<W 	c #B47F52",
"[W 	c #B17B4D",
"}W 	c #AF7C51",
"|W 	c #DCAC80",
"1W 	c #D5A97A",
"2W 	c #E8BC8D",
"3W 	c #D4A373",
"4W 	c #D3A176",
"5W 	c #DFB38D",
"6W 	c #E9BF9A",
"7W 	c #EBC6A6",
"8W 	c #E8C3A4",
"9W 	c #D4AD89",
"0W 	c #DEB691",
"aW 	c #E5BF9C",
"bW 	c #E9C4A2",
"cW 	c #CEA278",
"dW 	c #C08C60",
"eW 	c #C49063",
"fW 	c #B9845A",
"gW 	c #A6724A",
"hW 	c #6A391E",
"iW 	c #6A381C",
"jW 	c #6B381C",
"kW 	c #6B371A",
"lW 	c #6C391C",
"mW 	c #844F2A",
"nW 	c #996038",
"oW 	c #9C6238",
"pW 	c #B67741",
"qW 	c #AC6C32",
"rW 	c #AC6D33",
"sW 	c #B7763B",
"tW 	c #B7773B",
"uW 	c #B98439",
"vW 	c #E3B12A",
"wW 	c #F4CB1E",
"xW 	c #EFD542",
"yW 	c #EDEA6F",
"zW 	c #DEDD61",
"AW 	c #BAB332",
"BW 	c #B9B32C",
"CW 	c #B8B32C",
"DW 	c #BCB32E",
"EW 	c #BDB32D",
"FW 	c #C2B62D",
"GW 	c #BBB32E",
"HW 	c #7C7630",
"IW 	c #22231C",
"JW 	c #191D12",
"KW 	c #4D401F",
"LW 	c #80631E",
"MW 	c #866516",
"NW 	c #846314",
"OW 	c #846114",
"PW 	c #825D15",
"QW 	c #815E12",
"RW 	c #7A5B15",
"SW 	c #8C6820",
"TW 	c #996820",
"UW 	c #C78414",
"VW 	c #CE7B0F",
"WW 	c #CF6F0F",
"XW 	c #C16C09",
"YW 	c #D07C11",
"ZW 	c #C68206",
"`W 	c #C48106",
" X 	c #D1901F",
".X 	c #CC9225",
"+X 	c #C78A2A",
"@X 	c #CC8F22",
"#X 	c #CB9417",
"$X 	c #C38D0C",
"%X 	c #CB900F",
"&X 	c #D89B25",
"*X 	c #D99A1F",
"=X 	c #DA9411",
"-X 	c #DB940C",
";X 	c #DC9610",
">X 	c #DC9614",
",X 	c #D9930E",
"'X 	c #D88E0D",
")X 	c #D99517",
"!X 	c #D7A850",
"~X 	c #8F5634",
"{X 	c #84301A",
"]X 	c #8E2417",
"^X 	c #84321E",
"/X 	c #82301D",
"(X 	c #822B18",
"_X 	c #7F2315",
":X 	c #7E2616",
"<X 	c #593421",
"[X 	c #1F211C",
"}X 	c #262119",
"|X 	c #735D26",
"1X 	c #947E22",
"2X 	c #998022",
"3X 	c #A1893C",
"4X 	c #8C7C24",
"5X 	c #796E1C",
"6X 	c #746522",
"7X 	c #896824",
"8X 	c #EC7829",
"9X 	c #FA7623",
"0X 	c #FA7522",
"aX 	c #E6B855",
"bX 	c #E9B361",
"cX 	c #E7AB56",
"dX 	c #DDA55E",
"eX 	c #DFA45D",
"fX 	c #DB9F59",
"gX 	c #E3A557",
"hX 	c #272620",
"iX 	c #28251C",
"jX 	c #342B24",
"kX 	c #4C3B2D",
"lX 	c #4B3A2D",
"mX 	c #53483B",
"nX 	c #625349",
"oX 	c #806C5B",
"pX 	c #B49982",
"qX 	c #CDAB8A",
"rX 	c #D0AF91",
"sX 	c #B99F87",
"tX 	c #A8917B",
"uX 	c #A28A74",
"vX 	c #9F8A72",
"wX 	c #AF937D",
"xX 	c #E9C7A9",
"yX 	c #E8C2A7",
"zX 	c #E4BC9D",
"AX 	c #E5C19C",
"BX 	c #E5C09B",
"CX 	c #E3B081",
"DX 	c #E0A972",
"EX 	c #AE7443",
"FX 	c #AC8565",
"GX 	c #E1BC9C",
"HX 	c #E6C2A3",
"IX 	c #E7C0A3",
"JX 	c #E5BC9C",
"KX 	c #D9AC7F",
"LX 	c #D4A26E",
"MX 	c #CD9869",
"NX 	c #A06A41",
"OX 	c #945A32",
"PX 	c #A0683D",
"QX 	c #AD7B50",
"RX 	c #CA9669",
"SX 	c #D3A276",
"TX 	c #E1B489",
"UX 	c #E8BF9C",
"VX 	c #EAC19C",
"WX 	c #E3B994",
"XX 	c #E6BD9B",
"YX 	c #E5BD9A",
"ZX 	c #E6C09C",
"`X 	c #E7C19E",
" Y 	c #C89467",
".Y 	c #BA855A",
"+Y 	c #C18A5D",
"@Y 	c #AB764E",
"#Y 	c #AA764E",
"$Y 	c #744226",
"%Y 	c #6A3A1F",
"&Y 	c #6A391F",
"*Y 	c #6B3D20",
"=Y 	c #6B3B1E",
"-Y 	c #AF703A",
";Y 	c #B17035",
">Y 	c #B6773E",
",Y 	c #B77A46",
"'Y 	c #B77840",
")Y 	c #BE7F42",
"!Y 	c #E3AB49",
"~Y 	c #F2CA25",
"{Y 	c #DCBA37",
"]Y 	c #908D46",
"^Y 	c #817E45",
"/Y 	c #6A622E",
"(Y 	c #6D6A28",
"_Y 	c #756E2A",
":Y 	c #7F732E",
"<Y 	c #6F6A28",
"[Y 	c #736F29",
"}Y 	c #726E27",
"|Y 	c #494420",
"1Y 	c #1D211E",
"2Y 	c #1A1E19",
"3Y 	c #58471A",
"4Y 	c #996707",
"5Y 	c #9A6705",
"6Y 	c #AC6D06",
"7Y 	c #B64E0D",
"8Y 	c #BE460D",
"9Y 	c #C6410C",
"0Y 	c #C8420B",
"aY 	c #B2490F",
"bY 	c #502A14",
"cY 	c #322115",
"dY 	c #322113",
"eY 	c #382913",
"fY 	c #392D14",
"gY 	c #433415",
"hY 	c #6B5332",
"iY 	c #79582A",
"jY 	c #C96023",
"kY 	c #DB5916",
"lY 	c #D85815",
"mY 	c #D75413",
"nY 	c #DA4F10",
"oY 	c #DC5011",
"pY 	c #DC5112",
"qY 	c #DD5416",
"rY 	c #D8551B",
"sY 	c #C0321D",
"tY 	c #BB2718",
"uY 	c #BA2618",
"vY 	c #B82617",
"wY 	c #B82717",
"xY 	c #B62917",
"yY 	c #81331D",
"zY 	c #201E1C",
"AY 	c #1D201C",
"BY 	c #1E211E",
"CY 	c #1D2019",
"DY 	c #1F1E1A",
"EY 	c #1F221C",
"FY 	c #482517",
"GY 	c #E67231",
"HY 	c #FA7523",
"IY 	c #ED5D27",
"JY 	c #ED4D20",
"KY 	c #EF4A24",
"LY 	c #EA4521",
"MY 	c #F04227",
"NY 	c #F14228",
"OY 	c #EC4322",
"PY 	c #22201B",
"QY 	c #352D22",
"RY 	c #413428",
"SY 	c #46382B",
"TY 	c #483C2C",
"UY 	c #52483A",
"VY 	c #54473C",
"WY 	c #524539",
"XY 	c #847365",
"YY 	c #B69E89",
"ZY 	c #DBB99F",
"`Y 	c #EAC09D",
" Z 	c #EDC5A1",
".Z 	c #EBC29D",
"+Z 	c #E8BF9E",
"@Z 	c #E3BBA0",
"#Z 	c #D4B198",
"$Z 	c #BA9D84",
"%Z 	c #B4967C",
"&Z 	c #CFAE92",
"*Z 	c #DFBB9A",
"=Z 	c #EAC7A8",
"-Z 	c #EEC9AC",
";Z 	c #E5BC9F",
">Z 	c #E5BD9F",
",Z 	c #CB9E75",
"'Z 	c #CC9F77",
")Z 	c #E5C2A0",
"!Z 	c #E4B180",
"~Z 	c #DDA670",
"{Z 	c #A97243",
"]Z 	c #AA7E59",
"^Z 	c #C09874",
"/Z 	c #E3C0A1",
"(Z 	c #DBB183",
"_Z 	c #D5A46E",
":Z 	c #D09A69",
"<Z 	c #AE8156",
"[Z 	c #976038",
"}Z 	c #A1683C",
"|Z 	c #AC7448",
"1Z 	c #AD794F",
"2Z 	c #C29066",
"3Z 	c #D9AB7E",
"4Z 	c #DBAC7E",
"5Z 	c #E8BD96",
"6Z 	c #E7BF9F",
"7Z 	c #EFC7A7",
"8Z 	c #EDC4A2",
"9Z 	c #D39D70",
"0Z 	c #D5A77E",
"aZ 	c #E5BF9E",
"bZ 	c #E4BE9D",
"cZ 	c #E4BF9E",
"dZ 	c #C79C76",
"eZ 	c #B68254",
"fZ 	c #B37D4F",
"gZ 	c #B98557",
"hZ 	c #AA754C",
"iZ 	c #AB754C",
"jZ 	c #94613B",
"kZ 	c #703B1F",
"lZ 	c #6C4023",
"mZ 	c #6B3A1D",
"nZ 	c #A96A3D",
"oZ 	c #AE703C",
"pZ 	c #B17136",
"qZ 	c #B67843",
"rZ 	c #B67945",
"sZ 	c #BA7C43",
"tZ 	c #B8783D",
"uZ 	c #DC9B53",
"vZ 	c #F0C82D",
"wZ 	c #C4A62F",
"xZ 	c #282721",
"yZ 	c #25251E",
"zZ 	c #1F221D",
"AZ 	c #20231D",
"BZ 	c #20221D",
"CZ 	c #1C201B",
"DZ 	c #4C3913",
"EZ 	c #96690C",
"FZ 	c #A96C06",
"GZ 	c #B8500C",
"HZ 	c #C53F0F",
"IZ 	c #C7420F",
"JZ 	c #BB461A",
"KZ 	c #4A1E14",
"LZ 	c #1D1E19",
"MZ 	c #1D1F1A",
"NZ 	c #1C1E19",
"OZ 	c #181A15",
"PZ 	c #382411",
"QZ 	c #BF4517",
"RZ 	c #D24410",
"SZ 	c #CF3D14",
"TZ 	c #D64612",
"UZ 	c #D14013",
"VZ 	c #D03E14",
"WZ 	c #D13E14",
"XZ 	c #D13F14",
"YZ 	c #BC2718",
"ZZ 	c #952817",
"`Z 	c #221F1B",
" ` 	c #1B1F1C",
".` 	c #1C201E",
"+` 	c #1E211C",
"@` 	c #412319",
"#` 	c #E16926",
"$` 	c #F9761D",
"%` 	c #FA7521",
"&` 	c #F97622",
"*` 	c #F25824",
"=` 	c #EF4026",
"-` 	c #EF4E1E",
";` 	c #EB3C26",
">` 	c #EF4529",
",` 	c #EE432B",
"'` 	c #E83623",
")` 	c #2D281F",
"!` 	c #2E2820",
"~` 	c #4E432D",
"{` 	c #50442E",
"]` 	c #594837",
"^` 	c #594B3C",
"/` 	c #635443",
"(` 	c #635446",
"_` 	c #655850",
":` 	c #6B5C55",
"<` 	c #9B8676",
"[` 	c #AC9582",
"}` 	c #CBB09E",
"|` 	c #EBC8B0",
"1` 	c #F2CAAA",
"2` 	c #F2C9A8",
"3` 	c #E9C09F",
"4` 	c #E7BB9C",
"5` 	c #E6BC9F",
"6` 	c #D9B494",
"7` 	c #D8B595",
"8` 	c #E1BD9D",
"9` 	c #EBC9AA",
"0` 	c #EACAAF",
"a` 	c #E8C2A6",
"b` 	c #E6BEA3",
"c` 	c #E5BC9A",
"d` 	c #CD9E75",
"e` 	c #D2A479",
"f` 	c #E6C29F",
"g` 	c #E4B282",
"h` 	c #D9A26B",
"i` 	c #AE7D50",
"j` 	c #B88D67",
"k` 	c #CCA480",
"l` 	c #E7C3A5",
"m` 	c #DEB58A",
"n` 	c #D19B6B",
"o` 	c #BD9064",
"p` 	c #B3845A",
"q` 	c #A56E42",
"r` 	c #AD6E43",
"s` 	c #B87B48",
"t` 	c #AB7247",
"u` 	c #B0784C",
"v` 	c #C49163",
"w` 	c #EAC294",
"x` 	c #E9BF9B",
"y` 	c #D8A67C",
"z` 	c #C28953",
"A` 	c #DAB08A",
"B` 	c #CFA782",
"C` 	c #BC916A",
"D` 	c #BD9067",
"E` 	c #AE774B",
"F` 	c #986139",
"G` 	c #98603A",
"H` 	c #84502F",
"I` 	c #6E3D21",
"J` 	c #6F4125",
"K` 	c #6A391D",
"L` 	c #6E3E21",
"M` 	c #744427",
"N` 	c #774425",
"O` 	c #A96D3D",
"P` 	c #AC6F3C",
"Q` 	c #B06E3C",
"R` 	c #B27238",
"S` 	c #BA7D47",
"T` 	c #B87940",
"U` 	c #B7773C",
"V` 	c #CE9553",
"W` 	c #EDC33E",
"X` 	c #C6A932",
"Y` 	c #2E2B1A",
"Z` 	c #25241E",
"`` 	c #24231D",
"  .	c #493512",
". .	c #95690D",
"+ .	c #A56A06",
"@ .	c #BB520B",
"# .	c #C53E0D",
"$ .	c #C64010",
"% .	c #C6410E",
"& .	c #BD461B",
"* .	c #502313",
"= .	c #321F11",
"- .	c #BD3F14",
"; .	c #D34511",
"> .	c #CD3A15",
", .	c #D34510",
"' .	c #D04211",
") .	c #D24113",
"! .	c #9A2518",
"~ .	c #241C17",
"{ .	c #3B221A",
"] .	c #E3752C",
"^ .	c #F97424",
"/ .	c #F25C22",
"( .	c #EE4024",
"_ .	c #EB4022",
": .	c #E93825",
"< .	c #EB4122",
"[ .	c #EB3E26",
"} .	c #EA3F27",
"| .	c #3F3326",
"1 .	c #483B2A",
"2 .	c #574936",
"3 .	c #5F4F34",
"4 .	c #725C45",
"5 .	c #7A6452",
"6 .	c #816A57",
"7 .	c #836E5F",
"8 .	c #867266",
"9 .	c #8B796B",
"0 .	c #A28C7D",
"a .	c #B49D8B",
"b .	c #C6AD9C",
"c .	c #E5C8B5",
"d .	c #EECDB7",
"e .	c #EECCB5",
"f .	c #EDCAAC",
"g .	c #EDC4A4",
"h .	c #E8BE9F",
"i .	c #E7BD9F",
"j .	c #E7BB98",
"k .	c #E9C19F",
"l .	c #E7BFA5",
"m .	c #E7C0A6",
"n .	c #E6BE9C",
"o .	c #E0B58F",
"p .	c #D0A177",
"q .	c #E4AF7C",
"r .	c #CC965E",
"s .	c #B68457",
"t .	c #E6C2A5",
"u .	c #E7C29C",
"v .	c #D9A778",
"w .	c #D59F6E",
"x .	c #C19367",
"y .	c #B8895F",
"z .	c #9C653C",
"A .	c #AD6F43",
"B .	c #C18551",
"C .	c #B87A48",
"D .	c #B87C4C",
"E .	c #C48A57",
"F .	c #B48156",
"G .	c #DDAF83",
"H .	c #DEB084",
"I .	c #E7BD91",
"J .	c #D19D6E",
"K .	c #C9915A",
"L .	c #E5B48F",
"M .	c #DCAB84",
"N .	c #BA885F",
"O .	c #AF7B53",
"P .	c #99633D",
"Q .	c #AD764A",
"R .	c #AA7045",
"S .	c #A76C40",
"T .	c #985F36",
"U .	c #8B522D",
"V .	c #915933",
"W .	c #8B532C",
"X .	c #905831",
"Y .	c #794528",
"Z .	c #7A492A",
"` .	c #6D3E21",
" ..	c #81502F",
"...	c #693A1E",
"+..	c #6B391C",
"@..	c #A46939",
"#..	c #A96D3C",
"$..	c #B17443",
"%..	c #AD6D35",
"&..	c #B5743A",
"*..	c #BD8048",
"=..	c #B9783D",
"-..	c #CA9054",
";..	c #EDB449",
">..	c #F4CA18",
",..	c #CFB43B",
"'..	c #2F2919",
")..	c #4F3A13",
"!..	c #936B10",
"~..	c #9C6805",
"{..	c #A66B06",
"]..	c #B84C0D",
"^..	c #C53F0E",
"/..	c #BB441A",
"(..	c #512B14",
"_..	c #3A1B13",
":..	c #BA3A11",
"<..	c #D34411",
"[..	c #D03C15",
"}..	c #D34312",
"|..	c #CE3E13",
"1..	c #D24212",
"2..	c #99341D",
"3..	c #251D18",
"4..	c #392116",
"5..	c #DA6D26",
"6..	c #F97620",
"7..	c #F15A1E",
"8..	c #EC3A26",
"9..	c #EA3926",
"0..	c #E93925",
"a..	c #EB4321",
"b..	c #E53722",
"c..	c #23211A",
"d..	c #29271C",
"e..	c #363024",
"f..	c #45382A",
"g..	c #534532",
"h..	c #655341",
"i..	c #765F49",
"j..	c #87725E",
"k..	c #998069",
"l..	c #9B826B",
"m..	c #A08870",
"n..	c #AC937E",
"o..	c #B49C8A",
"p..	c #B69E8C",
"q..	c #B59E8C",
"r..	c #C7AEA0",
"s..	c #E4C6B3",
"t..	c #ECCCB6",
"u..	c #ECCDB8",
"v..	c #ECCEB6",
"w..	c #E6BD9D",
"x..	c #E6BC9E",
"y..	c #E6C7B0",
"z..	c #E1BC9D",
"A..	c #EBCAB0",
"B..	c #E3B791",
"C..	c #D7AA82",
"D..	c #E3AC77",
"E..	c #C78E56",
"F..	c #C28C5E",
"G..	c #E8C5A9",
"H..	c #E9C7AB",
"I..	c #E4B995",
"J..	c #DEB086",
"K..	c #CA986B",
"L..	c #9C653E",
"M..	c #A77247",
"N..	c #AB7043",
"O..	c #BB7D4B",
"P..	c #B27644",
"Q..	c #B47347",
"R..	c #B58055",
"S..	c #CB9E73",
"T..	c #E0B181",
"U..	c #E4AF7B",
"V..	c #D8A671",
"W..	c #D79F66",
"X..	c #DBAA7D",
"Y..	c #E0AE83",
"Z..	c #C28E63",
"`..	c #A87146",
" +.	c #A3673B",
".+.	c #A66A3C",
"++.	c #AA6A3E",
"@+.	c #8F562F",
"#+.	c #814926",
"$+.	c #824B27",
"%+.	c #824C29",
"&+.	c #864E2A",
"*+.	c #804B2A",
"=+.	c #724024",
"-+.	c #6C391D",
";+.	c #814F2E",
">+.	c #814C2C",
",+.	c #784525",
"'+.	c #6B371B",
")+.	c #7B4926",
"!+.	c #A56939",
"~+.	c #AA6C38",
"{+.	c #AA6E3E",
"]+.	c #B4743B",
"^+.	c #AF6F34",
"/+.	c #B37239",
"(+.	c #B78148",
"_+.	c #B97C40",
":+.	c #C78B51",
"<+.	c #E1AD4C",
"[+.	c #D1B63B",
"}+.	c #342C15",
"|+.	c #1E2221",
"1+.	c #493713",
"2+.	c #926910",
"3+.	c #9F6905",
"4+.	c #AD6E06",
"5+.	c #B4570B",
"6+.	c #BD451A",
"7+.	c #4B2816",
"8+.	c #2B1C14",
"9+.	c #B43F17",
"0+.	c #DA4812",
"a+.	c #D44313",
"b+.	c #D14113",
"c+.	c #DC451B",
"d+.	c #BF2B18",
"e+.	c #99361D",
"f+.	c #261D17",
"g+.	c #1D1C18",
"h+.	c #372213",
"i+.	c #CD682F",
"j+.	c #F9761F",
"k+.	c #F25B1D",
"l+.	c #EC4129",
"m+.	c #EC4029",
"n+.	c #EA3D26",
"o+.	c #24201C",
"p+.	c #383125",
"q+.	c #4A3E2E",
"r+.	c #61543F",
"s+.	c #76614F",
"t+.	c #88705D",
"u+.	c #97806B",
"v+.	c #AA8E75",
"w+.	c #B69B84",
"x+.	c #D0B096",
"y+.	c #DFBDA4",
"z+.	c #E2BEA6",
"A+.	c #E4BFAB",
"B+.	c #DEC1AE",
"C+.	c #D0B5A3",
"D+.	c #D0B6A5",
"E+.	c #DFC2AC",
"F+.	c #EACCB7",
"G+.	c #ECCEBB",
"H+.	c #ECCEB7",
"I+.	c #ECCBAF",
"J+.	c #E8BFA4",
"K+.	c #E7BC9E",
"L+.	c #E6BC9D",
"M+.	c #E3B793",
"N+.	c #E1B894",
"O+.	c #E8C9B0",
"P+.	c #E3C3AB",
"Q+.	c #E6BDA2",
"R+.	c #E9CAB7",
"S+.	c #D8A97F",
"T+.	c #E0B997",
"U+.	c #E6C39F",
"V+.	c #E4BB92",
"W+.	c #DCA572",
"X+.	c #C68A54",
"Y+.	c #C89568",
"Z+.	c #E2BB94",
"`+.	c #AF754A",
" @.	c #B8784B",
".@.	c #A96C3E",
"+@.	c #A56C42",
"@@.	c #D5A275",
"#@.	c #D7A473",
"$@.	c #DFAA74",
"%@.	c #DBA46D",
"&@.	c #DDA97B",
"*@.	c #DCA878",
"=@.	c #D09D70",
"-@.	c #B98153",
";@.	c #9A6139",
">@.	c #A66937",
",@.	c #A76A37",
"'@.	c #A7693B",
")@.	c #A2663B",
"!@.	c #884F27",
"~@.	c #794526",
"{@.	c #834D26",
"]@.	c #8D532C",
"^@.	c #743F26",
"/@.	c #804D2D",
"(@.	c #6F391F",
"_@.	c #7C4728",
":@.	c #6C3B1D",
"<@.	c #794525",
"[@.	c #A1673B",
"}@.	c #B0733E",
"|@.	c #B67E44",
"1@.	c #B47338",
"2@.	c #B6773D",
"3@.	c #C38649",
"4@.	c #B77A47",
"5@.	c #C88B4F",
"6@.	c #DEA056",
"7@.	c #F2C72B",
"8@.	c #D2B435",
"9@.	c #3E2E1D",
"0@.	c #262724",
"a@.	c #191D1A",
"b@.	c #1A1A15",
"c@.	c #473314",
"d@.	c #926810",
"e@.	c #A46B06",
"f@.	c #A06905",
"g@.	c #A46B05",
"h@.	c #C13C0D",
"i@.	c #4B1F14",
"j@.	c #281B14",
"k@.	c #A93E1C",
"l@.	c #D74314",
"m@.	c #E34C15",
"n@.	c #E24C15",
"o@.	c #D94812",
"p@.	c #D54610",
"q@.	c #DC451C",
"r@.	c #C52C1A",
"s@.	c #B92617",
"t@.	c #9E3D22",
"u@.	c #2B1C13",
"v@.	c #2D1C12",
"w@.	c #C05821",
"x@.	c #F97921",
"y@.	c #EC591C",
"z@.	c #EF4025",
"A@.	c #EA3D24",
"B@.	c #EB3D27",
"C@.	c #EE452B",
"D@.	c #ED442B",
"E@.	c #1C1B19",
"F@.	c #342F29",
"G@.	c #463B2D",
"H@.	c #6F5E51",
"I@.	c #857161",
"J@.	c #9A856E",
"K@.	c #A48E76",
"L@.	c #CFB198",
"M@.	c #DFC0A8",
"N@.	c #E9CAB3",
"O@.	c #E9C7AC",
"P@.	c #EACBB5",
"Q@.	c #EBCCB5",
"R@.	c #ECCDBA",
"S@.	c #EDCCB3",
"T@.	c #ECC5AC",
"U@.	c #EDC3A9",
"V@.	c #E7BEA2",
"W@.	c #E8C2A3",
"X@.	c #E4C2AA",
"Y@.	c #EBCDB8",
"Z@.	c #E7C2A3",
"`@.	c #D9AF89",
" #.	c #DBAB82",
".#.	c #D6A16B",
"+#.	c #C78C57",
"@#.	c #D39F73",
"##.	c #DFB089",
"$#.	c #E6B996",
"%#.	c #E6C0A0",
"&#.	c #E9C4A6",
"*#.	c #E5BFA1",
"=#.	c #E5BD9D",
"-#.	c #CBA076",
";#.	c #C7976A",
">#.	c #C19569",
",#.	c #C19368",
"'#.	c #B08358",
")#.	c #B77747",
"!#.	c #9B633A",
"~#.	c #A26A40",
"{#.	c #A06940",
"]#.	c #C08B5D",
"^#.	c #D29F6E",
"/#.	c #DAA879",
"(#.	c #CE9A69",
"_#.	c #D8A678",
":#.	c #D39E6D",
"<#.	c #BD8653",
"[#.	c #B17A4C",
"}#.	c #B98451",
"|#.	c #BD8754",
"1#.	c #B47C4D",
"2#.	c #B27647",
"3#.	c #AA6E40",
"4#.	c #965C33",
"5#.	c #8E552F",
"6#.	c #8A522B",
"7#.	c #925D34",
"8#.	c #A26A3E",
"9#.	c #764327",
"0#.	c #743E25",
"a#.	c #875330",
"b#.	c #8C5731",
"c#.	c #86522F",
"d#.	c #734323",
"e#.	c #7B4527",
"f#.	c #8B522C",
"g#.	c #743F23",
"h#.	c #754225",
"i#.	c #985F34",
"j#.	c #B2743B",
"k#.	c #B5834A",
"l#.	c #B5824A",
"m#.	c #B7773E",
"n#.	c #B4763C",
"o#.	c #BD844A",
"p#.	c #C28C50",
"q#.	c #DD9B58",
"r#.	c #EFC13A",
"s#.	c #D1B22B",
"t#.	c #3C2D18",
"u#.	c #A06B0E",
"v#.	c #AE6E06",
"w#.	c #A46A05",
"x#.	c #A26A05",
"y#.	c #9E6805",
"z#.	c #A86C06",
"A#.	c #B3580B",
"B#.	c #C13F0D",
"C#.	c #4B1E13",
"D#.	c #1E1E1A",
"E#.	c #281B13",
"F#.	c #AB3C18",
"G#.	c #E44D16",
"H#.	c #EC5018",
"I#.	c #DE4A14",
"J#.	c #E84E17",
"K#.	c #D74414",
"L#.	c #D44115",
"M#.	c #BD2819",
"N#.	c #BF2819",
"O#.	c #A2472B",
"P#.	c #261D1A",
"Q#.	c #23201C",
"R#.	c #2A1C15",
"S#.	c #BE5523",
"T#.	c #F97822",
"U#.	c #E9561D",
"V#.	c #ED3B26",
"W#.	c #EA3A26",
"X#.	c #EE462C",
"Y#.	c #EC3C27",
"Z#.	c #EF3F29",
"`#.	c #23231A",
" $.	c #2A2721",
".$.	c #443628",
"+$.	c #6E5A45",
"@$.	c #887465",
"#$.	c #A9927C",
"$$.	c #BCA28D",
"%$.	c #CBB1A0",
"&$.	c #D9BDA8",
"*$.	c #E4C8B3",
"=$.	c #ECCCB2",
"-$.	c #EDCCB5",
";$.	c #F1CAAA",
">$.	c #ECC3A5",
",$.	c #E2B996",
"'$.	c #E8C1A9",
")$.	c #E8C5AA",
"!$.	c #E4C2A9",
"~$.	c #E3BA97",
"{$.	c #E8C3A8",
"]$.	c #ECCFBB",
"^$.	c #EDD0BB",
"/$.	c #E6BB98",
"($.	c #DFAD86",
"_$.	c #D69F70",
":$.	c #D49B68",
"<$.	c #D9A77C",
"[$.	c #E3B590",
"}$.	c #E6BA98",
"|$.	c #E7C1A2",
"1$.	c #E5BDA0",
"2$.	c #E6BDA0",
"3$.	c #C9996C",
"4$.	c #BF9267",
"5$.	c #BB9065",
"6$.	c #B38558",
"7$.	c #AD774A",
"8$.	c #B17448",
"9$.	c #A66C42",
"0$.	c #975E37",
"a$.	c #925831",
"b$.	c #AC794E",
"c$.	c #B68353",
"d$.	c #CD9763",
"e$.	c #BD8655",
"f$.	c #C4905F",
"g$.	c #C99569",
"h$.	c #D29D6D",
"i$.	c #CD9867",
"j$.	c #CE9663",
"k$.	c #CF9A6A",
"l$.	c #D7A372",
"m$.	c #D8A574",
"n$.	c #D8A26E",
"o$.	c #C88E5C",
"p$.	c #AC6C40",
"q$.	c #A96B3D",
"r$.	c #B77E51",
"s$.	c #BD8252",
"t$.	c #C08957",
"u$.	c #BC8556",
"v$.	c #BC8355",
"w$.	c #BC8655",
"x$.	c #B27D52",
"y$.	c #AD764C",
"z$.	c #7A4627",
"A$.	c #7E4728",
"B$.	c #915A33",
"C$.	c #814F2B",
"D$.	c #975F35",
"E$.	c #B47B44",
"F$.	c #BD884D",
"G$.	c #BC8A4D",
"H$.	c #BB874A",
"I$.	c #B67A42",
"J$.	c #B7783E",
"K$.	c #BE834A",
"L$.	c #BE864A",
"M$.	c #C28B50",
"N$.	c #D89C62",
"O$.	c #ECBC4B",
"P$.	c #F0C826",
"Q$.	c #F3CB20",
"R$.	c #D4B11F",
"S$.	c #372D14",
"T$.	c #171B18",
"U$.	c #453111",
"V$.	c #9E6911",
"W$.	c #AA6D06",
"X$.	c #AA6C06",
"Y$.	c #BB5913",
"Z$.	c #C1420C",
"`$.	c #4D1E11",
" %.	c #201D1B",
".%.	c #281B12",
"+%.	c #A83916",
"@%.	c #D74711",
"#%.	c #D14410",
"$%.	c #D24312",
"%%.	c #BB2917",
"&%.	c #BA2718",
"*%.	c #B15736",
"=%.	c #5D2B1A",
"-%.	c #4F1E17",
";%.	c #4B2117",
">%.	c #451D13",
",%.	c #3C1D12",
"'%.	c #432213",
")%.	c #4A2C1F",
"!%.	c #492E1D",
"~%.	c #34281A",
"{%.	c #1C1C1E",
"]%.	c #2A1D17",
"^%.	c #B45129",
"/%.	c #F37029",
"(%.	c #F57625",
"_%.	c #F57228",
":%.	c #F6742C",
"<%.	c #F7792B",
"[%.	c #F7752A",
"}%.	c #F77429",
"|%.	c #F57025",
"1%.	c #F0591D",
"2%.	c #EE481F",
"3%.	c #EA3A24",
"4%.	c #EA3925",
"5%.	c #F0462C",
"6%.	c #ED3D28",
"7%.	c #25211B",
"8%.	c #604E3C",
"9%.	c #907057",
"0%.	c #AA927D",
"a%.	c #BDA492",
"b%.	c #D7BCA6",
"c%.	c #E7CAB6",
"d%.	c #ECCDB7",
"e%.	c #EEC9A9",
"f%.	c #EECBAF",
"g%.	c #EECAAE",
"h%.	c #E3BB9C",
"i%.	c #E6BDA3",
"j%.	c #E6C1A5",
"k%.	c #E8C8B0",
"l%.	c #E9C8AE",
"m%.	c #E7C6AB",
"n%.	c #E6C3A6",
"o%.	c #E7C3A9",
"p%.	c #ECCEBD",
"q%.	c #EDD0BD",
"r%.	c #EAC7AB",
"s%.	c #E2B188",
"t%.	c #E5C2A5",
"u%.	c #E4BE9A",
"v%.	c #CF9967",
"w%.	c #D49C6B",
"x%.	c #E2B690",
"y%.	c #E6C0A3",
"z%.	c #E7BFA3",
"A%.	c #C69266",
"B%.	c #BF8C60",
"C%.	c #9D683F",
"D%.	c #9E6439",
"E%.	c #965D34",
"F%.	c #8E552C",
"G%.	c #996138",
"H%.	c #A46D41",
"I%.	c #B7834E",
"J%.	c #CF9660",
"K%.	c #D6A06E",
"L%.	c #BE8959",
"M%.	c #A16A3F",
"N%.	c #C28C5F",
"O%.	c #CA9463",
"P%.	c #D29A64",
"Q%.	c #D8A16A",
"R%.	c #DFA871",
"S%.	c #DFAA79",
"T%.	c #D39E6F",
"U%.	c #B07348",
"V%.	c #A76A3E",
"W%.	c #9B6239",
"X%.	c #D9A26D",
"Y%.	c #CA9160",
"Z%.	c #C18957",
"`%.	c #AA7249",
" &.	c #7E492B",
".&.	c #7C4A2B",
"+&.	c #7E4929",
"@&.	c #955D35",
"#&.	c #7F4D23",
"$&.	c #91572D",
"%&.	c #B3763F",
"&&.	c #C68C52",
"*&.	c #CA8F56",
"=&.	c #CA8C4E",
"-&.	c #BD8548",
";&.	c #B37337",
">&.	c #AE6D33",
",&.	c #C1874A",
"'&.	c #C0874A",
")&.	c #C78A4F",
"!&.	c #D49B63",
"~&.	c #D49B4E",
"{&.	c #CC9C2E",
"]&.	c #E5BE2D",
"^&.	c #E6C134",
"/&.	c #4D3D1C",
"(&.	c #292721",
"_&.	c #2C2924",
":&.	c #242320",
"<&.	c #2D271F",
"[&.	c #35291F",
"}&.	c #3E321D",
"|&.	c #403619",
"1&.	c #463A1A",
"2&.	c #4B3B19",
"3&.	c #5C4520",
"4&.	c #563F1C",
"5&.	c #5B4016",
"6&.	c #71551A",
"7&.	c #A5731D",
"8&.	c #B16B0A",
"9&.	c #AF6A07",
"0&.	c #B16909",
"a&.	c #B6670F",
"b&.	c #B06808",
"c&.	c #B26009",
"d&.	c #AF620A",
"e&.	c #BC571A",
"f&.	c #C2420D",
"g&.	c #C43E0C",
"h&.	c #C33D0D",
"i&.	c #BC4519",
"j&.	c #572112",
"k&.	c #2C231C",
"l&.	c #2C241D",
"m&.	c #252019",
"n&.	c #241D16",
"o&.	c #2A2218",
"p&.	c #312416",
"q&.	c #391E13",
"r&.	c #A6421F",
"s&.	c #C83A13",
"t&.	c #C43E0D",
"u&.	c #C9410D",
"v&.	c #CD430E",
"w&.	c #CB420D",
"x&.	c #C8400D",
"y&.	c #C83C12",
"z&.	c #B92917",
"A&.	c #D24D2A",
"B&.	c #DC462B",
"C&.	c #D53525",
"D&.	c #D13425",
"E&.	c #CB2E21",
"F&.	c #D35824",
"G&.	c #DE6530",
"H&.	c #DB6837",
"I&.	c #D97237",
"J&.	c #925B37",
"K&.	c #26201B",
"L&.	c #623621",
"M&.	c #80442A",
"N&.	c #783E21",
"O&.	c #754024",
"P&.	c #7B4929",
"Q&.	c #7C512A",
"R&.	c #7F4428",
"S&.	c #86492C",
"T&.	c #954924",
"U&.	c #E34E2D",
"V&.	c #EF3D27",
"W&.	c #EF442B",
"X&.	c #EB3F28",
"Y&.	c #ED4129",
"Z&.	c #25241F",
"`&.	c #1E1B17",
" *.	c #25211C",
".*.	c #342B21",
"+*.	c #433528",
"@*.	c #524432",
"#*.	c #8B7664",
"$*.	c #AB9380",
"%*.	c #BFA693",
"&*.	c #DEC1AC",
"**.	c #EFC9AA",
"=*.	c #F1C9A8",
"-*.	c #F0CDB7",
";*.	c #EFCDB6",
">*.	c #EFCDB8",
",*.	c #EDC8B1",
"'*.	c #E4BC9F",
")*.	c #E7BFA1",
"!*.	c #ECCDBC",
"~*.	c #E8CAB5",
"{*.	c #E6C8B2",
"]*.	c #E1BA99",
"^*.	c #E6C3A9",
"/*.	c #ECCDBD",
"(*.	c #EDD0C3",
"_*.	c #E7C09E",
":*.	c #E6C1A2",
"<*.	c #D49D6B",
"[*.	c #D8A068",
"}*.	c #E7C2A4",
"|*.	c #E8C6A8",
"1*.	c #EAC8AA",
"2*.	c #E2BD9C",
"3*.	c #E1B998",
"4*.	c #C99665",
"5*.	c #C69162",
"6*.	c #BD895A",
"7*.	c #AC774D",
"8*.	c #A9744A",
"9*.	c #9B6339",
"0*.	c #91572F",
"a*.	c #AC774C",
"b*.	c #C38A58",
"c*.	c #B57F50",
"d*.	c #B98B4F",
"e*.	c #D59F6C",
"f*.	c #B37E51",
"g*.	c #A9754C",
"h*.	c #B7854C",
"i*.	c #B6824C",
"j*.	c #BE8852",
"k*.	c #DBA87C",
"l*.	c #E0AC81",
"m*.	c #C89466",
"n*.	c #8E5530",
"o*.	c #864F2A",
"p*.	c #A86F44",
"q*.	c #C18B5F",
"r*.	c #C2895A",
"s*.	c #BB7E4E",
"t*.	c #B17347",
"u*.	c #9F6A43",
"v*.	c #764227",
"w*.	c #733B24",
"x*.	c #81502E",
"y*.	c #8C542C",
"z*.	c #89512B",
"A*.	c #7E4826",
"B*.	c #955D34",
"C*.	c #93582E",
"D*.	c #8E5527",
"E*.	c #B17740",
"F*.	c #D1965B",
"G*.	c #D5985B",
"H*.	c #CB8F55",
"I*.	c #C1884A",
"J*.	c #B27136",
"K*.	c #BF8444",
"L*.	c #C2884B",
"M*.	c #C6894D",
"N*.	c #D2975E",
"O*.	c #C98D52",
"P*.	c #B4783E",
"Q*.	c #B97F2E",
"R*.	c #EAC228",
"S*.	c #F5CB1A",
"T*.	c #F0CC32",
"U*.	c #A56823",
"V*.	c #913E24",
"W*.	c #8F2C1D",
"X*.	c #722516",
"Y*.	c #532516",
"Z*.	c #531C15",
"`*.	c #511C14",
" =.	c #4F1D14",
".=.	c #531D15",
"+=.	c #552616",
"@=.	c #562016",
"#=.	c #5C1D16",
"$=.	c #5C2416",
"%=.	c #5D2413",
"&=.	c #642B1B",
"*=.	c #662D1D",
"==.	c #774122",
"-=.	c #976412",
";=.	c #95650A",
">=.	c #98680C",
",=.	c #9C6A0B",
"'=.	c #9E6A11",
")=.	c #97690C",
"!=.	c #996807",
"~=.	c #9C680A",
"{=.	c #AB6B16",
"]=.	c #B84C0F",
"^=.	c #C4440E",
"/=.	c #C44311",
"(=.	c #C34312",
"_=.	c #C5440B",
":=.	c #C3450C",
"<=.	c #C3410D",
"[=.	c #C43D0C",
"}=.	c #BB390F",
"|=.	c #BF3B0E",
"1=.	c #C43D0D",
"2=.	c #B63C10",
"3=.	c #A64017",
"4=.	c #97431F",
"5=.	c #8A3F1C",
"6=.	c #8A3117",
"7=.	c #8A3017",
"8=.	c #893119",
"9=.	c #88371D",
"0=.	c #983F20",
"a=.	c #AF3C1B",
"b=.	c #B13215",
"c=.	c #B72F14",
"d=.	c #B53015",
"e=.	c #B83114",
"f=.	c #BA2E15",
"g=.	c #B92A16",
"h=.	c #B82916",
"i=.	c #D73726",
"j=.	c #F13F29",
"k=.	c #EC3D28",
"l=.	c #ED3A27",
"m=.	c #EB4327",
"n=.	c #F66D25",
"o=.	c #F76F28",
"p=.	c #F87328",
"q=.	c #A15734",
"r=.	c #1F1C19",
"s=.	c #1D201B",
"t=.	c #22221F",
"u=.	c #222121",
"v=.	c #492118",
"w=.	c #D8432E",
"x=.	c #F0442B",
"y=.	c #EC3F28",
"z=.	c #EA3C27",
"A=.	c #ED422A",
"B=.	c #1F1C17",
"C=.	c #29261B",
"D=.	c #352C23",
"E=.	c #4A3B2D",
"F=.	c #9D8370",
"G=.	c #BAA18E",
"H=.	c #DABDA8",
"I=.	c #EBCCB9",
"J=.	c #EDCBAE",
"K=.	c #F0C9AA",
"L=.	c #EDCAAB",
"M=.	c #EDCDBA",
"N=.	c #EDCDBB",
"O=.	c #E3BD9C",
"P=.	c #ECC9AD",
"Q=.	c #ECCEC0",
"R=.	c #ECD0C1",
"S=.	c #E4C3A5",
"T=.	c #EFD3C5",
"U=.	c #E5BD99",
"V=.	c #E6C7AE",
"W=.	c #D59E6D",
"X=.	c #D59E6B",
"Y=.	c #E5BA99",
"Z=.	c #E8C2A4",
"`=.	c #E7C09D",
" -.	c #E3BC9D",
".-.	c #E5BC9B",
"+-.	c #DDB38E",
"@-.	c #D2A374",
"#-.	c #C79263",
"$-.	c #C48C5A",
"%-.	c #B38052",
"&-.	c #A76C3E",
"*-.	c #955A30",
"=-.	c #B67D4E",
"--.	c #C38A59",
";-.	c #C99364",
">-.	c #D7A16F",
",-.	c #CE996B",
"'-.	c #BA8559",
")-.	c #8A522D",
"!-.	c #905833",
"~-.	c #AF7949",
"{-.	c #A76F44",
"]-.	c #9F673D",
"^-.	c #AB754B",
"/-.	c #955C34",
"(-.	c #834E26",
"_-.	c #A3683C",
":-.	c #B1794C",
"<-.	c #B37B4E",
"[-.	c #A1663B",
"}-.	c #713C24",
"|-.	c #724327",
"1-.	c #884C21",
"2-.	c #90572E",
"3-.	c #A5693C",
"4-.	c #9D6131",
"5-.	c #8C4E1B",
"6-.	c #A66E3A",
"7-.	c #D1965C",
"8-.	c #D5985A",
"9-.	c #D19456",
"0-.	c #C88B51",
"a-.	c #B4743A",
"b-.	c #B6763B",
"c-.	c #C28648",
"d-.	c #C7894B",
"e-.	c #C6884B",
"f-.	c #D3995F",
"g-.	c #CC9258",
"h-.	c #BB7E48",
"i-.	c #B87F45",
"j-.	c #D2A22C",
"k-.	c #F3CB21",
"l-.	c #F0C021",
"m-.	c #DF6025",
"n-.	c #D02E22",
"o-.	c #CC2D22",
"p-.	c #912517",
"q-.	c #5F1911",
"r-.	c #591911",
"s-.	c #631A12",
"t-.	c #5D1911",
"u-.	c #6A1A12",
"v-.	c #671A12",
"w-.	c #661A12",
"x-.	c #681A12",
"y-.	c #651A12",
"z-.	c #763917",
"A-.	c #9B6706",
"B-.	c #9B6705",
"C-.	c #AA6108",
"D-.	c #C7410C",
"E-.	c #C7430D",
"F-.	c #C64212",
"G-.	c #C5400F",
"H-.	c #C53F0D",
"I-.	c #C23D0D",
"J-.	c #B73F0F",
"K-.	c #B6420F",
"L-.	c #B73711",
"M-.	c #BE3B0F",
"N-.	c #B93B10",
"O-.	c #B53C11",
"P-.	c #B43B11",
"Q-.	c #B03416",
"R-.	c #A12B1B",
"S-.	c #B32718",
"T-.	c #C92D1F",
"U-.	c #F1412A",
"V-.	c #F03F29",
"W-.	c #EF4924",
"X-.	c #F76E26",
"Y-.	c #FA7424",
"Z-.	c #F97325",
"`-.	c #F87427",
" ;.	c #A65938",
".;.	c #231C17",
"+;.	c #452119",
"@;.	c #D14032",
"#;.	c #EB3A26",
"$;.	c #211F1A",
"%;.	c #1A1814",
"&;.	c #312A20",
"*;.	c #43372A",
"=;.	c #6C5A4A",
"-;.	c #9D8471",
";;.	c #B19883",
">;.	c #D2B6A3",
",;.	c #EACBB7",
"';.	c #EACCB9",
");.	c #ECD0BF",
"!;.	c #EBCBB4",
"~;.	c #EFCEB9",
"{;.	c #ECD0C0",
"];.	c #ECD1C3",
"^;.	c #EBCFBD",
"/;.	c #E7BD99",
"(;.	c #EDC8AA",
"_;.	c #ECD2C4",
":;.	c #E7C7B2",
"<;.	c #E0BC9F",
"[;.	c #F0D3C6",
"};.	c #EFD0BE",
"|;.	c #E8C19D",
"1;.	c #E5BC98",
"2;.	c #D49E6C",
"3;.	c #D59E69",
"4;.	c #E6BC9C",
"5;.	c #E8C4A9",
"6;.	c #E6BEA2",
"7;.	c #C89566",
"8;.	c #B38255",
"9;.	c #A06538",
"0;.	c #BB8555",
"a;.	c #D29D6F",
"b;.	c #D9A677",
"c;.	c #DEA976",
"d;.	c #B0794E",
"e;.	c #814A29",
"f;.	c #8A532E",
"g;.	c #935830",
"h;.	c #955C35",
"i;.	c #8E562E",
"j;.	c #844C28",
"k;.	c #8A502A",
"l;.	c #B57F52",
"m;.	c #B97F4E",
"n;.	c #AB7145",
"o;.	c #A66E43",
"p;.	c #87502C",
"q;.	c #774527",
"r;.	c #723F25",
"s;.	c #6F3B24",
"t;.	c #6D4126",
"u;.	c #9B6034",
"v;.	c #874C23",
"w;.	c #8F542B",
"x;.	c #A86B3C",
"y;.	c #A86A3A",
"z;.	c #915325",
"A;.	c #A36936",
"B;.	c #CE9358",
"C;.	c #D29659",
"D;.	c #CF9152",
"E;.	c #BA7A3E",
"F;.	c #B87B3F",
"G;.	c #C4884A",
"H;.	c #CB8D4F",
"I;.	c #C78A4C",
"J;.	c #D4995E",
"K;.	c #C98E55",
"L;.	c #C38850",
"M;.	c #C28958",
"N;.	c #CB9341",
"O;.	c #F1C824",
"P;.	c #F1C621",
"Q;.	c #E06722",
"R;.	c #CB2C20",
"S;.	c #CB2D22",
"T;.	c #862014",
"U;.	c #5C1911",
"V;.	c #641A12",
"W;.	c #5E1911",
"X;.	c #773716",
"Y;.	c #AB6108",
"Z;.	c #C8450C",
"`;.	c #C8410C",
" >.	c #C6410F",
".>.	c #C64213",
"+>.	c #C6400F",
"@>.	c #C64111",
"#>.	c #C6400D",
"$>.	c #C13C0E",
"%>.	c #BB3C0F",
"&>.	c #B63B10",
"*>.	c #BD3D0E",
"=>.	c #C3400C",
"->.	c #BC3E0E",
";>.	c #B7410F",
">>.	c #BC470D",
",>.	c #C1430F",
"'>.	c #BC3810",
")>.	c #B62717",
"!>.	c #CD2F1F",
"~>.	c #F13C28",
"{>.	c #F05424",
"]>.	c #F97226",
"^>.	c #F87327",
"/>.	c #AF5A39",
"(>.	c #1F1D1B",
"_>.	c #422317",
":>.	c #CC3D31",
"<>.	c #F14C2F",
"[>.	c #29241F",
"}>.	c #332D25",
"|>.	c #645443",
"1>.	c #8E7966",
"2>.	c #AF9580",
"3>.	c #BDA38E",
"4>.	c #E1C3AD",
"5>.	c #ECCFC0",
"6>.	c #ECCEBC",
"7>.	c #ECCCB8",
"8>.	c #EDCCB2",
"9>.	c #F1CDB7",
"0>.	c #EECFBB",
"a>.	c #ECD3C3",
"b>.	c #EDD3C4",
"c>.	c #ECD2C3",
"d>.	c #EDD0BE",
"e>.	c #E8C4A7",
"f>.	c #E8BE9C",
"g>.	c #EAC09B",
"h>.	c #EDC9AE",
"i>.	c #ECD0C2",
"j>.	c #EED3C5",
"k>.	c #EACAB1",
"l>.	c #EED1C3",
"m>.	c #EFD1C1",
"n>.	c #EBC8AB",
"o>.	c #EACDB8",
"p>.	c #D69F6E",
"q>.	c #D39D6C",
"r>.	c #E7C0A2",
"s>.	c #E6BFA2",
"t>.	c #E5BC9D",
"u>.	c #BE8859",
"v>.	c #905C38",
"w>.	c #A76F43",
"x>.	c #A2663C",
"y>.	c #9C6339",
"z>.	c #A86D40",
"A>.	c #BF8857",
"B>.	c #C08C61",
"C>.	c #854D29",
"D>.	c #854C28",
"E>.	c #A36A3E",
"F>.	c #8C542F",
"G>.	c #88502B",
"H>.	c #6C3E24",
"I>.	c #693D23",
"J>.	c #764325",
"K>.	c #9B623A",
"L>.	c #9C6033",
"M>.	c #8C5026",
"N>.	c #8E532B",
"O>.	c #A4693B",
"P>.	c #AB6F3E",
"Q>.	c #985B2E",
"R>.	c #A36530",
"S>.	c #C88D52",
"T>.	c #D3975A",
"U>.	c #CF9458",
"V>.	c #CE9051",
"W>.	c #B67539",
"X>.	c #B7793E",
"Y>.	c #C1884B",
"Z>.	c #CC9054",
"`>.	c #C98E52",
" ,.	c #C78B4F",
".,.	c #C0834B",
"+,.	c #C68B56",
"@,.	c #CB8E48",
"#,.	c #E2B526",
"$,.	c #EECD37",
"%,.	c #DA6E24",
"&,.	c #CA2B1F",
"*,.	c #7E1F14",
"=,.	c #5B1911",
"-,.	c #581911",
";,.	c #7A3216",
">,.	c #A36907",
",,.	c #A36A05",
"',.	c #AC6208",
"),.	c #C8460D",
"!,.	c #CA410D",
"~,.	c #C7430E",
"{,.	c #C64211",
"],.	c #C64110",
"^,.	c #C4430E",
"/,.	c #BB4011",
"(,.	c #B73B10",
"_,.	c #B73E10",
":,.	c #BA430E",
"<,.	c #C7430C",
"[,.	c #C13910",
"},.	c #B12818",
"|,.	c #B42718",
"1,.	c #BA2617",
"2,.	c #D43321",
"3,.	c #EB3926",
"4,.	c #EC4520",
"5,.	c #F46423",
"6,.	c #F97425",
"7,.	c #C56E35",
"8,.	c #362713",
"9,.	c #2A2517",
"0,.	c #2D291A",
"a,.	c #312C1D",
"b,.	c #35311E",
"c,.	c #302B23",
"d,.	c #352C22",
"e,.	c #322B1D",
"f,.	c #2D281A",
"g,.	c #2D281C",
"h,.	c #2F261C",
"i,.	c #2C251C",
"j,.	c #2D2719",
"k,.	c #2D2616",
"l,.	c #4B2914",
"m,.	c #C44224",
"n,.	c #EF492A",
"o,.	c #ED4429",
"p,.	c #EF482D",
"q,.	c #3A3224",
"r,.	c #4D3D2E",
"s,.	c #665745",
"t,.	c #A08A74",
"u,.	c #AF9885",
"v,.	c #CCB19C",
"w,.	c #EBC9B1",
"x,.	c #E3C1AC",
"y,.	c #EDCDB5",
"z,.	c #EECDB5",
"A,.	c #F0CDB6",
"B,.	c #F0CEB8",
"C,.	c #EECDBA",
"D,.	c #ECD1C2",
"E,.	c #EFD4C5",
"F,.	c #EDD3C5",
"G,.	c #ECD6C7",
"H,.	c #EDD4C5",
"I,.	c #E9BD98",
"J,.	c #F0CEBB",
"K,.	c #EFD4C6",
"L,.	c #E9C6AD",
"M,.	c #ECCAB1",
"N,.	c #EDCFBD",
"O,.	c #EDCFC2",
"P,.	c #ECCBB3",
"Q,.	c #ECCEB9",
"R,.	c #D7A173",
"S,.	c #D7A26F",
"T,.	c #EBCCBB",
"U,.	c #EBCBB6",
"V,.	c #E5C0A3",
"W,.	c #E6BFA3",
"X,.	c #E5BD9E",
"Y,.	c #E8C0A3",
"Z,.	c #E3BA99",
"`,.	c #E7BB9A",
" '.	c #DBAA82",
".'.	c #C08A5C",
"+'.	c #AD7950",
"@'.	c #A0693F",
"#'.	c #915F3A",
"$'.	c #A86C3E",
"%'.	c #A06539",
"&'.	c #A1673A",
"*'.	c #D09A6A",
"='.	c #BF8C5D",
"-'.	c #B6804F",
";'.	c #B67F4B",
">'.	c #C89363",
",'.	c #C98F5B",
"''.	c #BD8656",
")'.	c #AE774C",
"!'.	c #874E2A",
"~'.	c #91562E",
"{'.	c #A66C40",
"]'.	c #7D4627",
"^'.	c #774428",
"/'.	c #86512C",
"('.	c #6F3C1F",
"_'.	c #965F37",
":'.	c #8E5123",
"<'.	c #905327",
"['.	c #A46736",
"}'.	c #B27542",
"|'.	c #9C5E2E",
"1'.	c #A16432",
"2'.	c #BF864C",
"3'.	c #CF9558",
"4'.	c #CD9153",
"5'.	c #BB7A3E",
"6'.	c #B47337",
"7'.	c #B6753A",
"8'.	c #C58749",
"9'.	c #CA8F53",
"0'.	c #CD9356",
"a'.	c #CE9152",
"b'.	c #C38A4F",
"c'.	c #CB915B",
"d'.	c #CF945E",
"e'.	c #D39F2E",
"f'.	c #EFC92B",
"g'.	c #CB6815",
"h'.	c #C2291B",
"i'.	c #C92C21",
"j'.	c #621A12",
"k'.	c #83331B",
"l'.	c #AF670A",
"m'.	c #AF6907",
"n'.	c #C6450B",
"o'.	c #CA430C",
"p'.	c #C54010",
"q'.	c #C04511",
"r'.	c #B63911",
"s'.	c #B93D10",
"t'.	c #C14211",
"u'.	c #BF3D10",
"v'.	c #B8420F",
"w'.	c #C6430F",
"x'.	c #C13614",
"y'.	c #BE2719",
"z'.	c #D33420",
"A'.	c #DF3924",
"B'.	c #E63E21",
"C'.	c #F15822",
"D'.	c #F87126",
"E'.	c #C6722F",
"F'.	c #6A5C22",
"G'.	c #6B6028",
"H'.	c #75682D",
"I'.	c #74662E",
"J'.	c #6B5E2B",
"K'.	c #6F5E28",
"L'.	c #6D612A",
"M'.	c #665F2A",
"N'.	c #706029",
"O'.	c #705F29",
"P'.	c #71622B",
"Q'.	c #6C602B",
"R'.	c #715D2E",
"S'.	c #716030",
"T'.	c #6E5C2D",
"U'.	c #63431C",
"V'.	c #C74D23",
"W'.	c #EE4A21",
"X'.	c #EE4A24",
"Y'.	c #EF432A",
"Z'.	c #302923",
"`'.	c #171919",
" ).	c #131511",
".).	c #211E18",
"+).	c #2C2A23",
"@).	c #42362B",
"#).	c #574A3E",
"$).	c #927B69",
"%).	c #B19983",
"&).	c #CCAF99",
"*).	c #E9CAB1",
"=).	c #E2B896",
"-).	c #E2B490",
";).	c #EBC9B2",
">).	c #EDCEBB",
",).	c #ECCEBF",
"').	c #ECD0BE",
")).	c #EDCEBA",
"!).	c #EFD0BA",
"~).	c #EDD2C4",
"{).	c #EED4C6",
"]).	c #ECD7C8",
"^).	c #EED6C8",
"/).	c #EFD5C6",
"().	c #EDD1C2",
"_).	c #EACAB3",
":).	c #EDC4AA",
"<).	c #EFC8A7",
"[).	c #EBCBB9",
"}).	c #EAC6AD",
"|).	c #ECD2C2",
"1).	c #EDCFBE",
"2).	c #EBC7AA",
"3).	c #EECBB2",
"4).	c #D8A47A",
"5).	c #DBA573",
"6).	c #E2B48E",
"7).	c #EBCCB6",
"8).	c #E8C7AE",
"9).	c #E7C2A9",
"0).	c #E7BDA5",
"a).	c #E6BEA5",
"b).	c #E3BC9C",
"c).	c #E5BB9A",
"d).	c #E7BA96",
"e).	c #C58F62",
"f).	c #B58355",
"g).	c #A26B42",
"h).	c #A56B3D",
"i).	c #A2663A",
"j).	c #985F37",
"k).	c #9B6035",
"l).	c #975E36",
"m).	c #A0663D",
"n).	c #A4673C",
"o).	c #AE774D",
"p).	c #A76D43",
"q).	c #BD8657",
"r).	c #CB9461",
"s).	c #BD8455",
"t).	c #B57B4D",
"u).	c #B27A4C",
"v).	c #AE764B",
"w).	c #8D532A",
"x).	c #985E35",
"y).	c #773F25",
"z).	c #8A5530",
"A).	c #6C3D1D",
"B).	c #87532B",
"C).	c #905328",
"D).	c #8F5226",
"E).	c #A56631",
"F).	c #B47642",
"G).	c #A76832",
"H).	c #945624",
"I).	c #B77F44",
"J).	c #C08246",
"K).	c #AF6E34",
"L).	c #B06F35",
"M).	c #C98C4E",
"N).	c #D09253",
"O).	c #CE9155",
"P).	c #D4985A",
"Q).	c #CC9157",
"R).	c #CD9359",
"S).	c #CC925C",
"T).	c #CF9561",
"U).	c #BE8D37",
"V).	c #EBC636",
"W).	c #DB6D26",
"X).	c #C8281D",
"Y).	c #952216",
"Z).	c #6B1A12",
"`).	c #691A12",
" !.	c #A56A08",
".!.	c #9D6805",
"+!.	c #A56B06",
"@!.	c #C3460C",
"#!.	c #C9430B",
"$!.	c #C8430D",
"%!.	c #C7420D",
"&!.	c #BA440F",
"*!.	c #C13F12",
"=!.	c #C04410",
"-!.	c #BC4510",
";!.	c #C44211",
">!.	c #C44212",
",!.	c #BE450F",
"'!.	c #C54112",
")!.	c #BF3C11",
"!!.	c #EA452B",
"~!.	c #F35F23",
"{!.	c #F87024",
"]!.	c #F97324",
"^!.	c #C16327",
"/!.	c #6E541A",
"(!.	c #786A27",
"_!.	c #7B6D2A",
":!.	c #7D6C29",
"<!.	c #7E6C27",
"[!.	c #7D6E27",
"}!.	c #7B6D26",
"|!.	c #796C26",
"1!.	c #776724",
"2!.	c #7B6C24",
"3!.	c #7A6723",
"4!.	c #7D6B26",
"5!.	c #7D6B27",
"6!.	c #7E6F2C",
"7!.	c #7E702C",
"8!.	c #735C22",
"9!.	c #BB5B2E",
"0!.	c #EF492B",
"a!.	c #ED4128",
"b!.	c #ED432A",
"c!.	c #F1442C",
"d!.	c #2B261E",
"e!.	c #1E1C18",
"f!.	c #3E352C",
"g!.	c #877569",
"h!.	c #AF9884",
"i!.	c #BDA18D",
"j!.	c #D8BAA6",
"k!.	c #E7C6AE",
"l!.	c #EAC6AC",
"m!.	c #E9C1AC",
"n!.	c #DBB18D",
"o!.	c #D6A06F",
"p!.	c #E0B490",
"q!.	c #EDCAB2",
"r!.	c #ECCEBE",
"s!.	c #ECCDB6",
"t!.	c #ECD4C5",
"u!.	c #EED5C6",
"v!.	c #ECD8C9",
"w!.	c #EBD8C9",
"x!.	c #EDD5C7",
"y!.	c #EBC49D",
"z!.	c #EDC8AB",
"A!.	c #EFD2C3",
"B!.	c #E8C9B1",
"C!.	c #EECCB7",
"D!.	c #EDCBAF",
"E!.	c #EECCB3",
"F!.	c #E7BE9F",
"G!.	c #DDA774",
"H!.	c #E2BC9D",
"I!.	c #EBCCBA",
"J!.	c #E9C8AC",
"K!.	c #E7BEA4",
"L!.	c #E7BA98",
"M!.	c #E6BA97",
"N!.	c #D9A87F",
"O!.	c #C9986B",
"P!.	c #C18C5C",
"Q!.	c #AE7C4E",
"R!.	c #A46A3D",
"S!.	c #A4693A",
"T!.	c #9D6339",
"U!.	c #965D35",
"V!.	c #985E37",
"W!.	c #8F552C",
"X!.	c #90552C",
"Y!.	c #8A5028",
"Z!.	c #A66C41",
"`!.	c #B37E54",
" ~.	c #B78258",
".~.	c #AD7850",
"+~.	c #A46E44",
"@~.	c #804C2A",
"#~.	c #8F532A",
"$~.	c #9D6235",
"%~.	c #9E6438",
"&~.	c #834B29",
"*~.	c #7F4828",
"=~.	c #85522F",
"-~.	c #713D24",
";~.	c #6C381C",
">~.	c #86522D",
",~.	c #905429",
"'~.	c #935625",
")~.	c #A35F2E",
"!~.	c #B57741",
"~~.	c #AF6E39",
"{~.	c #915324",
"]~.	c #B27439",
"^~.	c #C3894B",
"/~.	c #D29455",
"(~.	c #C6884A",
"_~.	c #B57539",
":~.	c #C58546",
"<~.	c #D0904E",
"[~.	c #CF9358",
"}~.	c #D1975E",
"|~.	c #CB915D",
"1~.	c #C98E58",
"2~.	c #BF8546",
"3~.	c #DDAA4A",
"4~.	c #D07445",
"5~.	c #CE2D22",
"6~.	c #D63027",
"7~.	c #BA291C",
"8~.	c #761C13",
"9~.	c #84331A",
"0~.	c #A46A08",
"a~.	c #A46906",
"b~.	c #C2460C",
"c~.	c #C64210",
"d~.	c #C63F0E",
"e~.	c #C13E10",
"f~.	c #BA3910",
"g~.	c #BA3B10",
"h~.	c #BB4010",
"i~.	c #C14111",
"j~.	c #B74110",
"k~.	c #C03D10",
"l~.	c #BA3C10",
"m~.	c #C14012",
"n~.	c #C23F10",
"o~.	c #C3430D",
"p~.	c #BB3B12",
"q~.	c #DA3825",
"r~.	c #EE482D",
"s~.	c #F05224",
"t~.	c #F56922",
"u~.	c #F67019",
"v~.	c #F7731A",
"w~.	c #F8741B",
"x~.	c #FA7724",
"y~.	c #BC5C2A",
"z~.	c #6F5B1F",
"A~.	c #786A25",
"B~.	c #7B6D29",
"C~.	c #7E6E2A",
"D~.	c #826E28",
"E~.	c #7F722C",
"F~.	c #7C6F27",
"G~.	c #7B6D25",
"H~.	c #776B24",
"I~.	c #796A24",
"J~.	c #7D6D27",
"K~.	c #83702B",
"L~.	c #81722C",
"M~.	c #7B6C29",
"N~.	c #756123",
"O~.	c #C7643F",
"P~.	c #F1492E",
"Q~.	c #F0492D",
"R~.	c #EE442B",
"S~.	c #F14029",
"T~.	c #EC3B27",
"U~.	c #282520",
"V~.	c #352D26",
"W~.	c #4A3B30",
"X~.	c #806D5F",
"Y~.	c #B09987",
"Z~.	c #C3A894",
"`~.	c #D9BAA4",
" {.	c #E6C0A7",
".{.	c #E0BBA0",
"+{.	c #D9B28F",
"@{.	c #D0A98A",
"#{.	c #D3AE8F",
"${.	c #D9AA83",
"%{.	c #D09967",
"&{.	c #D49A66",
"*{.	c #D49D6F",
"={.	c #EECCB9",
"-{.	c #EDCDBC",
";{.	c #ECCEC2",
">{.	c #EED1C4",
",{.	c #EDD1C3",
"'{.	c #EDD5C6",
"){.	c #EBD9C9",
"!{.	c #EBD3C0",
"~{.	c #EDCEB7",
"{{.	c #EDCDB3",
"]{.	c #EEC7A6",
"^{.	c #F1CAAC",
"/{.	c #EFCFBD",
"({.	c #E7C5AE",
"_{.	c #EDCFBF",
":{.	c #EECDBC",
"<{.	c #DCAD85",
"[{.	c #DCAA7E",
"}{.	c #E5BF9F",
"|{.	c #E9CBB6",
"1{.	c #E7C3A8",
"2{.	c #E6BEA4",
"3{.	c #E7BA99",
"4{.	c #E1B188",
"5{.	c #C79567",
"6{.	c #BB8759",
"7{.	c #A1683E",
"8{.	c #9F6337",
"9{.	c #A4693D",
"0{.	c #A0663C",
"a{.	c #9F653B",
"b{.	c #98623C",
"c{.	c #854F2C",
"d{.	c #7A4528",
"e{.	c #7D4929",
"f{.	c #945C34",
"g{.	c #8F552E",
"h{.	c #89502A",
"i{.	c #824E2D",
"j{.	c #703C21",
"k{.	c #7F4927",
"l{.	c #8D5630",
"m{.	c #97562E",
"n{.	c #9E5B27",
"o{.	c #9B5A2D",
"p{.	c #B67841",
"q{.	c #BA7C44",
"r{.	c #94582E",
"s{.	c #BB8346",
"t{.	c #CC8E4F",
"u{.	c #D09456",
"v{.	c #CD8E4F",
"w{.	c #BC7E44",
"x{.	c #C08144",
"y{.	c #CD8E4D",
"z{.	c #D19252",
"A{.	c #CD9055",
"B{.	c #CB9055",
"C{.	c #CF945D",
"D{.	c #CF955F",
"E{.	c #D49B66",
"F{.	c #CD935C",
"G{.	c #CD8F56",
"H{.	c #D97C56",
"I{.	c #D12F24",
"J{.	c #CC2C21",
"K{.	c #9B2419",
"L{.	c #791A12",
"M{.	c #721A12",
"N{.	c #7C1A12",
"O{.	c #6F1A12",
"P{.	c #8C3010",
"Q{.	c #AD6D06",
"R{.	c #A16905",
"S{.	c #A66A06",
"T{.	c #C0470C",
"U{.	c #C43F0D",
"V{.	c #C7410D",
"W{.	c #C6420C",
"X{.	c #C5430E",
"Y{.	c #C04010",
"Z{.	c #C04011",
"`{.	c #BA4110",
" ].	c #BC460F",
".].	c #BA430F",
"+].	c #B9420F",
"@].	c #B73D10",
"#].	c #BD4310",
"$].	c #B93F0F",
"%].	c #C44310",
"&].	c #BD3C0F",
"*].	c #C23D0E",
"=].	c #BF3C0E",
"-].	c #BC3D0E",
";].	c #B63A11",
">].	c #B82A16",
",].	c #BC2317",
"'].	c #BE2218",
")].	c #C92B1E",
"!].	c #EF4A2E",
"~].	c #F05123",
"{].	c #F56C22",
"]].	c #F66D1D",
"^].	c #F7711C",
"/].	c #F8731E",
"(].	c #F9741E",
"_].	c #F97520",
":].	c #F87A25",
"<].	c #B75C29",
"[].	c #715E1F",
"}].	c #776823",
"|].	c #7D6F2A",
"1].	c #7E6E26",
"2].	c #7C7127",
"3].	c #7D7228",
"4].	c #786C24",
"5].	c #7E6D28",
"6].	c #84702C",
"7].	c #85742E",
"8].	c #82732D",
"9].	c #827330",
"0].	c #816D2D",
"a].	c #C16C44",
"b].	c #ED572E",
"c].	c #EE4525",
"d].	c #EF482C",
"e].	c #F14A2E",
"f].	c #302D1F",
"g].	c #322B22",
"h].	c #3E362B",
"i].	c #514433",
"j].	c #645343",
"k].	c #8D7260",
"l].	c #9F8472",
"m].	c #B19783",
"n].	c #BEA28C",
"o].	c #D4B59E",
"p].	c #DCBAA3",
"q].	c #D8B596",
"r].	c #D2AA87",
"s].	c #D7AD89",
"t].	c #DCB28E",
"u].	c #E1B48E",
"v].	c #DBA67B",
"w].	c #D29B6C",
"x].	c #CD9667",
"y].	c #E3B692",
"z].	c #EDC8AD",
"A].	c #EECDB9",
"B].	c #ECCFBD",
"C].	c #ECCEC1",
"D].	c #EFD2C5",
"E].	c #EECEB7",
"F].	c #EDCDB9",
"G].	c #EED4C5",
"H].	c #EDD1C1",
"I].	c #ECD8C8",
"J].	c #EDD7C6",
"K].	c #EDD2BF",
"L].	c #F0CCB4",
"M].	c #EED0C1",
"N].	c #ECD3C4",
"O].	c #E9CAB6",
"P].	c #EFCCB6",
"Q].	c #EDCFC0",
"R].	c #EECCB6",
"S].	c #EBCAAD",
"T].	c #E3B38C",
"U].	c #E0BB9F",
"V].	c #EACBB6",
"W].	c #E8C7AD",
"X].	c #E9C3AB",
"Y].	c #E8C0A8",
"Z].	c #E6BB9A",
"`].	c #CC9766",
" ^.	c #C28B58",
".^.	c #B78253",
"+^.	c #A77046",
"@^.	c #91562F",
"#^.	c #90562F",
"$^.	c #9E6338",
"%^.	c #824C2A",
"&^.	c #794729",
"*^.	c #774427",
"=^.	c #7E4627",
"-^.	c #905731",
";^.	c #925933",
">^.	c #915831",
",^.	c #905832",
"'^.	c #784528",
")^.	c #8C5B38",
"!^.	c #6C381B",
"~^.	c #824C2B",
"{^.	c #995F34",
"]^.	c #A15C30",
"^^.	c #9F5C2A",
"/^.	c #9C5D2D",
"(^.	c #B77941",
"_^.	c #BF8046",
":^.	c #9F5D2F",
"<^.	c #A96630",
"[^.	c #BD8347",
"}^.	c #CA8B4C",
"|^.	c #D0904F",
"1^.	c #CA8E52",
"2^.	c #BD8144",
"3^.	c #C98A4B",
"4^.	c #D19354",
"5^.	c #CE9357",
"6^.	c #CC9055",
"7^.	c #CE945C",
"8^.	c #D19861",
"9^.	c #CD935D",
"0^.	c #D49B6A",
"a^.	c #BF764B",
"b^.	c #D96845",
"c^.	c #D53027",
"d^.	c #CC2C20",
"e^.	c #C4322E",
"f^.	c #751C13",
"g^.	c #772915",
"h^.	c #A14513",
"i^.	c #A3440E",
"j^.	c #9E4617",
"k^.	c #874513",
"l^.	c #894615",
"m^.	c #A05D22",
"n^.	c #AF6C0A",
"o^.	c #AE6C06",
"p^.	c #AB6D06",
"q^.	c #AF6C07",
"r^.	c #C25216",
"s^.	c #BC3F11",
"t^.	c #C03F10",
"u^.	c #C73C11",
"v^.	c #C03C0E",
"w^.	c #B93910",
"x^.	c #BB3910",
"y^.	c #B83C10",
"z^.	c #B73A10",
"A^.	c #B63711",
"B^.	c #B63811",
"C^.	c #B53612",
"D^.	c #B63E10",
"E^.	c #B6460E",
"F^.	c #BB3D11",
"G^.	c #C13D0E",
"H^.	c #C4410C",
"I^.	c #BF3E11",
"J^.	c #B82B16",
"K^.	c #B92517",
"L^.	c #BA2517",
"M^.	c #B72617",
"N^.	c #CB2D1F",
"O^.	c #DD3624",
"P^.	c #DC3624",
"Q^.	c #E33F29",
"R^.	c #F2512E",
"S^.	c #F15428",
"T^.	c #F2562A",
"U^.	c #F45F2C",
"V^.	c #F35D2B",
"W^.	c #F45E2C",
"X^.	c #F56D2A",
"Y^.	c #EB7C3D",
"Z^.	c #B26537",
"`^.	c #71581B",
" /.	c #786A23",
"./.	c #80722A",
"+/.	c #83732B",
"@/.	c #817228",
"#/.	c #817327",
"$/.	c #7D7227",
"%/.	c #7D7026",
"&/.	c #7C6D25",
"*/.	c #7B6C25",
"=/.	c #7D6F28",
"-/.	c #82742D",
";/.	c #7B6E2B",
">/.	c #736929",
",/.	c #676026",
"'/.	c #685D23",
")/.	c #BC8853",
"!/.	c #F2823F",
"~/.	c #F76D29",
"{/.	c #F66A2A",
"]/.	c #F66B29",
"^/.	c #4A402C",
"//.	c #443928",
"(/.	c #5B4A35",
"_/.	c #6F5740",
":/.	c #8D6651",
"</.	c #93725F",
"[/.	c #977762",
"}/.	c #987963",
"|/.	c #AE8E75",
"1/.	c #DDBCA5",
"2/.	c #E1BDA6",
"3/.	c #E2BEA4",
"4/.	c #E8C6AE",
"5/.	c #EDCAAD",
"6/.	c #EBC0A0",
"7/.	c #E4B99D",
"8/.	c #D29965",
"9/.	c #CF955D",
"0/.	c #DDAA80",
"a/.	c #EBC5AA",
"b/.	c #ECD2C0",
"c/.	c #F0D2B9",
"d/.	c #F0CFB9",
"e/.	c #EDD0C2",
"f/.	c #ECD1BF",
"g/.	c #EBD6C7",
"h/.	c #EED3C0",
"i/.	c #EFCFB6",
"j/.	c #EDCBB3",
"k/.	c #EED0C0",
"l/.	c #E2BD9D",
"m/.	c #E8C1A6",
"n/.	c #E3B58F",
"o/.	c #D5A274",
"p/.	c #C89366",
"q/.	c #C18C5E",
"r/.	c #AE7A4E",
"s/.	c #AD764B",
"t/.	c #A06B41",
"u/.	c #9A6037",
"v/.	c #824B29",
"w/.	c #723E25",
"x/.	c #6C3B22",
"y/.	c #89532E",
"z/.	c #733D23",
"A/.	c #824A29",
"B/.	c #864D27",
"C/.	c #9B6137",
"D/.	c #A86B39",
"E/.	c #9C5B2D",
"F/.	c #A25928",
"G/.	c #B4733B",
"H/.	c #C1844E",
"I/.	c #AA6834",
"J/.	c #9A5C29",
"K/.	c #BE8343",
"L/.	c #C38949",
"M/.	c #CE8E4D",
"N/.	c #CC8C4C",
"O/.	c #B4753E",
"P/.	c #B98242",
"Q/.	c #CF9459",
"R/.	c #CE9258",
"S/.	c #CA8F58",
"T/.	c #D29861",
"U/.	c #CA905B",
"V/.	c #D59B68",
"W/.	c #BD7D50",
"X/.	c #D66145",
"Y/.	c #D33129",
"Z/.	c #D53026",
"`/.	c #D33028",
" (.	c #8E1E14",
".(.	c #8E341B",
"+(.	c #AE6D08",
"@(.	c #B35A0B",
"#(.	c #B5460F",
"$(.	c #B74D0D",
"%(.	c #B54B0E",
"&(.	c #B54C0D",
"*(.	c #B5470F",
"=(.	c #B5490E",
"-(.	c #B64A0E",
";(.	c #C52D19",
">(.	c #C22E19",
",(.	c #C62B1A",
"'(.	c #B92E15",
")(.	c #B73014",
"!(.	c #B72B16",
"~(.	c #B73114",
"{(.	c #B72C15",
"](.	c #B82816",
"^(.	c #B23215",
"/(.	c #BD3B0F",
"((.	c #C74211",
"_(.	c #C84312",
":(.	c #C23E12",
"<(.	c #AD2718",
"[(.	c #9D2618",
"}(.	c #9A2215",
"|(.	c #9F2718",
"1(.	c #B42618",
"2(.	c #C6291B",
"3(.	c #C6291C",
"4(.	c #CE2E21",
"5(.	c #CA4F26",
"6(.	c #7C621D",
"7(.	c #7E7126",
"8(.	c #827429",
"9(.	c #817428",
"0(.	c #847427",
"a(.	c #85762A",
"b(.	c #83742C",
"c(.	c #7E7029",
"d(.	c #7A6E28",
"e(.	c #776D2B",
"f(.	c #686125",
"g(.	c #615426",
"h(.	c #51471A",
"i(.	c #554D22",
"j(.	c #564A23",
"k(.	c #AE6530",
"l(.	c #FA7423",
"m(.	c #3C3124",
"n(.	c #46382A",
"o(.	c #5F4D3E",
"p(.	c #79614D",
"q(.	c #926A50",
"r(.	c #95725E",
"s(.	c #A37A59",
"t(.	c #A97F5C",
"u(.	c #B59377",
"v(.	c #B79D89",
"w(.	c #D6B89F",
"x(.	c #E3C2AE",
"y(.	c #E8CAB7",
"z(.	c #EBCAB1",
"A(.	c #E9C6A9",
"B(.	c #E3B998",
"C(.	c #D39961",
"D(.	c #D29559",
"E(.	c #DFA978",
"F(.	c #E2BA98",
"G(.	c #ECCFBE",
"H(.	c #ECD2C1",
"I(.	c #ECD5C6",
"J(.	c #EED0BB",
"K(.	c #EECDB4",
"L(.	c #EFCAAB",
"M(.	c #EDD0BF",
"N(.	c #EFD2C4",
"O(.	c #EECEB8",
"P(.	c #F0CDB8",
"Q(.	c #EECAAD",
"R(.	c #F0C9A9",
"S(.	c #EAC3A3",
"T(.	c #D7AD87",
"U(.	c #E0B999",
"V(.	c #E5C0A4",
"W(.	c #E6C3A7",
"X(.	c #E8BC98",
"Y(.	c #E7BE9C",
"Z(.	c #DEB085",
"`(.	c #D4A16F",
" _.	c #CB9767",
"._.	c #BC8A57",
"+_.	c #A36E43",
"@_.	c #AA774E",
"#_.	c #A46C42",
"$_.	c #A87047",
"%_.	c #89522E",
"&_.	c #89532F",
"*_.	c #8E5935",
"=_.	c #764427",
"-_.	c #714326",
";_.	c #703C24",
">_.	c #703B24",
",_.	c #8B542F",
"'_.	c #995F35",
")_.	c #AF713F",
"!_.	c #9E5F2E",
"~_.	c #9A5525",
"{_.	c #B6723B",
"]_.	c #C1854E",
"^_.	c #AE6C35",
"/_.	c #9F5B2A",
"(_.	c #C3894D",
"__.	c #B5783E",
":_.	c #BB7C40",
"<_.	c #D09459",
"[_.	c #CE945A",
"}_.	c #CE955B",
"|_.	c #C88E58",
"1_.	c #D39964",
"2_.	c #CD6948",
"3_.	c #D4332B",
"4_.	c #D32F27",
"5_.	c #D8372F",
"6_.	c #D7332A",
"7_.	c #BC2B1D",
"8_.	c #851E13",
"9_.	c #8D4417",
"0_.	c #AE6D07",
"a_.	c #B17206",
"b_.	c #B3590B",
"c_.	c #BA2A17",
"d_.	c #C1281A",
"e_.	c #B82D15",
"f_.	c #CD4412",
"g_.	c #C64012",
"h_.	c #BF2118",
"i_.	c #A62315",
"j_.	c #8F1B11",
"k_.	c #9C1E13",
"l_.	c #C32319",
"m_.	c #CF2D21",
"n_.	c #EF472D",
"o_.	c #CD542A",
"p_.	c #816627",
"q_.	c #82732C",
"r_.	c #7D6E29",
"s_.	c #7B6D28",
"t_.	c #726624",
"u_.	c #66591E",
"v_.	c #5E5521",
"w_.	c #5E4F22",
"x_.	c #52471B",
"y_.	c #50471F",
"z_.	c #4B4323",
"A_.	c #4D4624",
"B_.	c #433D1F",
"C_.	c #463E1C",
"D_.	c #AC581F",
"E_.	c #624B35",
"F_.	c #69513C",
"G_.	c #836552",
"H_.	c #926F5A",
"I_.	c #92705E",
"J_.	c #947562",
"K_.	c #A0816A",
"L_.	c #AE8C71",
"M_.	c #C1A591",
"N_.	c #DABBAA",
"O_.	c #E9CBBB",
"P_.	c #EBCDBF",
"Q_.	c #EAC8AE",
"R_.	c #EBCAAC",
"S_.	c #EBC5A6",
"T_.	c #E2B085",
"U_.	c #D59B64",
"V_.	c #D4985D",
"W_.	c #DAA980",
"X_.	c #E0BCA0",
"Y_.	c #E9C3B1",
"Z_.	c #EBCEBC",
"`_.	c #ECD1C0",
" :.	c #EDCFBC",
".:.	c #EECAAA",
"+:.	c #EDCEBD",
"@:.	c #EDCCB6",
"#:.	c #EECCB2",
"$:.	c #E0BB9B",
"%:.	c #E1B796",
"&:.	c #DDB692",
"*:.	c #DFBA9D",
"=:.	c #E2C0A5",
"-:.	c #E7C4A8",
";:.	c #E9C2A0",
">:.	c #CF9C6D",
",:.	c #C78E5A",
"':.	c #AD7849",
"):.	c #B17A4E",
"!:.	c #AE7548",
"~:.	c #B07045",
"{:.	c #A3673A",
"]:.	c #8D5834",
"^:.	c #7D4828",
"/:.	c #79492A",
"(:.	c #744026",
"_:.	c #743E24",
"::.	c #7C4729",
"<:.	c #804B29",
"[:.	c #6B4025",
"}:.	c #714226",
"|:.	c #A05F33",
"1:.	c #99552A",
"2:.	c #975B2E",
"3:.	c #9B5F30",
"4:.	c #A16535",
"5:.	c #AA6E3D",
"6:.	c #A06435",
"7:.	c #975829",
"8:.	c #B37138",
"9:.	c #C5874C",
"0:.	c #B3743A",
"a:.	c #A4602E",
"b:.	c #C28548",
"c:.	c #B5783C",
"d:.	c #BB7B3F",
"e:.	c #CE9153",
"f:.	c #D79E62",
"g:.	c #D09559",
"h:.	c #CD9458",
"i:.	c #CA8F57",
"j:.	c #CD945B",
"k:.	c #C88C54",
"l:.	c #CD935E",
"m:.	c #D39A67",
"n:.	c #C87C51",
"o:.	c #D85943",
"p:.	c #D8342C",
"q:.	c #E13A2C",
"r:.	c #D53025",
"s:.	c #B1281A",
"t:.	c #871C12",
"u:.	c #993E17",
"v:.	c #BC7E06",
"w:.	c #B27206",
"x:.	c #B35C0A",
"y:.	c #C13911",
"z:.	c #BA2817",
"A:.	c #C8430C",
"B:.	c #C7420E",
"C:.	c #C94312",
"D:.	c #CC4412",
"E:.	c #C83E14",
"F:.	c #BD2718",
"G:.	c #AA2416",
"H:.	c #9A1E13",
"I:.	c #CB2B1F",
"J:.	c #CD2C20",
"K:.	c #EF472C",
"L:.	c #CF4E2E",
"M:.	c #81652A",
"N:.	c #7A7031",
"O:.	c #776E32",
"P:.	c #6D642D",
"Q:.	c #5B5321",
"R:.	c #5C5225",
"S:.	c #594C26",
"T:.	c #4B431E",
"U:.	c #46401E",
"V:.	c #3F3A1D",
"W:.	c #403A20",
"X:.	c #484225",
"Y:.	c #4C4625",
"Z:.	c #473C24",
"`:.	c #443921",
" <.	c #463C1E",
".<.	c #AC5C30",
"+<.	c #7F5D48",
"@<.	c #86634D",
"#<.	c #977159",
"$<.	c #936D5A",
"%<.	c #A07F68",
"&<.	c #AA886C",
"*<.	c #AE927B",
"=<.	c #C2A795",
"-<.	c #DEC2B3",
";<.	c #EBCDC1",
"><.	c #ECD0C3",
",<.	c #EAC8AD",
"'<.	c #EECCB4",
")<.	c #EDC9AB",
"!<.	c #ECC5A5",
"~<.	c #DFB188",
"{<.	c #D89F6B",
"]<.	c #D29B69",
"^<.	c #D6A47C",
"/<.	c #E5BCA0",
"(<.	c #EFCAB5",
"_<.	c #EDD2C2",
":<.	c #EDCEB8",
"<<.	c #F1D0B8",
"[<.	c #EDCDB8",
"}<.	c #EBC4A5",
"|<.	c #E7C1A6",
"1<.	c #E6C0A5",
"2<.	c #EBCCB4",
"3<.	c #E7C3A6",
"4<.	c #E6BEA0",
"5<.	c #EBC4A0",
"6<.	c #E8C19E",
"7<.	c #D6A373",
"8<.	c #CD9660",
"9<.	c #BE8754",
"0<.	c #AC764A",
"a<.	c #B47848",
"b<.	c #B77B47",
"c<.	c #BC7E47",
"d<.	c #B3753F",
"e<.	c #AD7242",
"f<.	c #9A613A",
"g<.	c #754023",
"h<.	c #734226",
"i<.	c #754127",
"j<.	c #733D25",
"k<.	c #733F25",
"l<.	c #6C3C22",
"m<.	c #6B3A20",
"n<.	c #6A3C22",
"o<.	c #824E2E",
"p<.	c #A66E40",
"q<.	c #B37741",
"r<.	c #B1733C",
"s<.	c #AF6F3A",
"t<.	c #A45B2E",
"u<.	c #A56633",
"v<.	c #A96A34",
"w<.	c #A76934",
"x<.	c #B1743D",
"y<.	c #AA6831",
"z<.	c #9A542B",
"A<.	c #AF6E35",
"B<.	c #C28347",
"C<.	c #BA7C41",
"D<.	c #9F5E2D",
"E<.	c #B2733A",
"F<.	c #C08145",
"G<.	c #C78B52",
"H<.	c #B98145",
"I<.	c #BB7D46",
"J<.	c #CE9154",
"K<.	c #D69C63",
"L<.	c #D0965D",
"M<.	c #CC9357",
"N<.	c #CE935B",
"O<.	c #DCA36B",
"P<.	c #C98F55",
"Q<.	c #C68C56",
"R<.	c #C07F54",
"S<.	c #DB7959",
"T<.	c #DC3B2F",
"U<.	c #D9332A",
"V<.	c #DC3427",
"W<.	c #D42F26",
"X<.	c #D4332E",
"Y<.	c #C8372F",
"Z<.	c #C36331",
"`<.	c #B9711F",
" [.	c #B16309",
".[.	c #B73811",
"+[.	c #B93C10",
"@[.	c #BE3D0E",
"#[.	c #C03D0F",
"$[.	c #C13A11",
"%[.	c #C4291B",
"&[.	c #C5291B",
"*[.	c #BA3115",
"=[.	c #C33F11",
"-[.	c #C7430F",
";[.	c #BC2618",
">[.	c #AD2617",
",[.	c #901C12",
"'[.	c #C32119",
")[.	c #C82A1E",
"![.	c #CD2E1E",
"~[.	c #EE462B",
"{[.	c #D5512D",
"][.	c #74562E",
"^[.	c #545020",
"/[.	c #433E1A",
"([.	c #3F381F",
"_[.	c #3C371E",
":[.	c #3D371E",
"<[.	c #3D381D",
"[[.	c #3B371F",
"}[.	c #383720",
"|[.	c #383721",
"1[.	c #38361B",
"2[.	c #38371F",
"3[.	c #3D3725",
"4[.	c #3C3723",
"5[.	c #453B1D",
"6[.	c #AD5D33",
"7[.	c #956850",
"8[.	c #956951",
"9[.	c #956950",
"0[.	c #927462",
"a[.	c #A98E7A",
"b[.	c #C2A592",
"c[.	c #CCB1A3",
"d[.	c #E4C7B3",
"e[.	c #ECCFC2",
"f[.	c #EECEBA",
"g[.	c #EECBB1",
"h[.	c #EDCAB0",
"i[.	c #EECBAE",
"j[.	c #ECC9AE",
"k[.	c #E3BEA0",
"l[.	c #E5B690",
"m[.	c #D9A273",
"n[.	c #D39962",
"o[.	c #E3BCA3",
"p[.	c #EBCDBE",
"q[.	c #F0D4C6",
"r[.	c #EDD1BE",
"s[.	c #EDD0BC",
"t[.	c #EACAB0",
"u[.	c #ECCBB4",
"v[.	c #E4C3AA",
"w[.	c #EBC9AE",
"x[.	c #E6BE9E",
"y[.	c #E3B38A",
"z[.	c #DDA977",
"A[.	c #D59D69",
"B[.	c #CA9360",
"C[.	c #9C643C",
"D[.	c #B37A4C",
"E[.	c #B67A48",
"F[.	c #BB7F4A",
"G[.	c #C98D53",
"H[.	c #C3884A",
"I[.	c #B27946",
"J[.	c #6F3E25",
"K[.	c #723C24",
"L[.	c #723D25",
"M[.	c #6F3F22",
"N[.	c #794828",
"O[.	c #6B3A21",
"P[.	c #6C4025",
"Q[.	c #6F3F25",
"R[.	c #935C37",
"S[.	c #B47D4A",
"T[.	c #C08C50",
"U[.	c #B77A40",
"V[.	c #BF834C",
"W[.	c #B07036",
"X[.	c #B16D38",
"Y[.	c #B67D43",
"Z[.	c #AB6D35",
"`[.	c #B87E44",
" }.	c #A86832",
".}.	c #A0592B",
"+}.	c #B16D35",
"@}.	c #C08247",
"#}.	c #BE8147",
"$}.	c #A9602E",
"%}.	c #BD7D41",
"&}.	c #CA8C50",
"*}.	c #C78A50",
"=}.	c #BD874B",
"-}.	c #BB7B40",
";}.	c #DAA267",
">}.	c #D0975D",
",}.	c #CB9156",
"'}.	c #D9A068",
")}.	c #D39960",
"!}.	c #C48850",
"~}.	c #CB8857",
"{}.	c #D76D4B",
"]}.	c #DB5644",
"^}.	c #E13E34",
"/}.	c #E43D2A",
"(}.	c #D93327",
"_}.	c #DF3627",
":}.	c #D53B2F",
"<}.	c #CC9955",
"[}.	c #D2BC52",
"}}.	c #B17917",
"|}.	c #B63F10",
"1}.	c #BD410E",
"2}.	c #BE460C",
"3}.	c #C43F0C",
"4}.	c #C2410D",
"5}.	c #C53714",
"6}.	c #C02819",
"7}.	c #B72D15",
"8}.	c #A82819",
"9}.	c #C72A1D",
"0}.	c #D43024",
"a}.	c #D1512B",
"b}.	c #5A3921",
"c}.	c #39351B",
"d}.	c #38361C",
"e}.	c #362F22",
"f}.	c #373323",
"g}.	c #383623",
"h}.	c #383724",
"i}.	c #363220",
"j}.	c #393724",
"k}.	c #38361E",
"l}.	c #39371F",
"m}.	c #443D1C",
"n}.	c #AB5A2A",
"o}.	c #A27757",
"p}.	c #917564",
"q}.	c #977560",
"r}.	c #B49C8E",
"s}.	c #CBB1A4",
"t}.	c #D1B6A8",
"u}.	c #E8CAB9",
"v}.	c #EDCFC1",
"w}.	c #EDCEBE",
"x}.	c #EDCDB7",
"y}.	c #E4B289",
"z}.	c #D79E67",
"A}.	c #CC996B",
"B}.	c #DDBFA7",
"C}.	c #EACBB9",
"D}.	c #EECDB6",
"E}.	c #ECC8A9",
"F}.	c #EACBB3",
"G}.	c #E7C1A4",
"H}.	c #E7C09F",
"I}.	c #DFAC7E",
"J}.	c #D8A270",
"K}.	c #D29A65",
"L}.	c #C98F58",
"M}.	c #B77E4F",
"N}.	c #89532D",
"O}.	c #8B5630",
"P}.	c #A76F46",
"Q}.	c #B47A4C",
"R}.	c #B67A49",
"S}.	c #B87B47",
"T}.	c #C5884E",
"U}.	c #C4894C",
"V}.	c #B17644",
"W}.	c #6D3C23",
"X}.	c #6C3C23",
"Y}.	c #69391F",
"Z}.	c #67381C",
"`}.	c #683A1E",
" |.	c #62381D",
".|.	c #683C22",
"+|.	c #754227",
"@|.	c #BF8250",
"#|.	c #BD834A",
"$|.	c #B6773C",
"%|.	c #BF8249",
"&|.	c #B6793F",
"*|.	c #C58B50",
"=|.	c #AB6731",
"-|.	c #A15B28",
";|.	c #AE6A32",
">|.	c #B97A3F",
",|.	c #C38448",
"'|.	c #C88C4E",
")|.	c #C5864B",
"!|.	c #BE8247",
"~|.	c #D79D61",
"{|.	c #DCA56B",
"]|.	c #D3985E",
"^|.	c #CF955E",
"/|.	c #D49C62",
"(|.	c #C68A55",
"_|.	c #CC9362",
":|.	c #CA704B",
"<|.	c #DD503F",
"[|.	c #DA3730",
"}|.	c #E6412B",
"||.	c #DD3926",
"1|.	c #D93329",
"2|.	c #D9382C",
"3|.	c #D59950",
"4|.	c #EDE973",
"5|.	c #DAB244",
"6|.	c #BB7C06",
"7|.	c #B16209",
"8|.	c #B93A10",
"9|.	c #B93911",
"0|.	c #C4400F",
"a|.	c #C64112",
"b|.	c #C74213",
"c|.	c #CA3617",
"d|.	c #C2281A",
"e|.	c #C13D0F",
"f|.	c #BD4411",
"g|.	c #CE5B22",
"h|.	c #B82E15",
"i|.	c #A82618",
"j|.	c #951D12",
"k|.	c #C02218",
"l|.	c #D12E23",
"m|.	c #D54C2F",
"n|.	c #623D25",
"o|.	c #3A341C",
"p|.	c #37351B",
"q|.	c #373220",
"r|.	c #383722",
"s|.	c #373522",
"t|.	c #383622",
"u|.	c #3A3723",
"v|.	c #413B24",
"w|.	c #4A4327",
"x|.	c #4F4326",
"y|.	c #B15E2B",
"z|.	c #9E826E",
"A|.	c #AE9584",
"B|.	c #C2A99D",
"C|.	c #CDB3A8",
"D|.	c #D8BAAC",
"E|.	c #E6C9B6",
"F|.	c #ECCDBE",
"G|.	c #EED1C0",
"H|.	c #E2B792",
"I|.	c #D7AC87",
"J|.	c #E4C0A3",
"K|.	c #EFCBAF",
"L|.	c #EDCBB0",
"M|.	c #EFCCB4",
"N|.	c #ECCDB5",
"O|.	c #ECD1B9",
"P|.	c #EDD0C0",
"Q|.	c #E8C7AF",
"R|.	c #E8C8B2",
"S|.	c #E8C19F",
"T|.	c #E9C0A2",
"U|.	c #E8BE9B",
"V|.	c #DFB38C",
"W|.	c #D69F67",
"X|.	c #BF8953",
"Y|.	c #B17447",
"Z|.	c #A76A3C",
"`|.	c #AF7043",
" 1.	c #A4683B",
".1.	c #B47B4E",
"+1.	c #B57B4E",
"@1.	c #B98253",
"#1.	c #BC8353",
"$1.	c #AF774C",
"%1.	c #6E3E25",
"&1.	c #6A3C23",
"*1.	c #673B21",
"=1.	c #C78D55",
"-1.	c #D89E69",
";1.	c #D1965F",
">1.	c #C88C53",
",1.	c #B87A41",
"'1.	c #C78A4E",
")1.	c #BD8045",
"!1.	c #C98E53",
"~1.	c #B07037",
"{1.	c #A25E2D",
"]1.	c #A6612F",
"^1.	c #C38547",
"/1.	c #B27236",
"(1.	c #C88A4B",
"_1.	c #CB8D4D",
":1.	c #C98B4C",
"<1.	c #B6793B",
"[1.	c #C48649",
"}1.	c #D89E63",
"|1.	c #DAA268",
"11.	c #D5985D",
"21.	c #CC9156",
"31.	c #D9A268",
"41.	c #DBA369",
"51.	c #C28750",
"61.	c #C58A56",
"71.	c #CD8255",
"81.	c #C13623",
"91.	c #DA3728",
"01.	c #ED5133",
"a1.	c #ED4D31",
"b1.	c #DE403C",
"c1.	c #D75141",
"d1.	c #E1874C",
"e1.	c #ECE575",
"f1.	c #C6A127",
"g1.	c #B35B0A",
"h1.	c #BB410E",
"i1.	c #C0420F",
"j1.	c #C24211",
"k1.	c #B93D11",
"l1.	c #CC4112",
"m1.	c #CC3817",
"n1.	c #C3291A",
"o1.	c #B82C15",
"p1.	c #C13E11",
"q1.	c #C34012",
"r1.	c #C33E0F",
"s1.	c #C74514",
"t1.	c #BF3C0F",
"u1.	c #C23F0D",
"v1.	c #BF3F12",
"w1.	c #CB4317",
"x1.	c #A62416",
"y1.	c #911C11",
"z1.	c #D82E22",
"A1.	c #D84E2D",
"B1.	c #593B1E",
"C1.	c #39361D",
"D1.	c #3C3721",
"E1.	c #373322",
"F1.	c #3B3720",
"G1.	c #483821",
"H1.	c #56371F",
"I1.	c #523C24",
"J1.	c #523C23",
"K1.	c #5E462C",
"L1.	c #5E492A",
"M1.	c #644B31",
"N1.	c #6D5534",
"O1.	c #BF7844",
"P1.	c #F97421",
"Q1.	c #F87127",
"R1.	c #C5AB9B",
"S1.	c #CDB2A8",
"T1.	c #CDB2A6",
"U1.	c #DFBDAD",
"V1.	c #EECDB8",
"W1.	c #EDD0C1",
"X1.	c #EFD1BB",
"Y1.	c #EED1BA",
"Z1.	c #D4A881",
"`1.	c #E5C3A9",
" 2.	c #EBD0BE",
".2.	c #EED3C4",
"+2.	c #EED5C7",
"@2.	c #EFD1C2",
"#2.	c #F0CAAA",
"$2.	c #F1C9A9",
"%2.	c #F0C9A8",
"&2.	c #EDD1B8",
"*2.	c #EDD2C1",
"=2.	c #E9C8B1",
"-2.	c #E9C9B2",
";2.	c #E7C0A4",
">2.	c #E6BF9F",
",2.	c #DBA76D",
"'2.	c #D39A5F",
")2.	c #B6864F",
"!2.	c #AF7346",
"~2.	c #B17146",
"{2.	c #A86E44",
"]2.	c #8D552F",
"^2.	c #7F512F",
"/2.	c #815934",
"(2.	c #A97248",
"_2.	c #AC774B",
":2.	c #B07B51",
"<2.	c #8E5731",
"[2.	c #6B3F25",
"}2.	c #673D22",
"|2.	c #784527",
"12.	c #CB915A",
"22.	c #D79D67",
"32.	c #D69D67",
"42.	c #B87A3F",
"52.	c #BF8147",
"62.	c #CD9156",
"72.	c #B4753A",
"82.	c #A85A2D",
"92.	c #AD6530",
"02.	c #B7773D",
"a2.	c #B16E35",
"b2.	c #BC7D41",
"c2.	c #CB8C4C",
"d2.	c #CF8F4E",
"e2.	c #CD8D4D",
"f2.	c #BC8042",
"g2.	c #CB8E4F",
"h2.	c #D79C61",
"i2.	c #D79E64",
"j2.	c #D49759",
"k2.	c #D3975B",
"l2.	c #D3985C",
"m2.	c #DAA368",
"n2.	c #DBA36A",
"o2.	c #C48851",
"p2.	c #C58951",
"q2.	c #C88D58",
"r2.	c #C2784D",
"s2.	c #E18A62",
"t2.	c #F05D32",
"u2.	c #E7603D",
"v2.	c #E46C46",
"w2.	c #DA7A4E",
"x2.	c #DCA64C",
"y2.	c #EEEA74",
"z2.	c #E0AE42",
"A2.	c #B56B0F",
"B2.	c #C15A11",
"C2.	c #C13E0E",
"D2.	c #BB3911",
"E2.	c #C14411",
"F2.	c #C34212",
"G2.	c #D14312",
"H2.	c #D03919",
"I2.	c #BA2C16",
"J2.	c #BD3315",
"K2.	c #B93712",
"L2.	c #C43F24",
"M2.	c #C13418",
"N2.	c #AB2617",
"O2.	c #A42114",
"P2.	c #A72316",
"Q2.	c #A62316",
"R2.	c #A52215",
"S2.	c #A12416",
"T2.	c #981F13",
"U2.	c #9D2417",
"V2.	c #952014",
"W2.	c #C22118",
"X2.	c #C62A1B",
"Y2.	c #D62E21",
"Z2.	c #D1442E",
"`2.	c #4D3519",
" 3.	c #3D3721",
".3.	c #3C3823",
"+3.	c #39371C",
"@3.	c #38361D",
"#3.	c #54371A",
"$3.	c #AA3521",
"%3.	c #BD3123",
"&3.	c #BB3123",
"*3.	c #BD3926",
"=3.	c #BF3F27",
"-3.	c #BF4028",
";3.	c #BD3A25",
">3.	c #B93923",
",3.	c #C9573B",
"'3.	c #DD683A",
")3.	c #E45720",
"!3.	c #E25620",
"~3.	c #E05520",
"{3.	c #E45423",
"]3.	c #ED5726",
"^3.	c #CDB2A7",
"/3.	c #D8B8A9",
"(3.	c #E4BDAB",
"_3.	c #ECC9B4",
":3.	c #ECCFC1",
"<3.	c #ECD2BF",
"[3.	c #E9C8AF",
"}3.	c #CC976A",
"|3.	c #D3A780",
"13.	c #E2C0A2",
"23.	c #EDD7C8",
"33.	c #ECD3C2",
"43.	c #EECAAB",
"53.	c #F0C7A7",
"63.	c #F0C8A8",
"73.	c #E9C6AB",
"83.	c #EAC5A3",
"93.	c #E4C0A1",
"03.	c #E9C2A2",
"a3.	c #E8C1A2",
"b3.	c #E3B086",
"c3.	c #DEA872",
"d3.	c #CA925D",
"e3.	c #C38954",
"f3.	c #B6814E",
"g3.	c #B47246",
"h3.	c #B36E45",
"i3.	c #A76E45",
"j3.	c #9C643A",
"k3.	c #77482A",
"l3.	c #70532F",
"m3.	c #7D5432",
"n3.	c #9C6840",
"o3.	c #774629",
"p3.	c #714227",
"q3.	c #704126",
"r3.	c #6A3F25",
"s3.	c #B17542",
"t3.	c #D29860",
"u3.	c #D2985E",
"v3.	c #C48953",
"w3.	c #C58B4D",
"x3.	c #C1854C",
"y3.	c #B8783F",
"z3.	c #A95A2B",
"A3.	c #AB6931",
"B3.	c #C8884A",
"C3.	c #BD7D40",
"D3.	c #B47439",
"E3.	c #BE7E41",
"F3.	c #CC8D4E",
"G3.	c #D09254",
"H3.	c #D69C60",
"I3.	c #D69B5F",
"J3.	c #D79C5F",
"K3.	c #DAA367",
"L3.	c #D89F66",
"M3.	c #C78D53",
"N3.	c #BB7F4B",
"O3.	c #CF9661",
"P3.	c #D67D4F",
"Q3.	c #EC7D3E",
"R3.	c #F56C1F",
"S3.	c #F26324",
"T3.	c #EF5F27",
"U3.	c #EA652D",
"V3.	c #EC6D29",
"W3.	c #EF7C2E",
"X3.	c #EC6623",
"Y3.	c #D5541A",
"Z3.	c #C85E1A",
"`3.	c #C75515",
" 4.	c #C35514",
".4.	c #BA5C0D",
"+4.	c #B76209",
"@4.	c #CC4F18",
"#4.	c #CF3E14",
"$4.	c #CB3816",
"%4.	c #CD3617",
"&4.	c #CD3817",
"*4.	c #CE3817",
"=4.	c #CF3916",
"-4.	c #CC3419",
";4.	c #BB2B17",
">4.	c #B92817",
",4.	c #B22B16",
"'4.	c #952115",
")4.	c #C02318",
"!4.	c #DE2E21",
"~4.	c #ED4029",
"{4.	c #CB432F",
"]4.	c #4F3518",
"^4.	c #3B381D",
"/4.	c #5A3617",
"(4.	c #BD2B1F",
"_4.	c #D83027",
":4.	c #E02F23",
"<4.	c #E52F1F",
"[4.	c #D93024",
"}4.	c #D53126",
"|4.	c #D63125",
"14.	c #D73026",
"24.	c #DF3426",
"34.	c #D7B6A8",
"44.	c #DEBDAD",
"54.	c #E5C4B1",
"64.	c #EFCDB9",
"74.	c #EBCCB8",
"84.	c #EED1C2",
"94.	c #EBCDBC",
"04.	c #DCA97E",
"a4.	c #D19A6B",
"b4.	c #D3A379",
"c4.	c #DDB897",
"d4.	c #EED3C3",
"e4.	c #EDD6C7",
"f4.	c #F0CCB5",
"g4.	c #F2C9A9",
"h4.	c #EDCBB2",
"i4.	c #ECCFC3",
"j4.	c #EBD0BF",
"k4.	c #E7C1A9",
"l4.	c #E9C6B0",
"m4.	c #E8C4A8",
"n4.	c #E7C2A6",
"o4.	c #E6BD9C",
"p4.	c #E4B68F",
"q4.	c #D39D69",
"r4.	c #C88F5D",
"s4.	c #BB8352",
"t4.	c #B57447",
"u4.	c #A86F45",
"v4.	c #8D542F",
"w4.	c #734729",
"x4.	c #77492A",
"y4.	c #724227",
"z4.	c #6A3F24",
"A4.	c #734C2C",
"B4.	c #855633",
"C4.	c #BB854F",
"D4.	c #D39A62",
"E4.	c #D8A168",
"F4.	c #D49B62",
"G4.	c #C88F57",
"H4.	c #B77B44",
"I4.	c #C5884C",
"J4.	c #BF7F44",
"K4.	c #CC9155",
"L4.	c #A75A2B",
"M4.	c #A9642E",
"N4.	c #C6884C",
"O4.	c #B27338",
"P4.	c #BE8043",
"Q4.	c #CE8F4D",
"R4.	c #CA8C4C",
"S4.	c #D79D63",
"T4.	c #D4975A",
"U4.	c #D09458",
"V4.	c #D69C61",
"W4.	c #D9A064",
"X4.	c #C88C52",
"Y4.	c #BC804C",
"Z4.	c #B87F50",
"`4.	c #CA915C",
" 5.	c #D57647",
".5.	c #EB5E1A",
"+5.	c #F46B15",
"@5.	c #F36616",
"#5.	c #F36416",
"$5.	c #F26316",
"%5.	c #EF5419",
"&5.	c #EF5119",
"*5.	c #ED5018",
"=5.	c #CD420F",
"-5.	c #C63D0E",
";5.	c #CE3717",
">5.	c #CA2E1C",
",5.	c #C72C1A",
"'5.	c #CA3019",
")5.	c #C92F19",
"!5.	c #CB3318",
"~5.	c #CA3219",
"{5.	c #C82D1A",
"]5.	c #C0281A",
"^5.	c #C3281A",
"/5.	c #901B11",
"(5.	c #8D1B11",
"_5.	c #891B11",
":5.	c #8C1B11",
"<5.	c #A72114",
"[5.	c #C4271A",
"}5.	c #DF2F24",
"|5.	c #CC5329",
"15.	c #503518",
"25.	c #3D3920",
"35.	c #5F391C",
"45.	c #A72618",
"55.	c #D32F25",
"65.	c #E13026",
"75.	c #D73027",
"85.	c #DE2F25",
"95.	c #DF3026",
"05.	c #DD2F25",
"a5.	c #E03326",
"b5.	c #D93027",
"c5.	c #DA3027",
"d5.	c #DC3126",
"e5.	c #E83825",
"f5.	c #E8BFAE",
"g5.	c #E8C9B5",
"h5.	c #EBCCB7",
"i5.	c #EED2C4",
"j5.	c #EDD1C4",
"k5.	c #EBCAB2",
"l5.	c #D9A67A",
"m5.	c #CF9968",
"n5.	c #DDB18C",
"o5.	c #EAC9B0",
"p5.	c #EDD6C8",
"q5.	c #EBCDBA",
"r5.	c #EDCFBA",
"s5.	c #EFCAAA",
"t5.	c #EDCCB4",
"u5.	c #E8C3A9",
"v5.	c #E9C5AB",
"w5.	c #EAC8A9",
"x5.	c #E2BD9F",
"y5.	c #E8C1A4",
"z5.	c #DCAB80",
"A5.	c #CC9666",
"B5.	c #C28B59",
"C5.	c #B58451",
"D5.	c #693D24",
"E5.	c #704227",
"F5.	c #744B2B",
"G5.	c #77522F",
"H5.	c #BB854E",
"I5.	c #B97B44",
"J5.	c #C3864B",
"K5.	c #BB7D43",
"L5.	c #C58A50",
"M5.	c #B87A40",
"N5.	c #A95D2C",
"O5.	c #AA6730",
"P5.	c #C38447",
"Q5.	c #B27237",
"R5.	c #C18345",
"S5.	c #CE9050",
"T5.	c #D19150",
"U5.	c #CF9050",
"V5.	c #D69B60",
"W5.	c #CD9358",
"X5.	c #CE9458",
"Y5.	c #DCA56A",
"Z5.	c #CA9056",
"`5.	c #BC814A",
" 6.	c #B97D4C",
".6.	c #C18852",
"+6.	c #D67748",
"@6.	c #E85C1B",
"#6.	c #F36816",
"$6.	c #F15C18",
"%6.	c #F26017",
"&6.	c #DB4913",
"*6.	c #CB410E",
"=6.	c #CF361B",
"-6.	c #921D12",
";6.	c #871B11",
">6.	c #751A12",
",6.	c #7B1A12",
"'6.	c #B12517",
")6.	c #C22319",
"!6.	c #C5251A",
"~6.	c #D83026",
"{6.	c #CA422C",
"]6.	c #4C3419",
"^6.	c #363217",
"/6.	c #342D11",
"(6.	c #393318",
"_6.	c #423A21",
":6.	c #4D471C",
"<6.	c #774F21",
"[6.	c #AD2F1B",
"}6.	c #DF2F25",
"|6.	c #E13125",
"16.	c #D92F24",
"26.	c #E03125",
"36.	c #D63026",
"46.	c #D63025",
"56.	c #E03126",
"66.	c #E7C3AE",
"76.	c #E7CAB4",
"86.	c #EBCDBB",
"96.	c #ECCBB5",
"06.	c #E7C0A5",
"a6.	c #DCA97A",
"b6.	c #D49C66",
"c6.	c #DCAD86",
"d6.	c #EFD5C7",
"e6.	c #E6CAB5",
"f6.	c #E8CBB7",
"g6.	c #EBD0BB",
"h6.	c #ECD2BB",
"i6.	c #EDD1C0",
"j6.	c #EFCCB5",
"k6.	c #E8C5AE",
"l6.	c #EAC3A8",
"m6.	c #DAA97A",
"n6.	c #C8905E",
"o6.	c #BB8758",
"p6.	c #B27B51",
"q6.	c #81512F",
"r6.	c #7A4D2C",
"s6.	c #714A2A",
"t6.	c #714E2D",
"u6.	c #724D2C",
"v6.	c #885531",
"w6.	c #9A653F",
"x6.	c #BD8650",
"y6.	c #D79F65",
"z6.	c #D9A169",
"A6.	c #DAA169",
"B6.	c #D59C64",
"C6.	c #D1975F",
"D6.	c #BD7E45",
"E6.	c #C28549",
"F6.	c #BC7D44",
"G6.	c #BC8044",
"H6.	c #AB602E",
"I6.	c #AB6730",
"J6.	c #B97A40",
"K6.	c #D69B5D",
"L6.	c #D39656",
"M6.	c #CC8D4C",
"N6.	c #D09151",
"O6.	c #D49A60",
"P6.	c #CE945D",
"Q6.	c #CC9358",
"R6.	c #D89E62",
"S6.	c #D79E63",
"T6.	c #D8A065",
"U6.	c #C2874E",
"V6.	c #B27543",
"W6.	c #C08452",
"X6.	c #CE8253",
"Y6.	c #E05E2A",
"Z6.	c #F46A15",
"`6.	c #F15D17",
" 7.	c #F36516",
".7.	c #E95117",
"+7.	c #D14212",
"@7.	c #D24510",
"#7.	c #D14211",
"$7.	c #C62B1B",
"%7.	c #952114",
"&7.	c #8E1B11",
"*7.	c #B42516",
"=7.	c #BF2218",
"-7.	c #C4231A",
";7.	c #EE412A",
">7.	c #C75226",
",7.	c #4D331D",
"'7.	c #372F16",
")7.	c #423818",
"!7.	c #54441D",
"~7.	c #66521D",
"{7.	c #6D6523",
"]7.	c #82612A",
"^7.	c #B43F22",
"/7.	c #DB2F26",
"(7.	c #DE2F26",
"_7.	c #E12F26",
":7.	c #DA3127",
"<7.	c #E2BEA9",
"[7.	c #EDD1BC",
"}7.	c #ECD3C5",
"|7.	c #E8C4AA",
"17.	c #D59C65",
"27.	c #D19A69",
"37.	c #EDD3C2",
"47.	c #E8CCB8",
"57.	c #E9CBB7",
"67.	c #EED2C3",
"77.	c #F1CAAB",
"87.	c #F1C9AA",
"97.	c #F1C8A7",
"07.	c #F1C8A8",
"a7.	c #EECFB9",
"b7.	c #E9C3A6",
"c7.	c #E7BDA1",
"d7.	c #E0BA95",
"e7.	c #DFB997",
"f7.	c #CE9666",
"g7.	c #B68657",
"h7.	c #B58053",
"i7.	c #764829",
"j7.	c #7D512F",
"k7.	c #7C4D2D",
"l7.	c #895330",
"m7.	c #95633E",
"n7.	c #8F5935",
"o7.	c #9B653F",
"p7.	c #A26C43",
"q7.	c #C48B54",
"r7.	c #DAA36B",
"s7.	c #DAA26B",
"t7.	c #D69C64",
"u7.	c #D19760",
"v7.	c #BE8148",
"w7.	c #C3864A",
"x7.	c #BF8043",
"y7.	c #C6894E",
"z7.	c #C28244",
"A7.	c #AC6630",
"B7.	c #AB6630",
"C7.	c #C5884B",
"D7.	c #B7783C",
"E7.	c #DAA064",
"F7.	c #D39A57",
"G7.	c #D19151",
"H7.	c #D19251",
"I7.	c #D59A5D",
"J7.	c #D0955B",
"K7.	c #CB9058",
"L7.	c #D1965A",
"M7.	c #D8A064",
"N7.	c #D9A065",
"O7.	c #CE9256",
"P7.	c #C2854B",
"Q7.	c #BB7E46",
"R7.	c #BF844F",
"S7.	c #CC9561",
"T7.	c #D87A41",
"U7.	c #F16B1B",
"V7.	c #F06815",
"W7.	c #EF611A",
"X7.	c #F16917",
"Y7.	c #F16218",
"Z7.	c #EF5C1D",
"`7.	c #D44513",
" 8.	c #D14112",
".8.	c #CF4310",
"+8.	c #D24311",
"@8.	c #CE351A",
"#8.	c #C72A1C",
"$8.	c #BD2719",
"%8.	c #B92618",
"&8.	c #931E13",
"*8.	c #8A1B11",
"=8.	c #7A1A12",
"-8.	c #861B11",
";8.	c #B42517",
">8.	c #C5241A",
",8.	c #DA3026",
"'8.	c #EB4029",
")8.	c #C34F23",
"!8.	c #533717",
"~8.	c #53421E",
"{8.	c #6A5522",
"]8.	c #7D6C25",
"^8.	c #7E6D25",
"/8.	c #835D2A",
"(8.	c #A94523",
"_8.	c #DE3028",
":8.	c #E32F26",
"<8.	c #E42E25",
"[8.	c #E62E25",
"}8.	c #DB2F27",
"|8.	c #D93026",
"18.	c #DC2F25",
"28.	c #DB2F25",
"38.	c #DF2F26",
"48.	c #E3BEA5",
"58.	c #E7CBB3",
"68.	c #EACDB6",
"78.	c #ECCFBF",
"88.	c #EBCDB9",
"98.	c #ECCEB8",
"08.	c #EBCEBD",
"a8.	c #EACDBD",
"b8.	c #E9CBB0",
"c8.	c #DDAE83",
"d8.	c #DAA471",
"e8.	c #D59D6A",
"f8.	c #E9C8B0",
"g8.	c #EACCBA",
"h8.	c #F0CCB0",
"i8.	c #F0C8A5",
"j8.	c #F0C7A5",
"k8.	c #E7BFA4",
"l8.	c #E7BB99",
"m8.	c #E8C0A0",
"n8.	c #E7BEA3",
"o8.	c #E3BFA2",
"p8.	c #E1BB9B",
"q8.	c #E0B895",
"r8.	c #C39064",
"s8.	c #B48055",
"t8.	c #AD784D",
"u8.	c #8D5934",
"v8.	c #6E4327",
"w8.	c #905B35",
"x8.	c #C48954",
"y8.	c #DAA470",
"z8.	c #DFA972",
"A8.	c #D59B65",
"B8.	c #D39963",
"C8.	c #C4894F",
"D8.	c #C18449",
"E8.	c #BC7E45",
"F8.	c #BF8648",
"G8.	c #C28448",
"H8.	c #AE6932",
"I8.	c #AB622E",
"J8.	c #D19559",
"K8.	c #CB8F51",
"L8.	c #BC7C40",
"M8.	c #DBA267",
"N8.	c #D5995C",
"O8.	c #D39455",
"P8.	c #D4995B",
"Q8.	c #CD9154",
"R8.	c #C68A51",
"S8.	c #D39759",
"T8.	c #D19659",
"U8.	c #DBA368",
"V8.	c #D89F63",
"W8.	c #D4995D",
"X8.	c #C98D50",
"Y8.	c #C78A52",
"Z8.	c #BE834F",
"`8.	c #CA8F5B",
" 9.	c #CA8D50",
".9.	c #CA982B",
"+9.	c #B1801B",
"@9.	c #AF7920",
"#9.	c #B27C29",
"$9.	c #C07E37",
"%9.	c #AF7032",
"&9.	c #9D5320",
"*9.	c #A14C1E",
"=9.	c #A0481D",
"-9.	c #A44815",
";9.	c #9E3D17",
">9.	c #A44214",
",9.	c #A54612",
"'9.	c #A7431A",
")9.	c #A34119",
"!9.	c #A23F19",
"~9.	c #A63E16",
"{9.	c #A43D16",
"]9.	c #A73C16",
"^9.	c #AD3317",
"/9.	c #AC3218",
"(9.	c #AE391E",
"_9.	c #B93D24",
":9.	c #B73820",
"<9.	c #B32D1C",
"[9.	c #B52F1B",
"}9.	c #B8311A",
"|9.	c #B52F1A",
"19.	c #AD2C1B",
"29.	c #AB2B1B",
"39.	c #AB2C1B",
"49.	c #AE2F1C",
"59.	c #AF2C1B",
"69.	c #AF301A",
"79.	c #A82F1C",
"89.	c #A82E19",
"99.	c #AD2C19",
"09.	c #B42D17",
"a9.	c #B02919",
"b9.	c #B72718",
"c9.	c #9E2617",
"d9.	c #982316",
"e9.	c #932014",
"f9.	c #882516",
"g9.	c #892616",
"h9.	c #8E2616",
"i9.	c #8A2616",
"j9.	c #922717",
"k9.	c #972216",
"l9.	c #942515",
"m9.	c #8F2312",
"n9.	c #9D2817",
"o9.	c #AF2719",
"p9.	c #B82E1B",
"q9.	c #BF291C",
"r9.	c #CC3320",
"s9.	c #DA4325",
"t9.	c #E04326",
"u9.	c #E54428",
"v9.	c #EA492C",
"w9.	c #EB4B2C",
"x9.	c #EB4C2C",
"y9.	c #E74F2B",
"z9.	c #BA5324",
"A9.	c #714B1D",
"B9.	c #755D23",
"C9.	c #7A6821",
"D9.	c #816E22",
"E9.	c #7C6A24",
"F9.	c #796820",
"G9.	c #776621",
"H9.	c #904F22",
"I9.	c #AE4321",
"J9.	c #A83F1E",
"K9.	c #A73E1E",
"L9.	c #A63E1F",
"M9.	c #A63E20",
"N9.	c #AC411D",
"O9.	c #AD411D",
"P9.	c #B1391D",
"Q9.	c #B4311D",
"R9.	c #B8311F",
"S9.	c #B8321E",
"T9.	c #BD351B",
"U9.	c #BE351B",
"V9.	c #E0BAA1",
"W9.	c #E4C6B1",
"X9.	c #ECD5C7",
"Y9.	c #ECD6C8",
"Z9.	c #EBCFB9",
"`9.	c #EFD0B6",
" 0.	c #EED2C5",
".0.	c #EBC8B1",
"+0.	c #E5B692",
"@0.	c #D8A577",
"#0.	c #D49D6C",
"$0.	c #EACCBB",
"%0.	c #EECEB6",
"&0.	c #EEC59D",
"*0.	c #F1C9A7",
"=0.	c #F1C8A6",
"-0.	c #EED0BA",
";0.	c #E7BD9C",
">0.	c #E9C1A0",
",0.	c #E8C0A4",
"'0.	c #EAC3A4",
")0.	c #E9C2A3",
"!0.	c #E4B48F",
"~0.	c #B37D54",
"{0.	c #B37B50",
"]0.	c #85512F",
"^0.	c #76492B",
"/0.	c #A1693F",
"(0.	c #9F6840",
"_0.	c #A36B44",
":0.	c #C38A56",
"<0.	c #DCA46C",
"[0.	c #DDAA78",
"}0.	c #E1A970",
"|0.	c #C98D51",
"10.	c #C08349",
"20.	c #C2854A",
"30.	c #B06933",
"40.	c #D19457",
"50.	c #BC7E41",
"60.	c #C88A4D",
"70.	c #D49758",
"80.	c #CB8F52",
"90.	c #CE9459",
"00.	c #D89F65",
"a0.	c #D9A267",
"b0.	c #C6894B",
"c0.	c #C48A55",
"d0.	c #C78D58",
"e0.	c #A0872E",
"f0.	c #847A22",
"g0.	c #786C23",
"h0.	c #5B511E",
"i0.	c #493E19",
"j0.	c #453A19",
"k0.	c #473B1B",
"l0.	c #49411D",
"m0.	c #483A1A",
"n0.	c #46381A",
"o0.	c #463919",
"p0.	c #423719",
"q0.	c #413719",
"r0.	c #40361B",
"s0.	c #3C361F",
"t0.	c #3C3620",
"u0.	c #3E361C",
"v0.	c #46381B",
"w0.	c #453819",
"x0.	c #49391A",
"y0.	c #4A391A",
"z0.	c #47381C",
"A0.	c #4A3A1D",
"B0.	c #4D391C",
"C0.	c #4A381D",
"D0.	c #4D361B",
"E0.	c #50371A",
"F0.	c #4F371A",
"G0.	c #4D361A",
"H0.	c #4E361A",
"I0.	c #51371A",
"J0.	c #51371B",
"K0.	c #52381C",
"L0.	c #5A3C22",
"M0.	c #5F3C23",
"N0.	c #5F3E22",
"O0.	c #5A3B20",
"P0.	c #603A1E",
"Q0.	c #5F3C1D",
"R0.	c #613D1A",
"S0.	c #603C1E",
"T0.	c #633D1F",
"U0.	c #673A1D",
"V0.	c #6C351C",
"W0.	c #6D351C",
"X0.	c #70381C",
"Y0.	c #753E1F",
"Z0.	c #77401E",
"`0.	c #6E391C",
" a.	c #6D381B",
".a.	c #61381C",
"+a.	c #603D1C",
"@a.	c #5F3A1B",
"#a.	c #6A4421",
"$a.	c #6C3F1D",
"%a.	c #76401D",
"&a.	c #76481C",
"*a.	c #80551E",
"=a.	c #865927",
"-a.	c #895427",
";a.	c #895620",
">a.	c #8E511F",
",a.	c #90511E",
"'a.	c #91501C",
")a.	c #92501A",
"!a.	c #945221",
"~a.	c #955022",
"{a.	c #954E1F",
"]a.	c #954D17",
"^a.	c #944D17",
"/a.	c #8D4F1B",
"(a.	c #8B541A",
"_a.	c #84681D",
":a.	c #816B1D",
"<a.	c #816C1F",
"[a.	c #816C22",
"}a.	c #7F6C23",
"|a.	c #786720",
"1a.	c #786321",
"2a.	c #7B6221",
"3a.	c #7A6222",
"4a.	c #7C6222",
"5a.	c #7A6122",
"6a.	c #7F6026",
"7a.	c #7C5A26",
"8a.	c #7B6025",
"9a.	c #7C6124",
"0a.	c #7A5E1B",
"aa.	c #7B5B24",
"ba.	c #825725",
"ca.	c #825925",
"da.	c #87571C",
"ea.	c #825B1F",
"fa.	c #E3BEA3",
"ga.	c #ECD4C4",
"ha.	c #ECD7C9",
"ia.	c #EBD7C8",
"ja.	c #EDCEBC",
"ka.	c #EDD4C6",
"la.	c #EAC5AA",
"ma.	c #E1B591",
"na.	c #D8A473",
"oa.	c #DEB592",
"pa.	c #E9C9B3",
"qa.	c #E6C9B5",
"ra.	c #EBCFC0",
"sa.	c #EECCB0",
"ta.	c #F0C8A6",
"ua.	c #EDD1BB",
"va.	c #E8C09F",
"wa.	c #EAC2A3",
"xa.	c #E7BFA2",
"ya.	c #E5C0A1",
"za.	c #E6BE99",
"Aa.	c #DFAC81",
"Ba.	c #CD9968",
"Ca.	c #BC8858",
"Da.	c #B47F54",
"Ea.	c #B37D53",
"Fa.	c #A26B41",
"Ga.	c #A06C43",
"Ha.	c #A26A41",
"Ia.	c #A16A43",
"Ja.	c #9D6841",
"Ka.	c #C78E5B",
"La.	c #DEAD7C",
"Ma.	c #D59D66",
"Na.	c #D49A63",
"Oa.	c #CA8C4D",
"Pa.	c #AD6D32",
"Qa.	c #D79B5F",
"Ra.	c #D3985B",
"Sa.	c #C08245",
"Ta.	c #C7884A",
"Ua.	c #DFA86E",
"Va.	c #CD8F4F",
"Wa.	c #C78B53",
"Xa.	c #CA9058",
"Ya.	c #D5985C",
"Za.	c #DAA266",
"`a.	c #CB8E51",
" b.	c #CB925E",
".b.	c #CE9864",
"+b.	c #8E6C37",
"@b.	c #4B401D",
"#b.	c #3C381D",
"$b.	c #393721",
"%b.	c #3A3721",
"&b.	c #3E3821",
"*b.	c #3A361C",
"=b.	c #3B371D",
"-b.	c #3C3A22",
";b.	c #393722",
">b.	c #39361F",
",b.	c #38371D",
"'b.	c #37351D",
")b.	c #36341C",
"!b.	c #3A3722",
"~b.	c #393720",
"{b.	c #38361F",
"]b.	c #3C3921",
"^b.	c #393820",
"/b.	c #39361B",
"(b.	c #443C1A",
"_b.	c #463C1A",
":b.	c #4F4622",
"<b.	c #534924",
"[b.	c #554A24",
"}b.	c #564B20",
"|b.	c #564B1B",
"1b.	c #574B1B",
"2b.	c #65531C",
"3b.	c #68561B",
"4b.	c #735F1D",
"5b.	c #7B6521",
"6b.	c #806B23",
"7b.	c #7F6B21",
"8b.	c #816C1E",
"9b.	c #816C1D",
"0b.	c #806C1E",
"ab.	c #7D6A1D",
"bb.	c #816C20",
"cb.	c #7E6122",
"db.	c #835526",
"eb.	c #8B5325",
"fb.	c #895F25",
"gb.	c #86641E",
"hb.	c #826C20",
"ib.	c #7C6B21",
"jb.	c #837024",
"kb.	c #806D22",
"lb.	c #7C6A20",
"mb.	c #796921",
"nb.	c #796A23",
"ob.	c #7A6A24",
"pb.	c #7C6B22",
"qb.	c #7E6B22",
"rb.	c #7E6B21",
"sb.	c #7B6A1F",
"tb.	c #7D6A20",
"ub.	c #7A6823",
"vb.	c #79681D",
"wb.	c #7C6A1F",
"xb.	c #7E6B24",
"yb.	c #7D6A22",
"zb.	c #7F6A1F",
"Ab.	c #7C691F",
"Bb.	c #E5C4AC",
"Cb.	c #EBCFBC",
"Db.	c #EAD0C0",
"Eb.	c #E9CCB9",
"Fb.	c #EDD2C3",
"Gb.	c #E1B896",
"Hb.	c #DAA776",
"Ib.	c #D99F63",
"Jb.	c #D49B64",
"Kb.	c #DFAE87",
"Lb.	c #EDCCB8",
"Mb.	c #EAD2C3",
"Nb.	c #EFD2BD",
"Ob.	c #EFCEB1",
"Pb.	c #F0CAAB",
"Qb.	c #F0CCB2",
"Rb.	c #EFCBB0",
"Sb.	c #EFCEB3",
"Tb.	c #F1D0B7",
"Ub.	c #F0D1B6",
"Vb.	c #EED1BB",
"Wb.	c #EBCAAF",
"Xb.	c #EFC9AB",
"Yb.	c #EFC8A8",
"Zb.	c #E8C2A1",
"`b.	c #E6C09F",
" c.	c #E6C1A1",
".c.	c #E3BC97",
"+c.	c #E0B893",
"@c.	c #DFB994",
"#c.	c #E7BF9D",
"$c.	c #E6BC9A",
"%c.	c #DFAF85",
"&c.	c #C99666",
"*c.	c #BD8A5D",
"=c.	c #B88356",
"-c.	c #B58354",
";c.	c #B17445",
">c.	c #AF7545",
",c.	c #9B643D",
"'c.	c #A77348",
")c.	c #A1693E",
"!c.	c #A46B42",
"~c.	c #A36B43",
"{c.	c #D8A26D",
"]c.	c #E3B487",
"^c.	c #DCA874",
"/c.	c #D0985E",
"(c.	c #C88C4F",
"_c.	c #C18348",
":c.	c #BF8145",
"<c.	c #A6672E",
"[c.	c #D4985B",
"}c.	c #C48648",
"|c.	c #DDA56A",
"1c.	c #E4AC73",
"2c.	c #E0AA6E",
"3c.	c #D59B5A",
"4c.	c #D69A5D",
"5c.	c #CC8D4D",
"6c.	c #CA9158",
"7c.	c #DDA56C",
"8c.	c #C68B54",
"9c.	c #CB9665",
"0c.	c #8F6844",
"ac.	c #473E27",
"bc.	c #38351C",
"cc.	c #383620",
"dc.	c #38351F",
"ec.	c #383723",
"fc.	c #373521",
"gc.	c #33301D",
"hc.	c #35321B",
"ic.	c #353420",
"jc.	c #373620",
"kc.	c #37351A",
"lc.	c #39371B",
"mc.	c #3E3C1E",
"nc.	c #403F1F",
"oc.	c #444221",
"pc.	c #4B4520",
"qc.	c #544D21",
"rc.	c #575022",
"sc.	c #5A5121",
"tc.	c #564B1C",
"uc.	c #5C4C1A",
"vc.	c #60571B",
"wc.	c #70611D",
"xc.	c #7D6A1E",
"yc.	c #826F21",
"zc.	c #806D1F",
"Ac.	c #887322",
"Bc.	c #877422",
"Cc.	c #857320",
"Dc.	c #867322",
"Ec.	c #847223",
"Fc.	c #847123",
"Gc.	c #857122",
"Hc.	c #877426",
"Ic.	c #847225",
"Jc.	c #836F26",
"Kc.	c #816D25",
"Lc.	c #7A681E",
"Mc.	c #7C681D",
"Nc.	c #826D21",
"Oc.	c #796A20",
"Pc.	c #7F6C21",
"Qc.	c #7A691E",
"Rc.	c #7A691F",
"Sc.	c #78681D",
"Tc.	c #78681E",
"Uc.	c #78671F",
"Vc.	c #776720",
"Wc.	c #776721",
"Xc.	c #776622",
"Yc.	c #776722",
"Zc.	c #786821",
"`c.	c #E3C6B0",
" d.	c #EACEBA",
".d.	c #E9CFB9",
"+d.	c #EBD0BC",
"@d.	c #EACEBF",
"#d.	c #EBD4C5",
"$d.	c #ECD4C6",
"%d.	c #ECD1C1",
"&d.	c #E9BF9F",
"*d.	c #E0AB7C",
"=d.	c #DBA269",
"-d.	c #E2BA9A",
";d.	c #E8C8B4",
">d.	c #E8CEB6",
",d.	c #EED4C4",
"'d.	c #EFD3BE",
")d.	c #F0D4C1",
"!d.	c #F0D3BF",
"~d.	c #EED0BD",
"{d.	c #F0D0BC",
"]d.	c #F0D1BF",
"^d.	c #EFD2C1",
"/d.	c #EED2BB",
"(d.	c #EFD2BA",
"_d.	c #F0D2BB",
":d.	c #EFD1BE",
"<d.	c #EBC7AF",
"[d.	c #EFCAAD",
"}d.	c #F1CDB6",
"|d.	c #EAC1A0",
"1d.	c #EAC5A7",
"2d.	c #EAC6A9",
"3d.	c #E8C3A0",
"4d.	c #E1BC96",
"5d.	c #E1B995",
"6d.	c #E3BC99",
"7d.	c #E1B793",
"8d.	c #DAAC7F",
"9d.	c #C08E63",
"0d.	c #B9865A",
"ad.	c #BE8C60",
"bd.	c #BB884D",
"cd.	c #BA864D",
"dd.	c #B6814B",
"ed.	c #B67B49",
"fd.	c #AD7347",
"gd.	c #AA7043",
"hd.	c #A36C41",
"id.	c #A66C43",
"jd.	c #AC7449",
"kd.	c #A87046",
"ld.	c #CB935A",
"md.	c #D9A46F",
"nd.	c #E6B78B",
"od.	c #DDA974",
"pd.	c #D09358",
"qd.	c #CB8E50",
"rd.	c #BE7F45",
"sd.	c #C18244",
"td.	c #AA6630",
"ud.	c #C78A4B",
"vd.	c #CB8F4E",
"wd.	c #DEA66C",
"xd.	c #E7B37D",
"yd.	c #DEA86E",
"zd.	c #D6995C",
"Ad.	c #D89B5C",
"Bd.	c #CF904F",
"Cd.	c #D29658",
"Dd.	c #D89D61",
"Ed.	c #BF8146",
"Fd.	c #CC9664",
"Gd.	c #94704C",
"Hd.	c #40391E",
"Id.	c #36341B",
"Jd.	c #37341E",
"Kd.	c #383624",
"Ld.	c #3C3920",
"Md.	c #3E3B1F",
"Nd.	c #413D1E",
"Od.	c #443E21",
"Pd.	c #454321",
"Qd.	c #4A4521",
"Rd.	c #4E4722",
"Sd.	c #504A22",
"Td.	c #565122",
"Ud.	c #60541B",
"Vd.	c #675219",
"Wd.	c #6B591C",
"Xd.	c #756524",
"Yd.	c #7B6925",
"Zd.	c #807023",
"`d.	c #85731F",
" e.	c #85731E",
".e.	c #8A7423",
"+e.	c #897424",
"@e.	c #887222",
"#e.	c #836D1E",
"$e.	c #826C1D",
"%e.	c #7F6B1E",
"&e.	c #836F24",
"*e.	c #826D23",
"=e.	c #826D24",
"-e.	c #7A6A20",
";e.	c #7E6A1D",
">e.	c #826C1F",
",e.	c #826D22",
"'e.	c #7F6E24",
")e.	c #7C6C24",
"!e.	c #7A6A21",
"~e.	c #79691F",
"{e.	c #78681F",
"]e.	c #786822",
"^e.	c #EBCFBE",
"/e.	c #EAC0A1",
"(e.	c #DBA469",
"_e.	c #D8A675",
":e.	c #E5C9B3",
"<e.	c #EED2BF",
"[e.	c #F0D3BE",
"}e.	c #EED1BD",
"|e.	c #EFD2BB",
"1e.	c #EED0BC",
"2e.	c #EECEB9",
"3e.	c #E8BEA8",
"4e.	c #ECC4A7",
"5e.	c #F0CAAD",
"6e.	c #F0CBB0",
"7e.	c #E9CBB5",
"8e.	c #E7BD9A",
"9e.	c #E8C09E",
"0e.	c #E5BE98",
"ae.	c #E3BD98",
"be.	c #E8BD9B",
"ce.	c #EAC29F",
"de.	c #E2B691",
"ee.	c #D9AB83",
"fe.	c #D2A175",
"ge.	c #D39B68",
"he.	c #C88F5B",
"ie.	c #C68A53",
"je.	c #C58A53",
"ke.	c #BA8952",
"le.	c #B68551",
"me.	c #B47948",
"ne.	c #B47845",
"oe.	c #B48052",
"pe.	c #B1774B",
"qe.	c #B47949",
"re.	c #AF7449",
"se.	c #AE7646",
"te.	c #B1794B",
"ue.	c #BA8351",
"ve.	c #BB8253",
"we.	c #CC935C",
"xe.	c #DFA974",
"ye.	c #E0AB76",
"ze.	c #D69B61",
"Ae.	c #D5995F",
"Be.	c #D29556",
"Ce.	c #CB8C4D",
"De.	c #CA8D51",
"Ee.	c #BB7D44",
"Fe.	c #C48548",
"Ge.	c #AC6B32",
"He.	c #DFAA71",
"Ie.	c #ECC290",
"Je.	c #D89959",
"Ke.	c #CC9053",
"Le.	c #D0955A",
"Me.	c #D69C66",
"Ne.	c #D79C60",
"Oe.	c #CD9255",
"Pe.	c #BC7E42",
"Qe.	c #C59566",
"Re.	c #997451",
"Se.	c #464128",
"Te.	c #33311C",
"Ue.	c #34321B",
"Ve.	c #37341F",
"We.	c #373524",
"Xe.	c #363124",
"Ye.	c #38351D",
"Ze.	c #373421",
"`e.	c #383621",
" f.	c #39371D",
".f.	c #3A381C",
"+f.	c #3F3C1F",
"@f.	c #444121",
"#f.	c #48421D",
"$f.	c #49441E",
"%f.	c #49431C",
"&f.	c #4B441C",
"*f.	c #51481B",
"=f.	c #584B21",
"-f.	c #5C4F1E",
";f.	c #675720",
">f.	c #73601F",
",f.	c #7B681D",
"'f.	c #81701E",
")f.	c #877327",
"!f.	c #857228",
"~f.	c #86741F",
"{f.	c #86741E",
"]f.	c #867323",
"^f.	c #847121",
"/f.	c #847120",
"(f.	c #84711E",
"_f.	c #837021",
":f.	c #826D1D",
"<f.	c #836F20",
"[f.	c #836F22",
"}f.	c #826E23",
"|f.	c #816D24",
"1f.	c #806D24",
"2f.	c #806D25",
"3f.	c #7B691D",
"4f.	c #7E6C24",
"5f.	c #7A6A23",
"6f.	c #7A6B22",
"7f.	c #7B6A20",
"8f.	c #7A6920",
"9f.	c #7B6C23",
"0f.	c #786723",
"af.	c #E4C8B2",
"bf.	c #E9CDB8",
"cf.	c #EBD0BD",
"df.	c #EBDAC9",
"ef.	c #EECBB5",
"ff.	c #EBC09D",
"gf.	c #E3B382",
"hf.	c #DCA46A",
"if.	c #E0BC9E",
"jf.	c #E5CAB3",
"kf.	c #EDD3BE",
"lf.	c #EFD4BD",
"mf.	c #EED2BE",
"nf.	c #EDD2BD",
"of.	c #EDD2BA",
"pf.	c #E9C9B7",
"qf.	c #DCB595",
"rf.	c #E3B48C",
"sf.	c #E7BA90",
"tf.	c #E9BE96",
"uf.	c #EEC5A3",
"vf.	c #F0CAB0",
"wf.	c #E5BA98",
"xf.	c #E7BC99",
"yf.	c #E2BA97",
"zf.	c #E4BA95",
"Af.	c #E3B995",
"Bf.	c #E6BC97",
"Cf.	c #E3B589",
"Df.	c #E1B087",
"Ef.	c #CA9665",
"Ff.	c #C68B58",
"Gf.	c #BC8758",
"Hf.	c #B67B4B",
"If.	c #B57B4B",
"Jf.	c #B27948",
"Kf.	c #AC6F45",
"Lf.	c #B17848",
"Mf.	c #B67F4C",
"Nf.	c #B48152",
"Of.	c #B5814D",
"Pf.	c #B4824F",
"Qf.	c #B48150",
"Rf.	c #B58151",
"Sf.	c #B78552",
"Tf.	c #C58952",
"Uf.	c #BC814F",
"Vf.	c #D0975F",
"Wf.	c #E0A974",
"Xf.	c #E4B088",
"Yf.	c #E2AB75",
"Zf.	c #D59A5F",
"`f.	c #D39659",
" g.	c #CD8F51",
".g.	c #BD7F46",
"+g.	c #C5884A",
"@g.	c #BA7B40",
"#g.	c #CF9355",
"$g.	c #D89F64",
"%g.	c #CD8F53",
"&g.	c #D29557",
"*g.	c #EDC493",
"=g.	c #E4B179",
"-g.	c #D69E5B",
";g.	c #D79858",
">g.	c #CA8E55",
",g.	c #D49960",
"'g.	c #D69D65",
")g.	c #D89E66",
"!g.	c #BB7D45",
"~g.	c #906E48",
"{g.	c #464028",
"]g.	c #37331F",
"^g.	c #33321C",
"/g.	c #363022",
"(g.	c #383823",
"_g.	c #38371C",
":g.	c #38371B",
"<g.	c #38371E",
"[g.	c #413B1F",
"}g.	c #484022",
"|g.	c #494423",
"1g.	c #4B451F",
"2g.	c #4F471C",
"3g.	c #4F461C",
"4g.	c #594921",
"5g.	c #615121",
"6g.	c #6D5B1D",
"7g.	c #76651F",
"8g.	c #7E6C1E",
"9g.	c #897426",
"0g.	c #897526",
"ag.	c #897525",
"bg.	c #8E7726",
"cg.	c #897622",
"dg.	c #86741D",
"eg.	c #85731D",
"fg.	c #85721D",
"gg.	c #85721F",
"hg.	c #836E1D",
"ig.	c #826E1F",
"jg.	c #836E21",
"kg.	c #826D1E",
"lg.	c #837022",
"mg.	c #7F6B1F",
"ng.	c #7D6B22",
"og.	c #7D6C23",
"pg.	c #7B6B22",
"qg.	c #7B6A21",
"rg.	c #7D6B24",
"sg.	c #7B6B24",
"tg.	c #7F6B22",
"ug.	c #7E6D26",
"vg.	c #796920",
"wg.	c #776623",
"xg.	c #E7CDB7",
"yg.	c #E7CBB6",
"zg.	c #EACEBB",
"Ag.	c #EED5C5",
"Bg.	c #EDD6C6",
"Cg.	c #ECDECA",
"Dg.	c #EBDBC9",
"Eg.	c #EBD6C8",
"Fg.	c #EECEBC",
"Gg.	c #EECAB4",
"Hg.	c #CC9255",
"Ig.	c #C49666",
"Jg.	c #EDD2BE",
"Kg.	c #F0D1B7",
"Lg.	c #DDB89C",
"Mg.	c #E3C1AB",
"Ng.	c #E6C0A8",
"Og.	c #E9C09B",
"Pg.	c #E7BA8F",
"Qg.	c #E5B585",
"Rg.	c #E4B98F",
"Sg.	c #EEC9AB",
"Tg.	c #E4C3A7",
"Ug.	c #E1BD9E",
"Vg.	c #E6BD9A",
"Wg.	c #E0B994",
"Xg.	c #E5BA93",
"Yg.	c #E0B089",
"Zg.	c #D4A379",
"`g.	c #C99467",
" h.	c #CC9361",
".h.	c #C18856",
"+h.	c #B58252",
"@h.	c #B57D4E",
"#h.	c #B37D4D",
"$h.	c #B57C4A",
"%h.	c #B4794B",
"&h.	c #B7844F",
"*h.	c #C18854",
"=h.	c #BF8A53",
"-h.	c #B78751",
";h.	c #C18A55",
">h.	c #C38D54",
",h.	c #BC8953",
"'h.	c #B98452",
")h.	c #B68553",
"!h.	c #C18A54",
"~h.	c #BD834D",
"{h.	c #D49B65",
"]h.	c #E4AE7C",
"^h.	c #E4AF82",
"/h.	c #E1AB7D",
"(h.	c #D79E68",
"_h.	c #D5995E",
":h.	c #D0955C",
"<h.	c #C7894A",
"[h.	c #C98B4D",
"}h.	c #D39658",
"|h.	c #D69B5E",
"1h.	c #DEA76D",
"2h.	c #D69C5F",
"3h.	c #E1AA72",
"4h.	c #EBC292",
"5h.	c #E4AE77",
"6h.	c #D7A55F",
"7h.	c #D29554",
"8h.	c #D59A5E",
"9h.	c #CB8E53",
"0h.	c #D29862",
"ah.	c #CA8F55",
"bh.	c #B87B45",
"ch.	c #C58D5C",
"dh.	c #52482C",
"eh.	c #363224",
"fh.	c #363023",
"gh.	c #393821",
"hh.	c #3C3E1F",
"ih.	c #3C3D1E",
"jh.	c #3B3B1D",
"kh.	c #3D3F1E",
"lh.	c #3C3D1D",
"mh.	c #3D401E",
"nh.	c #3F411E",
"oh.	c #464422",
"ph.	c #464323",
"qh.	c #464322",
"rh.	c #47411C",
"sh.	c #443F1F",
"th.	c #433E1F",
"uh.	c #48401D",
"vh.	c #4C431A",
"wh.	c #5B4C1A",
"xh.	c #6B591B",
"yh.	c #75621E",
"zh.	c #786523",
"Ah.	c #847126",
"Bh.	c #847021",
"Ch.	c #867521",
"Dh.	c #8C7725",
"Eh.	c #877322",
"Fh.	c #84701E",
"Gh.	c #857321",
"Hh.	c #897521",
"Ih.	c #84701D",
"Jh.	c #816D1D",
"Kh.	c #826F1F",
"Lh.	c #7C6A1D",
"Mh.	c #816D1F",
"Nh.	c #7E6C20",
"Oh.	c #7D6C24",
"Ph.	c #7C6C22",
"Qh.	c #7C6B24",
"Rh.	c #7A6B23",
"Sh.	c #7A6B24",
"Th.	c #806D26",
"Uh.	c #7E6C26",
"Vh.	c #806C24",
"Wh.	c #826D25",
"Xh.	c #7C6A23",
"Yh.	c #7C6B23",
"Zh.	c #766623",
"`h.	c #DEC4AF",
" i.	c #E5CAB2",
".i.	c #EFD4C2",
"+i.	c #EDD5BD",
"@i.	c #E9D9B0",
"#i.	c #EAD5A1",
"$i.	c #EAD89F",
"%i.	c #EBDEA4",
"&i.	c #E9D9B2",
"*i.	c #EBDAC0",
"=i.	c #EBDFC6",
"-i.	c #EBDDC8",
";i.	c #ECE0CA",
">i.	c #DFAE7D",
",i.	c #DCA166",
"'i.	c #C58C50",
")i.	c #CA9C74",
"!i.	c #DDBFA5",
"~i.	c #EACCB5",
"{i.	c #EAD0B6",
"]i.	c #EDD2B9",
"^i.	c #EDD1BA",
"/i.	c #EFD0B8",
"(i.	c #EECEB5",
"_i.	c #EECCB1",
":i.	c #C89971",
"<i.	c #E6BCA2",
"[i.	c #ECC9AC",
"}i.	c #ECC7AA",
"|i.	c #ECCCBA",
"1i.	c #EAC7AD",
"2i.	c #E0BA96",
"3i.	c #E1B792",
"4i.	c #E0B48D",
"5i.	c #E5BC94",
"6i.	c #DDB087",
"7i.	c #E3B68D",
"8i.	c #DCAF85",
"9i.	c #CC976B",
"0i.	c #C38C5A",
"ai.	c #BB8550",
"bi.	c #BB8752",
"ci.	c #B6834F",
"di.	c #B8814E",
"ei.	c #B88350",
"fi.	c #BB8A51",
"gi.	c #BF8B54",
"hi.	c #C68C57",
"ii.	c #C68E58",
"ji.	c #CC9563",
"ki.	c #CD955F",
"li.	c #B98A4D",
"mi.	c #C48A51",
"ni.	c #D7A06D",
"oi.	c #E3B080",
"pi.	c #E4B188",
"qi.	c #E2AC7B",
"ri.	c #D49962",
"si.	c #CC8F51",
"ti.	c #CD9053",
"ui.	c #D59859",
"vi.	c #E0A86E",
"wi.	c #CF9457",
"xi.	c #E2AD75",
"yi.	c #EBC090",
"zi.	c #E2AD76",
"Ai.	c #D49E59",
"Bi.	c #D3975C",
"Ci.	c #CD9256",
"Di.	c #D3975E",
"Ei.	c #C88C51",
"Fi.	c #BB7C43",
"Gi.	c #C78C53",
"Hi.	c #2F2B1E",
"Ii.	c #34321C",
"Ji.	c #2F2C1C",
"Ki.	c #3B3C1D",
"Li.	c #3A3B1C",
"Mi.	c #464423",
"Ni.	c #4A4523",
"Oi.	c #49441D",
"Pi.	c #4A431D",
"Qi.	c #474020",
"Ri.	c #4F4419",
"Si.	c #5A4B1C",
"Ti.	c #695A25",
"Ui.	c #705D1E",
"Vi.	c #7F6E23",
"Wi.	c #84711F",
"Xi.	c #897422",
"Yi.	c #847323",
"Zi.	c #847220",
"`i.	c #847222",
" j.	c #847022",
".j.	c #897627",
"+j.	c #8C782A",
"@j.	c #8A7628",
"#j.	c #857224",
"$j.	c #7F6B1D",
"%j.	c #7E6C1D",
"&j.	c #7D6A1F",
"*j.	c #7B6B23",
"=j.	c #796A21",
"-j.	c #796922",
";j.	c #786820",
">j.	c #796923",
",j.	c #7A6922",
"'j.	c #796A22",
")j.	c #796823",
"!j.	c #786722",
"~j.	c #EAD8BD",
"{j.	c #EAD9B0",
"]j.	c #E9E09D",
"^j.	c #E9E493",
"/j.	c #E9E777",
"(j.	c #E9E86C",
"_j.	c #E9E87C",
":j.	c #E8E784",
"<j.	c #E9E784",
"[j.	c #E8E785",
"}j.	c #E9E691",
"|j.	c #E9E3A1",
"1j.	c #E8DEAA",
"2j.	c #EBD6BE",
"3j.	c #ECDEC9",
"4j.	c #DEB488",
"5j.	c #E5B280",
"6j.	c #BC8952",
"7j.	c #C49770",
"8j.	c #D5AC87",
"9j.	c #D9B18D",
"0j.	c #E3BC9A",
"aj.	c #D39E6A",
"bj.	c #D39B67",
"cj.	c #EAC5A8",
"dj.	c #EDCDB6",
"ej.	c #EECBB4",
"fj.	c #EBC7AC",
"gj.	c #D29F70",
"hj.	c #CD9866",
"ij.	c #C6915D",
"jj.	c #C28B5A",
"kj.	c #C28C59",
"lj.	c #BD8B51",
"mj.	c #C28B56",
"nj.	c #C6905A",
"oj.	c #D19762",
"pj.	c #D29966",
"qj.	c #CD9661",
"rj.	c #C99059",
"sj.	c #BC8A50",
"tj.	c #B7864B",
"uj.	c #BE894B",
"vj.	c #C88D54",
"wj.	c #CA9157",
"xj.	c #E0A872",
"yj.	c #D7A474",
"zj.	c #D79D66",
"Aj.	c #D79E66",
"Bj.	c #D4985F",
"Cj.	c #CD8F50",
"Dj.	c #D5995B",
"Ej.	c #D2975D",
"Fj.	c #D9A166",
"Gj.	c #DFAB73",
"Hj.	c #E6B480",
"Ij.	c #DEAB73",
"Jj.	c #D39957",
"Kj.	c #CF945B",
"Lj.	c #D0965A",
"Mj.	c #D59A63",
"Nj.	c #D2975C",
"Oj.	c #CA8F54",
"Pj.	c #C1874F",
"Qj.	c #B6855D",
"Rj.	c #5B4C2F",
"Sj.	c #2B291C",
"Tj.	c #2D2B1B",
"Uj.	c #2D2C1C",
"Vj.	c #2A2921",
"Wj.	c #373423",
"Xj.	c #373222",
"Yj.	c #3A3A21",
"Zj.	c #3A391E",
"`j.	c #3A3A1E",
" k.	c #383822",
".k.	c #3A391D",
"+k.	c #3A3A1C",
"@k.	c #3B3B1C",
"#k.	c #3E3F1D",
"$k.	c #403F1C",
"%k.	c #4C451D",
"&k.	c #54491A",
"*k.	c #5B4F19",
"=k.	c #5F5A1B",
"-k.	c #6C6120",
";k.	c #74631C",
">k.	c #77671D",
",k.	c #877425",
"'k.	c #85711F",
")k.	c #836F21",
"!k.	c #826D20",
"~k.	c #847125",
"{k.	c #847124",
"]k.	c #836E22",
"^k.	c #836E23",
"/k.	c #7E6B20",
"(k.	c #847122",
"_k.	c #78691E",
":k.	c #786721",
"<k.	c #796924",
"[k.	c #7F6D24",
"}k.	c #7F6D25",
"|k.	c #7E6C25",
"1k.	c #786923",
"2k.	c #E9E47C",
"3k.	c #E9E670",
"4k.	c #EAE865",
"5k.	c #EBE55C",
"6k.	c #ECE65B",
"7k.	c #EBE75D",
"8k.	c #E9E667",
"9k.	c #E9E970",
"0k.	c #E9E97C",
"ak.	c #E9E592",
"bk.	c #E9D6B4",
"ck.	c #ECDDC9",
"dk.	c #EDCFC3",
"ek.	c #E4B383",
"fk.	c #E4AD76",
"gk.	c #DBA575",
"hk.	c #C38A57",
"ik.	c #CA905C",
"jk.	c #CA9260",
"kk.	c #D39E71",
"lk.	c #DCAA7C",
"mk.	c #D7A67C",
"nk.	c #B88B55",
"ok.	c #CD9F7A",
"pk.	c #DFB48F",
"qk.	c #DFBA94",
"rk.	c #E4B07C",
"sk.	c #D99D60",
"tk.	c #DAA269",
"uk.	c #E8C4A3",
"vk.	c #EBCBB5",
"wk.	c #EBC9AD",
"xk.	c #E4B894",
"yk.	c #DFB58D",
"zk.	c #DDAE85",
"Ak.	c #DBAD82",
"Bk.	c #CF9865",
"Ck.	c #CE9762",
"Dk.	c #C9925D",
"Ek.	c #C89260",
"Fk.	c #C7905B",
"Gk.	c #CF9764",
"Hk.	c #CB925A",
"Ik.	c #D29964",
"Jk.	c #D59C67",
"Kk.	c #CB9159",
"Lk.	c #C68D55",
"Mk.	c #C68A4D",
"Nk.	c #CD945D",
"Ok.	c #DFAB7A",
"Pk.	c #D69D69",
"Qk.	c #D59A64",
"Rk.	c #D5995D",
"Sk.	c #CF9151",
"Tk.	c #C68849",
"Uk.	c #C58648",
"Vk.	c #D99957",
"Wk.	c #D69A5C",
"Xk.	c #D2975A",
"Yk.	c #E4B07B",
"Zk.	c #E7B783",
"`k.	c #E1AA70",
" l.	c #D39556",
".l.	c #D2955A",
"+l.	c #D59B63",
"@l.	c #BD824C",
"#l.	c #5D4F34",
"$l.	c #302D1E",
"%l.	c #312F1C",
"&l.	c #29281D",
"*l.	c #28261C",
"=l.	c #2E2A1F",
"-l.	c #35331C",
";l.	c #3A3A1D",
">l.	c #393823",
",l.	c #3B3B1F",
"'l.	c #3D3B1F",
")l.	c #3D3C22",
"!l.	c #3D3F20",
"~l.	c #3D401F",
"{l.	c #39391D",
"]l.	c #434021",
"^l.	c #4C4620",
"/l.	c #4E461A",
"(l.	c #564A1A",
"_l.	c #66531E",
":l.	c #705D1B",
"<l.	c #77691C",
"[l.	c #7D6C1C",
"}l.	c #7F7020",
"|l.	c #796D1D",
"1l.	c #7C6C1C",
"2l.	c #79691D",
"3l.	c #7D6B21",
"4l.	c #867321",
"5l.	c #847224",
"6l.	c #847324",
"7l.	c #857325",
"8l.	c #7F6C22",
"9l.	c #826E24",
"0l.	c #77681F",
"al.	c #796926",
"bl.	c #786825",
"cl.	c #796925",
"dl.	c #776723",
"el.	c #7A6A25",
"fl.	c #796825",
"gl.	c #7D6C27",
"hl.	c #806D27",
"il.	c #7F6C25",
"jl.	c #816D23",
"kl.	c #816F24",
"ll.	c #807124",
"ml.	c #E8E063",
"nl.	c #E9DD5B",
"ol.	c #E9E662",
"pl.	c #EAE760",
"ql.	c #ECE65C",
"rl.	c #EBE862",
"sl.	c #E9E882",
"tl.	c #E9D7B2",
"ul.	c #ECE0C9",
"vl.	c #EBDDC9",
"wl.	c #EBD5C7",
"xl.	c #E4AF7A",
"yl.	c #D09765",
"zl.	c #BF834D",
"Al.	c #C18650",
"Bl.	c #CB9057",
"Cl.	c #CF9B6B",
"Dl.	c #C7935E",
"El.	c #EAC8B0",
"Fl.	c #EDCCB7",
"Gl.	c #EEC6A8",
"Hl.	c #E6B78D",
"Il.	c #E2AD74",
"Jl.	c #DDAB6C",
"Kl.	c #E7BB8E",
"Ll.	c #EBD1B8",
"Ml.	c #EBCEB6",
"Nl.	c #EDCDB4",
"Ol.	c #E6C0A2",
"Pl.	c #DEB48D",
"Ql.	c #DCAE86",
"Rl.	c #DCAE82",
"Sl.	c #DEAF84",
"Tl.	c #DBA572",
"Ul.	c #CD9868",
"Vl.	c #CF9560",
"Wl.	c #C99361",
"Xl.	c #CE9866",
"Yl.	c #D5A06B",
"Zl.	c #D7A36E",
"`l.	c #DEA76F",
" m.	c #D8A472",
".m.	c #DDA770",
"+m.	c #DBA46A",
"@m.	c #D49A64",
"#m.	c #CB9158",
"$m.	c #C99057",
"%m.	c #D79F67",
"&m.	c #E0AD80",
"*m.	c #DDA570",
"=m.	c #D09252",
"-m.	c #D49658",
";m.	c #C78849",
">m.	c #C08043",
",m.	c #DAA066",
"'m.	c #E6B37F",
")m.	c #E2AB73",
"!m.	c #D59A5C",
"~m.	c #D0955D",
"{m.	c #D2965D",
"]m.	c #D3985F",
"^m.	c #D19557",
"/m.	c #CA8D4F",
"(m.	c #BD7E42",
"_m.	c #BE824D",
":m.	c #655234",
"<m.	c #302E1B",
"[m.	c #28261B",
"}m.	c #2A281A",
"|m.	c #393824",
"1m.	c #3D3A1B",
"2m.	c #3F3D1D",
"3m.	c #433E1B",
"4m.	c #463F1A",
"5m.	c #514B1D",
"6m.	c #60551E",
"7m.	c #6D5E1E",
"8m.	c #7A6B25",
"9m.	c #7F6D20",
"0m.	c #806E21",
"am.	c #7F6C1D",
"bm.	c #7E6E1C",
"cm.	c #857322",
"dm.	c #847325",
"em.	c #837127",
"fm.	c #826E25",
"gm.	c #836E24",
"hm.	c #79681E",
"im.	c #796A1F",
"jm.	c #786A21",
"km.	c #7B6B27",
"lm.	c #796A26",
"mm.	c #7A6A26",
"nm.	c #786824",
"om.	c #7B6A26",
"pm.	c #7C6D28",
"qm.	c #826D27",
"rm.	c #7C6A21",
"sm.	c #7E6C22",
"tm.	c #E9E67D",
"um.	c #EAE866",
"vm.	c #E8E68B",
"wm.	c #E9D7B6",
"xm.	c #ECDFCA",
"ym.	c #EBDCC9",
"zm.	c #F0D0B7",
"Am.	c #E8BB8F",
"Bm.	c #E2B48B",
"Cm.	c #D8A77F",
"Dm.	c #BF8954",
"Em.	c #CD9760",
"Fm.	c #D49F72",
"Gm.	c #D7A170",
"Hm.	c #CF9B6A",
"Im.	c #CE945E",
"Jm.	c #D9A474",
"Km.	c #EDC8B0",
"Lm.	c #F0CEB9",
"Mm.	c #F0CEB3",
"Nm.	c #EFC79E",
"Om.	c #E7B885",
"Pm.	c #E3B387",
"Qm.	c #ECCAB4",
"Rm.	c #ECD1BA",
"Sm.	c #F0D2B8",
"Tm.	c #EECFB6",
"Um.	c #EDCEB6",
"Vm.	c #EED1B9",
"Wm.	c #E5BC99",
"Xm.	c #E3B891",
"Ym.	c #DFAF87",
"Zm.	c #DBA97D",
"`m.	c #DBA879",
" n.	c #D6A274",
".n.	c #D4A173",
"+n.	c #D39F6F",
"@n.	c #D9A473",
"#n.	c #D9A573",
"$n.	c #DEAA78",
"%n.	c #DFAC7B",
"&n.	c #E2AA70",
"*n.	c #D69E66",
"=n.	c #D9A167",
"-n.	c #DCAA79",
";n.	c #E2B88F",
">n.	c #E8BE93",
",n.	c #DEA973",
"'n.	c #D79D69",
")n.	c #C98C4F",
"!n.	c #D99C5E",
"~n.	c #D19355",
"{n.	c #D79D64",
"]n.	c #E1A972",
"^n.	c #E3AB72",
"/n.	c #E3AA6E",
"(n.	c #D59655",
"_n.	c #CC8E4E",
":n.	c #D2975B",
"<n.	c #D1975D",
"[n.	c #DBA167",
"}n.	c #D59A60",
"|n.	c #C58954",
"1n.	c #B57D4F",
"2n.	c #A67B56",
"3n.	c #5B4D32",
"4n.	c #353021",
"5n.	c #2D2820",
"6n.	c #312D1C",
"7n.	c #3E3B1E",
"8n.	c #3E3C1F",
"9n.	c #39361C",
"0n.	c #39371E",
"an.	c #3D381E",
"bn.	c #48401A",
"cn.	c #54501D",
"dn.	c #64581D",
"en.	c #6B6023",
"fn.	c #746423",
"gn.	c #796C21",
"hn.	c #79691E",
"in.	c #7C6B1F",
"jn.	c #7F6D22",
"kn.	c #806D21",
"ln.	c #816E23",
"mn.	c #857221",
"nn.	c #857324",
"on.	c #847328",
"pn.	c #837026",
"qn.	c #7F6E25",
"rn.	c #7D6D25",
"sn.	c #7D6D26",
"tn.	c #7E6A1E",
"un.	c #7D6B20",
"vn.	c #7E6C23",
"wn.	c #7E6E24",
"xn.	c #7B6A25",
"yn.	c #7C6C28",
"zn.	c #7A6925",
"An.	c #7C6C27",
"Bn.	c #826D2A",
"Cn.	c #806D29",
"Dn.	c #7F6D27",
"En.	c #7F6D26",
"Fn.	c #786823",
"Gn.	c #E8E068",
"Hn.	c #EAE561",
"In.	c #EBE861",
"Jn.	c #EAE963",
"Kn.	c #EAE862",
"Ln.	c #EAE864",
"Mn.	c #E9E97A",
"Nn.	c #E9D9B6",
"On.	c #ECE2CA",
"Pn.	c #ECD5C5",
"Qn.	c #E5B688",
"Rn.	c #E1B286",
"Sn.	c #DAB491",
"Tn.	c #E3BB9E",
"Un.	c #CD9F79",
"Vn.	c #EBC4A3",
"Wn.	c #DBA675",
"Xn.	c #D3985D",
"Yn.	c #D59F6A",
"Zn.	c #EBC6A9",
"`n.	c #F1D2B7",
" o.	c #EDC9A7",
".o.	c #E9B98A",
"+o.	c #E5B383",
"@o.	c #EBCCB2",
"#o.	c #EDCFB6",
"$o.	c #EDCCB1",
"%o.	c #EECFB5",
"&o.	c #EFD0B7",
"*o.	c #E7C2A0",
"=o.	c #EBC5A3",
"-o.	c #E7BE96",
";o.	c #DDAC83",
">o.	c #D9A87E",
",o.	c #DEAB81",
"'o.	c #DFAD81",
")o.	c #DFAE81",
"!o.	c #DAA87C",
"~o.	c #E2B27F",
"{o.	c #DBAC78",
"]o.	c #E1AD79",
"^o.	c #E0AE7C",
"/o.	c #E0A970",
"(o.	c #E0AB71",
"_o.	c #DCAB73",
":o.	c #E1AC73",
"<o.	c #DAA56B",
"[o.	c #D69D66",
"}o.	c #DBA979",
"|o.	c #E3AD76",
"1o.	c #D59B5F",
"2o.	c #D49657",
"3o.	c #D09152",
"4o.	c #DA9E60",
"5o.	c #D39555",
"6o.	c #CD9155",
"7o.	c #E1A96F",
"8o.	c #E2AA71",
"9o.	c #E0A66A",
"0o.	c #D59553",
"ao.	c #CD9052",
"bo.	c #DE9D5B",
"co.	c #DE9F5E",
"do.	c #D1975B",
"eo.	c #D69A5E",
"fo.	c #C58D5B",
"go.	c #9D7757",
"ho.	c #51452F",
"io.	c #2A2821",
"jo.	c #292724",
"ko.	c #413920",
"lo.	c #473E1A",
"mo.	c #56481E",
"no.	c #665626",
"oo.	c #716121",
"po.	c #746625",
"qo.	c #756422",
"ro.	c #827128",
"so.	c #836F27",
"to.	c #826F22",
"uo.	c #857426",
"vo.	c #816F25",
"wo.	c #816E26",
"xo.	c #827029",
"yo.	c #83722B",
"zo.	c #836F2A",
"Ao.	c #836E28",
"Bo.	c #816E25",
"Co.	c #806C1F",
"Do.	c #7F6B20",
"Eo.	c #796822",
"Fo.	c #7A6924",
"Go.	c #7C6D29",
"Ho.	c #836D2A",
"Io.	c #7B6C26",
"Jo.	c #E8E062",
"Ko.	c #EBE860",
"Lo.	c #E9E976",
"Mo.	c #EADAB6",
"No.	c #EBD7C7",
"Oo.	c #EBD4C3",
"Po.	c #EBC9B0",
"Qo.	c #D9AA82",
"Ro.	c #E8BEAA",
"So.	c #EAC4A8",
"To.	c #D59F6D",
"Uo.	c #CF9863",
"Vo.	c #EBC8AF",
"Wo.	c #DAAA82",
"Xo.	c #DAA574",
"Yo.	c #F1CEB7",
"Zo.	c #F1CCB3",
"`o.	c #EECDB0",
" p.	c #EAC49F",
".p.	c #E6BF96",
"+p.	c #E7C199",
"@p.	c #DAAB7F",
"#p.	c #DBAE81",
"$p.	c #DAAD81",
"%p.	c #E3B188",
"&p.	c #E1B284",
"*p.	c #DDAE7D",
"=p.	c #E0AD79",
"-p.	c #E1AE7C",
";p.	c #E3B280",
">p.	c #E1B07E",
",p.	c #E0AC74",
"'p.	c #DBAB75",
")p.	c #DDAE77",
"!p.	c #DDA970",
"~p.	c #D89F68",
"{p.	c #E5B88B",
"]p.	c #EBC192",
"^p.	c #E9BE8F",
"/p.	c #E4AD77",
"(p.	c #D79D68",
"_p.	c #D99E60",
":p.	c #CC8E50",
"<p.	c #D39657",
"[p.	c #DFA76D",
"}p.	c #DCA362",
"|p.	c #D49453",
"1p.	c #D89958",
"2p.	c #CB9056",
"3p.	c #D89E65",
"4p.	c #D69C65",
"5p.	c #CC9058",
"6p.	c #D69C67",
"7p.	c #C9935F",
"8p.	c #AD8E6E",
"9p.	c #544839",
"0p.	c #292720",
"ap.	c #2D2923",
"bp.	c #2A281F",
"cp.	c #2C2B1F",
"dp.	c #3A3322",
"ep.	c #3F3820",
"fp.	c #413A1D",
"gp.	c #3E391C",
"hp.	c #42391D",
"ip.	c #44391E",
"jp.	c #4B3E1E",
"kp.	c #584223",
"lp.	c #635327",
"mp.	c #716222",
"np.	c #766421",
"op.	c #786623",
"pp.	c #7A6A22",
"qp.	c #806C25",
"rp.	c #806E25",
"sp.	c #837227",
"tp.	c #847326",
"up.	c #837023",
"vp.	c #887729",
"wp.	c #877628",
"xp.	c #837228",
"yp.	c #857529",
"zp.	c #887629",
"Ap.	c #847327",
"Bp.	c #847127",
"Cp.	c #877729",
"Dp.	c #7B691E",
"Ep.	c #7E6D2A",
"Fp.	c #7C6D2A",
"Gp.	c #806D2A",
"Hp.	c #816D2A",
"Ip.	c #7D6D29",
"Jp.	c #7D6B28",
"Kp.	c #7C6A26",
"Lp.	c #7A6A27",
"Mp.	c #E8DE61",
"Np.	c #E9D9B5",
"Op.	c #EFCEB7",
"Pp.	c #E5B58E",
"Qp.	c #E4BB9E",
"Rp.	c #E9C3A1",
"Sp.	c #EED0B8",
"Tp.	c #EFD2B9",
"Up.	c #EED0B7",
"Vp.	c #E9BE94",
"Wp.	c #DEA870",
"Xp.	c #DCA369",
"Yp.	c #ECC4A4",
"Zp.	c #F1CDB1",
"`p.	c #EDCFB8",
" q.	c #EFCFB7",
".q.	c #ECCAB0",
"+q.	c #EDC5A0",
"@q.	c #E1BB94",
"#q.	c #E0B487",
"$q.	c #E7BD90",
"%q.	c #E9BD91",
"&q.	c #E4B88B",
"*q.	c #E2B88B",
"=q.	c #E5B489",
"-q.	c #E4B589",
";q.	c #E1B17F",
">q.	c #E1AF7B",
",q.	c #E3AC74",
"'q.	c #E0AB74",
")q.	c #D6A069",
"!q.	c #D8A86D",
"~q.	c #D9A974",
"{q.	c #E8C097",
"]q.	c #E8C198",
"^q.	c #E2AD77",
"/q.	c #DCA36D",
"(q.	c #D9A165",
"_q.	c #D89F62",
":q.	c #DBA062",
"<q.	c #DBA165",
"[q.	c #D79B5E",
"}q.	c #DEA366",
"|q.	c #DFA161",
"1q.	c #DDA060",
"2q.	c #DDA56B",
"3q.	c #DD9E5D",
"4q.	c #D39351",
"5q.	c #CD8E4E",
"6q.	c #E19D56",
"7q.	c #DF9D59",
"8q.	c #D79A5D",
"9q.	c #DCA267",
"0q.	c #D3995C",
"aq.	c #D9A26C",
"bq.	c #D29864",
"cq.	c #C28854",
"dq.	c #DEA56D",
"eq.	c #E0A86F",
"fq.	c #E4B382",
"gq.	c #C09B79",
"hq.	c #6D5C48",
"iq.	c #3F3822",
"jq.	c #3C351F",
"kq.	c #3D3519",
"lq.	c #453F24",
"mq.	c #494127",
"nq.	c #504528",
"oq.	c #554625",
"pq.	c #5B4D20",
"qq.	c #61521D",
"rq.	c #685723",
"sq.	c #816131",
"tq.	c #846338",
"uq.	c #7B652A",
"vq.	c #7B6A23",
"wq.	c #826D26",
"xq.	c #7F6C1E",
"yq.	c #806E1F",
"zq.	c #7E6D24",
"Aq.	c #7F6D23",
"Bq.	c #806F28",
"Cq.	c #806F29",
"Dq.	c #826E2A",
"Eq.	c #847027",
"Fq.	c #806B21",
"Gq.	c #806B1F",
"Hq.	c #806D23",
"Iq.	c #78691D",
"Jq.	c #7D6B23",
"Kq.	c #7C6C25",
"Lq.	c #7F6D29",
"Mq.	c #816E2A",
"Nq.	c #836F2B",
"Oq.	c #816F2B",
"Pq.	c #7F6D2A",
"Qq.	c #80702A",
"Rq.	c #7F6F2A",
"Sq.	c #7C6E2A",
"Tq.	c #7E702B",
"Uq.	c #796F30",
"Vq.	c #E8E263",
"Wq.	c #E9E974",
"Xq.	c #EAD8B2",
"Yq.	c #ECDDCA",
"Zq.	c #EBD1C0",
"`q.	c #EBC9AF",
" r.	c #E5BA91",
".r.	c #DBA671",
"+r.	c #E2B995",
"@r.	c #E7C3A0",
"#r.	c #E5BC8F",
"$r.	c #D4A472",
"%r.	c #E3B88C",
"&r.	c #DCB58D",
"*r.	c #E4C1A3",
"=r.	c #F0D3B9",
"-r.	c #F0D3B8",
";r.	c #F1D1B7",
">r.	c #F0CBAC",
",r.	c #EABF90",
"'r.	c #EBCAAB",
")r.	c #EDCEB4",
"!r.	c #EECDB1",
"~r.	c #EEC8A9",
"{r.	c #EBC6A4",
"]r.	c #EDC7A7",
"^r.	c #ECC6A4",
"/r.	c #EBC49C",
"(r.	c #EBC498",
"_r.	c #ECC59C",
":r.	c #E5BD94",
"<r.	c #EBC394",
"[r.	c #E8BE90",
"}r.	c #E6BA8E",
"|r.	c #EBC497",
"1r.	c #DFB88E",
"2r.	c #E5BD95",
"3r.	c #DEB68C",
"4r.	c #DCB48A",
"5r.	c #DCB388",
"6r.	c #E0AF83",
"7r.	c #D9AC7B",
"8r.	c #E0AE7B",
"9r.	c #DCAD76",
"0r.	c #D09D6C",
"ar.	c #DAA86D",
"br.	c #DDAC78",
"cr.	c #ECC496",
"dr.	c #ECC596",
"er.	c #ECC297",
"fr.	c #E4B17E",
"gr.	c #DBA56E",
"hr.	c #D9A05F",
"ir.	c #DBA367",
"jr.	c #DDA569",
"kr.	c #DA9D5E",
"lr.	c #D29454",
"mr.	c #D2924F",
"nr.	c #E6A461",
"or.	c #E0A263",
"pr.	c #E6A96C",
"qr.	c #D19558",
"rr.	c #CE9359",
"sr.	c #DAA168",
"tr.	c #E1A870",
"ur.	c #CB915C",
"vr.	c #D8A169",
"wr.	c #E1AE78",
"xr.	c #E4BD8F",
"yr.	c #9F805D",
"zr.	c #63512B",
"Ar.	c #615029",
"Br.	c #635429",
"Cr.	c #635529",
"Dr.	c #69572A",
"Er.	c #70592A",
"Fr.	c #7B6729",
"Gr.	c #7B6A27",
"Hr.	c #7D6C28",
"Ir.	c #816D29",
"Jr.	c #836D28",
"Kr.	c #826C27",
"Lr.	c #847226",
"Mr.	c #897423",
"Nr.	c #816C23",
"Or.	c #7B6B21",
"Pr.	c #806F25",
"Qr.	c #7B6D27",
"Rr.	c #7D6D28",
"Sr.	c #7F6E29",
"Tr.	c #816F2A",
"Ur.	c #83722A",
"Vr.	c #836D29",
"Wr.	c #826E27",
"Xr.	c #7A691D",
"Yr.	c #806C22",
"Zr.	c #83712B",
"`r.	c #83732C",
" s.	c #84742E",
".s.	c #887731",
"+s.	c #84732D",
"@s.	c #82702B",
"#s.	c #7B6E2C",
"$s.	c #E7DB5E",
"%s.	c #EAE96E",
"&s.	c #EADFAA",
"*s.	c #ECDFC9",
"=s.	c #EED2C0",
"-s.	c #EECEB3",
";s.	c #D1A978",
">s.	c #BE9664",
",s.	c #BC955F",
"'s.	c #B18C4F",
")s.	c #AD8B42",
"!s.	c #B18C41",
"~s.	c #AF894B",
"{s.	c #B28756",
"]s.	c #BA9365",
"^s.	c #C29F67",
"/s.	c #BF9B5E",
"(s.	c #C7A26A",
"_s.	c #C9A67E",
":s.	c #CEAA84",
"<s.	c #DDBA93",
"[s.	c #DBB68E",
"}s.	c #D7B384",
"|s.	c #D9B483",
"1s.	c #DDB790",
"2s.	c #DBB58E",
"3s.	c #E1BD98",
"4s.	c #E0BC99",
"5s.	c #E2BF9D",
"6s.	c #E3BF9F",
"7s.	c #E5C3A6",
"8s.	c #E4C2A4",
"9s.	c #E4C09F",
"0s.	c #E3BD99",
"as.	c #E9C299",
"bs.	c #E7C49B",
"cs.	c #E8C39D",
"ds.	c #E7C19C",
"es.	c #E9C49F",
"fs.	c #E9C5A1",
"gs.	c #ECC59E",
"hs.	c #E5BF94",
"is.	c #E8C299",
"js.	c #E8C399",
"ks.	c #E4BF98",
"ls.	c #E6BF97",
"ms.	c #DFB68D",
"ns.	c #E1BC93",
"os.	c #DDB58B",
"ps.	c #E4BE93",
"qs.	c #DBB58B",
"rs.	c #E2BD93",
"ss.	c #DEB387",
"ts.	c #DAB186",
"us.	c #DAAD7C",
"vs.	c #D5A36F",
"ws.	c #D09862",
"xs.	c #D7A76D",
"ys.	c #DEA970",
"zs.	c #E4BA8B",
"As.	c #EAC090",
"Bs.	c #E4B47F",
"Cs.	c #E1AE77",
"Ds.	c #D9AD73",
"Es.	c #D8AA70",
"Fs.	c #D6A96E",
"Gs.	c #DAAA70",
"Hs.	c #D4A56A",
"Is.	c #D69E63",
"Js.	c #DBA56B",
"Ks.	c #D8A76D",
"Ls.	c #E1AA71",
"Ms.	c #DCA66C",
"Ns.	c #D49B5B",
"Os.	c #D49A57",
"Ps.	c #DAA162",
"Qs.	c #DCA669",
"Rs.	c #DBA266",
"Ss.	c #E2A66A",
"Ts.	c #C59055",
"Us.	c #CC995F",
"Vs.	c #D8A46A",
"Ws.	c #D29D63",
"Xs.	c #D09D62",
"Ys.	c #C89960",
"Zs.	c #CA9F6B",
"`s.	c #BD9B64",
" t.	c #A58750",
".t.	c #886D36",
"+t.	c #83702D",
"@t.	c #85732E",
"#t.	c #877435",
"$t.	c #7F6E2C",
"%t.	c #7E692A",
"&t.	c #836D27",
"*t.	c #86722A",
"=t.	c #826D29",
"-t.	c #837025",
";t.	c #867221",
">t.	c #887521",
",t.	c #887527",
"'t.	c #847221",
")t.	c #826E20",
"!t.	c #7D6E26",
"~t.	c #816D27",
"{t.	c #816D28",
"]t.	c #816D26",
"^t.	c #806E27",
"/t.	c #836E2A",
"(t.	c #836E29",
"_t.	c #837027",
":t.	c #83712A",
"<t.	c #806C23",
"[t.	c #806D28",
"}t.	c #84722D",
"|t.	c #7C6B28",
"1t.	c #786724",
"2t.	c #E8DA5C",
"3t.	c #E9E2A9",
"4t.	c #EED6C7",
"5t.	c #EDCEB3",
"6t.	c #DBB488",
"7t.	c #B99759",
"8t.	c #A78A43",
"9t.	c #A38845",
"0t.	c #A48846",
"at.	c #A38844",
"bt.	c #A48844",
"ct.	c #A18546",
"dt.	c #A47F4C",
"et.	c #A18445",
"ft.	c #A28745",
"gt.	c #9A8539",
"ht.	c #A08740",
"it.	c #A38846",
"jt.	c #A48746",
"kt.	c #A58846",
"lt.	c #A18645",
"mt.	c #A28646",
"nt.	c #A18547",
"ot.	c #A28648",
"pt.	c #9F8546",
"qt.	c #A08545",
"rt.	c #A18647",
"st.	c #A4894B",
"tt.	c #A3884B",
"ut.	c #A2884B",
"vt.	c #A0844D",
"wt.	c #A58B52",
"xt.	c #AC8F5B",
"yt.	c #B08E5F",
"zt.	c #B28E62",
"At.	c #AF8A59",
"Bt.	c #B48E5E",
"Ct.	c #B3915E",
"Dt.	c #B89263",
"Et.	c #BE9B66",
"Ft.	c #C29C69",
"Gt.	c #C4A16F",
"Ht.	c #C29D6E",
"It.	c #C9A375",
"Jt.	c #C5A172",
"Kt.	c #CCA677",
"Lt.	c #CAA372",
"Mt.	c #C19E66",
"Nt.	c #B69256",
"Ot.	c #B08F54",
"Pt.	c #B8955C",
"Qt.	c #B39156",
"Rt.	c #C19F67",
"St.	c #C2A06C",
"Tt.	c #D7AD80",
"Ut.	c #D8B086",
"Vt.	c #D5AC7C",
"Wt.	c #D2AC7D",
"Xt.	c #D1AB84",
"Yt.	c #D5AF86",
"Zt.	c #D3AD81",
"`t.	c #D1AD82",
" u.	c #CDA879",
".u.	c #C7A26F",
"+u.	c #D5B186",
"@u.	c #D4AF85",
"#u.	c #D5B285",
"$u.	c #CEA87F",
"%u.	c #D6B083",
"&u.	c #C9A476",
"*u.	c #C8A377",
"=u.	c #C0996D",
"-u.	c #CBA777",
";u.	c #C9A573",
">u.	c #CAA574",
",u.	c #C9A071",
"'u.	c #CCA770",
")u.	c #C09766",
"!u.	c #C1935D",
"~u.	c #BC8D52",
"{u.	c #C89558",
"]u.	c #C89957",
"^u.	c #C89B63",
"/u.	c #C7A16B",
"(u.	c #C79E6C",
"_u.	c #C79E68",
":u.	c #C69E67",
"<u.	c #C39B66",
"[u.	c #C39D6A",
"}u.	c #C6A06F",
"|u.	c #C69E6A",
"1u.	c #BF9C65",
"2u.	c #BB955B",
"3u.	c #C09861",
"4u.	c #B48F59",
"5u.	c #C0975C",
"6u.	c #BC9456",
"7u.	c #BD9255",
"8u.	c #B78B4C",
"9u.	c #C79B54",
"0u.	c #C29450",
"au.	c #B99048",
"bu.	c #B28945",
"cu.	c #AF8644",
"du.	c #AE8642",
"eu.	c #A5843F",
"fu.	c #9F8236",
"gu.	c #9D8032",
"hu.	c #A37F3B",
"iu.	c #967A33",
"ju.	c #90772D",
"ku.	c #947930",
"lu.	c #997C32",
"mu.	c #947A31",
"nu.	c #957C32",
"ou.	c #8E782D",
"pu.	c #927B31",
"qu.	c #907A2E",
"ru.	c #8E792C",
"su.	c #8A782A",
"tu.	c #937D32",
"uu.	c #927B30",
"vu.	c #8B792B",
"wu.	c #85732B",
"xu.	c #846F2A",
"yu.	c #847026",
"zu.	c #877328",
"Au.	c #887323",
"Bu.	c #857021",
"Cu.	c #806B1D",
"Du.	c #7E6F27",
"Eu.	c #7F6C24",
"Fu.	c #7C6B20",
"Gu.	c #7D6C22",
"Hu.	c #7D6D23",
"Iu.	c #7D6D24",
"Ju.	c #837129",
"Ku.	c #836E27",
"Lu.	c #847227",
"Mu.	c #837029",
"Nu.	c #837229",
"Ou.	c #837126",
"Pu.	c #837125",
"Qu.	c #7E6D22",
"Ru.	c #806E29",
"Su.	c #816E29",
"Tu.	c #806F2B",
"Uu.	c #7A6926",
"Vu.	c #E9E15E",
"Wu.	c #E9DFA1",
"Xu.	c #ECE1C9",
"Yu.	c #EED4C3",
"Zu.	c #EBD3BA",
"`u.	c #ECD4BC",
" v.	c #ECD4C3",
".v.	c #F0D3C1",
"+v.	c #EECEB4",
"@v.	c #E7C5A3",
"#v.	c #D2AC7C",
"$v.	c #AE8E53",
"%v.	c #A58845",
"&v.	c #A38841",
"*v.	c #A28744",
"=v.	c #9E8544",
"-v.	c #9C8443",
";v.	c #A08644",
">v.	c #9D863E",
",v.	c #9F8641",
"'v.	c #A08645",
")v.	c #A18745",
"!v.	c #9D8543",
"~v.	c #9F8544",
"{v.	c #A48448",
"]v.	c #A6834A",
"^v.	c #9F8644",
"/v.	c #A38545",
"(v.	c #A28645",
"_v.	c #A68847",
":v.	c #A38746",
"<v.	c #A98849",
"[v.	c #AB894B",
"}v.	c #AC884A",
"|v.	c #A78848",
"1v.	c #A08642",
"2v.	c #9B853C",
"3v.	c #988339",
"4v.	c #99813B",
"5v.	c #978137",
"6v.	c #988238",
"7v.	c #978037",
"8v.	c #9A8135",
"9v.	c #998337",
"0v.	c #958036",
"av.	c #957E36",
"bv.	c #957E37",
"cv.	c #987D3A",
"dv.	c #988038",
"ev.	c #937C31",
"fv.	c #937B30",
"gv.	c #967F32",
"hv.	c #977E32",
"iv.	c #957D32",
"jv.	c #9A8038",
"kv.	c #9A8039",
"lv.	c #987F30",
"mv.	c #90792C",
"nv.	c #947C2F",
"ov.	c #8F7A2D",
"pv.	c #917A2C",
"qv.	c #8F792B",
"rv.	c #8E7729",
"sv.	c #927A2C",
"tv.	c #937A2C",
"uv.	c #917B2F",
"vv.	c #947C31",
"wv.	c #937B2E",
"xv.	c #90792B",
"yv.	c #8C792B",
"zv.	c #88782A",
"Av.	c #877728",
"Bv.	c #89792A",
"Cv.	c #8E7A2C",
"Dv.	c #937A2D",
"Ev.	c #947D32",
"Fv.	c #947D33",
"Gv.	c #947C33",
"Hv.	c #968034",
"Iv.	c #8E792A",
"Jv.	c #8D792B",
"Kv.	c #85732A",
"Lv.	c #86742A",
"Mv.	c #8A762A",
"Nv.	c #897427",
"Ov.	c #836E20",
"Pv.	c #826D1F",
"Qv.	c #836D1D",
"Rv.	c #84721F",
"Sv.	c #806E1D",
"Tv.	c #7C6D1C",
"Uv.	c #796C1C",
"Vv.	c #7A6C1E",
"Wv.	c #7E6C21",
"Xv.	c #7E6D23",
"Yv.	c #7E6E23",
"Zv.	c #827124",
"`v.	c #816E20",
" w.	c #877424",
".w.	c #877526",
"+w.	c #877627",
"@w.	c #867527",
"#w.	c #7C6C23",
"$w.	c #78691F",
"%w.	c #806C21",
"&w.	c #7B6C28",
"*w.	c #796A25",
"=w.	c #E8E264",
"-w.	c #E8E395",
";w.	c #ECDEC4",
">w.	c #ECE1CA",
",w.	c #EBD8C3",
"'w.	c #EBD4B9",
")w.	c #EBD5C5",
"!w.	c #E4C19E",
"~w.	c #C4A168",
"{w.	c #AB8C48",
"]w.	c #A38843",
"^w.	c #A48743",
"/w.	c #A68744",
"(w.	c #977C45",
"_w.	c #997F46",
":w.	c #9B843F",
"<w.	c #A18743",
"[w.	c #A18744",
"}w.	c #9D8443",
"|w.	c #9C8442",
"1w.	c #9A843E",
"2w.	c #9B8440",
"3w.	c #9B8441",
"4w.	c #9D8343",
"5w.	c #9A8340",
"6w.	c #99833D",
"7w.	c #99843C",
"8w.	c #9C8540",
"9w.	c #9E863F",
"0w.	c #99823A",
"aw.	c #988239",
"bw.	c #9A823D",
"cw.	c #99803C",
"dw.	c #99813C",
"ew.	c #947D36",
"fw.	c #8F7930",
"gw.	c #8F7A2E",
"hw.	c #937B2F",
"iw.	c #947C32",
"jw.	c #937B2D",
"kw.	c #947D30",
"lw.	c #937A2E",
"mw.	c #927A2E",
"nw.	c #907A2C",
"ow.	c #927A2D",
"pw.	c #8F7B2F",
"qw.	c #8D782A",
"rw.	c #8A7729",
"sw.	c #8C772A",
"tw.	c #867427",
"uw.	c #836F28",
"vw.	c #816F1E",
"ww.	c #84701F",
"xw.	c #7E6B1D",
"yw.	c #836E1F",
"zw.	c #816F1D",
"Aw.	c #83701D",
"Bw.	c #857223",
"Cw.	c #837122",
"Dw.	c #827222",
"Ew.	c #857420",
"Fw.	c #867526",
"Gw.	c #857526",
"Hw.	c #837124",
"Iw.	c #826E22",
"Jw.	c #7A6C24",
"Kw.	c #7D6E2A",
"Lw.	c #E8DF62",
"Mw.	c #E8E58D",
"Nw.	c #EBDEC4",
"Ow.	c #ECDEC8",
"Pw.	c #ECD3BC",
"Qw.	c #E9CBAF",
"Rw.	c #DCBB94",
"Sw.	c #C0A36D",
"Tw.	c #A0873D",
"Uw.	c #9B8244",
"Vw.	c #9D8344",
"Ww.	c #9D8542",
"Xw.	c #9C8440",
"Yw.	c #9C853E",
"Zw.	c #9A843D",
"`w.	c #9C8341",
" x.	c #9C8241",
".x.	c #99803B",
"+x.	c #967F38",
"@x.	c #978237",
"#x.	c #988438",
"$x.	c #978238",
"%x.	c #9A843F",
"&x.	c #9A7D43",
"*x.	c #9A8240",
"=x.	c #9C8142",
"-x.	c #99823F",
";x.	c #9B8340",
">x.	c #98823C",
",x.	c #98813B",
"'x.	c #99833B",
")x.	c #9B823F",
"!x.	c #98823A",
"~x.	c #99823C",
"{x.	c #9C8441",
"]x.	c #9E8542",
"^x.	c #A08643",
"/x.	c #9A843C",
"(x.	c #9C853D",
"_x.	c #98833A",
":x.	c #978138",
"<x.	c #97813A",
"[x.	c #957D38",
"}x.	c #957D37",
"|x.	c #987C3A",
"1x.	c #977C40",
"2x.	c #977F3A",
"3x.	c #937D35",
"4x.	c #917C35",
"5x.	c #917C34",
"6x.	c #907B31",
"7x.	c #907B2F",
"8x.	c #957E33",
"9x.	c #957F33",
"0x.	c #917A2D",
"ax.	c #957E31",
"bx.	c #947F2E",
"cx.	c #957E30",
"dx.	c #937B31",
"ex.	c #8E7A2D",
"fx.	c #89792B",
"gx.	c #846F29",
"hx.	c #847228",
"ix.	c #826C1E",
"jx.	c #836F1E",
"kx.	c #8A7627",
"lx.	c #8A7626",
"mx.	c #86721F",
"nx.	c #847020",
"ox.	c #827021",
"px.	c #7F6E21",
"qx.	c #877423",
"rx.	c #857123",
"sx.	c #827024",
"tx.	c #806E22",
"ux.	c #816F23",
"vx.	c #766723",
"wx.	c #786A22",
"xx.	c #796B24",
"yx.	c #7A6C26",
"zx.	c #EBDDC3",
"Ax.	c #ECDEC6",
"Bx.	c #EDD4C0",
"Cx.	c #E6CEAE",
"Dx.	c #DCBF91",
"Ex.	c #B4925C",
"Fx.	c #9C853F",
"Gx.	c #9D8442",
"Hx.	c #9A803F",
"Ix.	c #9A833F",
"Jx.	c #9B8342",
"Kx.	c #9E7D47",
"Lx.	c #9D8145",
"Mx.	c #9A8241",
"Nx.	c #968138",
"Ox.	c #978338",
"Px.	c #968037",
"Qx.	c #958037",
"Rx.	c #947E36",
"Sx.	c #937D36",
"Tx.	c #927C36",
"Ux.	c #907B34",
"Vx.	c #947D34",
"Wx.	c #957E35",
"Xx.	c #957F35",
"Yx.	c #968038",
"Zx.	c #968039",
"`x.	c #9A833E",
" y.	c #99843A",
".y.	c #99843B",
"+y.	c #957F37",
"@y.	c #967C38",
"#y.	c #947D35",
"$y.	c #937C32",
"%y.	c #927B2F",
"&y.	c #917B30",
"*y.	c #947B2E",
"=y.	c #978235",
"-y.	c #988336",
";y.	c #978532",
">y.	c #95822F",
",y.	c #937B2C",
"'y.	c #95802E",
")y.	c #957F30",
"!y.	c #968132",
"~y.	c #968032",
"{y.	c #958031",
"]y.	c #968033",
"^y.	c #947C2E",
"/y.	c #8F7A2C",
"(y.	c #89782A",
"_y.	c #836F25",
":y.	c #837020",
"<y.	c #837123",
"[y.	c #827023",
"}y.	c #7D6D21",
"|y.	c #7D6C21",
"1y.	c #806E23",
"2y.	c #806E26",
"3y.	c #7F6E26",
"4y.	c #7E6B25",
"5y.	c #796B23",
"6y.	c #806E2A",
"7y.	c #776B25",
"8y.	c #7B6D24",
"9y.	c #7A6C27",
"0y.	c #7B6C27",
"ay.	c #7B6E2A",
"by.	c #E7DD61",
"cy.	c #E9E686",
"dy.	c #EBDAC5",
"ey.	c #EBD9C1",
"fy.	c #ECDBC9",
"gy.	c #EDD6C5",
"hy.	c #ECD4BE",
"iy.	c #E7D2AE",
"jy.	c #DDBE95",
"ky.	c #B89C5E",
"ly.	c #A98B47",
"my.	c #98813D",
"ny.	c #947A3B",
"oy.	c #937741",
"py.	c #947B39",
"qy.	c #957D3C",
"ry.	c #9A7F46",
"sy.	c #967E3F",
"ty.	c #977F3B",
"uy.	c #988338",
"vy.	c #9B8341",
"wy.	c #968137",
"xy.	c #957F36",
"yy.	c #937C35",
"zy.	c #907B35",
"Ay.	c #937C36",
"By.	c #8D7A34",
"Cy.	c #927C33",
"Dy.	c #907C32",
"Ey.	c #927C32",
"Fy.	c #947E34",
"Gy.	c #947F36",
"Hy.	c #98833B",
"Iy.	c #947E35",
"Jy.	c #958035",
"Ky.	c #947E33",
"Ly.	c #937D30",
"My.	c #927E31",
"Ny.	c #957F32",
"Oy.	c #957F34",
"Py.	c #958030",
"Qy.	c #95822D",
"Ry.	c #957E2F",
"Sy.	c #967F31",
"Ty.	c #96832F",
"Uy.	c #978135",
"Vy.	c #967F34",
"Wy.	c #95822E",
"Xy.	c #947E2B",
"Yy.	c #957D30",
"Zy.	c #947C30",
"`y.	c #937C2F",
" z.	c #8F7B2E",
".z.	c #8D7A2D",
"+z.	c #84722B",
"@z.	c #826D28",
"#z.	c #7F6C26",
"$z.	c #7E6B1F",
"%z.	c #806C1D",
"&z.	c #84731E",
"*z.	c #867524",
"=z.	c #847320",
"-z.	c #85741F",
";z.	c #847321",
">z.	c #837223",
",z.	c #827022",
"'z.	c #837222",
")z.	c #7E7122",
"!z.	c #7D7224",
"~z.	c #7A7020",
"{z.	c #7B7021",
"]z.	c #7D7124",
"^z.	c #817224",
"/z.	c #7F7325",
"(z.	c #807325",
"_z.	c #807224",
":z.	c #7E7024",
"<z.	c #7D6F24",
"[z.	c #806F23",
"}z.	c #7E7125",
"|z.	c #817225",
"1z.	c #827427",
"2z.	c #807127",
"3z.	c #817126",
"4z.	c #827126",
"5z.	c #827127",
"6z.	c #816E24",
"7z.	c #806F24",
"8z.	c #796C24",
"9z.	c #7A6D26",
"0z.	c #786C25",
"az.	c #756B26",
"bz.	c #766A25",
"cz.	c #766B26",
"dz.	c #746B26",
"ez.	c #776C25",
"fz.	c #796D26",
"gz.	c #7C7029",
"hz.	c #7A6D2A",
"iz.	c #796D2A",
"jz.	c #7B6F2A",
"kz.	c #7B6E28",
"lz.	c #E9E978",
"mz.	c #E9D8AF",
"nz.	c #ECDFC7",
"oz.	c #EBDCBF",
"pz.	c #EBD8BC",
"qz.	c #ECDDC6",
"rz.	c #ECD8C4",
"sz.	c #ECD3C0",
"tz.	c #ECDFC8",
"uz.	c #EBD4B8",
"vz.	c #E1C9A7",
"wz.	c #CBAE7D",
"xz.	c #B19159",
"yz.	c #9F8945",
"zz.	c #A08945",
"Az.	c #97813B",
"Bz.	c #947E38",
"Cz.	c #967F39",
"Dz.	c #947942",
"Ez.	c #947D37",
"Fz.	c #947940",
"Gz.	c #977F3E",
"Hz.	c #967C40",
"Iz.	c #947D39",
"Jz.	c #997C3C",
"Kz.	c #8D7A33",
"Lz.	c #8C7A33",
"Mz.	c #8B7934",
"Nz.	c #8F7C35",
"Oz.	c #8B7A34",
"Pz.	c #8C7A34",
"Qz.	c #8E7B35",
"Rz.	c #8E7B31",
"Sz.	c #8E7B34",
"Tz.	c #8F7B35",
"Uz.	c #8E7C35",
"Vz.	c #8A7A2D",
"Wz.	c #8F7B31",
"Xz.	c #937C34",
"Yz.	c #937E36",
"Zz.	c #938034",
"`z.	c #927C35",
" A.	c #8F7B32",
".A.	c #8D7A2F",
"+A.	c #8C7A2F",
"@A.	c #8B7A2C",
"#A.	c #8A792B",
"$A.	c #8D7A2B",
"%A.	c #8E7B2E",
"&A.	c #8E7B2D",
"*A.	c #8F7C2F",
"=A.	c #927D30",
"-A.	c #907C2E",
";A.	c #8C792C",
">A.	c #8A792C",
",A.	c #907A2D",
"'A.	c #8F7B2B",
")A.	c #917B2D",
"!A.	c #917B2E",
"~A.	c #917E30",
"{A.	c #907B2D",
"]A.	c #927B2D",
"^A.	c #8E7A2B",
"/A.	c #8B7729",
"(A.	c #8A782D",
"_A.	c #8B7A2E",
":A.	c #8B7A2D",
"<A.	c #877727",
"[A.	c #89782B",
"}A.	c #89772A",
"|A.	c #7B6E21",
"1A.	c #7C6F24",
"2A.	c #7C6E23",
"3A.	c #7E6D21",
"4A.	c #7E6E20",
"5A.	c #7E6E21",
"6A.	c #7C6D21",
"7A.	c #7B6D21",
"8A.	c #7B6C21",
"9A.	c #786B1F",
"0A.	c #786C1E",
"aA.	c #7A701D",
"bA.	c #7B6F20",
"cA.	c #7A6E1F",
"dA.	c #7A6E22",
"eA.	c #796F20",
"fA.	c #7A6E21",
"gA.	c #796E20",
"hA.	c #786D21",
"iA.	c #776F1D",
"jA.	c #766E1C",
"kA.	c #776E1C",
"lA.	c #7A6D21",
"mA.	c #7E7023",
"nA.	c #817125",
"oA.	c #807024",
"pA.	c #807225",
"qA.	c #807125",
"rA.	c #7F7023",
"sA.	c #7B6E22",
"tA.	c #7D7126",
"uA.	c #7C7025",
"vA.	c #7C7225",
"wA.	c #7C7227",
"xA.	c #817326",
"yA.	c #7C7427",
"zA.	c #7C7228",
"AA.	c #7B6E24",
"BA.	c #7C7024",
"CA.	c #7C6E24",
"DA.	c #7D7025",
"EA.	c #7F7125",
"FA.	c #7C6E26",
"GA.	c #7A6D23",
"HA.	c #7A6C23",
"IA.	c #7B7028",
"JA.	c #7A6E25",
"KA.	c #7B702A",
"LA.	c #7A6E29",
"MA.	c #786E2A",
"NA.	c #756C2A",
"OA.	c #746B27",
"PA.	c #736A26",
"QA.	c #756C28",
"RA.	c #776D29",
"SA.	c #796F2A",
"TA.	c #7C702B",
"UA.	c #7C7329",
"VA.	c #7C732B",
"WA.	c #7B712C",
"XA.	c #786D2A",
"YA.	c #786D28",
"ZA.	c #7A6D28",
"`A.	c #776C27",
" B.	c #756C27",
".B.	c #746C26",
"+B.	c #E7DD62",
"@B.	c #E9E966",
"#B.	c #E9E883",
"$B.	c #E7D9AB",
"%B.	c #E6DAA7",
"&B.	c #EADABB",
"*B.	c #EBD8BE",
"=B.	c #EBD8BD",
"-B.	c #EBDEC1",
";B.	c #E0C79A",
">B.	c #C9AB67",
",B.	c #A79F39",
"'B.	c #9A8C34",
")B.	c #9D863C",
"!B.	c #9D873F",
"~B.	c #977E3F",
"{B.	c #98803D",
"]B.	c #927D36",
"^B.	c #967E39",
"/B.	c #957D3A",
"(B.	c #947C39",
"_B.	c #897833",
":B.	c #8E7A34",
"<B.	c #8B7932",
"[B.	c #8A7932",
"}B.	c #887833",
"|B.	c #867630",
"1B.	c #85762F",
"2B.	c #877732",
"3B.	c #867730",
"4B.	c #88782F",
"5B.	c #86762D",
"6B.	c #897930",
"7B.	c #8B7931",
"8B.	c #8C7A32",
"9B.	c #8D7B2F",
"0B.	c #927C34",
"aB.	c #8B7A31",
"bB.	c #8A792F",
"cB.	c #8B7930",
"dB.	c #8B792F",
"eB.	c #8C7933",
"fB.	c #8B7933",
"gB.	c #8D7A32",
"hB.	c #8E7A33",
"iB.	c #907C35",
"jB.	c #8E7B32",
"kB.	c #88782E",
"lB.	c #8A792E",
"mB.	c #8A792D",
"nB.	c #89792D",
"oB.	c #84742B",
"pB.	c #84752B",
"qB.	c #84752C",
"rB.	c #85762B",
"sB.	c #867628",
"tB.	c #8E7B30",
"uB.	c #8D7B30",
"vB.	c #8D7B2E",
"wB.	c #8E7C30",
"xB.	c #8F7C31",
"yB.	c #917E32",
"zB.	c #907D31",
"AB.	c #8F7D30",
"BB.	c #917D30",
"CB.	c #907C30",
"DB.	c #8E7C2F",
"EB.	c #927D31",
"FB.	c #917C31",
"GB.	c #917D31",
"HB.	c #937F33",
"IB.	c #8E792B",
"JB.	c #897628",
"KB.	c #8C7A2D",
"LB.	c #8A782B",
"MB.	c #89772B",
"NB.	c #867729",
"OB.	c #88762B",
"PB.	c #87772C",
"QB.	c #7E6F24",
"RB.	c #796C20",
"SB.	c #7C6E22",
"TB.	c #7A6D22",
"UB.	c #7C6D22",
"VB.	c #7D6D22",
"WB.	c #7E6E22",
"XB.	c #7B6C22",
"YB.	c #7A6A1F",
"ZB.	c #7A6E20",
"`B.	c #797021",
" C.	c #7A7022",
".C.	c #776D1C",
"+C.	c #776D1D",
"@C.	c #776E1D",
"#C.	c #786D1E",
"$C.	c #796B20",
"%C.	c #7A6C21",
"&C.	c #796D21",
"*C.	c #776B20",
"=C.	c #796B22",
"-C.	c #786A1F",
";C.	c #7B6E26",
">C.	c #786E24",
",C.	c #7C7125",
"'C.	c #7B7125",
")C.	c #7B7025",
"!C.	c #7C6F26",
"~C.	c #7C7026",
"{C.	c #7D722A",
"]C.	c #7D722B",
"^C.	c #7E7328",
"/C.	c #81732C",
"(C.	c #7C722B",
"_C.	c #7C7128",
":C.	c #7C6F25",
"<C.	c #756B23",
"[C.	c #756B22",
"}C.	c #766B23",
"|C.	c #766C24",
"1C.	c #7A6C25",
"2C.	c #786C26",
"3C.	c #756C29",
"4C.	c #766C28",
"5C.	c #796E2A",
"6C.	c #796F29",
"7C.	c #7B702B",
"8C.	c #7C722A",
"9C.	c #7C722C",
"0C.	c #7A712D",
"aC.	c #766C2A",
"bC.	c #736B26",
"cC.	c #746B25",
"dC.	c #716A27",
"eC.	c #6D6727",
"fC.	c #6F6928",
"gC.	c #E8DF63",
"hC.	c #E8E970",
"iC.	c #EBE786",
"jC.	c #E6DBA8",
"kC.	c #E7D9AA",
"lC.	c #E9D8B1",
"mC.	c #EADCBC",
"nC.	c #EBDFC3",
"oC.	c #EBDFC4",
"pC.	c #EADCBD",
"qC.	c #E9D8B2",
"rC.	c #E8D8B0",
"sC.	c #E8DAB1",
"tC.	c #E9DEAD",
"uC.	c #E0C898",
"vC.	c #C5AF6D",
"wC.	c #AA9D42",
"xC.	c #A69C30",
"yC.	c #A89E36",
"zC.	c #A7983A",
"AC.	c #998736",
"BC.	c #998236",
"CC.	c #988139",
"DC.	c #9D8541",
"EC.	c #978239",
"FC.	c #957F38",
"GC.	c #917D37",
"HC.	c #957F3A",
"IC.	c #947E37",
"JC.	c #937C38",
"KC.	c #927B37",
"LC.	c #8C7931",
"MC.	c #897933",
"NC.	c #877731",
"OC.	c #887831",
"PC.	c #877730",
"QC.	c #867731",
"RC.	c #84752F",
"SC.	c #887832",
"TC.	c #84742D",
"UC.	c #857531",
"VC.	c #85762D",
"WC.	c #85752E",
"XC.	c #87772F",
"YC.	c #89782E",
"ZC.	c #8F7B33",
"`C.	c #8D7A31",
" D.	c #8C7A2C",
".D.	c #88772B",
"+D.	c #85752B",
"@D.	c #82732A",
"#D.	c #83742D",
"$D.	c #84752E",
"%D.	c #86762C",
"&D.	c #87762D",
"*D.	c #87772E",
"=D.	c #87772D",
"-D.	c #84752A",
";D.	c #7F7027",
">D.	c #807126",
",D.	c #84712A",
"'D.	c #887829",
")D.	c #88772A",
"!D.	c #8B782A",
"~D.	c #917C30",
"{D.	c #8D7A2C",
"]D.	c #917D33",
"^D.	c #8A7A2B",
"/D.	c #7E7123",
"(D.	c #786F1E",
"_D.	c #796F1E",
":D.	c #7B711F",
"<D.	c #7B701F",
"[D.	c #7C7122",
"}D.	c #7C6F21",
"|D.	c #7F7223",
"1D.	c #7E7224",
"2D.	c #7E7124",
"3D.	c #7B7224",
"4D.	c #7B7124",
"5D.	c #796F21",
"6D.	c #7B7024",
"7D.	c #7A6F22",
"8D.	c #786A1E",
"9D.	c #776A1D",
"0D.	c #776B23",
"aD.	c #776D24",
"bD.	c #756B24",
"cD.	c #7A6D24",
"dD.	c #7A6E24",
"eD.	c #7B6F27",
"fD.	c #786D24",
"gD.	c #7B6E25",
"hD.	c #7C7027",
"iD.	c #7E732B",
"jD.	c #7B6E27",
"kD.	c #746B24",
"lD.	c #766D1D",
"mD.	c #756C1F",
"nD.	c #776B22",
"oD.	c #796D29",
"pD.	c #796D2B",
"qD.	c #7B712D",
"rD.	c #7B702C",
"sD.	c #7C712B",
"tD.	c #7A6F2B",
"uD.	c #7A702F",
"vD.	c #786E2C",
"wD.	c #78702E",
"xD.	c #776D2C",
"yD.	c #706928",
"zD.	c #6D6827",
"AD.	c #6C6727",
"BD.	c #E7DA5D",
"CD.	c #EAE764",
"DD.	c #EAE86A",
"ED.	c #EBE86A",
"FD.	c #E9E885",
"GD.	c #E8E09C",
"HD.	c #E7DEA0",
"ID.	c #E6DAA8",
"JD.	c #E6DBA6",
"KD.	c #E7DCA4",
"LD.	c #E7DEA1",
"MD.	c #E9E790",
"ND.	c #E1DE6B",
"OD.	c #DAD55E",
"PD.	c #D8D85E",
"QD.	c #DED35F",
"RD.	c #DFD362",
"SD.	c #DBCD62",
"TD.	c #9B8634",
"UD.	c #85742B",
"VD.	c #8A782F",
"WD.	c #958136",
"XD.	c #978139",
"YD.	c #99833C",
"ZD.	c #907B30",
"`D.	c #917B32",
" E.	c #86752F",
".E.	c #84732E",
"+E.	c #857632",
"@E.	c #827531",
"#E.	c #807432",
"$E.	c #817430",
"%E.	c #7F7331",
"&E.	c #7E712E",
"*E.	c #7F702C",
"=E.	c #7D7231",
"-E.	c #7B702E",
";E.	c #7F732F",
">E.	c #80702B",
",E.	c #83742F",
"'E.	c #867530",
")E.	c #85742F",
"!E.	c #897931",
"~E.	c #897830",
"{E.	c #85762E",
"]E.	c #83752E",
"^E.	c #89782C",
"/E.	c #89792C",
"(E.	c #86772C",
"_E.	c #88782B",
":E.	c #88772D",
"<E.	c #88782D",
"[E.	c #89762C",
"}E.	c #8B792D",
"|E.	c #8C7A2E",
"1E.	c #8A7A2C",
"2E.	c #8B792C",
"3E.	c #8A772C",
"4E.	c #8C792D",
"5E.	c #897729",
"6E.	c #7A7222",
"7E.	c #7D7122",
"8E.	c #807326",
"9E.	c #7C6F23",
"0E.	c #7F7122",
"aE.	c #827224",
"bE.	c #7B7022",
"cE.	c #7D7225",
"dE.	c #807426",
"eE.	c #827527",
"fE.	c #7F7224",
"gE.	c #7B7123",
"hE.	c #7F7124",
"iE.	c #7D7024",
"jE.	c #81732A",
"kE.	c #7D7127",
"lE.	c #7D7226",
"mE.	c #7B7027",
"nE.	c #7E712A",
"oE.	c #7C7129",
"pE.	c #7C712A",
"qE.	c #786B24",
"rE.	c #7C6E29",
"sE.	c #7B722F",
"tE.	c #827530",
"uE.	c #7B712E",
"vE.	c #7B6F2D",
"wE.	c #7A6F2C",
"xE.	c #776E2A",
"yE.	c #776E2D",
"zE.	c #766D2D",
"AE.	c #716A29",
"BE.	c #6E6828",
"CE.	c #E3BF23",
"DE.	c #EEC929",
"EE.	c #F0C928",
"FE.	c #EFC828",
"GE.	c #F0C825",
"HE.	c #F1C923",
"IE.	c #F1C922",
"JE.	c #EFC822",
"KE.	c #F0C822",
"LE.	c #F0C821",
"ME.	c #EDD03C",
"NE.	c #EBE763",
"OE.	c #EAE86F",
"PE.	c #EAE873",
"QE.	c #EAE876",
"RE.	c #EAE874",
"SE.	c #E9E979",
"TE.	c #E9E975",
"UE.	c #E8E165",
"VE.	c #AC973A",
"WE.	c #927D34",
"XE.	c #988439",
"YE.	c #927E35",
"ZE.	c #917E34",
"`E.	c #917D34",
" F.	c #947F33",
".F.	c #927D2E",
"+F.	c #8D7829",
"@F.	c #8D782D",
"#F.	c #8C772B",
"$F.	c #8D782F",
"%F.	c #8E7A31",
"&F.	c #87752F",
"*F.	c #81702B",
"=F.	c #7F702B",
"-F.	c #82712B",
";F.	c #7C7130",
">F.	c #7A7032",
",F.	c #796E2F",
"'F.	c #787032",
")F.	c #787033",
"!F.	c #7D7131",
"~F.	c #82732E",
"{F.	c #857630",
"]F.	c #85752F",
"^F.	c #847530",
"/F.	c #80722D",
"(F.	c #83732D",
"_F.	c #83742E",
":F.	c #8A7832",
"<F.	c #877630",
"[F.	c #84762F",
"}F.	c #86762E",
"|F.	c #87772A",
"1F.	c #877829",
"2F.	c #86762B",
"3F.	c #8E7B2F",
"4F.	c #867528",
"5F.	c #86772B",
"6F.	c #837327",
"7F.	c #7C6E21",
"8F.	c #786E21",
"9F.	c #786A1D",
"0F.	c #776B1D",
"aF.	c #776C1D",
"bF.	c #786D20",
"cF.	c #786F1F",
"dF.	c #796E21",
"eF.	c #796E22",
"fF.	c #7B6F23",
"gF.	c #7D6F25",
"hF.	c #776C24",
"iF.	c #796D25",
"jF.	c #7A6F27",
"kF.	c #786D26",
"lF.	c #796C25",
"mF.	c #7A6E26",
"nF.	c #796F26",
"oF.	c #7B6E29",
"pF.	c #7D7125",
"qF.	c #7D6F26",
"rF.	c #7E7329",
"sF.	c #7E7229",
"tF.	c #7F722B",
"uF.	c #7A6D2B",
"vF.	c #7A6F2A",
"wF.	c #796F28",
"xF.	c #7B712B",
"yF.	c #766D2B",
"zF.	c #796F2F",
"AF.	c #726A29",
"BF.	c #5F6420",
"CF.	c #EEBF12",
"DF.	c #EEC615",
"EF.	c #F1C513",
"FF.	c #F2C412",
"GF.	c #F2C50F",
"HF.	c #F1C511",
"IF.	c #EEC71A",
"JF.	c #EDDC4D",
"KF.	c #E6D963",
"LF.	c #AF9D39",
"MF.	c #9F8A34",
"NF.	c #937E32",
"OF.	c #968035",
"PF.	c #937F34",
"QF.	c #88792A",
"RF.	c #877427",
"SF.	c #8B782B",
"TF.	c #937C2C",
"UF.	c #907929",
"VF.	c #887628",
"WF.	c #8D772A",
"XF.	c #88742B",
"YF.	c #867529",
"ZF.	c #86752D",
"`F.	c #82722B",
" G.	c #81722B",
".G.	c #7D702C",
"+G.	c #7B6F2B",
"@G.	c #7A6E2E",
"#G.	c #7A6E2C",
"$G.	c #7C712C",
"%G.	c #7F7330",
"&G.	c #837633",
"*G.	c #847633",
"=G.	c #897832",
"-G.	c #83732E",
";G.	c #84752D",
">G.	c #80722C",
",G.	c #7E722B",
"'G.	c #89772F",
")G.	c #89782F",
"!G.	c #8A7A2E",
"~G.	c #8D7C2E",
"{G.	c #907D30",
"]G.	c #907C2F",
"^G.	c #917C2F",
"/G.	c #88772C",
"(G.	c #83742A",
"_G.	c #87772B",
":G.	c #867627",
"<G.	c #817427",
"[G.	c #766920",
"}G.	c #786C22",
"|G.	c #776C22",
"1G.	c #776A21",
"2G.	c #796B1F",
"3G.	c #786D1F",
"4G.	c #776920",
"5G.	c #766B24",
"6G.	c #776A22",
"7G.	c #77681E",
"8G.	c #77691F",
"9G.	c #77691E",
"0G.	c #766921",
"aG.	c #756A22",
"bG.	c #766B25",
"cG.	c #776D28",
"dG.	c #796C28",
"eG.	c #796C27",
"fG.	c #766C26",
"gG.	c #7E7129",
"hG.	c #7F712A",
"iG.	c #80732B",
"jG.	c #80732C",
"kG.	c #82752E",
"lG.	c #80742E",
"mG.	c #7A712F",
"nG.	c #7A702B",
"oG.	c #786E29",
"pG.	c #7A702C",
"qG.	c #7C7229",
"rG.	c #7B7229",
"sG.	c #776D26",
"tG.	c #766D29",
"uG.	c #746B28",
"vG.	c #706927",
"wG.	c #6A6726",
"xG.	c #EEBD11",
"yG.	c #F0C513",
"zG.	c #EDDC4C",
"AG.	c #EAE064",
"BG.	c #B09E38",
"CG.	c #A48C32",
"DG.	c #907B2E",
"EG.	c #8E7A2F",
"FG.	c #8D7A2E",
"GG.	c #8D7B2D",
"HG.	c #947F32",
"IG.	c #927B2E",
"JG.	c #867429",
"KG.	c #847129",
"LG.	c #7E6E25",
"MG.	c #847229",
"NG.	c #87762E",
"OG.	c #87762C",
"PG.	c #8C7930",
"QG.	c #8A7930",
"RG.	c #8A7933",
"SG.	c #8A7934",
"TG.	c #81712B",
"UG.	c #80722B",
"VG.	c #7D6F2B",
"WG.	c #7E6F28",
"XG.	c #81712C",
"YG.	c #7E722C",
"ZG.	c #82742C",
"`G.	c #84742C",
" H.	c #89782D",
".H.	c #89792F",
"+H.	c #897831",
"@H.	c #88782C",
"#H.	c #85762C",
"$H.	c #86762A",
"%H.	c #85752A",
"&H.	c #837528",
"*H.	c #817329",
"=H.	c #766B22",
"-H.	c #756A21",
";H.	c #766A22",
">H.	c #766A21",
",H.	c #766D22",
"'H.	c #786C20",
")H.	c #796C23",
"!H.	c #786B23",
"~H.	c #746A24",
"{H.	c #726A25",
"]H.	c #756C25",
"^H.	c #736925",
"/H.	c #736927",
"(H.	c #736926",
"_H.	c #756A24",
":H.	c #756C26",
"<H.	c #766A24",
"[H.	c #7C702C",
"}H.	c #7A702A",
"|H.	c #7A7029",
"1H.	c #7C732A",
"2H.	c #7B712A",
"3H.	c #746C2A",
"4H.	c #EEBC11",
"5H.	c #EFC413",
"6H.	c #ECE367",
"7H.	c #AD9F33",
"8H.	c #A38C31",
"9H.	c #9A8435",
"0H.	c #978236",
"aH.	c #947C34",
"bH.	c #927D33",
"cH.	c #8D7A30",
"dH.	c #937E33",
"eH.	c #8F7B30",
"fH.	c #8B782D",
"gH.	c #867229",
"hH.	c #857128",
"iH.	c #86772A",
"jH.	c #87782A",
"kH.	c #877528",
"lH.	c #88762C",
"mH.	c #87752E",
"nH.	c #89772E",
"oH.	c #89792E",
"pH.	c #81712E",
"qH.	c #83732F",
"rH.	c #7C6E2B",
"sH.	c #766E2E",
"tH.	c #7E712F",
"uH.	c #7D712F",
"vH.	c #827532",
"wH.	c #84742F",
"xH.	c #7C6D27",
"yH.	c #7E6D29",
"zH.	c #7C702A",
"AH.	c #86762F",
"BH.	c #83752D",
"CH.	c #82742B",
"DH.	c #85752C",
"EH.	c #81742C",
"FH.	c #837529",
"GH.	c #83742B",
"HH.	c #7F732A",
"IH.	c #7B6F26",
"JH.	c #796C22",
"KH.	c #796F22",
"LH.	c #786E1F",
"MH.	c #786B1E",
"NH.	c #766822",
"OH.	c #746823",
"PH.	c #716825",
"QH.	c #736823",
"RH.	c #746924",
"SH.	c #716725",
"TH.	c #6F6826",
"UH.	c #756824",
"VH.	c #726A26",
"WH.	c #726A27",
"XH.	c #736B27",
"YH.	c #746A26",
"ZH.	c #756A25",
"`H.	c #756926",
" I.	c #766826",
".I.	c #746826",
"+I.	c #746825",
"@I.	c #786826",
"#I.	c #776825",
"$I.	c #776824",
"%I.	c #766823",
"&I.	c #7A6E27",
"*I.	c #786D2C",
"=I.	c #796E2D",
"-I.	c #776B26",
";I.	c #776A25",
">I.	c #776C29",
",I.	c #776D2A",
"'I.	c #776C2A",
")I.	c #736B29",
"!I.	c #ECBA14",
"~I.	c #F1C311",
"{I.	c #F1C111",
"]I.	c #EFC615",
"^I.	c #EDE769",
"/I.	c #B8A541",
"(I.	c #9F9032",
"_I.	c #967F33",
":I.	c #927E2E",
"<I.	c #937E31",
"[I.	c #8D7931",
"}I.	c #7F7031",
"|I.	c #7A6D2C",
"1I.	c #6A5D24",
"2I.	c #685623",
"3I.	c #5F4F21",
"4I.	c #56491B",
"5I.	c #55491B",
"6I.	c #564A1B",
"7I.	c #584B1C",
"8I.	c #564C1C",
"9I.	c #5F501C",
"0I.	c #665B22",
"aI.	c #696225",
"bI.	c #6E6325",
"cI.	c #776926",
"dI.	c #80702C",
"eI.	c #826F2D",
"fI.	c #83722C",
"gI.	c #83722E",
"hI.	c #837530",
"iI.	c #786E2D",
"jI.	c #706929",
"kI.	c #6E6726",
"lI.	c #6E642A",
"mI.	c #695725",
"nI.	c #615A21",
"oI.	c #625D22",
"pI.	c #6A5E29",
"qI.	c #6A6026",
"rI.	c #80712E",
"sI.	c #81722E",
"tI.	c #806F2A",
"uI.	c #7C6C29",
"vI.	c #7F712B",
"wI.	c #80712B",
"xI.	c #82742F",
"yI.	c #7E712B",
"zI.	c #80732A",
"AI.	c #776922",
"BI.	c #776921",
"CI.	c #756A23",
"DI.	c #736A24",
"EI.	c #756C23",
"FI.	c #776E23",
"GI.	c #796E23",
"HI.	c #796D22",
"II.	c #776821",
"JI.	c #776822",
"KI.	c #746822",
"LI.	c #766821",
"MI.	c #736825",
"NI.	c #756624",
"OI.	c #746624",
"PI.	c #756A27",
"QI.	c #746A25",
"RI.	c #706826",
"SI.	c #766724",
"TI.	c #716927",
"UI.	c #736B28",
"VI.	c #786C27",
"WI.	c #766C29",
"XI.	c #766926",
"YI.	c #766924",
"ZI.	c #756924",
"`I.	c #756925",
" J.	c #756927",
".J.	c #786D27",
"+J.	c #786E28",
"@J.	c #786F28",
"#J.	c #7A6F28",
"$J.	c #786B26",
"%J.	c #7A6E2B",
"&J.	c #766825",
"*J.	c #756B27",
"=J.	c #776D2D",
"-J.	c #726A28",
";J.	c #E4AC17",
">J.	c #F0C110",
",J.	c #F1C210",
"'J.	c #EFBE11",
")J.	c #F1C112",
"!J.	c #F0C815",
"~J.	c #ECE869",
"{J.	c #BCAF3F",
"]J.	c #A48E30",
"^J.	c #96852E",
"/J.	c #947D2F",
"(J.	c #968036",
"_J.	c #937C30",
":J.	c #907C31",
"<J.	c #907D32",
"[J.	c #86732B",
"}J.	c #7F6A2C",
"|J.	c #635521",
"1J.	c #52461B",
"2J.	c #50461C",
"3J.	c #473E1D",
"4J.	c #413817",
"5J.	c #39351A",
"6J.	c #3A361B",
"7J.	c #433919",
"8J.	c #463B1C",
"9J.	c #4D411D",
"0J.	c #595027",
"aJ.	c #66592B",
"bJ.	c #71662B",
"cJ.	c #766B2A",
"dJ.	c #8A7830",
"eJ.	c #8B7A30",
"fJ.	c #8A7731",
"gJ.	c #7B6D2B",
"hJ.	c #75672A",
"iJ.	c #70642A",
"jJ.	c #615821",
"kJ.	c #5B5421",
"lJ.	c #544B20",
"mJ.	c #49451D",
"nJ.	c #48451D",
"oJ.	c #46421B",
"pJ.	c #514322",
"qJ.	c #52461D",
"rJ.	c #5B4D23",
"sJ.	c #66541C",
"tJ.	c #735D21",
"uJ.	c #7A6923",
"vJ.	c #837128",
"wJ.	c #817029",
"xJ.	c #7A6B28",
"yJ.	c #7F6E2A",
"zJ.	c #7D712B",
"AJ.	c #7F732C",
"BJ.	c #7F732B",
"CJ.	c #84762D",
"DJ.	c #857528",
"EJ.	c #85742A",
"FJ.	c #766C25",
"GJ.	c #766A20",
"HJ.	c #756D1F",
"IJ.	c #756C20",
"JJ.	c #766C1E",
"KJ.	c #756821",
"LJ.	c #766820",
"MJ.	c #786A24",
"NJ.	c #776A23",
"OJ.	c #756823",
"PJ.	c #766624",
"QJ.	c #746724",
"RJ.	c #726926",
"SJ.	c #716925",
"TJ.	c #746925",
"UJ.	c #766B28",
"VJ.	c #766925",
"WJ.	c #776B27",
"XJ.	c #796D28",
"YJ.	c #796E28",
"ZJ.	c #797029",
"`J.	c #7B6F29",
" K.	c #7D712A",
".K.	c #786C2A",
"+K.	c #776B28",
"@K.	c #786C28",
"#K.	c #786C29",
"$K.	c #766D2A",
"%K.	c #776B29",
"&K.	c #746C29",
"*K.	c #EFBD11",
"=K.	c #F2C312",
"-K.	c #F1C211",
";K.	c #F2C712",
">K.	c #F0C714",
",K.	c #E8E766",
"'K.	c #BBB237",
")K.	c #A5972E",
"!K.	c #968B27",
"~K.	c #937E2B",
"{K.	c #998239",
"]K.	c #8E7A2E",
"^K.	c #857029",
"/K.	c #725B28",
"(K.	c #614F1D",
"_K.	c #50451C",
":K.	c #46401C",
"<K.	c #443C1B",
"[K.	c #423B21",
"}K.	c #3F3A1C",
"|K.	c #383419",
"1K.	c #363116",
"2K.	c #3B361F",
"3K.	c #433F22",
"4K.	c #4D4422",
"5K.	c #5A5323",
"6K.	c #666025",
"7K.	c #917E36",
"8K.	c #937F36",
"9K.	c #6F662A",
"0K.	c #685D2E",
"aK.	c #544926",
"bK.	c #4C421D",
"cK.	c #4A411C",
"dK.	c #463D1A",
"eK.	c #463E1A",
"fK.	c #443D1B",
"gK.	c #403B1B",
"hK.	c #3C381A",
"iK.	c #3A371A",
"jK.	c #49461C",
"kK.	c #5C531D",
"lK.	c #776524",
"mK.	c #857429",
"nK.	c #846E28",
"oK.	c #7F702A",
"pK.	c #7C6F2A",
"qK.	c #7E6F2B",
"rK.	c #826F2B",
"sK.	c #80712C",
"tK.	c #82722D",
"uK.	c #82702C",
"vK.	c #80712D",
"wK.	c #7B7029",
"xK.	c #7A6F29",
"yK.	c #82752F",
"zK.	c #7C6F28",
"AK.	c #7D702A",
"BK.	c #7E722E",
"CK.	c #80732D",
"DK.	c #80732E",
"EK.	c #7D722D",
"FK.	c #7D732C",
"GK.	c #7D722E",
"HK.	c #706926",
"IK.	c #6E6826",
"JK.	c #6D6624",
"KK.	c #6F6825",
"LK.	c #736A27",
"MK.	c #726925",
"NK.	c #746A22",
"OK.	c #756B20",
"PK.	c #766C1F",
"QK.	c #756A20",
"RK.	c #736A23",
"SK.	c #716A25",
"TK.	c #776C26",
"UK.	c #756923",
"VK.	c #766B27",
"WK.	c #756A26",
"XK.	c #776A26",
"YK.	c #756B28",
"ZK.	c #756B29",
"`K.	c #796D27",
" L.	c #786F29",
".L.	c #796E27",
"+L.	c #7B7129",
"@L.	c #7A6E2A",
"#L.	c #776C28",
"$L.	c #766D28",
"%L.	c #766927",
"&L.	c #766A26",
"*L.	c #766C27",
"=L.	c #766B29",
"-L.	c #746927",
";L.	c #EBB716",
">L.	c #F1C212",
",L.	c #F0C613",
"'L.	c #E8E772",
")L.	c #B2A644",
"!L.	c #8C822E",
"~L.	c #725F27",
"{L.	c #625626",
"]L.	c #4E441F",
"^L.	c #413819",
"/L.	c #3D371A",
"(L.	c #3D3A1E",
"_L.	c #3B371B",
":L.	c #3C391C",
"<L.	c #4D4222",
"[L.	c #524523",
"}L.	c #605329",
"|L.	c #66572B",
"1L.	c #69612E",
"2L.	c #8D7B31",
"3L.	c #6E6327",
"4L.	c #5D5525",
"5L.	c #4A411A",
"6L.	c #3D3919",
"7L.	c #383318",
"8L.	c #3A3519",
"9L.	c #363015",
"0L.	c #38351A",
"aL.	c #3F3922",
"bL.	c #413A1C",
"cL.	c #534B21",
"dL.	c #655922",
"eL.	c #736723",
"fL.	c #786A20",
"gL.	c #826F27",
"hL.	c #826F29",
"iL.	c #7F6F29",
"jL.	c #84732B",
"kL.	c #7C6C26",
"lL.	c #7F6F2B",
"mL.	c #82722C",
"nL.	c #83712C",
"oL.	c #7C702E",
"pL.	c #7C6F2B",
"qL.	c #7D702B",
"rL.	c #81742D",
"sL.	c #7E732E",
"tL.	c #7A7130",
"uL.	c #7B702D",
"vL.	c #797031",
"wL.	c #776F30",
"xL.	c #797131",
"yL.	c #797032",
"zL.	c #766D2C",
"AL.	c #746C2D",
"BL.	c #726A2A",
"CL.	c #6C6827",
"DL.	c #666624",
"EL.	c #6B6726",
"FL.	c #6E6827",
"GL.	c #746B23",
"HL.	c #706824",
"IL.	c #716724",
"JL.	c #746A23",
"KL.	c #786D25",
"LL.	c #786B25",
"ML.	c #756C24",
"NL.	c #776A24",
"OL.	c #7E7227",
"PL.	c #7A6D25",
"QL.	c #7A6D29",
"RL.	c #706828",
"SL.	c #F0C011",
"TL.	c #EFC613",
"UL.	c #E6E389",
"VL.	c #746733",
"WL.	c #4A3B18",
"XL.	c #4B3F19",
"YL.	c #423B1D",
"ZL.	c #3C371C",
"`L.	c #373419",
" M.	c #363318",
".M.	c #40391B",
"+M.	c #544A20",
"@M.	c #5D5523",
"#M.	c #6A632A",
"$M.	c #6E6725",
"%M.	c #7F702D",
"&M.	c #927E34",
"*M.	c #978835",
"=M.	c #988434",
"-M.	c #9B8633",
";M.	c #96852C",
">M.	c #89772D",
",M.	c #7D6C2F",
"'M.	c #6B5D25",
")M.	c #574D21",
"!M.	c #4B411B",
"~M.	c #413818",
"{M.	c #413718",
"]M.	c #423B1A",
"^M.	c #393418",
"/M.	c #352F1B",
"(M.	c #352E22",
"_M.	c #363216",
":M.	c #41391A",
"<M.	c #443F1A",
"[M.	c #4E4B1E",
"}M.	c #5C5528",
"|M.	c #70602C",
"1M.	c #806F22",
"2M.	c #7E6F29",
"3M.	c #807129",
"4M.	c #867631",
"5M.	c #81732E",
"6M.	c #82742E",
"7M.	c #80742D",
"8M.	c #7D6F27",
"9M.	c #7E722A",
"0M.	c #7D732A",
"aM.	c #7D7027",
"bM.	c #79702D",
"cM.	c #7A702D",
"dM.	c #786F2C",
"eM.	c #796F2E",
"fM.	c #756D2E",
"gM.	c #746C2C",
"hM.	c #756D2D",
"iM.	c #736C2C",
"jM.	c #756C2B",
"kM.	c #746B2A",
"lM.	c #6F6828",
"mM.	c #736A25",
"nM.	c #736923",
"oM.	c #746821",
"pM.	c #726725",
"qM.	c #766922",
"rM.	c #766A23",
"sM.	c #796D24",
"tM.	c #776D23",
"uM.	c #766D25",
"vM.	c #776D27",
"wM.	c #786E27",
"xM.	c #796C29",
"yM.	c #756B25",
"zM.	c #756A28",
"AM.	c #726B29",
"BM.	c #E9B518",
"CM.	c #EFC012",
"DM.	c #F1C310",
"EM.	c #F3C814",
"FM.	c #EDDB4C",
"GM.	c #E9E972",
"HM.	c #E6E586",
"IM.	c #686025",
"JM.	c #473F1B",
"KM.	c #453A1D",
"LM.	c #3E381E",
"MM.	c #45401B",
"NM.	c #514821",
"OM.	c #605926",
"PM.	c #6F6229",
"QM.	c #907E31",
"RM.	c #8E7B2C",
"SM.	c #8E782B",
"TM.	c #85722C",
"UM.	c #948036",
"VM.	c #958539",
"WM.	c #9A8F36",
"XM.	c #917F38",
"YM.	c #8B7A38",
"ZM.	c #837233",
"`M.	c #635725",
" N.	c #53491E",
".N.	c #4B411C",
"+N.	c #433A1C",
"@N.	c #3D381A",
"#N.	c #363115",
"$N.	c #3B361A",
"%N.	c #3E381A",
"&N.	c #443A19",
"*N.	c #463B1A",
"=N.	c #46401B",
"-N.	c #554E20",
";N.	c #5D5524",
">N.	c #716726",
",N.	c #756A29",
"'N.	c #7F6B24",
")N.	c #807027",
"!N.	c #847429",
"~N.	c #867728",
"{N.	c #816F26",
"]N.	c #827129",
"^N.	c #80712A",
"/N.	c #877832",
"(N.	c #7F712D",
"_N.	c #7D712D",
":N.	c #7B6F2E",
"<N.	c #7A7132",
"[N.	c #7D7229",
"}N.	c #786F2E",
"|N.	c #726927",
"1N.	c #746C28",
"2N.	c #736B25",
"3N.	c #7C6F29",
"4N.	c #776A27",
"5N.	c #786B28",
"6N.	c #786D2B",
"7N.	c #766C2B",
"8N.	c #E4AE1C",
"9N.	c #F1C312",
"0N.	c #F1C815",
"aN.	c #EFD449",
"bN.	c #E9E973",
"cN.	c #E6E686",
"dN.	c #736F2C",
"eN.	c #4F4521",
"fN.	c #4B4219",
"gN.	c #504722",
"hN.	c #5B4D24",
"iN.	c #645A27",
"jN.	c #73652B",
"kN.	c #887830",
"lN.	c #917D35",
"mN.	c #907E2F",
"nN.	c #907A2B",
"oN.	c #8E7E2B",
"pN.	c #93842C",
"qN.	c #978732",
"rN.	c #887631",
"sN.	c #84722E",
"tN.	c #776A2A",
"uN.	c #6A662D",
"vN.	c #50491D",
"wN.	c #453D1A",
"xN.	c #40391A",
"yN.	c #3C371B",
"zN.	c #3F381A",
"AN.	c #3C371A",
"BN.	c #373318",
"CN.	c #514420",
"DN.	c #5A4D26",
"EN.	c #5D5028",
"FN.	c #665F27",
"GN.	c #6E6628",
"HN.	c #746926",
"IN.	c #7B6B25",
"JN.	c #817129",
"KN.	c #87752B",
"LN.	c #847029",
"MN.	c #817027",
"NN.	c #807026",
"ON.	c #7E6E27",
"PN.	c #7E702A",
"QN.	c #877833",
"RN.	c #7B7131",
"SN.	c #7D712E",
"TN.	c #7E7230",
"UN.	c #8A7A32",
"VN.	c #8B7A32",
"WN.	c #80732F",
"XN.	c #7F742E",
"YN.	c #7D742A",
"ZN.	c #80742C",
"`N.	c #7D732B",
" O.	c #7A712B",
".O.	c #797229",
"+O.	c #797127",
"@O.	c #746B29",
"#O.	c #716926",
"$O.	c #786B27",
"%O.	c #7B6F28",
"&O.	c #7C7126",
"*O.	c #766A27",
"=O.	c #766A28",
"-O.	c #EED23C",
";O.	c #E7E77C",
">O.	c #8F832E",
",O.	c #67561C",
"'O.	c #786528",
")O.	c #928130",
"!O.	c #998233",
"~O.	c #988530",
"{O.	c #938031",
"]O.	c #948032",
"^O.	c #8E7C31",
"/O.	c #8E7C34",
"(O.	c #8F7C34",
"_O.	c #726327",
":O.	c #625428",
"<O.	c #4C421B",
"[O.	c #433C1B",
"}O.	c #3D3719",
"|O.	c #3A361A",
"1O.	c #3A371C",
"2O.	c #38331B",
"3O.	c #3A3314",
"4O.	c #4A4318",
"5O.	c #605920",
"6O.	c #685F20",
"7O.	c #706624",
"8O.	c #726823",
"9O.	c #776D25",
"0O.	c #847528",
"aO.	c #897D2A",
"bO.	c #877629",
"cO.	c #827025",
"dO.	c #7F7029",
"eO.	c #82712C",
"fO.	c #84712C",
"gO.	c #84722C",
"hO.	c #88772F",
"iO.	c #84732C",
"jO.	c #81732D",
"kO.	c #7F722A",
"lO.	c #83752F",
"mO.	c #81742B",
"nO.	c #84742A",
"oO.	c #81742A",
"pO.	c #80752A",
"qO.	c #7E7629",
"rO.	c #82762C",
"sO.	c #7D7329",
"tO.	c #797027",
"uO.	c #7B7328",
"vO.	c #7A7529",
"wO.	c #786F27",
"xO.	c #716A28",
"yO.	c #6F6926",
"zO.	c #766923",
"AO.	c #786926",
"BO.	c #7D6F29",
"CO.	c #7A6C29",
"DO.	c #746C2B",
"EO.	c #6F6929",
"FO.	c #E8B419",
"GO.	c #F0C614",
"HO.	c #EDD342",
"IO.	c #E8E872",
"JO.	c #BFB03D",
"KO.	c #9C922A",
"LO.	c #958A2B",
"MO.	c #95882B",
"NO.	c #8E812C",
"OO.	c #88752D",
"PO.	c #73621F",
"QO.	c #675920",
"RO.	c #625620",
"SO.	c #564C1E",
"TO.	c #51441B",
"UO.	c #473B19",
"VO.	c #453C19",
"WO.	c #3C3619",
"XO.	c #373418",
"YO.	c #3C3215",
"ZO.	c #594D1E",
"`O.	c #685C25",
" P.	c #7F7527",
".P.	c #857A28",
"+P.	c #897C2B",
"@P.	c #857527",
"#P.	c #827425",
"$P.	c #87762A",
"%P.	c #87752C",
"&P.	c #847428",
"*P.	c #827229",
"=P.	c #807229",
"-P.	c #847630",
";P.	c #7D702D",
">P.	c #8A7931",
",P.	c #85732C",
"'P.	c #87782B",
")P.	c #847329",
"!P.	c #83752B",
"~P.	c #86772D",
"{P.	c #837429",
"]P.	c #83732A",
"^P.	c #85772E",
"/P.	c #83752C",
"(P.	c #7C712E",
"_P.	c #7C712D",
":P.	c #7A6F2E",
"<P.	c #776E2C",
"[P.	c #6F6827",
"}P.	c #6D6726",
"|P.	c #736924",
"1P.	c #736725",
"2P.	c #756922",
"3P.	c #776A28",
"4P.	c #756D2C",
"5P.	c #E7B31A",
"6P.	c #F2C410",
"7P.	c #F0C112",
"8P.	c #F2C711",
"9P.	c #EFC614",
"0P.	c #EBD449",
"aP.	c #E9E767",
"bP.	c #C2B43F",
"cP.	c #867825",
"dP.	c #64551E",
"eP.	c #5A4D1A",
"fP.	c #504619",
"gP.	c #4E4519",
"hP.	c #4A431B",
"iP.	c #47401B",
"jP.	c #3A371B",
"kP.	c #4A4020",
"lP.	c #534921",
"mP.	c #655621",
"nP.	c #695D24",
"oP.	c #6F6526",
"pP.	c #6D6822",
"qP.	c #7A6C2D",
"rP.	c #837328",
"sP.	c #817425",
"tP.	c #857422",
"uP.	c #817124",
"vP.	c #877626",
"wP.	c #847527",
"xP.	c #847729",
"yP.	c #83752A",
"zP.	c #7E6F2A",
"AP.	c #86772E",
"BP.	c #8C7A2B",
"CP.	c #8F7B2D",
"DP.	c #8C7B32",
"EP.	c #8A7C31",
"FP.	c #8C7B30",
"GP.	c #83772A",
"HP.	c #85792C",
"IP.	c #82732B",
"JP.	c #82742A",
"KP.	c #7F7129",
"LP.	c #81742F",
"MP.	c #81792B",
"NP.	c #796E29",
"OP.	c #776E26",
"PP.	c #766C23",
"QP.	c #7A6F24",
"RP.	c #776924",
"SP.	c #786B22",
"TP.	c #766D24",
"UP.	c #776925",
"VP.	c #776E2E",
"WP.	c #E4AE1D",
"XP.	c #EFBF12",
"YP.	c #EBD54C",
"ZP.	c #E7E76B",
"`P.	c #B7A442",
" Q.	c #674F18",
".Q.	c #564B18",
"+Q.	c #564B1A",
"@Q.	c #53491D",
"#Q.	c #48411B",
"$Q.	c #48421B",
"%Q.	c #40381A",
"&Q.	c #3F391B",
"*Q.	c #423B1B",
"=Q.	c #433819",
"-Q.	c #4C3B17",
";Q.	c #61531B",
">Q.	c #827325",
",Q.	c #817529",
"'Q.	c #807429",
")Q.	c #827228",
"!Q.	c #86752A",
"~Q.	c #8C7B2D",
"{Q.	c #927F33",
"]Q.	c #938033",
"^Q.	c #928133",
"/Q.	c #8B7D2E",
"(Q.	c #84762A",
"_Q.	c #82752B",
":Q.	c #87782E",
"<Q.	c #877D2E",
"[Q.	c #877B2E",
"}Q.	c #84782A",
"|Q.	c #897D2B",
"1Q.	c #867A2B",
"2Q.	c #867B2B",
"3Q.	c #827929",
"4Q.	c #7F762A",
"5Q.	c #7D7529",
"6Q.	c #7E752A",
"7Q.	c #7C7528",
"8Q.	c #7D7328",
"9Q.	c #7F742B",
"0Q.	c #7F7928",
"aQ.	c #807629",
"bQ.	c #7E7529",
"cQ.	c #80742B",
"dQ.	c #80742A",
"eQ.	c #7A7127",
"fQ.	c #797028",
"gQ.	c #796E25",
"hQ.	c #776E25",
"iQ.	c #786F2D",
"jQ.	c #786E2E",
"kQ.	c #796F27",
"lQ.	c #7A7028",
"mQ.	c #79702E",
"nQ.	c #796F2B",
"oQ.	c #E4B123",
"pQ.	c #EFC319",
"qQ.	c #EBD44A",
"rQ.	c #E7E76E",
"sQ.	c #A99939",
"tQ.	c #605019",
"uQ.	c #554A18",
"vQ.	c #50471B",
"wQ.	c #49421B",
"xQ.	c #49431B",
"yQ.	c #48401B",
"zQ.	c #47401C",
"AQ.	c #47401E",
"BQ.	c #47401A",
"CQ.	c #474122",
"DQ.	c #3D3619",
"EQ.	c #433B1A",
"FQ.	c #403A1B",
"GQ.	c #494224",
"HQ.	c #3F3A1B",
"IQ.	c #383317",
"JQ.	c #3B3518",
"KQ.	c #696022",
"LQ.	c #847827",
"MQ.	c #7D7325",
"NQ.	c #7C7124",
"OQ.	c #7B7023",
"PQ.	c #827426",
"QQ.	c #968233",
"RQ.	c #8A7E2B",
"SQ.	c #8D7D2F",
"TQ.	c #8F8230",
"UQ.	c #87792C",
"VQ.	c #887D2D",
"WQ.	c #85782D",
"XQ.	c #857B2D",
"YQ.	c #84782E",
"ZQ.	c #83762D",
"`Q.	c #84772A",
" R.	c #827728",
".R.	c #847728",
"+R.	c #857829",
"@R.	c #7F752A",
"#R.	c #82772B",
"$R.	c #817729",
"%R.	c #85782A",
"&R.	c #81772A",
"*R.	c #817728",
"=R.	c #867829",
"-R.	c #847829",
";R.	c #857A2A",
">R.	c #897E2C",
",R.	c #8A7D2E",
"'R.	c #887D2E",
")R.	c #877A2F",
"!R.	c #87792F",
"~R.	c #81762C",
"{R.	c #7B7628",
"]R.	c #7B742A",
"^R.	c #81752A",
"/R.	c #837829",
"(R.	c #7D7525",
"_R.	c #847929",
":R.	c #7A7427",
"<R.	c #7A7428",
"[R.	c #7B7528",
"}R.	c #7B7429",
"|R.	c #7B7225",
"1R.	c #7B7427",
"2R.	c #7D7727",
"3R.	c #7B7529",
"4R.	c #786F26",
"5R.	c #7A7026",
"6R.	c #7B7426",
"7R.	c #7B7326",
"8R.	c #7C7325",
"9R.	c #796F25",
"0R.	c #7A6F26",
"aR.	c #796E26",
"bR.	c #7B6F25",
"cR.	c #776E24",
"dR.	c #786E25",
"eR.	c #797128",
"fR.	c #7B7329",
"gR.	c #7B7327",
"hR.	c #7B7428",
"iR.	c #7B7226",
"jR.	c #7A7129",
"kR.	c #776E27",
"lR.	c #E7B21A",
"mR.	c #EFD446",
"nR.	c #EBE866",
"oR.	c #EEE864",
"pR.	c #EBE965",
"qR.	c #C3B44E",
"rR.	c #6D5C1C",
"sR.	c #61551C",
"tR.	c #594E19",
"uR.	c #56511B",
"vR.	c #524A1A",
"wR.	c #59521F",
"xR.	c #545121",
"yR.	c #575223",
"zR.	c #554C1C",
"AR.	c #5A501D",
"BR.	c #5A4E1B",
"CR.	c #544B19",
"DR.	c #4F471A",
"ER.	c #534E1C",
"FR.	c #534619",
"GR.	c #4C441A",
"HR.	c #37341D",
"IR.	c #3B3619",
"JR.	c #423C1A",
"KR.	c #3E371D",
"LR.	c #42391A",
"MR.	c #4F441E",
"NR.	c #524625",
"OR.	c #453E1C",
"PR.	c #474019",
"QR.	c #5A5721",
"RR.	c #6F6422",
"SR.	c #817328",
"TR.	c #867D29",
"UR.	c #8A842D",
"VR.	c #8A8729",
"WR.	c #857C27",
"XR.	c #877B2A",
"YR.	c #857927",
"ZR.	c #7B6F1F",
"`R.	c #7F7323",
" S.	c #807626",
".S.	c #847A2A",
"+S.	c #847B2B",
"@S.	c #857C2A",
"#S.	c #857828",
"$S.	c #837627",
"%S.	c #857627",
"&S.	c #887828",
"*S.	c #88772E",
"=S.	c #8B7B2E",
"-S.	c #958235",
";S.	c #8B7E29",
">S.	c #948330",
",S.	c #948132",
"'S.	c #968235",
")S.	c #978436",
"!S.	c #968135",
"~S.	c #927C2F",
"{S.	c #8C7B2C",
"]S.	c #8B7B2D",
"^S.	c #928433",
"/S.	c #8A7D2B",
"(S.	c #887929",
"_S.	c #877929",
":S.	c #877A29",
"<S.	c #887A2A",
"[S.	c #897C2A",
"}S.	c #877C28",
"|S.	c #827B28",
"1S.	c #827E28",
"2S.	c #7C7828",
"3S.	c #7C7728",
"4S.	c #7E7B27",
"5S.	c #7B7827",
"6S.	c #7C7927",
"7S.	c #817A29",
"8S.	c #7F7828",
"9S.	c #827828",
"0S.	c #837A28",
"aS.	c #837E27",
"bS.	c #877B29",
"cS.	c #857C29",
"dS.	c #827928",
"eS.	c #7B7727",
"fS.	c #7C7727",
"gS.	c #7A7727",
"hS.	c #7D7827",
"iS.	c #7D7629",
"jS.	c #7C7429",
"kS.	c #7D752A",
"lS.	c #7E7728",
"mS.	c #7A7627",
"nS.	c #797526",
"oS.	c #797527",
"pS.	c #797426",
"qS.	c #7A7526",
"rS.	c #7A7628",
"sS.	c #797425",
"tS.	c #766E23",
"uS.	c #7A7527",
"vS.	c #797323",
"wS.	c #807728",
"xS.	c #807828",
"yS.	c #7E7526",
"zS.	c #7A7424",
"AS.	c #7C7426",
"BS.	c #7D7425",
"CS.	c #817526",
"DS.	c #817527",
"ES.	c #7F7727",
"FS.	c #7B7526",
"GS.	c #7B7627",
"HS.	c #787023",
"IS.	c #797023",
"JS.	c #7A7225",
"KS.	c #776F23",
"LS.	c #797125",
"MS.	c #797225",
"NS.	c #777026",
"OS.	c #787125",
"PS.	c #766E25",
"QS.	c #797126",
"RS.	c #756C22",
"SS.	c #7F7728",
"TS.	c #837828",
"US.	c #7B7527",
"VS.	c #7A7226",
"WS.	c #807727",
"XS.	c #7F742A",
"YS.	c #7C7428",
"ZS.	c #787028",
"`S.	c #776F25",
" T.	c #786F25",
".T.	c #797025",
"+T.	c #EFC213",
"@T.	c #F0C111",
"#T.	c #F0C012",
"$T.	c #EBC93A",
"%T.	c #EACC58",
"&T.	c #ECCD58",
"*T.	c #EBDC5D",
"=T.	c #EDDD62",
"-T.	c #ECDD62",
";T.	c #EBDE62",
">T.	c #EBDE61",
",T.	c #ECDE61",
"'T.	c #ECD55E",
")T.	c #E8C74F",
"!T.	c #ECC759",
"~T.	c #EEC85C",
"{T.	c #ECC75C",
"]T.	c #EBD35C",
"^T.	c #EBDA5B",
"/T.	c #EED961",
"(T.	c #EADB60",
"_T.	c #E0D050",
":T.	c #B6A635",
"<T.	c #9C8F27",
"[T.	c #A48F29",
"}T.	c #A78939",
"|T.	c #A38E36",
"1T.	c #AC973B",
"2T.	c #A59325",
"3T.	c #A7962E",
"4T.	c #AF9C3B",
"5T.	c #ADA241",
"6T.	c #AFAA44",
"7T.	c #BEB049",
"8T.	c #BFB248",
"9T.	c #B8A93F",
"0T.	c #B6A63C",
"aT.	c #AE9D38",
"bT.	c #8B7C34",
"cT.	c #3D3A1C",
"dT.	c #48411E",
"eT.	c #443E1D",
"fT.	c #4A4324",
"gT.	c #4C461F",
"hT.	c #554C19",
"iT.	c #5B501C",
"jT.	c #645A1C",
"kT.	c #807623",
"lT.	c #877E25",
"mT.	c #8B7F22",
"nT.	c #8B8226",
"oT.	c #8A8324",
"pT.	c #8A8221",
"qT.	c #8D8826",
"rT.	c #8B8920",
"sT.	c #898520",
"tT.	c #8C8426",
"uT.	c #857C23",
"vT.	c #837A26",
"wT.	c #817A26",
"xT.	c #7F7A27",
"yT.	c #827C28",
"zT.	c #827827",
"AT.	c #827A27",
"BT.	c #857926",
"CT.	c #877A26",
"DT.	c #897D23",
"ET.	c #898025",
"FT.	c #8F8425",
"GT.	c #8C8425",
"HT.	c #8E8528",
"IT.	c #8D8528",
"JT.	c #8D8426",
"KT.	c #8B8325",
"LT.	c #8A8428",
"MT.	c #8A8028",
"NT.	c #8E7F2D",
"OT.	c #8C812A",
"PT.	c #90842B",
"QT.	c #8A7F27",
"RT.	c #8A7F29",
"ST.	c #8A802A",
"TT.	c #8E812D",
"UT.	c #897E29",
"VT.	c #897F29",
"WT.	c #887B28",
"XT.	c #897B29",
"YT.	c #8B7B2A",
"ZT.	c #8B7B2B",
"`T.	c #8B7929",
" U.	c #8A7D2A",
".U.	c #8A7C2B",
"+U.	c #8A8329",
"@U.	c #898727",
"#U.	c #8B862B",
"$U.	c #8C8A2F",
"%U.	c #8D872C",
"&U.	c #8A892B",
"*U.	c #8B8A2C",
"=U.	c #8B8B2D",
"-U.	c #8A8A2C",
";U.	c #8A8829",
">U.	c #89892B",
",U.	c #848328",
"'U.	c #878228",
")U.	c #898628",
"!U.	c #878429",
"~U.	c #8B8B2E",
"{U.	c #88872B",
"]U.	c #898829",
"^U.	c #8A882A",
"/U.	c #8B8429",
"(U.	c #8A882B",
"_U.	c #89872B",
":U.	c #898728",
"<U.	c #898428",
"[U.	c #887D28",
"}U.	c #888428",
"|U.	c #817F27",
"1U.	c #858328",
"2U.	c #85842A",
"3U.	c #7E7F26",
"4U.	c #7B7B26",
"5U.	c #7C8124",
"6U.	c #7C7F25",
"7U.	c #7B7A26",
"8U.	c #7A7827",
"9U.	c #797424",
"0U.	c #797423",
"aU.	c #7A7625",
"bU.	c #7C7B26",
"cU.	c #7F7C27",
"dU.	c #817E27",
"eU.	c #807D27",
"fU.	c #807A27",
"gU.	c #817B28",
"hU.	c #7C7826",
"iU.	c #7E7827",
"jU.	c #7D7A27",
"kU.	c #807E27",
"lU.	c #807C27",
"mU.	c #867F28",
"nU.	c #898328",
"oU.	c #8C872B",
"pU.	c #867E28",
"qU.	c #888028",
"rU.	c #888427",
"sU.	c #888327",
"tU.	c #888627",
"uU.	c #898229",
"vU.	c #898527",
"wU.	c #867C28",
"xU.	c #817C27",
"yU.	c #817A28",
"zU.	c #777125",
"AU.	c #7A7626",
"BU.	c #787427",
"CU.	c #787426",
"DU.	c #7C7628",
"EU.	c #7D7927",
"FU.	c #7F7E26",
"GU.	c #7C7D25",
"HU.	c #7B7C25",
"IU.	c #817E28",
"JU.	c #807C25",
"KU.	c #858027",
"LU.	c #858227",
"MU.	c #847F28",
"NU.	c #847B28",
"OU.	c #7E7627",
"PU.	c #847828",
"QU.	c #7E7527",
"RU.	c #7C7526",
"SU.	c #7B7626",
"TU.	c #7D7527",
"UU.	c #7E7426",
"VU.	c #E6B01B",
"WU.	c #EEC314",
"XU.	c #EEBF17",
"YU.	c #E28D17",
"ZU.	c #F87920",
"`U.	c #F97922",
" V.	c #F97B24",
".V.	c #F97E25",
"+V.	c #F68223",
"@V.	c #F3841F",
"#V.	c #F38321",
"$V.	c #F38320",
"%V.	c #F58022",
"&V.	c #F97924",
"*V.	c #FA7722",
"=V.	c #F97A23",
"-V.	c #F57322",
";V.	c #F87321",
">V.	c #F77B21",
",V.	c #E68E1A",
"'V.	c #F2C921",
")V.	c #F1CB24",
"!V.	c #EFCE30",
"~V.	c #EDCA2E",
"{V.	c #EDCB35",
"]V.	c #EDCA30",
"^V.	c #EFC81F",
"/V.	c #EFC71B",
"(V.	c #EFC71E",
"_V.	c #EFCE35",
":V.	c #EECD35",
"<V.	c #EDCA35",
"[V.	c #EFCA2C",
"}V.	c #F1C91C",
"|V.	c #ECCC34",
"1V.	c #C7BF53",
"2V.	c #5E5329",
"3V.	c #594E34",
"4V.	c #4D4526",
"5V.	c #464120",
"6V.	c #45401E",
"7V.	c #48411C",
"8V.	c #534C23",
"9V.	c #544924",
"0V.	c #5A521C",
"aV.	c #696623",
"bV.	c #897B26",
"cV.	c #958B29",
"dV.	c #9B902A",
"eV.	c #A19729",
"fV.	c #A1972C",
"gV.	c #A0972A",
"hV.	c #A1992A",
"iV.	c #9B9729",
"jV.	c #9E982A",
"kV.	c #9D982E",
"lV.	c #A19B31",
"mV.	c #9E9731",
"nV.	c #9B942F",
"oV.	c #968F29",
"pV.	c #978F29",
"qV.	c #959028",
"rV.	c #958E2A",
"sV.	c #97902A",
"tV.	c #948C27",
"uV.	c #8D8A24",
"vV.	c #938A27",
"wV.	c #998F29",
"xV.	c #989129",
"yV.	c #979027",
"zV.	c #9C942B",
"AV.	c #9D952D",
"BV.	c #9A922A",
"CV.	c #9A902A",
"DV.	c #9C922E",
"EV.	c #9C912B",
"FV.	c #988F2B",
"GV.	c #978F27",
"HV.	c #9E9630",
"IV.	c #9E972E",
"JV.	c #A59B31",
"KV.	c #9B9229",
"LV.	c #9F972E",
"MV.	c #9F9730",
"NV.	c #A09830",
"OV.	c #9B922A",
"PV.	c #9A932B",
"QV.	c #99912A",
"RV.	c #968D27",
"SV.	c #99902A",
"TV.	c #918B29",
"UV.	c #918A27",
"VV.	c #8B8929",
"WV.	c #8D8A2A",
"XV.	c #8D8A29",
"YV.	c #8A8727",
"ZV.	c #898828",
"`V.	c #8B8A2A",
" W.	c #8E8B2A",
".W.	c #938E2A",
"+W.	c #908B2B",
"@W.	c #8E8928",
"#W.	c #908B29",
"$W.	c #928E2B",
"%W.	c #938B28",
"&W.	c #948C29",
"*W.	c #8E8B2B",
"=W.	c #928F2D",
"-W.	c #8F8B29",
";W.	c #8B8928",
">W.	c #8E8A2A",
",W.	c #8C8827",
"'W.	c #908A29",
")W.	c #918D2B",
"!W.	c #95902C",
"~W.	c #98922D",
"{W.	c #97912C",
"]W.	c #96922F",
"^W.	c #94902E",
"/W.	c #8E8D2E",
"(W.	c #8E8D2F",
"_W.	c #8A8B2D",
":W.	c #8A8A2D",
"<W.	c #87872C",
"[W.	c #878829",
"}W.	c #888727",
"|W.	c #868627",
"1W.	c #888628",
"2W.	c #888629",
"3W.	c #868529",
"4W.	c #868428",
"5W.	c #8D8827",
"6W.	c #8D8B2B",
"7W.	c #96902B",
"8W.	c #918C26",
"9W.	c #918A28",
"0W.	c #8F8B2A",
"aW.	c #8A8A2B",
"bW.	c #908928",
"cW.	c #898626",
"dW.	c #888526",
"eW.	c #878225",
"fW.	c #898624",
"gW.	c #898827",
"hW.	c #8D8728",
"iW.	c #898427",
"jW.	c #867F26",
"kW.	c #878127",
"lW.	c #898725",
"mW.	c #867821",
"nW.	c #817A25",
"oW.	c #827E26",
"pW.	c #827F27",
"qW.	c #817D22",
"rW.	c #827E25",
"sW.	c #817F25",
"tW.	c #828023",
"uW.	c #827F26",
"vW.	c #817E26",
"wW.	c #817D25",
"xW.	c #848227",
"yW.	c #7D7A26",
"zW.	c #7E7E25",
"AW.	c #808125",
"BW.	c #818423",
"CW.	c #7D8024",
"DW.	c #7B7D25",
"EW.	c #7F7F26",
"FW.	c #7E8323",
"GW.	c #878626",
"HW.	c #858626",
"IW.	c #898823",
"JW.	c #87881F",
"KW.	c #858624",
"LW.	c #848625",
"MW.	c #858527",
"NW.	c #888725",
"OW.	c #888123",
"PW.	c #898721",
"QW.	c #898821",
"RW.	c #887C23",
"SW.	c #878621",
"TW.	c #868322",
"UW.	c #898521",
"VW.	c #89821E",
"WW.	c #877A21",
"XW.	c #847A1F",
"YW.	c #847720",
"ZW.	c #837B24",
"`W.	c #847820",
" X.	c #857C21",
".X.	c #867621",
"+X.	c #867C25",
"@X.	c #827723",
"#X.	c #857827",
"$X.	c #827424",
"%X.	c #847623",
"&X.	c #84741F",
"*X.	c #7D7221",
"=X.	c #F0BF12",
"-X.	c #F2C413",
";X.	c #F2C40F",
">X.	c #EEBE16",
",X.	c #F3841C",
"'X.	c #F9761E",
")X.	c #F08A1B",
"!X.	c #F3C716",
"~X.	c #F2C914",
"{X.	c #EFC715",
"]X.	c #F2C610",
"^X.	c #F0C512",
"/X.	c #F0C924",
"(X.	c #B6A33E",
"_X.	c #554C27",
":X.	c #554C31",
"<X.	c #524A2E",
"[X.	c #4F4829",
"}X.	c #51492A",
"|X.	c #51492B",
"1X.	c #534B2E",
"2X.	c #534928",
"3X.	c #604E2B",
"4X.	c #584B28",
"5X.	c #6B662A",
"6X.	c #80762C",
"7X.	c #88832A",
"8X.	c #978837",
"9X.	c #998737",
"0X.	c #9D9430",
"aX.	c #A59A36",
"bX.	c #A49832",
"cX.	c #A49A33",
"dX.	c #A39B31",
"eX.	c #A29B2E",
"fX.	c #A49E33",
"gX.	c #A9A235",
"hX.	c #A5A031",
"iX.	c #A9A134",
"jX.	c #A7A237",
"kX.	c #A29B32",
"lX.	c #A09A31",
"mX.	c #9E9831",
"nX.	c #9D982D",
"oX.	c #9D982B",
"pX.	c #9C962B",
"qX.	c #9A9529",
"rX.	c #9D952B",
"sX.	c #9C9629",
"tX.	c #9E982B",
"uX.	c #A29C31",
"vX.	c #A39C32",
"wX.	c #A39C33",
"xX.	c #A19A2E",
"yX.	c #9E972C",
"zX.	c #9D962A",
"AX.	c #9D972C",
"BX.	c #9D972A",
"CX.	c #9F972B",
"DX.	c #9E9629",
"EX.	c #A0962A",
"FX.	c #A1982D",
"GX.	c #A39A2D",
"HX.	c #A0982D",
"IX.	c #9F982D",
"JX.	c #A0982C",
"KX.	c #9F992A",
"LX.	c #9C952B",
"MX.	c #9B9529",
"NX.	c #9B942A",
"OX.	c #9B942C",
"PX.	c #99922B",
"QX.	c #988F29",
"RX.	c #9A912A",
"SX.	c #988F2A",
"TX.	c #999430",
"UX.	c #9A922C",
"VX.	c #9B952A",
"WX.	c #9B942E",
"XX.	c #9C962E",
"YX.	c #9C952E",
"ZX.	c #9C942C",
"`X.	c #9A932A",
" Y.	c #9E982D",
".Y.	c #9B952F",
"+Y.	c #9D962E",
"@Y.	c #9C972D",
"#Y.	c #9C972C",
"$Y.	c #999229",
"%Y.	c #9D962F",
"&Y.	c #9C962F",
"*Y.	c #9A9532",
"=Y.	c #9A9430",
"-Y.	c #938F2E",
";Y.	c #98912E",
">Y.	c #96902C",
",Y.	c #98942A",
"'Y.	c #978F28",
")Y.	c #9A9229",
"!Y.	c #99922A",
"~Y.	c #958F29",
"{Y.	c #98932A",
"]Y.	c #98932C",
"^Y.	c #9A932D",
"/Y.	c #9C952D",
"(Y.	c #9C9630",
"_Y.	c #999628",
":Y.	c #9C952C",
"<Y.	c #9B932E",
"[Y.	c #948F2B",
"}Y.	c #938E2B",
"|Y.	c #948D29",
"1Y.	c #928A27",
"2Y.	c #948B27",
"3Y.	c #948A27",
"4Y.	c #928B26",
"5Y.	c #948C26",
"6Y.	c #958D27",
"7Y.	c #918F24",
"8Y.	c #8B8A20",
"9Y.	c #898726",
"0Y.	c #888624",
"aY.	c #878422",
"bY.	c #898825",
"cY.	c #8A8726",
"dY.	c #8A8723",
"eY.	c #8D8824",
"fY.	c #8A8826",
"gY.	c #8E8927",
"hY.	c #8E8A26",
"iY.	c #918E23",
"jY.	c #8F8D21",
"kY.	c #8E8C25",
"lY.	c #918E1F",
"mY.	c #8D8C22",
"nY.	c #8B8922",
"oY.	c #8A891F",
"pY.	c #8A891C",
"qY.	c #898824",
"rY.	c #8A8824",
"sY.	c #838522",
"tY.	c #868624",
"uY.	c #878724",
"vY.	c #89891F",
"wY.	c #8C8A25",
"xY.	c #8D8B24",
"yY.	c #888825",
"zY.	c #898826",
"AY.	c #8B8926",
"BY.	c #8D8C27",
"CY.	c #939125",
"DY.	c #918F26",
"EY.	c #8D8B25",
"FY.	c #8B8A23",
"GY.	c #8A8A1B",
"HY.	c #8A8921",
"IY.	c #8A8822",
"JY.	c #8A8823",
"KY.	c #8B891F",
"LY.	c #8B8A1E",
"MY.	c #8D8A20",
"NY.	c #908B22",
"OY.	c #918D20",
"PY.	c #918E1C",
"QY.	c #8F8B24",
"RY.	c #908E1E",
"SY.	c #928D20",
"TY.	c #948D22",
"UY.	c #958F22",
"VY.	c #8F891C",
"WY.	c #928925",
"XY.	c #8E8821",
"YY.	c #938926",
"ZY.	c #8B811E",
"`Y.	c #887F1B",
" Z.	c #E5AF1C",
".Z.	c #EFBF11",
"+Z.	c #F2C513",
"@Z.	c #EFBF19",
"#Z.	c #F88220",
"$Z.	c #F87027",
"%Z.	c #F97323",
"&Z.	c #F2851C",
"*Z.	c #F2C614",
"=Z.	c #F1C714",
"-Z.	c #EDC824",
";Z.	c #A5942E",
">Z.	c #544A2A",
",Z.	c #4E4829",
"'Z.	c #4F482A",
")Z.	c #5D4E30",
"!Z.	c #554A28",
"~Z.	c #71692E",
"{Z.	c #89862F",
"]Z.	c #968735",
"^Z.	c #9A8D36",
"/Z.	c #9C9435",
"(Z.	c #A09835",
"_Z.	c #A49A37",
":Z.	c #A59A37",
"<Z.	c #A49A36",
"[Z.	c #A49B35",
"}Z.	c #A69D37",
"|Z.	c #A59F35",
"1Z.	c #A7A035",
"2Z.	c #A7A136",
"3Z.	c #A49E32",
"4Z.	c #A39D33",
"5Z.	c #A09B2E",
"6Z.	c #9D9A2B",
"7Z.	c #9F9A2C",
"8Z.	c #9D992B",
"9Z.	c #9E9A2B",
"0Z.	c #A19B2E",
"aZ.	c #A39C31",
"bZ.	c #A29A2E",
"cZ.	c #A09A2D",
"dZ.	c #9F9B2E",
"eZ.	c #9F9B2D",
"fZ.	c #A39B2E",
"gZ.	c #A39B2F",
"hZ.	c #A39B2C",
"iZ.	c #A39B2D",
"jZ.	c #A49A2B",
"kZ.	c #A39C30",
"lZ.	c #A29B30",
"mZ.	c #A09931",
"nZ.	c #9E9730",
"oZ.	c #9C972A",
"pZ.	c #9C972B",
"qZ.	c #9B962A",
"rZ.	c #9B932A",
"sZ.	c #9B922B",
"tZ.	c #9C9631",
"uZ.	c #98922F",
"vZ.	c #978C28",
"wZ.	c #9A922E",
"xZ.	c #9D9631",
"yZ.	c #9D9732",
"zZ.	c #9E982F",
"AZ.	c #9E992E",
"BZ.	c #A09A2E",
"CZ.	c #A19A32",
"DZ.	c #A29A32",
"EZ.	c #A19934",
"FZ.	c #A19A34",
"GZ.	c #A29B33",
"HZ.	c #A29C33",
"IZ.	c #A6A136",
"JZ.	c #A59E35",
"KZ.	c #A39D32",
"LZ.	c #A59E33",
"MZ.	c #A59F33",
"NZ.	c #A49D33",
"OZ.	c #9F982F",
"PZ.	c #A19932",
"QZ.	c #9E972D",
"RZ.	c #9F992F",
"SZ.	c #9D982C",
"TZ.	c #9B962D",
"UZ.	c #9A9329",
"VZ.	c #9C9730",
"WZ.	c #9A942B",
"XZ.	c #9B942B",
"YZ.	c #A19B2C",
"ZZ.	c #9F9B2C",
"`Z.	c #9F9B2F",
" `.	c #9F9931",
".`.	c #9E992D",
"+`.	c #9C932B",
"@`.	c #9C942A",
"#`.	c #999128",
"$`.	c #9A9129",
"%`.	c #989026",
"&`.	c #989027",
"*`.	c #99932A",
"=`.	c #989327",
"-`.	c #999327",
";`.	c #989526",
">`.	c #989627",
",`.	c #9B9828",
"'`.	c #989326",
")`.	c #9A9429",
"!`.	c #989427",
"~`.	c #939026",
"{`.	c #928F24",
"]`.	c #908E23",
"^`.	c #918F22",
"/`.	c #939027",
"(`.	c #969226",
"_`.	c #979425",
":`.	c #959327",
"<`.	c #979526",
"[`.	c #959325",
"}`.	c #979525",
"|`.	c #959323",
"1`.	c #949221",
"2`.	c #94921D",
"3`.	c #93911C",
"4`.	c #93921D",
"5`.	c #949322",
"6`.	c #92911B",
"7`.	c #92901A",
"8`.	c #93901B",
"9`.	c #8F8F19",
"0`.	c #90901B",
"a`.	c #8C8D19",
"b`.	c #93921F",
"c`.	c #91911D",
"d`.	c #92911C",
"e`.	c #91901E",
"f`.	c #939220",
"g`.	c #93921E",
"h`.	c #939121",
"i`.	c #919020",
"j`.	c #929020",
"k`.	c #969424",
"l`.	c #959422",
"m`.	c #959322",
"n`.	c #959321",
"o`.	c #92911F",
"p`.	c #8E8C1C",
"q`.	c #928E1E",
"r`.	c #918E19",
"s`.	c #938D19",
"t`.	c #928F21",
"u`.	c #93901D",
"v`.	c #939221",
"w`.	c #969323",
"x`.	c #95941F",
"y`.	c #94931C",
"z`.	c #989422",
"A`.	c #94931E",
"B`.	c #96931E",
"C`.	c #969320",
"D`.	c #979320",
"E`.	c #979220",
"F`.	c #96911F",
"G`.	c #97901F",
"H`.	c #958F1D",
"I`.	c #E8B319",
"J`.	c #EEBD13",
"K`.	c #F2851A",
"L`.	c #F87323",
"M`.	c #EF881B",
"N`.	c #F3C916",
"O`.	c #EEC820",
"P`.	c #A4952C",
"Q`.	c #544A23",
"R`.	c #524929",
"S`.	c #534B2F",
"T`.	c #554A2A",
"U`.	c #6F672B",
"V`.	c #848130",
"W`.	c #959132",
"X`.	c #9A9634",
"Y`.	c #9C9734",
"Z`.	c #A29839",
"``.	c #A19836",
"  +	c #9F9835",
". +	c #A39B36",
"+ +	c #A09933",
"@ +	c #9E9930",
"# +	c #9E9A2D",
"$ +	c #9C9829",
"% +	c #9B9728",
"& +	c #9B9626",
"* +	c #A39C2B",
"= +	c #A8A02B",
"- +	c #A59D32",
"; +	c #A79F34",
"> +	c #A19B30",
", +	c #A39B32",
"' +	c #A49B32",
") +	c #A49B31",
"! +	c #A49C33",
"~ +	c #A49C31",
"{ +	c #A29B31",
"] +	c #9F992E",
"^ +	c #9E9A2E",
"/ +	c #9F9A2F",
"( +	c #9E9A2C",
"_ +	c #A19A30",
": +	c #A09932",
"< +	c #A09832",
"[ +	c #9F9932",
"} +	c #9A932E",
"| +	c #999029",
"1 +	c #9D952C",
"2 +	c #9D982F",
"3 +	c #9D9833",
"4 +	c #A39B34",
"5 +	c #A49C34",
"6 +	c #A49C32",
"7 +	c #A7A034",
"8 +	c #A49D32",
"9 +	c #A8A136",
"0 +	c #A79F33",
"a +	c #A79F2E",
"b +	c #A7A032",
"c +	c #A59D2F",
"d +	c #A39C2F",
"e +	c #A49C2E",
"f +	c #A49D31",
"g +	c #A69F34",
"h +	c #A69E34",
"i +	c #A69F33",
"j +	c #A49C30",
"k +	c #A29C2D",
"l +	c #9F992B",
"m +	c #9F992C",
"n +	c #A09A2F",
"o +	c #9F9A2D",
"p +	c #9E992C",
"q +	c #A09B2C",
"r +	c #A49D2C",
"s +	c #A59D2B",
"t +	c #A49B2B",
"u +	c #9E992A",
"v +	c #9C9628",
"w +	c #9B972A",
"x +	c #9C9729",
"y +	c #9A9428",
"z +	c #9B9429",
"A +	c #999425",
"B +	c #9A9427",
"C +	c #9A9424",
"D +	c #999426",
"E +	c #9B9528",
"F +	c #9F992D",
"G +	c #9A9628",
"H +	c #9A9629",
"I +	c #999626",
"J +	c #9B9829",
"K +	c #9A9727",
"L +	c #9A9828",
"M +	c #9A9627",
"N +	c #9A9728",
"O +	c #989424",
"P +	c #969423",
"Q +	c #989827",
"R +	c #9A9825",
"S +	c #9A9826",
"T +	c #999727",
"U +	c #999525",
"V +	c #989423",
"W +	c #979422",
"X +	c #989523",
"Y +	c #979421",
"Z +	c #99951B",
"` +	c #95931D",
" .+	c #969420",
"..+	c #91911B",
"+.+	c #93921B",
"@.+	c #95931C",
"#.+	c #93921A",
"$.+	c #96941D",
"%.+	c #96941C",
"&.+	c #93931D",
"*.+	c #8E8F17",
"=.+	c #909119",
"-.+	c #8D8E17",
";.+	c #8B8B17",
">.+	c #8E8E1C",
",.+	c #91901F",
"'.+	c #92921B",
").+	c #8E9017",
"!.+	c #938F1E",
"~.+	c #909018",
"{.+	c #8F8F18",
"].+	c #8F8F1B",
"^.+	c #90911A",
"/.+	c #97941D",
"(.+	c #97941E",
"_.+	c #98941F",
":.+	c #97941C",
"<.+	c #97931D",
"[.+	c #95921B",
"}.+	c #948D19",
"|.+	c #DEB031",
"1.+	c #EDBA13",
"2.+	c #EEC01A",
"3.+	c #F5841E",
"4.+	c #F97522",
"5.+	c #F97322",
"6.+	c #F08A1A",
"7.+	c #F2CA14",
"8.+	c #948C24",
"9.+	c #554E24",
"0.+	c #50492A",
"a.+	c #50492C",
"b.+	c #524B2E",
"c.+	c #554C30",
"d.+	c #6A652B",
"e.+	c #8A8930",
"f.+	c #9A9436",
"g.+	c #9A953A",
"h.+	c #9B9638",
"i.+	c #9D9734",
"j.+	c #A29B37",
"k.+	c #9F9834",
"l.+	c #9E9631",
"m.+	c #9C9731",
"n.+	c #9C9831",
"o.+	c #9E992F",
"p.+	c #9D992F",
"q.+	c #9D992C",
"r.+	c #9E982C",
"s.+	c #9E972B",
"t.+	c #A29D2F",
"u.+	c #A59E31",
"v.+	c #A49C2F",
"w.+	c #A6A035",
"x.+	c #A19A31",
"y.+	c #A59D31",
"z.+	c #A8A235",
"A.+	c #A8A236",
"B.+	c #A8A237",
"C.+	c #A49E34",
"D.+	c #A29C32",
"E.+	c #A59E34",
"F.+	c #A09B2F",
"G.+	c #988E28",
"H.+	c #9D9A2C",
"I.+	c #A39C34",
"J.+	c #A49B34",
"K.+	c #A7A137",
"L.+	c #A69F35",
"M.+	c #A49D2E",
"N.+	c #A9A133",
"O.+	c #A8A033",
"P.+	c #A29A2C",
"Q.+	c #A19B2B",
"R.+	c #A19A2B",
"S.+	c #9D9829",
"T.+	c #9F9A2B",
"U.+	c #9D982A",
"V.+	c #9F982C",
"W.+	c #A09A2B",
"X.+	c #9F9927",
"Y.+	c #A59E27",
"Z.+	c #A39C28",
"`.+	c #9C9625",
" ++	c #9A9525",
".++	c #9B9625",
"+++	c #9B9725",
"@++	c #9B9623",
"#++	c #999320",
"$++	c #9A9422",
"%++	c #9A9523",
"&++	c #969421",
"*++	c #979122",
"=++	c #9C9627",
"-++	c #9D9728",
";++	c #999424",
">++	c #979424",
",++	c #989626",
"'++	c #999524",
")++	c #989524",
"!++	c #979324",
"~++	c #979323",
"{++	c #969324",
"]++	c #9A9827",
"^++	c #999826",
"/++	c #A19D2C",
"(++	c #A09D2A",
"_++	c #9D9B29",
":++	c #9A9724",
"<++	c #9C9726",
"[++	c #9A9521",
"}++	c #96931C",
"|++	c #99951E",
"1++	c #9A9620",
"2++	c #98941E",
"3++	c #9E9822",
"4++	c #9D9726",
"5++	c #9C9725",
"6++	c #97941B",
"7++	c #91911A",
"8++	c #94931F",
"9++	c #999827",
"0++	c #989625",
"a++	c #969522",
"b++	c #999627",
"c++	c #999528",
"d++	c #989525",
"e++	c #949320",
"f++	c #92911A",
"g++	c #949124",
"h++	c #959223",
"i++	c #959222",
"j++	c #94931D",
"k++	c #989624",
"l++	c #9D9824",
"m++	c #999421",
"n++	c #9C9626",
"o++	c #9B9523",
"p++	c #989320",
"q++	c #97911E",
"r++	c #948E1B",
"s++	c #928C19",
"t++	c #E2AF34",
"u++	c #EBB916",
"v++	c #F0BF11",
"w++	c #F0C016",
"x++	c #F2861B",
"y++	c #F9751F",
"z++	c #F9741F",
"A++	c #F8731D",
"B++	c #F87028",
"C++	c #EE8316",
"D++	c #F3C91A",
"E++	c #F3C714",
"F++	c #EEC61A",
"G++	c #91881F",
"H++	c #554B29",
"I++	c #514A2D",
"J++	c #544B30",
"K++	c #4D4829",
"L++	c #544B2C",
"M++	c #554C2F",
"N++	c #666429",
"O++	c #908C32",
"P++	c #989439",
"Q++	c #9C9735",
"R++	c #9E9835",
"S++	c #A19936",
"T++	c #A29B36",
"U++	c #A39936",
"V++	c #A09934",
"W++	c #9E9733",
"X++	c #9E9732",
"Y++	c #9D9630",
"Z++	c #9D9731",
"`++	c #9F9831",
" @+	c #9C952F",
".@+	c #A19B34",
"+@+	c #A5A035",
"@@+	c #A6A137",
"#@+	c #A7A037",
"$@+	c #A49C35",
"%@+	c #A8A134",
"&@+	c #A59F34",
"*@+	c #A9A236",
"=@+	c #A19A2F",
"-@+	c #9F9A2E",
";@+	c #A09A33",
">@+	c #9E9833",
",@+	c #A19A33",
"'@+	c #A19B32",
")@+	c #A8A238",
"!@+	c #ACA334",
"~@+	c #ABA436",
"{@+	c #A8A338",
"]@+	c #A6A036",
"^@+	c #A69F36",
"/@+	c #A49B33",
"(@+	c #A49D30",
"_@+	c #A39B30",
":@+	c #ACA333",
"<@+	c #ADA334",
"[@+	c #AAA131",
"}@+	c #A89F32",
"|@+	c #A49E29",
"1@+	c #9E9829",
"2@+	c #9F9829",
"3@+	c #A19B27",
"4@+	c #A59D26",
"5@+	c #A19A24",
"6@+	c #A59D23",
"7@+	c #9A951B",
"8@+	c #9A951A",
"9@+	c #9D971C",
"0@+	c #A49C21",
"a@+	c #A49B1F",
"b@+	c #A39A1E",
"c@+	c #A19921",
"d@+	c #9C971F",
"e@+	c #9D9721",
"f@+	c #9F9724",
"g@+	c #9E9722",
"h@+	c #9E9623",
"i@+	c #9D9828",
"j@+	c #969322",
"k@+	c #969221",
"l@+	c #96941F",
"m@+	c #95931E",
"n@+	c #979624",
"o@+	c #9F9A2A",
"p@+	c #A19C2C",
"q@+	c #A29D2B",
"r@+	c #A9A22F",
"s@+	c #A5A02E",
"t@+	c #A09A29",
"u@+	c #9B9521",
"v@+	c #949219",
"w@+	c #9B9522",
"x@+	c #9C9727",
"y@+	c #9A9623",
"z@+	c #97941F",
"A@+	c #929119",
"B@+	c #909118",
"C@+	c #92921C",
"D@+	c #949223",
"E@+	c #9A9829",
"F@+	c #979523",
"G@+	c #9C952A",
"H@+	c #9B9527",
"I@+	c #9B9424",
"J@+	c #95931B",
"K@+	c #96931A",
"L@+	c #969026",
"M@+	c #968E25",
"N@+	c #959421",
"O@+	c #979520",
"P@+	c #999323",
"Q@+	c #989222",
"R@+	c #979022",
"S@+	c #958D1E",
"T@+	c #968F21",
"U@+	c #948D1A",
"V@+	c #E6B625",
"W@+	c #EEBC12",
"X@+	c #F3C612",
"Y@+	c #F2C414",
"Z@+	c #EFC015",
"`@+	c #EE8617",
" #+	c #F97423",
".#+	c #F97521",
"+#+	c #F76E29",
"@#+	c #F0831C",
"##+	c #F3C918",
"$#+	c #F1C914",
"%#+	c #EEC41B",
"&#+	c #9A912F",
"*#+	c #534A2C",
"=#+	c #50492B",
"-#+	c #4F492A",
";#+	c #4E4725",
">#+	c #4E4825",
",#+	c #4F4827",
"'#+	c #554B2A",
")#+	c #6F6630",
"!#+	c #89892F",
"~#+	c #8B8C2F",
"{#+	c #8F8E34",
"]#+	c #989432",
"^#+	c #A69F3A",
"/#+	c #A6A03E",
"(#+	c #A49D38",
"_#+	c #9D9834",
":#+	c #9C9632",
"<#+	c #9C9733",
"[#+	c #A49D35",
"}#+	c #A49E37",
"|#+	c #A6A037",
"1#+	c #A39C36",
"2#+	c #A29C35",
"3#+	c #A49D34",
"4#+	c #A7A138",
"5#+	c #A19C31",
"6#+	c #9F9A31",
"7#+	c #9E9A2F",
"8#+	c #A19B33",
"9#+	c #ABA437",
"0#+	c #AAA335",
"a#+	c #AAA234",
"b#+	c #A8A337",
"c#+	c #ABA53B",
"d#+	c #ACA63D",
"e#+	c #ABA63C",
"f#+	c #A9A033",
"g#+	c #B0A635",
"h#+	c #B0A636",
"i#+	c #ADA436",
"j#+	c #A69E32",
"k#+	c #A59D2D",
"l#+	c #A59D2C",
"m#+	c #A29A29",
"n#+	c #9D9727",
"o#+	c #9A9526",
"p#+	c #9A9626",
"q#+	c #9B9727",
"r#+	c #99951F",
"s#+	c #9B961A",
"t#+	c #9C961A",
"u#+	c #9D971B",
"v#+	c #A2991C",
"w#+	c #A1991C",
"x#+	c #9F981C",
"y#+	c #9E981D",
"z#+	c #9E971B",
"A#+	c #9F9821",
"B#+	c #9A951D",
"C#+	c #9A951C",
"D#+	c #9C9524",
"E#+	c #9B9622",
"F#+	c #9A9624",
"G#+	c #999621",
"H#+	c #9C9823",
"I#+	c #999724",
"J#+	c #9F9B2B",
"K#+	c #9E9A29",
"L#+	c #A29D2D",
"M#+	c #A59F31",
"N#+	c #9B9624",
"O#+	c #97931C",
"P#+	c #97931B",
"Q#+	c #9A9625",
"R#+	c #A39A28",
"S#+	c #979420",
"T#+	c #96931B",
"U#+	c #98941A",
"V#+	c #94931B",
"W#+	c #969225",
"X#+	c #999523",
"Y#+	c #9B9428",
"Z#+	c #9B9427",
"`#+	c #9A9425",
" $+	c #97931A",
".$+	c #908F20",
"+$+	c #959025",
"@$+	c #949321",
"#$+	c #92921D",
"$$+	c #9C971D",
"%$+	c #9C9827",
"&$+	c #9D9524",
"*$+	c #9C9323",
"=$+	c #9C9423",
"-$+	c #989322",
";$+	c #989022",
">$+	c #9A9124",
",$+	c #988F26",
"'$+	c #E5B121",
")$+	c #EEBF15",
"!$+	c #F1C213",
"~$+	c #EC8316",
"{$+	c #F9751E",
"]$+	c #EF861C",
"^$+	c #F2C81B",
"/$+	c #EFC722",
"($+	c #B6A748",
"_$+	c #534B2D",
":$+	c #4E482A",
"<$+	c #4D4728",
"[$+	c #4A4625",
"}$+	c #4B4625",
"|$+	c #4C4728",
"1$+	c #504929",
"2$+	c #666329",
"3$+	c #878631",
"4$+	c #8E8D30",
"5$+	c #95913F",
"6$+	c #9A9536",
"7$+	c #A09938",
"8$+	c #A49D36",
"9$+	c #A29D35",
"0$+	c #A59D37",
"a$+	c #A49E35",
"b$+	c #A9A33B",
"c$+	c #A19935",
"d$+	c #A39D36",
"e$+	c #A49B36",
"f$+	c #ABA337",
"g$+	c #ACA436",
"h$+	c #AFA536",
"i$+	c #A9A337",
"j$+	c #A7A135",
"k$+	c #A39E33",
"l$+	c #9F9930",
"m$+	c #9E9934",
"n$+	c #A29C34",
"o$+	c #9E9931",
"p$+	c #A39D34",
"q$+	c #B1A636",
"r$+	c #ABA335",
"s$+	c #B0AA41",
"t$+	c #B2AC45",
"u$+	c #B1AB43",
"v$+	c #ADA73E",
"w$+	c #AAA53A",
"x$+	c #9B9525",
"y$+	c #96941B",
"z$+	c #A19A1E",
"A$+	c #A1991B",
"B$+	c #A0981B",
"C$+	c #A39A1C",
"D$+	c #A0991B",
"E$+	c #A1991D",
"F$+	c #9F981F",
"G$+	c #9E981E",
"H$+	c #A19923",
"I$+	c #A19A22",
"J$+	c #9C961C",
"K$+	c #A39A24",
"L$+	c #9E9726",
"M$+	c #9E9828",
"N$+	c #9C9624",
"O$+	c #9B9723",
"P$+	c #A49D2B",
"Q$+	c #9A9520",
"R$+	c #9B951E",
"S$+	c #9B951D",
"T$+	c #A19826",
"U$+	c #A29A26",
"V$+	c #999422",
"W$+	c #A0991D",
"X$+	c #9B951B",
"Y$+	c #98941C",
"Z$+	c #979522",
"`$+	c #979524",
" %+	c #989228",
".%+	c #969125",
"+%+	c #9C9429",
"@%+	c #979325",
"#%+	c #928F25",
"$%+	c #939024",
"%%+	c #9B951A",
"&%+	c #9F9823",
"*%+	c #9C9523",
"=%+	c #9D9525",
"-%+	c #9B9322",
";%+	c #999125",
">%+	c #9B9425",
",%+	c #999324",
"'%+	c #948E1E",
")%+	c #E6CC44",
"!%+	c #EEC62A",
"~%+	c #EFBE12",
"{%+	c #F1C313",
"]%+	c #F0C013",
"^%+	c #ED801A",
"/%+	c #F87223",
"(%+	c #F97420",
"_%+	c #F87322",
":%+	c #F97422",
"<%+	c #F97225",
"[%+	c #EF831B",
"}%+	c #F0C718",
"|%+	c #EFC824",
"1%+	c #C1B24C",
"2%+	c #4D4828",
"3%+	c #4B4626",
"4%+	c #4E4828",
"5%+	c #605A29",
"6%+	c #848234",
"7%+	c #92903B",
"8%+	c #99943D",
"9%+	c #989339",
"0%+	c #999434",
"a%+	c #9B9633",
"b%+	c #9B9734",
"c%+	c #9F9833",
"d%+	c #A8A239",
"e%+	c #9B932C",
"f%+	c #9F9933",
"g%+	c #A29A35",
"h%+	c #A39A35",
"i%+	c #A69E37",
"j%+	c #9F9732",
"k%+	c #A59B36",
"l%+	c #A39C35",
"m%+	c #A59F36",
"n%+	c #A69F37",
"o%+	c #A59E36",
"p%+	c #A59D36",
"q%+	c #A6A034",
"r%+	c #A59D34",
"s%+	c #9C982A",
"t%+	c #A09B31",
"u%+	c #A09A30",
"v%+	c #A19B2F",
"w%+	c #AAA235",
"x%+	c #AAA53B",
"y%+	c #AEA940",
"z%+	c #ACA73E",
"A%+	c #AAA439",
"B%+	c #A19C33",
"C%+	c #A39D35",
"D%+	c #9D9832",
"E%+	c #9C992B",
"F%+	c #93921C",
"G%+	c #929219",
"H%+	c #9D961E",
"I%+	c #A0991E",
"J%+	c #9E971F",
"K%+	c #9E9624",
"L%+	c #A09922",
"M%+	c #A29A20",
"N%+	c #A1991E",
"O%+	c #A39A1F",
"P%+	c #A49B24",
"Q%+	c #A39B26",
"R%+	c #9B9524",
"S%+	c #9B9422",
"T%+	c #9D9624",
"U%+	c #A19A2A",
"V%+	c #9C9728",
"W%+	c #9E9724",
"X%+	c #A29A24",
"Y%+	c #9F9824",
"Z%+	c #A29826",
"`%+	c #A09826",
" &+	c #9C9525",
".&+	c #9A9522",
"+&+	c #98941B",
"@&+	c #989028",
"#&+	c #999428",
"$&+	c #989226",
"%&+	c #9C9828",
"&&+	c #92921A",
"*&+	c #929024",
"=&+	c #8F8D25",
"-&+	c #8D8C24",
";&+	c #8F9019",
">&+	c #96941A",
",&+	c #9B941A",
"'&+	c #9D971D",
")&+	c #9C961E",
"!&+	c #9A931F",
"~&+	c #A19527",
"{&+	c #9F9526",
"]&+	c #9B9226",
"^&+	c #8D8B1B",
"/&+	c #88811A",
"(&+	c #E6D152",
"_&+	c #EEC625",
":&+	c #EFC113",
"<&+	c #F1C413",
"[&+	c #F1C410",
"}&+	c #F0C313",
"|&+	c #F07A15",
"1&+	c #F77024",
"2&+	c #F87225",
"3&+	c #F86F28",
"4&+	c #EF881C",
"5&+	c #F2C917",
"6&+	c #F2C714",
"7&+	c #F1CA25",
"8&+	c #BBA647",
"9&+	c #4B441F",
"0&+	c #514A2C",
"a&+	c #4D4727",
"b&+	c #514927",
"c&+	c #514928",
"d&+	c #514925",
"e&+	c #6A6627",
"f&+	c #7A7433",
"g&+	c #847C35",
"h&+	c #89813C",
"i&+	c #8B843C",
"j&+	c #8D8635",
"k&+	c #8B8635",
"l&+	c #8C8730",
"m&+	c #86832F",
"n&+	c #868232",
"o&+	c #868137",
"p&+	c #888732",
"q&+	c #8C8A30",
"r&+	c #918F30",
"s&+	c #949232",
"t&+	c #969233",
"u&+	c #9E9837",
"v&+	c #9B9632",
"w&+	c #ACA43E",
"x&+	c #A7A038",
"y&+	c #AEA437",
"z&+	c #9D952F",
"A&+	c #A59E38",
"B&+	c #A09B32",
"C&+	c #9D9830",
"D&+	c #9E9933",
"E&+	c #A29B2D",
"F&+	c #A9A336",
"G&+	c #AAA337",
"H&+	c #A7A036",
"I&+	c #A7A139",
"J&+	c #ACA63E",
"K&+	c #AEA840",
"L&+	c #A9A43A",
"M&+	c #A29E33",
"N&+	c #9F9A35",
"O&+	c #9D9932",
"P&+	c #9D9A2A",
"Q&+	c #9D992A",
"R&+	c #96931F",
"S&+	c #99951A",
"T&+	c #9B951C",
"U&+	c #A0981E",
"V&+	c #9D9621",
"W&+	c #9D971F",
"X&+	c #9C961F",
"Y&+	c #9D9720",
"Z&+	c #9E9820",
"`&+	c #A19A23",
" *+	c #A39B25",
".*+	c #A69E28",
"+*+	c #A09C29",
"@*+	c #A59E2A",
"#*+	c #A09B2A",
"$*+	c #99941D",
"%*+	c #9C992A",
"&*+	c #9F9728",
"**+	c #9D9522",
"=*+	c #9C9621",
"-*+	c #A49A26",
";*+	c #A49927",
">*+	c #A39A26",
",*+	c #A09824",
"'*+	c #A09822",
")*+	c #9D971E",
"!*+	c #9C961B",
"~*+	c #97951F",
"{*+	c #999527",
"]*+	c #95901B",
"^*+	c #9A9524",
"/*+	c #9A9323",
"(*+	c #969223",
"_*+	c #959124",
":*+	c #959220",
"<*+	c #94921B",
"[*+	c #95931F",
"}*+	c #959324",
"|*+	c #929121",
"1*+	c #909019",
"2*+	c #98921A",
"3*+	c #98931A",
"4*+	c #9E9620",
"5*+	c #9F9523",
"6*+	c #A49728",
"7*+	c #9D9226",
"8*+	c #A09427",
"9*+	c #9C9225",
"0*+	c #968F20",
"a*+	c #8E8819",
"b*+	c #DDC548",
"c*+	c #EEC622",
"d*+	c #F0C212",
"e*+	c #F3C513",
"f*+	c #EFBF10",
"g*+	c #F1C510",
"h*+	c #EFC414",
"i*+	c #EFC013",
"j*+	c #ED8414",
"k*+	c #F8731B",
"l*+	c #F87421",
"m*+	c #F76F29",
"n*+	c #EF881D",
"o*+	c #F0C81A",
"p*+	c #F2CB25",
"q*+	c #BAA547",
"r*+	c #504826",
"s*+	c #504828",
"t*+	c #4F4825",
"u*+	c #4C4725",
"v*+	c #4F4B26",
"w*+	c #595028",
"x*+	c #605A2B",
"y*+	c #615A2C",
"z*+	c #615B2C",
"A*+	c #5F5929",
"B*+	c #5E5928",
"C*+	c #5F5829",
"D*+	c #62542D",
"E*+	c #61592F",
"F*+	c #656129",
"G*+	c #696429",
"H*+	c #736D2B",
"I*+	c #756E2D",
"J*+	c #766F2E",
"K*+	c #7C7431",
"L*+	c #8A862F",
"M*+	c #989431",
"N*+	c #ADA63B",
"O*+	c #AAA13A",
"P*+	c #A79D39",
"Q*+	c #A59D35",
"R*+	c #9F9A32",
"S*+	c #9F9934",
"T*+	c #A0982E",
"U*+	c #A1992D",
"V*+	c #9F9A30",
"W*+	c #A19D31",
"X*+	c #A19E31",
"Y*+	c #A19C2F",
"Z*+	c #A69F2F",
"`*+	c #A69E2C",
" =+	c #A49F34",
".=+	c #A59C36",
"+=+	c #A59C37",
"@=+	c #A9A23B",
"#=+	c #A7A238",
"$=+	c #A19C35",
"%=+	c #A29E36",
"&=+	c #A29D34",
"*=+	c #959224",
"==+	c #989426",
"-=+	c #979326",
";=+	c #95921E",
">=+	c #9A951F",
",=+	c #9B9421",
"'=+	c #9B9423",
")=+	c #9A941C",
"!=+	c #9B9520",
"~=+	c #A19726",
"{=+	c #A09825",
"]=+	c #A49B29",
"^=+	c #A9A128",
"/=+	c #A19A27",
"(=+	c #A29926",
"_=+	c #A19924",
":=+	c #9A941F",
"<=+	c #99951C",
"[=+	c #9C9521",
"}=+	c #9E9826",
"|=+	c #9E9928",
"1=+	c #A09828",
"2=+	c #9D9625",
"3=+	c #A39927",
"4=+	c #A89E2B",
"5=+	c #A8A029",
"6=+	c #A79E28",
"7=+	c #A79D28",
"8=+	c #A39A20",
"9=+	c #A49B23",
"0=+	c #A39B20",
"a=+	c #A29A1D",
"b=+	c #A39C24",
"c=+	c #A29A27",
"d=+	c #A0992A",
"e=+	c #9C9528",
"f=+	c #989223",
"g=+	c #928E1B",
"h=+	c #918F1A",
"i=+	c #9D9623",
"j=+	c #9D9527",
"k=+	c #999225",
"l=+	c #94901D",
"m=+	c #94901B",
"n=+	c #95921D",
"o=+	c #9A9621",
"p=+	c #92911E",
"q=+	c #919022",
"r=+	c #90901C",
"s=+	c #8D8F16",
"t=+	c #908E18",
"u=+	c #938E19",
"v=+	c #A49925",
"w=+	c #A09821",
"x=+	c #9D9420",
"y=+	c #E6D45A",
"z=+	c #ECC42B",
"A=+	c #F0C014",
"B=+	c #F0C413",
"C=+	c #EFC313",
"D=+	c #EEC414",
"E=+	c #EEC214",
"F=+	c #EFC112",
"G=+	c #EEBD14",
"H=+	c #F2811A",
"I=+	c #F87125",
"J=+	c #F1C817",
"K=+	c #AF9C42",
"L=+	c #4B4420",
"M=+	c #514929",
"N=+	c #524928",
"O=+	c #524926",
"P=+	c #474325",
"Q=+	c #434321",
"R=+	c #474423",
"S=+	c #494524",
"T=+	c #484524",
"U=+	c #494425",
"V=+	c #49431F",
"W=+	c #4A4420",
"X=+	c #4B4521",
"Y=+	c #514A23",
"Z=+	c #6F6527",
"`=+	c #938D2E",
" -+	c #A9A237",
".-+	c #A59B37",
"+-+	c #ABA33B",
"@-+	c #A89F3A",
"#-+	c #AAA33C",
"$-+	c #A19A35",
"%-+	c #9C9732",
"&-+	c #9E9834",
"*-+	c #9E9A2A",
"=-+	c #9F9A29",
"--+	c #A59E2C",
";-+	c #AAA438",
">-+	c #A19C32",
",-+	c #A09C2C",
"'-+	c #A09C2B",
")-+	c #969422",
"!-+	c #999726",
"~-+	c #969121",
"{-+	c #94901E",
"]-+	c #99941F",
"^-+	c #9E9626",
"/-+	c #9F9727",
"(-+	c #9B951F",
"_-+	c #A59827",
":-+	c #A29823",
"<-+	c #A29920",
"[-+	c #A49B26",
"}-+	c #A39B24",
"|-+	c #A39B22",
"1-+	c #A09920",
"2-+	c #A39828",
"3-+	c #A29828",
"4-+	c #A49926",
"5-+	c #A59B29",
"6-+	c #A69C2A",
"7-+	c #A69B29",
"8-+	c #A89E28",
"9-+	c #A8A028",
"0-+	c #A49C25",
"a-+	c #A79D27",
"b-+	c #A59B26",
"c-+	c #A39A21",
"d-+	c #A49928",
"e-+	c #A19728",
"f-+	c #9D9628",
"g-+	c #959121",
"h-+	c #928D1D",
"i-+	c #93911A",
"j-+	c #A39C25",
"k-+	c #A69B28",
"l-+	c #A49A25",
"m-+	c #A39924",
"n-+	c #9F9725",
"o-+	c #96921D",
"p-+	c #95911A",
"q-+	c #92901E",
"r-+	c #91911C",
"s-+	c #8C8D18",
"t-+	c #8F8F17",
"u-+	c #918E18",
"v-+	c #908E17",
"w-+	c #928D18",
"x-+	c #9A931A",
"y-+	c #9B941C",
"z-+	c #9C951C",
"A-+	c #A0981C",
"B-+	c #9A941B",
"C-+	c #979020",
"D-+	c #DEC747",
"E-+	c #EECB2C",
"F-+	c #EEC013",
"G-+	c #F1C515",
"H-+	c #EEC012",
"I-+	c #EEC821",
"J-+	c #EEC518",
"K-+	c #F2C71C",
"L-+	c #EE8417",
"M-+	c #F9741D",
"N-+	c #E9871F",
"O-+	c #F1C614",
"P-+	c #A69737",
"Q-+	c #4F4923",
"R-+	c #4B4726",
"S-+	c #534926",
"T-+	c #484125",
"U-+	c #4A4525",
"V-+	c #4A4624",
"W-+	c #48421F",
"X-+	c #463C1B",
"Y-+	c #49421F",
"Z-+	c #4B4624",
"`-+	c #645923",
" ;+	c #8F882F",
".;+	c #A9A339",
"+;+	c #ACA43D",
"@;+	c #A8A039",
"#;+	c #9D9831",
"$;+	c #9D9930",
"%;+	c #A29C2B",
"&;+	c #A8A133",
"*;+	c #A69E36",
"=;+	c #ADA539",
"-;+	c #ACA537",
";;+	c #ADA537",
">;+	c #A29B2A",
",;+	c #A09929",
"';+	c #A39D25",
");+	c #A69E26",
"!;+	c #A19A25",
"~;+	c #9F9923",
"{;+	c #959221",
"];+	c #969224",
"^;+	c #959122",
"/;+	c #999526",
"(;+	c #9C9526",
"_;+	c #9A9325",
":;+	c #999124",
"<;+	c #9A9324",
"[;+	c #9A9225",
"};+	c #9A9423",
"|;+	c #989221",
"1;+	c #9D9723",
"2;+	c #9F971E",
"3;+	c #A49C24",
"4;+	c #A59D24",
"5;+	c #A49C23",
"6;+	c #A59D25",
"7;+	c #A79F27",
"8;+	c #9B961D",
"9;+	c #9A9421",
"0;+	c #9E9727",
"a;+	c #A59828",
"b;+	c #A29727",
"c;+	c #A49929",
"d;+	c #A59929",
"e;+	c #A59C26",
"f;+	c #A59928",
"g;+	c #A59D29",
"h;+	c #A59C28",
"i;+	c #A39B2B",
"j;+	c #A39928",
"k;+	c #9C9422",
"l;+	c #98921D",
"m;+	c #919019",
"n;+	c #9D961D",
"o;+	c #AAA128",
"p;+	c #AFA62A",
"q;+	c #ABA327",
"r;+	c #A59C20",
"s;+	c #99931C",
"t;+	c #97921E",
"u;+	c #999420",
"v;+	c #958E1B",
"w;+	c #989120",
"x;+	c #958E1E",
"y;+	c #948D1C",
"z;+	c #908C19",
"A;+	c #908C18",
"B;+	c #958F19",
"C;+	c #9C9421",
"D;+	c #978D24",
"E;+	c #968C26",
"F;+	c #DDBF36",
"G;+	c #EEC116",
"H;+	c #EEC515",
"I;+	c #F0C514",
"J;+	c #EB8D1C",
"K;+	c #F3CB26",
"L;+	c #A39236",
"M;+	c #514923",
"N;+	c #544B2D",
"O;+	c #403922",
"P;+	c #494226",
"Q;+	c #484324",
"R;+	c #473D26",
"S;+	c #443F25",
"T;+	c #484525",
"U;+	c #4D4725",
"V;+	c #484221",
"W;+	c #453B19",
"X;+	c #494320",
"Y;+	c #4A4522",
"Z;+	c #5D5B21",
"`;+	c #938B33",
" >+	c #A59E37",
".>+	c #ABA43D",
"+>+	c #A89F39",
"@>+	c #ABA23D",
"#>+	c #A9A13A",
"$>+	c #9E962F",
"%>+	c #9E992B",
"&>+	c #A09B2D",
"*>+	c #A59E2E",
"=>+	c #A79F2C",
"->+	c #A9A129",
";>+	c #AAA129",
">>+	c #A59C22",
",>+	c #A79F25",
"'>+	c #9E9A21",
")>+	c #9A971F",
"!>+	c #98951E",
"~>+	c #94921C",
"{>+	c #9F9929",
"]>+	c #9E9627",
"^>+	c #9B9324",
"/>+	c #9F9723",
"(>+	c #A69E25",
"_>+	c #ABA329",
":>+	c #A9A127",
"<>+	c #ADA52A",
"[>+	c #A89F25",
"}>+	c #A09A21",
"|>+	c #97951E",
"1>+	c #9C9720",
"2>+	c #9E9725",
"3>+	c #A39A25",
"4>+	c #A29728",
"5>+	c #9C9529",
"6>+	c #A49A22",
"7>+	c #A59B27",
"8>+	c #A49C20",
"9>+	c #A49B21",
"0>+	c #96921A",
"a>+	c #969219",
"b>+	c #9B931D",
"c>+	c #A9A126",
"d>+	c #A7A027",
"e>+	c #A09A20",
"f>+	c #A29A1E",
"g>+	c #A39A1D",
"h>+	c #A39B23",
"i>+	c #999625",
"j>+	c #989325",
"k>+	c #9C932A",
"l>+	c #A2972E",
"m>+	c #A0942B",
"n>+	c #9F962A",
"o>+	c #9B9223",
"p>+	c #9A921F",
"q>+	c #A0971F",
"r>+	c #9F9623",
"s>+	c #968E20",
"t>+	c #958D1D",
"u>+	c #958E20",
"v>+	c #EFC514",
"w>+	c #EFC51B",
"x>+	c #EE871A",
"y>+	c #E98A1E",
"z>+	c #A4963A",
"A>+	c #574F27",
"B>+	c #4B4627",
"C>+	c #4A4425",
"D>+	c #473F24",
"E>+	c #484025",
"F>+	c #514826",
"G>+	c #544A26",
"H>+	c #4F4826",
"I>+	c #4C4623",
"J>+	c #4B4524",
"K>+	c #494422",
"L>+	c #5E5921",
"M>+	c #998E3B",
"N>+	c #A5A037",
"O>+	c #A79F38",
"P>+	c #ACA53E",
"Q>+	c #A29A34",
"R>+	c #A5A034",
"S>+	c #9B9631",
"T>+	c #948F24",
"U>+	c #9C9929",
"V>+	c #A29A2D",
"W>+	c #A29A2F",
"X>+	c #9D9825",
"Y>+	c #A49D24",
"Z>+	c #9E9925",
"`>+	c #A39B27",
" ,+	c #9B9420",
".,+	c #9C9724",
"+,+	c #9C9721",
"@,+	c #9E9926",
"#,+	c #A0991F",
"$,+	c #9F9920",
"%,+	c #9B971F",
"&,+	c #95941D",
"*,+	c #95911D",
"=,+	c #93901E",
"-,+	c #9B9628",
";,+	c #A3992A",
">,+	c #A49C2D",
",,+	c #A19929",
"',+	c #9B9323",
"),+	c #98941D",
"!,+	c #9E9723",
"~,+	c #9F9820",
"{,+	c #A29924",
"],+	c #AAA229",
"^,+	c #A89F26",
"/,+	c #A79E23",
"(,+	c #A69D21",
"_,+	c #A79F24",
":,+	c #A19727",
"<,+	c #9B9329",
"[,+	c #A49828",
"},+	c #A19825",
"|,+	c #A49827",
"1,+	c #A29925",
"2,+	c #A39826",
"3,+	c #A39926",
"4,+	c #A09626",
"5,+	c #A09724",
"6,+	c #A09725",
"7,+	c #A49A23",
"8,+	c #959319",
"9,+	c #919118",
"0,+	c #9F9726",
"a,+	c #9A9527",
"b,+	c #9A9528",
"c,+	c #9B952D",
"d,+	c #A09A2A",
"e,+	c #9E9A28",
"f,+	c #9D972E",
"g,+	c #A99035",
"h,+	c #A59233",
"i,+	c #A89331",
"j,+	c #A6972D",
"k,+	c #A59927",
"l,+	c #A29726",
"m,+	c #9B931E",
"n,+	c #978F21",
"o,+	c #E9B418",
"p,+	c #F1C611",
"q,+	c #F1C417",
"r,+	c #EE881A",
"s,+	c #E69722",
"t,+	c #F4CA1A",
"u,+	c #A99D37",
"v,+	c #595322",
"w,+	c #4A4520",
"x,+	c #4C4622",
"y,+	c #524927",
"z,+	c #4F4828",
"A,+	c #534A29",
"B,+	c #514926",
"C,+	c #494421",
"D,+	c #494523",
"E,+	c #615827",
"F,+	c #938737",
"G,+	c #B0A93F",
"H,+	c #A9A338",
"I,+	c #ACA53B",
"J,+	c #ABA438",
"K,+	c #A8A135",
"L,+	c #A59E32",
"M,+	c #A19C2D",
"N,+	c #A7A033",
"O,+	c #A59E30",
"P,+	c #A69F31",
"Q,+	c #A49F32",
"R,+	c #A29B2F",
"S,+	c #979225",
"T,+	c #959023",
"U,+	c #948F1F",
"V,+	c #9B952E",
"W,+	c #9C9830",
"X,+	c #A4992B",
"Y,+	c #9C9623",
"Z,+	c #A19927",
"`,+	c #A09A25",
" '+	c #9E9721",
".'+	c #9A951E",
"+'+	c #9F9626",
"@'+	c #A69D29",
"#'+	c #A2992A",
"$'+	c #A19A29",
"%'+	c #A19626",
"&'+	c #A29824",
"*'+	c #9F9822",
"='+	c #9D9620",
"-'+	c #A19925",
";'+	c #A59C27",
">'+	c #A69D22",
",'+	c #A69E23",
"''+	c #A29A1C",
")'+	c #9F981B",
"!'+	c #9E9920",
"~'+	c #A69E24",
"{'+	c #999325",
"]'+	c #989225",
"^'+	c #96901B",
"/'+	c #959019",
"('+	c #989419",
"_'+	c #8E8F16",
":'+	c #94921A",
"<'+	c #9F9A20",
"['+	c #A49C2C",
"}'+	c #A39A32",
"|'+	c #A19B29",
"1'+	c #A29936",
"2'+	c #A89335",
"3'+	c #A89234",
"4'+	c #A6962D",
"5'+	c #A59826",
"6'+	c #A49826",
"7'+	c #A29725",
"8'+	c #9A9121",
"9'+	c #958C22",
"0'+	c #E5B323",
"a'+	c #EDBB12",
"b'+	c #EFC116",
"c'+	c #F1C820",
"d'+	c #EB821B",
"e'+	c #F77027",
"f'+	c #D9982C",
"g'+	c #F2CA22",
"h'+	c #F5CA16",
"i'+	c #EFC61C",
"j'+	c #B89E32",
"k'+	c #665F20",
"l'+	c #5C5923",
"m'+	c #4F4621",
"n'+	c #4F4722",
"o'+	c #4F4721",
"p'+	c #504821",
"q'+	c #4E4620",
"r'+	c #564A28",
"s'+	c #554B2C",
"t'+	c #544A28",
"u'+	c #554A26",
"v'+	c #5A4C2C",
"w'+	c #4B4422",
"x'+	c #49421D",
"y'+	c #4B4321",
"z'+	c #4B4622",
"A'+	c #473E1C",
"B'+	c #49441F",
"C'+	c #4C4422",
"D'+	c #5F5724",
"E'+	c #8D8332",
"F'+	c #B1A83C",
"G'+	c #A59A34",
"H'+	c #A59C35",
"I'+	c #A39B33",
"J'+	c #A49F35",
"K'+	c #99942A",
"L'+	c #929123",
"M'+	c #908A26",
"N'+	c #A49B30",
"O'+	c #A39C22",
"P'+	c #9D9722",
"Q'+	c #A79F29",
"R'+	c #A49D27",
"S'+	c #A59C2D",
"T'+	c #A29A22",
"U'+	c #A39B21",
"V'+	c #9E981F",
"W'+	c #9A9420",
"X'+	c #999220",
"Y'+	c #999521",
"Z'+	c #9B9225",
"`'+	c #A39929",
" )+	c #A29929",
".)+	c #A49A27",
"+)+	c #9F9722",
"@)+	c #A69D28",
"#)+	c #A9A12A",
"$)+	c #9F981E",
"%)+	c #A0981D",
"&)+	c #A1981C",
"*)+	c #959119",
"=)+	c #909017",
"-)+	c #928F19",
";)+	c #A7A026",
">)+	c #B0A72B",
",)+	c #A59E24",
"')+	c #9B9526",
"))+	c #A39A2B",
"!)+	c #969124",
"~)+	c #908C24",
"{)+	c #908E1D",
"])+	c #908F18",
"^)+	c #8F8E17",
"/)+	c #908F19",
"()+	c #8F9018",
"_)+	c #919119",
":)+	c #9C9722",
"<)+	c #9F9A28",
"[)+	c #9F9830",
"})+	c #9E9830",
"|)+	c #A29C30",
"1)+	c #A49C37",
"2)+	c #9F9926",
"3)+	c #A29832",
"4)+	c #A59937",
"5)+	c #A59636",
"6)+	c #A59932",
"7)+	c #A09526",
"8)+	c #9D951C",
"9)+	c #9E9621",
"0)+	c #9E9426",
"a)+	c #9D9326",
"b)+	c #E1B34E",
"c)+	c #E7B91C",
"d)+	c #EDBD1A",
"e)+	c #EEC528",
"f)+	c #ECCF44",
"g)+	c #ECC626",
"h)+	c #EEBF1A",
"i)+	c #EFC014",
"j)+	c #EFC526",
"k)+	c #ECC839",
"l)+	c #EFD356",
"m)+	c #ECCA39",
"n)+	c #EED65C",
"o)+	c #EBD248",
"p)+	c #E4CD46",
"q)+	c #E27E32",
"r)+	c #F35C2A",
"s)+	c #F66A27",
"t)+	c #F36324",
"u)+	c #F15E22",
"v)+	c #F15D23",
"w)+	c #F25D25",
"x)+	c #F25C29",
"y)+	c #F25D26",
"z)+	c #F35D2A",
"A)+	c #F35E2B",
"B)+	c #F46029",
"C)+	c #F46028",
"D)+	c #F36025",
"E)+	c #D59239",
"F)+	c #F0C728",
"G)+	c #F3C919",
"H)+	c #F0C719",
"I)+	c #F1C91A",
"J)+	c #F4CB1C",
"K)+	c #F3CB1B",
"L)+	c #F3CA17",
"M)+	c #F0C617",
"N)+	c #EFC626",
"O)+	c #C3A440",
"P)+	c #6F6120",
"Q)+	c #604E22",
"R)+	c #665627",
"S)+	c #635425",
"T)+	c #614E24",
"U)+	c #594B1C",
"V)+	c #5F4E23",
"W)+	c #594A22",
"X)+	c #54481E",
"Y)+	c #50431E",
"Z)+	c #4B4119",
"`)+	c #554920",
" !+	c #4D4220",
".!+	c #4A3F1F",
"+!+	c #4C411F",
"@!+	c #4A3E1C",
"#!+	c #463E1B",
"$!+	c #453C1A",
"%!+	c #4C4321",
"&!+	c #49411B",
"*!+	c #4B4320",
"=!+	c #5F5225",
"-!+	c #83762F",
";!+	c #9E9435",
">!+	c #AFA436",
",!+	c #A79D36",
"'!+	c #A49A2F",
")!+	c #A49A35",
"!!+	c #9E9832",
"~!+	c #9D972D",
"{!+	c #ABA63D",
"]!+	c #9C982D",
"^!+	c #99952A",
"/!+	c #948E2B",
"(!+	c #9D9733",
"_!+	c #A29A30",
":!+	c #999427",
"<!+	c #9F982A",
"[!+	c #A19A26",
"}!+	c #999622",
"|!+	c #999624",
"1!+	c #A39C2A",
"2!+	c #A09923",
"3!+	c #A09921",
"4!+	c #A19823",
"5!+	c #9E9827",
"6!+	c #A09729",
"7!+	c #A3982A",
"8!+	c #9F9629",
"9!+	c #9E9528",
"0!+	c #9D9425",
"a!+	c #A49A28",
"b!+	c #A39A27",
"c!+	c #A59C2A",
"d!+	c #A89F2B",
"e!+	c #AAA12C",
"f!+	c #99941A",
"g!+	c #979219",
"h!+	c #979319",
"i!+	c #A79F26",
"j!+	c #A8A027",
"k!+	c #A49C28",
"l!+	c #A09927",
"m!+	c #A49829",
"n!+	c #9F9828",
"o!+	c #948F21",
"p!+	c #8B881E",
"q!+	c #918D21",
"r!+	c #939119",
"s!+	c #8E8E18",
"t!+	c #8C8C18",
"u!+	c #8C8D17",
"v!+	c #8D8E18",
"w!+	c #949021",
"x!+	c #A19834",
"y!+	c #99932F",
"z!+	c #9E9632",
"A!+	c #A29835",
"B!+	c #A19433",
"C!+	c #A49131",
"D!+	c #A1922D",
"E!+	c #958C20",
"F!+	c #968F19",
"G!+	c #9B941B",
"H!+	c #999221",
"I!+	c #978E23",
"J!+	c #A78C67",
"K!+	c #A1882F",
"L!+	c #A59223",
"M!+	c #AE9D2C",
"N!+	c #BEB558",
"O!+	c #B9A249",
"P!+	c #BDAA36",
"Q!+	c #B7A729",
"R!+	c #BEA842",
"S!+	c #C5B64A",
"T!+	c #C6B957",
"U!+	c #C2B448",
"V!+	c #B8A656",
"W!+	c #C1B446",
"X!+	c #C7B954",
"Y!+	c #DB7540",
"Z!+	c #F0492C",
"`!+	c #EE4729",
" ~+	c #E93822",
".~+	c #EA3825",
"+~+	c #EB3825",
"@~+	c #EF3A27",
"#~+	c #EE3926",
"$~+	c #EE3826",
"%~+	c #ED3926",
"&~+	c #ED3B27",
"*~+	c #EB3925",
"=~+	c #EC3D23",
"-~+	c #EC4320",
";~+	c #ED3D23",
">~+	c #ED3C23",
",~+	c #E83F22",
"'~+	c #E34A23",
")~+	c #E15F1E",
"!~+	c #D86118",
"~~+	c #E1691A",
"{~+	c #E8721F",
"]~+	c #E67D28",
"^~+	c #E5781F",
"/~+	c #E6791F",
"(~+	c #E67A1E",
"_~+	c #E6781E",
":~+	c #E5761C",
"<~+	c #E4881D",
"[~+	c #E1852B",
"}~+	c #E0882E",
"|~+	c #DA8B35",
"1~+	c #DFA542",
"2~+	c #DE9A45",
"3~+	c #DCA27F",
"4~+	c #B8693D",
"5~+	c #B76239",
"6~+	c #AF5530",
"7~+	c #AD5732",
"8~+	c #A54C26",
"9~+	c #9D4C22",
"0~+	c #944820",
"a~+	c #8A4817",
"b~+	c #8F461F",
"c~+	c #8D421C",
"d~+	c #944E26",
"e~+	c #9B5E33",
"f~+	c #9D5E33",
"g~+	c #996239",
"h~+	c #955E39",
"i~+	c #824823",
"j~+	c #79401F",
"k~+	c #5B3718",
"l~+	c #4D411F",
"m~+	c #49421E",
"n~+	c #484122",
"o~+	c #504825",
"p~+	c #514825",
"q~+	c #4A431F",
"r~+	c #5E5225",
"s~+	c #837731",
"t~+	c #9D9635",
"u~+	c #AEA537",
"v~+	c #A69C33",
"w~+	c #A59C31",
"x~+	c #A9A035",
"y~+	c #9C9832",
"z~+	c #A9A239",
"A~+	c #A9A33A",
"B~+	c #AAA33A",
"C~+	c #ABA43A",
"D~+	c #A29D33",
"E~+	c #A19D32",
"F~+	c #A6A134",
"G~+	c #9E9B31",
"H~+	c #9E9935",
"I~+	c #9E9C2F",
"J~+	c #979427",
"K~+	c #9C982F",
"L~+	c #9A9032",
"M~+	c #A19835",
"N~+	c #A59B34",
"O~+	c #A8A034",
"P~+	c #A69F32",
"Q~+	c #939022",
"R~+	c #979521",
"S~+	c #96911E",
"T~+	c #999423",
"U~+	c #9D9826",
"V~+	c #A39D2A",
"W~+	c #A29B28",
"X~+	c #A09820",
"Y~+	c #9E9720",
"Z~+	c #A29825",
"`~+	c #9C962A",
" {+	c #9E9529",
".{+	c #9E952A",
"+{+	c #9C9228",
"@{+	c #A19829",
"#{+	c #A29A25",
"${+	c #A69D2B",
"%{+	c #A8A02A",
"&{+	c #A59B28",
"*{+	c #A49B25",
"={+	c #908D1B",
"-{+	c #8D8C18",
";{+	c #8B8C18",
">{+	c #8D8B18",
",{+	c #8E8E17",
"'{+	c #8F9017",
"){+	c #8D8E16",
"!{+	c #96921C",
"~{+	c #9A9322",
"{{+	c #A29829",
"]{+	c #948F1C",
"^{+	c #8E8A1E",
"/{+	c #8D8C1B",
"({+	c #979423",
"_{+	c #9F9636",
":{+	c #9D9735",
"<{+	c #9E9438",
"[{+	c #9B953A",
"}{+	c #A09839",
"|{+	c #A09831",
"1{+	c #A39938",
"2{+	c #A39937",
"3{+	c #9C922F",
"4{+	c #9B912A",
"5{+	c #988F25",
"6{+	c #585027",
"7{+	c #4F4820",
"8{+	c #585626",
"9{+	c #696726",
"0{+	c #89833A",
"a{+	c #8F8935",
"b{+	c #8E8731",
"c{+	c #8C8930",
"d{+	c #8C8B2D",
"e{+	c #8B8530",
"f{+	c #8B8430",
"g{+	c #898331",
"h{+	c #8F8937",
"i{+	c #918235",
"j{+	c #938235",
"k{+	c #CA6132",
"l{+	c #ED3E28",
"m{+	c #F1402A",
"n{+	c #EF3B27",
"o{+	c #EE3A27",
"p{+	c #F0412A",
"q{+	c #E93724",
"r{+	c #E93524",
"s{+	c #EA3A25",
"t{+	c #E93824",
"u{+	c #EA3623",
"v{+	c #EC3924",
"w{+	c #ED3B25",
"x{+	c #ED3A26",
"y{+	c #E93223",
"z{+	c #E83122",
"A{+	c #E83222",
"B{+	c #E43021",
"C{+	c #E53221",
"D{+	c #E63522",
"E{+	c #E63325",
"F{+	c #E63623",
"G{+	c #E63422",
"H{+	c #E63122",
"I{+	c #E73122",
"J{+	c #E13022",
"K{+	c #DA3024",
"L{+	c #D73023",
"M{+	c #DD3021",
"N{+	c #DA321C",
"O{+	c #DA331B",
"P{+	c #DB341B",
"Q{+	c #E13C25",
"R{+	c #DF3D22",
"S{+	c #E6472B",
"T{+	c #E8452E",
"U{+	c #DC3524",
"V{+	c #D33424",
"W{+	c #AA492E",
"X{+	c #523215",
"Y{+	c #473717",
"Z{+	c #453A1B",
"`{+	c #473F1F",
" ]+	c #534925",
".]+	c #514823",
"+]+	c #4C451F",
"@]+	c #5F5625",
"#]+	c #7E7135",
"$]+	c #9C9537",
"%]+	c #ADA63C",
"&]+	c #A79E33",
"*]+	c #A69C36",
"=]+	c #A79E34",
"-]+	c #B3A736",
";]+	c #B1A83A",
">]+	c #A09C31",
",]+	c #A09A34",
"']+	c #A49D37",
")]+	c #A69E3A",
"!]+	c #A79E3A",
"~]+	c #A29B34",
"{]+	c #A5A036",
"]]+	c #A8A137",
"^]+	c #9D9F32",
"/]+	c #9D9C32",
"(]+	c #95912C",
"_]+	c #99952F",
":]+	c #9A962B",
"<]+	c #9B952B",
"[]+	c #9F9C31",
"}]+	c #A39B35",
"|]+	c #A69E2F",
"1]+	c #A69F2D",
"2]+	c #A29C28",
"3]+	c #989522",
"4]+	c #969123",
"5]+	c #9D9927",
"6]+	c #9F9827",
"7]+	c #9E9622",
"8]+	c #A79F2A",
"9]+	c #A29A23",
"0]+	c #A49C29",
"a]+	c #97931F",
"b]+	c #959219",
"c]+	c #9D961B",
"d]+	c #9C951B",
"e]+	c #A0991C",
"f]+	c #989421",
"g]+	c #979322",
"h]+	c #979221",
"i]+	c #A29B2B",
"j]+	c #8F8D1B",
"k]+	c #8A8A18",
"l]+	c #8B8B18",
"m]+	c #8B8D17",
"n]+	c #8A8A1A",
"o]+	c #8D8A27",
"p]+	c #989234",
"q]+	c #9B9235",
"r]+	c #A0973A",
"s]+	c #9F943C",
"t]+	c #9C943B",
"u]+	c #9D8F42",
"v]+	c #969146",
"w]+	c #9D963C",
"x]+	c #9A932F",
"y]+	c #9A953D",
"z]+	c #9C9635",
"A]+	c #9C9238",
"B]+	c #9B8F36",
"C]+	c #93911F",
"D]+	c #978F1E",
"E]+	c #97901D",
"F]+	c #968E1F",
"G]+	c #958C21",
"H]+	c #524833",
"I]+	c #403D1E",
"J]+	c #57501E",
"K]+	c #8F873E",
"L]+	c #8A7D32",
"M]+	c #888131",
"N]+	c #857930",
"O]+	c #837A2D",
"P]+	c #80772E",
"Q]+	c #7B722D",
"R]+	c #847B31",
"S]+	c #877C32",
"T]+	c #897F32",
"U]+	c #918432",
"V]+	c #CA5D2B",
"W]+	c #EF452C",
"X]+	c #F1492D",
"Y]+	c #F13E29",
"Z]+	c #EF3D28",
"`]+	c #F03C28",
" ^+	c #EB3625",
".^+	c #EA3625",
"+^+	c #EC3725",
"@^+	c #E93323",
"#^+	c #E73121",
"$^+	c #E6301F",
"%^+	c #E73021",
"&^+	c #E73022",
"*^+	c #E62F21",
"=^+	c #E62F22",
"-^+	c #E93424",
";^+	c #E63120",
">^+	c #E83023",
",^+	c #E83223",
"'^+	c #DB3026",
")^+	c #B22F1E",
"!^+	c #532812",
"~^+	c #494321",
"{^+	c #504723",
"]^+	c #594C27",
"^^+	c #746C2F",
"/^+	c #999239",
"(^+	c #B0A73B",
"_^+	c #A49A34",
":^+	c #ADA333",
"<^+	c #ABA132",
"[^+	c #AAA134",
"}^+	c #A59B2B",
"|^+	c #A79D29",
"1^+	c #A89F30",
"2^+	c #A89F33",
"3^+	c #A8A03B",
"4^+	c #A69C38",
"5^+	c #ADA73D",
"6^+	c #A3A036",
"7^+	c #A09D35",
"8^+	c #9B9730",
"9^+	c #979330",
"0^+	c #989329",
"a^+	c #9A942A",
"b^+	c #A59C2B",
"c^+	c #A49D2F",
"d^+	c #A29C29",
"e^+	c #9B9726",
"f^+	c #989324",
"g^+	c #999322",
"h^+	c #A19928",
"i^+	c #9D9627",
"j^+	c #A69D2E",
"k^+	c #999629",
"l^+	c #989527",
"m^+	c #9C9622",
"n^+	c #A39A29",
"o^+	c #A79E2A",
"p^+	c #A59A27",
"q^+	c #A49B28",
"r^+	c #AEA52E",
"s^+	c #ABA22B",
"t^+	c #ADA330",
"u^+	c #ABA22D",
"v^+	c #948F1B",
"w^+	c #959120",
"x^+	c #93911B",
"y^+	c #969319",
"z^+	c #97931E",
"A^+	c #95921F",
"B^+	c #8F8E1A",
"C^+	c #8B8B19",
"D^+	c #868519",
"E^+	c #888A1B",
"F^+	c #87891C",
"G^+	c #87891B",
"H^+	c #878A1B",
"I^+	c #8A891D",
"J^+	c #948F2D",
"K^+	c #9A9235",
"L^+	c #9A8C36",
"M^+	c #9C9634",
"N^+	c #9B9639",
"O^+	c #99943F",
"P^+	c #9C9736",
"Q^+	c #A09738",
"R^+	c #999145",
"S^+	c #998F46",
"T^+	c #9A8F46",
"U^+	c #9E9838",
"V^+	c #9A9431",
"W^+	c #9F9836",
"X^+	c #9A953B",
"Y^+	c #9A943B",
"Z^+	c #998C38",
"`^+	c #969022",
" /+	c #989321",
"./+	c #98931C",
"+/+	c #928D19",
"@/+	c #948E19",
"#/+	c #968E21",
"$/+	c #968B26",
"%/+	c #524834",
"&/+	c #554D1F",
"*/+	c #888235",
"=/+	c #82762F",
"-/+	c #80752D",
";/+	c #7D7232",
">/+	c #807433",
",/+	c #7F7530",
"'/+	c #847733",
")/+	c #84772E",
"!/+	c #8E7D2E",
"~/+	c #C4632A",
"{/+	c #E93624",
"]/+	c #F03B28",
"^/+	c #ED3826",
"//+	c #EC3825",
"(/+	c #E93423",
"_/+	c #E83322",
":/+	c #E73220",
"</+	c #E52F21",
"[/+	c #E52E21",
"}/+	c #EA3524",
"|/+	c #E63020",
"1/+	c #E52E20",
"2/+	c #E93222",
"3/+	c #EA3424",
"4/+	c #EE3B27",
"5/+	c #EC3926",
"6/+	c #E53122",
"7/+	c #D33122",
"8/+	c #C02E1E",
"9/+	c #602E16",
"0/+	c #393216",
"a/+	c #473D1D",
"b/+	c #524823",
"c/+	c #524C1E",
"d/+	c #746B2F",
"e/+	c #998D38",
"f/+	c #AFA63A",
"g/+	c #AAA034",
"h/+	c #AAA032",
"i/+	c #A69C2C",
"j/+	c #AFA62E",
"k/+	c #AA9F2C",
"l/+	c #A49C22",
"m/+	c #A0992C",
"n/+	c #9C992D",
"o/+	c #9C9932",
"p/+	c #97932D",
"q/+	c #8F8E2E",
"r/+	c #9A9530",
"s/+	c #9A952D",
"t/+	c #A79F2D",
"u/+	c #95921C",
"v/+	c #9B962B",
"w/+	c #9C982E",
"x/+	c #9B952C",
"y/+	c #9A9328",
"z/+	c #989126",
"A/+	c #979025",
"B/+	c #999126",
"C/+	c #9A9127",
"D/+	c #9A9226",
"E/+	c #989029",
"F/+	c #97912A",
"G/+	c #A79E2F",
"H/+	c #ACA234",
"I/+	c #ACA232",
"J/+	c #A6A337",
"K/+	c #A39F32",
"L/+	c #9F9721",
"M/+	c #9C9520",
"N/+	c #AAA22D",
"O/+	c #969321",
"P/+	c #949018",
"Q/+	c #938F1A",
"R/+	c #8C8E17",
"S/+	c #8D8D18",
"T/+	c #8C8C17",
"U/+	c #91901C",
"V/+	c #908F21",
"W/+	c #908C2A",
"X/+	c #969332",
"Y/+	c #938F31",
"Z/+	c #8E842F",
"`/+	c #877F36",
" (+	c #8E8238",
".(+	c #928C3D",
"+(+	c #979243",
"@(+	c #979046",
"#(+	c #9B8E46",
"$(+	c #9F9146",
"%(+	c #9A9432",
"&(+	c #9C942F",
"*(+	c #9E9736",
"=(+	c #908E1A",
"-(+	c #918F18",
";(+	c #8D871A",
">(+	c #908A19",
",(+	c #968E1D",
"'(+	c #4B452D",
")(+	c #3A391C",
"!(+	c #504C1F",
"~(+	c #8A8239",
"{(+	c #857731",
"](+	c #837630",
"^(+	c #7D732D",
"/(+	c #7F742D",
"((+	c #797132",
"_(+	c #B97530",
":(+	c #E83523",
"<(+	c #E6311F",
"[(+	c #E52F20",
"}(+	c #E83123",
"|(+	c #EA3725",
"1(+	c #E43C28",
"2(+	c #C83A21",
"3(+	c #43391D",
"4(+	c #4A4021",
"5(+	c #504721",
"6(+	c #514722",
"7(+	c #4E4520",
"8(+	c #5B4E24",
"9(+	c #7C7131",
"0(+	c #968937",
"a(+	c #A69C2E",
"b(+	c #A89F31",
"c(+	c #A59D2E",
"d(+	c #ADA42F",
"e(+	c #ACA02F",
"f(+	c #9C951E",
"g(+	c #A79E27",
"h(+	c #A29B23",
"i(+	c #A7A031",
"j(+	c #A59A35",
"k(+	c #A29E32",
"l(+	c #9D992D",
"m(+	c #A59A29",
"n(+	c #A79F30",
"o(+	c #A59C2E",
"p(+	c #A09A24",
"q(+	c #949020",
"r(+	c #978F26",
"s(+	c #908C2B",
"t(+	c #988E29",
"u(+	c #978D28",
"v(+	c #999127",
"w(+	c #9A9326",
"x(+	c #8B8921",
"y(+	c #A9A031",
"z(+	c #ACA437",
"A(+	c #AFA73A",
"B(+	c #A49C2A",
"C(+	c #A19926",
"D(+	c #9E9523",
"E(+	c #9E9424",
"F(+	c #A89F2E",
"G(+	c #92901C",
"H(+	c #99931A",
"I(+	c #97921B",
"J(+	c #948F1A",
"K(+	c #95911C",
"L(+	c #9C9723",
"M(+	c #94921F",
"N(+	c #94911C",
"O(+	c #8E8F18",
"P(+	c #99941E",
"Q(+	c #97912D",
"R(+	c #938C2E",
"S(+	c #8B8133",
"T(+	c #837827",
"U(+	c #949036",
"V(+	c #948D35",
"W(+	c #9E9541",
"X(+	c #9E983B",
"Y(+	c #8C842A",
"Z(+	c #A09837",
"`(+	c #9A932C",
" _+	c #9C9427",
"._+	c #969119",
"+_+	c #97921A",
"@_+	c #958E19",
"#_+	c #999123",
"$_+	c #484328",
"%_+	c #3D3E1F",
"&_+	c #524E22",
"*_+	c #807735",
"=_+	c #8A8530",
"-_+	c #8B8830",
";_+	c #8B7B34",
">_+	c #887B33",
",_+	c #897934",
"'_+	c #857932",
")_+	c #8F8031",
"!_+	c #C37032",
"~_+	c #E43722",
"{_+	c #EA3624",
"]_+	c #E73222",
"^_+	c #E83423",
"/_+	c #E5301E",
"(_+	c #EB3725",
"__+	c #E23B28",
":_+	c #CB3D22",
"<_+	c #443A1A",
"[_+	c #453A1A",
"}_+	c #4E4525",
"|_+	c #4B4421",
"1_+	c #544B24",
"2_+	c #5D4E2B",
"3_+	c #7A6B31",
"4_+	c #9A8937",
"5_+	c #A49B2C",
"6_+	c #B0A433",
"7_+	c #A69D30",
"8_+	c #A69C28",
"9_+	c #A59B2D",
"0_+	c #A49A31",
"a_+	c #9E9734",
"b_+	c #A09C2E",
"c_+	c #9E9B2E",
"d_+	c #9D9A2F",
"e_+	c #9C9633",
"f_+	c #A69E33",
"g_+	c #A69D2F",
"h_+	c #A4992A",
"i_+	c #A29B2C",
"j_+	c #958C28",
"k_+	c #968F27",
"l_+	c #999328",
"m_+	c #979124",
"n_+	c #989023",
"o_+	c #9C9426",
"p_+	c #9A9128",
"q_+	c #8C8826",
"r_+	c #9A952A",
"s_+	c #A89F2F",
"t_+	c #A29C2C",
"u_+	c #9C9522",
"v_+	c #9B931F",
"w_+	c #A2982B",
"x_+	c #A39A2C",
"y_+	c #A59829",
"z_+	c #A29A2B",
"A_+	c #929118",
"B_+	c #959218",
"C_+	c #919117",
"D_+	c #979419",
"E_+	c #96921F",
"F_+	c #969220",
"G_+	c #9C971E",
"H_+	c #99951D",
"I_+	c #959129",
"J_+	c #817A24",
"K_+	c #837826",
"L_+	c #969031",
"M_+	c #9B9431",
"N_+	c #928827",
"O_+	c #968F2E",
"P_+	c #8D8627",
"Q_+	c #9C9331",
"R_+	c #A09939",
"S_+	c #9C9239",
"T_+	c #97911D",
"U_+	c #968C25",
"V_+	c #988E26",
"W_+	c #444025",
"X_+	c #444124",
"Y_+	c #4E4A20",
"Z_+	c #807C33",
"`_+	c #888230",
" :+	c #7E742A",
".:+	c #887F2C",
"+:+	c #8B8032",
"@:+	c #887E30",
"#:+	c #837532",
"$:+	c #817433",
"%:+	c #8A8236",
"&:+	c #968436",
"*:+	c #C56B2F",
"=:+	c #EB3524",
"-:+	c #E73120",
";:+	c #E83121",
">:+	c #E52E22",
",:+	c #EB3425",
"':+	c #E5301F",
"):+	c #EA4029",
"!:+	c #BE3D2C",
"~:+	c #60371B",
"{:+	c #463D1C",
"]:+	c #52481B",
"^:+	c #554A21",
"/:+	c #7B6E34",
"(:+	c #988735",
"_:+	c #A8A035",
"::+	c #ACA32F",
"<:+	c #AFA532",
"[:+	c #ABA234",
"}:+	c #A8A02C",
"|:+	c #ABA12B",
"1:+	c #AAA133",
"2:+	c #9D9A2D",
"3:+	c #A09930",
"4:+	c #A09829",
"5:+	c #A39A2F",
"6:+	c #A29A2A",
"7:+	c #989425",
"8:+	c #A09B30",
"9:+	c #9B932D",
"0:+	c #9D942A",
"a:+	c #988E27",
"b:+	c #9C9327",
"c:+	c #998F28",
"d:+	c #9B9228",
"e:+	c #A49A2D",
"f:+	c #A79F31",
"g:+	c #A0992F",
"h:+	c #999321",
"i:+	c #A49A2A",
"j:+	c #A49727",
"k:+	c #968F1D",
"l:+	c #938E21",
"m:+	c #939018",
"n:+	c #95921A",
"o:+	c #988F28",
"p:+	c #968E26",
"q:+	c #96931D",
"r:+	c #9B972E",
"s:+	c #9C962C",
"t:+	c #959320",
"u:+	c #908D1F",
"v:+	c #938D26",
"w:+	c #938D24",
"x:+	c #8D8620",
"y:+	c #989328",
"z:+	c #A19A2D",
"A:+	c #A59F30",
"B:+	c #928B2C",
"C:+	c #9F9633",
"D:+	c #9A9330",
"E:+	c #9B942D",
"F:+	c #9A9224",
"G:+	c #433F28",
"H:+	c #3D3B1E",
"I:+	c #4B4820",
"J:+	c #817B3C",
"K:+	c #8A8432",
"L:+	c #7F7A28",
"M:+	c #897D2E",
"N:+	c #8B842F",
"O:+	c #887B32",
"P:+	c #8C7D36",
"Q:+	c #868031",
"R:+	c #928634",
"S:+	c #C4672B",
"T:+	c #EE3927",
"U:+	c #E83323",
"V:+	c #EF3C27",
"W:+	c #EC422A",
"X:+	c #B63120",
"Y:+	c #543115",
"Z:+	c #453921",
"`:+	c #45391E",
" <+	c #484123",
".<+	c #524825",
"+<+	c #584B27",
"@<+	c #554A25",
"#<+	c #5B4C28",
"$<+	c #786B2B",
"%<+	c #958B31",
"&<+	c #B4A836",
"*<+	c #AAA132",
"=<+	c #A59C2C",
"-<+	c #A8A032",
";<+	c #A39D2D",
"><+	c #9E9929",
",<+	c #A0982F",
"'<+	c #A1992B",
")<+	c #9D972B",
"!<+	c #A0982B",
"~<+	c #A09A28",
"{<+	c #9E962E",
"]<+	c #988F27",
"^<+	c #A3992B",
"/<+	c #9C9527",
"(<+	c #A19920",
"_<+	c #A69F26",
":<+	c #A19628",
"<<+	c #A39829",
"[<+	c #A49A2C",
"}<+	c #A39727",
"|<+	c #9E9427",
"1<+	c #998F22",
"2<+	c #948D1D",
"3<+	c #8E8D17",
"4<+	c #8C8E16",
"5<+	c #919018",
"6<+	c #9A961F",
"7<+	c #9E9922",
"8<+	c #99941C",
"9<+	c #9C962D",
"0<+	c #9A9327",
"a<+	c #96941E",
"b<+	c #A09733",
"c<+	c #949119",
"d<+	c #939219",
"e<+	c #93911D",
"f<+	c #A39B3A",
"g<+	c #9F9935",
"h<+	c #A1992C",
"i<+	c #9C9326",
"j<+	c #9A9221",
"k<+	c #999027",
"l<+	c #968C27",
"m<+	c #433E28",
"n<+	c #454022",
"o<+	c #4D4920",
"p<+	c #807838",
"q<+	c #8B862D",
"r<+	c #8F8A32",
"s<+	c #8B8031",
"t<+	c #877B31",
"u<+	c #8D7C38",
"v<+	c #857633",
"w<+	c #8D7C31",
"x<+	c #C3652A",
"y<+	c #E33223",
"z<+	c #ED432B",
"A<+	c #B82E1E",
"B<+	c #4F3215",
"C<+	c #473E22",
"D<+	c #494326",
"E<+	c #5D4D28",
"F<+	c #8E892A",
"G<+	c #A39A30",
"H<+	c #AEA433",
"I<+	c #B0A535",
"J<+	c #A8A02D",
"K<+	c #A29C2E",
"L<+	c #ABA02D",
"M<+	c #A09A35",
"N<+	c #A69F38",
"O<+	c #A59D33",
"P<+	c #A39E35",
"Q<+	c #A1982B",
"R<+	c #9F982B",
"S<+	c #9D9528",
"T<+	c #9F962B",
"U<+	c #A49B2E",
"V<+	c #A59C2F",
"W<+	c #A89F2D",
"X<+	c #938F20",
"Y<+	c #9D952A",
"Z<+	c #928B27",
"`<+	c #9E9728",
" [+	c #9E9628",
".[+	c #A29C2F",
"+[+	c #A59D27",
"@[+	c #A69D25",
"#[+	c #A79E25",
"$[+	c #A39B1F",
"%[+	c #A19725",
"&[+	c #9C9328",
"*[+	c #A19529",
"=[+	c #A0972B",
"-[+	c #A2992C",
";[+	c #9E9526",
">[+	c #9A9024",
",[+	c #918C19",
"'[+	c #9A941D",
")[+	c #9C9928",
"![+	c #9B972C",
"~[+	c #9E9735",
"{[+	c #918F1E",
"][+	c #9A9332",
"^[+	c #9C9639",
"/[+	c #A29637",
"([+	c #A09734",
"_[+	c #9C9227",
":[+	c #978D26",
"<[+	c #484232",
"[[+	c #413E24",
"}[+	c #514924",
"|[+	c #6F692B",
"1[+	c #818034",
"2[+	c #858331",
"3[+	c #898432",
"4[+	c #8F8733",
"5[+	c #918634",
"6[+	c #8C8732",
"7[+	c #857931",
"8[+	c #807934",
"9[+	c #8C7D30",
"0[+	c #C5612B",
"a[+	c #E83624",
"b[+	c #E62E23",
"c[+	c #E72F24",
"d[+	c #EC3625",
"e[+	c #E93725",
"f[+	c #EE432A",
"g[+	c #B72D1D",
"h[+	c #512E14",
"i[+	c #403B1D",
"j[+	c #483F25",
"k[+	c #483E24",
"l[+	c #4A4424",
"m[+	c #4E4621",
"n[+	c #4D4620",
"o[+	c #554923",
"p[+	c #706827",
"q[+	c #968F31",
"r[+	c #A29A31",
"s[+	c #999329",
"t[+	c #9E972F",
"u[+	c #9D9629",
"v[+	c #99942B",
"w[+	c #969029",
"x[+	c #9E962C",
"y[+	c #9D962B",
"z[+	c #A0992B",
"A[+	c #9F972A",
"B[+	c #999226",
"C[+	c #958F28",
"D[+	c #9A9228",
"E[+	c #9B9627",
"F[+	c #9B9426",
"G[+	c #9D942B",
"H[+	c #A39830",
"I[+	c #A29729",
"J[+	c #999028",
"K[+	c #9B9328",
"L[+	c #A59D30",
"M[+	c #A29B21",
"N[+	c #9B912B",
"O[+	c #9D932C",
"P[+	c #A2982A",
"Q[+	c #9F9627",
"R[+	c #9C9424",
"S[+	c #999025",
"T[+	c #968D22",
"U[+	c #908D19",
"V[+	c #8E9016",
"W[+	c #999227",
"X[+	c #9C982B",
"Y[+	c #9B932B",
"Z[+	c #98951F",
"`[+	c #9D9821",
" }+	c #9B9620",
".}+	c #9A9534",
"+}+	c #9C953A",
"@}+	c #9B9127",
"#}+	c #999026",
"$}+	c #453E2E",
"%}+	c #413B25",
"&}+	c #474323",
"*}+	c #524C28",
"=}+	c #615C26",
"-}+	c #6B652C",
";}+	c #6A632F",
">}+	c #6C662A",
",}+	c #7E7333",
"'}+	c #847E35",
")}+	c #817B34",
"!}+	c #7D772D",
"~}+	c #7B7631",
"{}+	c #857832",
"]}+	c #AF552B",
"^}+	c #E73625",
"/}+	c #E62E22",
"(}+	c #E83024",
"_}+	c #BD3222",
":}+	c #533115",
"<}+	c #4C4724",
"[}+	c #4D4524",
"}}+	c #504626",
"|}+	c #625B25",
"1}+	c #8B822F",
"2}+	c #948B2C",
"3}+	c #92892B",
"4}+	c #8A812E",
"5}+	c #897F2A",
"6}+	c #908C2D",
"7}+	c #8C882C",
"8}+	c #8F8C2C",
"9}+	c #8F8A2A",
"0}+	c #8F8A2B",
"a}+	c #8E882B",
"b}+	c #8B832E",
"c}+	c #87802A",
"d}+	c #999235",
"e}+	c #A59D39",
"f}+	c #9F972D",
"g}+	c #A69F2A",
"h}+	c #A69E29",
"i}+	c #A8A030",
"j}+	c #A69F30",
"k}+	c #A19B2D",
"l}+	c #948E27",
"m}+	c #A3992D",
"n}+	c #9F952A",
"o}+	c #A19627",
"p}+	c #9F962D",
"q}+	c #A4982C",
"r}+	c #A2972B",
"s}+	c #A49A2E",
"t}+	c #A0962B",
"u}+	c #9C9428",
"v}+	c #968E27",
"w}+	c #9E962A",
"x}+	c #9D9A29",
"y}+	c #A9A130",
"z}+	c #A09B29",
"A}+	c #A49D2D",
"B}+	c #A59D22",
"C}+	c #9A912B",
"D}+	c #A49734",
"E}+	c #A69D32",
"F}+	c #9C9325",
"G}+	c #9D9422",
"H}+	c #A4982A",
"I}+	c #8E8C1D",
"J}+	c #928D27",
"K}+	c #95902D",
"L}+	c #9A912C",
"M}+	c #9B982A",
"N}+	c #9F962F",
"O}+	c #9D9820",
"P}+	c #979321",
"Q}+	c #9A9726",
"R}+	c #9E9738",
"S}+	c #A09636",
"T}+	c #A19733",
"U}+	c #A29935",
"V}+	c #A19833",
"W}+	c #9D9426",
"X}+	c #A19724",
"Y}+	c #9A9222",
"Z}+	c #9F9529",
"`}+	c #9D9329",
" |+	c #433F29",
".|+	c #413C25",
"+|+	c #3C381C",
"@|+	c #464224",
"#|+	c #3E3C20",
"$|+	c #3F3D22",
"%|+	c #454020",
"&|+	c #534B25",
"*|+	c #595131",
"=|+	c #4C491F",
"-|+	c #4E4D1F",
";|+	c #524924",
">|+	c #564421",
",|+	c #A13722",
"'|+	c #E13124",
")|+	c #EA3423",
"!|+	c #EB3C27",
"~|+	c #BC3121",
"{|+	c #51361B",
"]|+	c #4A4423",
"^|+	c #544A27",
"/|+	c #514824",
"(|+	c #4F4724",
"_|+	c #574A27",
":|+	c #544A25",
"<|+	c #564B1F",
"[|+	c #625C24",
"}|+	c #736B2D",
"||+	c #776C2E",
"1|+	c #73682D",
"2|+	c #74682A",
"3|+	c #76712C",
"4|+	c #7A732B",
"5|+	c #776D2E",
"6|+	c #7D7230",
"7|+	c #9D9634",
"8|+	c #A39A36",
"9|+	c #A19629",
"0|+	c #A39B2A",
"a|+	c #A89F28",
"b|+	c #A59C21",
"c|+	c #B2A92D",
"d|+	c #B1A92C",
"e|+	c #B0A72C",
"f|+	c #AAA22A",
"g|+	c #A19A2C",
"h|+	c #979222",
"i|+	c #A1982A",
"j|+	c #A3982B",
"k|+	c #A39831",
"l|+	c #A3972A",
"m|+	c #9B9326",
"n|+	c #A19B2A",
"o|+	c #A49C27",
"p|+	c #A39C23",
"q|+	c #A29B20",
"r|+	c #A29331",
"s|+	c #9C922C",
"t|+	c #9A9729",
"u|+	c #9D9626",
"v|+	c #9A9223",
"w|+	c #A09622",
"x|+	c #96901F",
"y|+	c #928E18",
"z|+	c #929018",
"A|+	c #8F8E1E",
"B|+	c #8E8D23",
"C|+	c #8B8A28",
"D|+	c #8C8A28",
"E|+	c #8D8B27",
"F|+	c #8A8924",
"G|+	c #8E8D1F",
"H|+	c #A09C2F",
"I|+	c #A49D25",
"J|+	c #A69E27",
"K|+	c #A69F3B",
"L|+	c #A69D3A",
"M|+	c #A89E3A",
"N|+	c #A69837",
"O|+	c #A69836",
"P|+	c #A6962F",
"Q|+	c #958E29",
"R|+	c #3B3923",
"S|+	c #3C3A23",
"T|+	c #3C381F",
"U|+	c #3F3D1E",
"V|+	c #38351B",
"W|+	c #4C3D20",
"X|+	c #A43321",
"Y|+	c #E33426",
"Z|+	c #E53022",
"`|+	c #E63021",
" 1+	c #EC3A27",
".1+	c #B42B1E",
"+1+	c #593219",
"@1+	c #433A1B",
"#1+	c #4B4220",
"$1+	c #564E29",
"%1+	c #554D25",
"&1+	c #594C28",
"*1+	c #604E2A",
"=1+	c #594C24",
"-1+	c #564D25",
";1+	c #4B4725",
">1+	c #65582A",
",1+	c #685D25",
"'1+	c #8C812E",
")1+	c #9F9631",
"!1+	c #A59A26",
"~1+	c #ACA428",
"{1+	c #B3AA2B",
"]1+	c #B5AC2E",
"^1+	c #B3AA2D",
"/1+	c #ACA42A",
"(1+	c #A69E2B",
"_1+	c #A2992B",
":1+	c #A49E31",
"<1+	c #A39C2D",
"[1+	c #A49B2A",
"}1+	c #A5992F",
"|1+	c #A3992C",
"11+	c #9E962B",
"21+	c #9C9425",
"31+	c #A39D28",
"41+	c #A49C2B",
"51+	c #A2991E",
"61+	c #9B941F",
"71+	c #A19633",
"81+	c #A29934",
"91+	c #9C982C",
"01+	c #9D992E",
"a1+	c #9E9525",
"b1+	c #A59333",
"c1+	c #A49735",
"d1+	c #98911F",
"e1+	c #97901A",
"f1+	c #97911A",
"g1+	c #91901A",
"h1+	c #939120",
"i1+	c #929021",
"j1+	c #8E8D1E",
"k1+	c #8D8C1D",
"l1+	c #838621",
"m1+	c #80831F",
"n1+	c #949422",
"o1+	c #A59E2D",
"p1+	c #A09631",
"q1+	c #A69C37",
"r1+	c #A59B38",
"s1+	c #A79E35",
"t1+	c #A69E30",
"u1+	c #8E8A27",
"v1+	c #403D26",
"w1+	c #3A371F",
"x1+	c #3C3B22",
"y1+	c #37351C",
"z1+	c #3B3922",
"A1+	c #453825",
"B1+	c #992F1C",
"C1+	c #E13123",
"D1+	c #F03B27",
"E1+	c #EA3324",
"F1+	c #E93D28",
"G1+	c #B42A1C",
"H1+	c #5B351F",
"I1+	c #433D1C",
"J1+	c #4D4520",
"K1+	c #5A4C28",
"L1+	c #62512A",
"M1+	c #554A27",
"N1+	c #4C4624",
"O1+	c #5F4F30",
"P1+	c #695928",
"Q1+	c #8B842B",
"R1+	c #A49B2F",
"S1+	c #A79C2E",
"T1+	c #ADA42E",
"U1+	c #A9A029",
"V1+	c #AEA52B",
"W1+	c #B1A82C",
"X1+	c #ADA529",
"Y1+	c #B2A92B",
"Z1+	c #B7AE2D",
"`1+	c #B6AC2E",
" 2+	c #B3AA2C",
".2+	c #B5AB2C",
"+2+	c #B0A82C",
"@2+	c #9C9B2E",
"#2+	c #9F9C30",
"$2+	c #A7A236",
"%2+	c #A9A131",
"&2+	c #A9A132",
"*2+	c #A8A031",
"=2+	c #A9A02F",
"-2+	c #A79F32",
";2+	c #A79D2D",
">2+	c #AAA031",
",2+	c #A79E30",
"'2+	c #9F9826",
")2+	c #A19827",
"!2+	c #A7A028",
"~2+	c #A29827",
"{2+	c #9B8E2D",
"]2+	c #9C932E",
"^2+	c #9B922C",
"/2+	c #A6952D",
"(2+	c #9B8637",
"_2+	c #9C9433",
":2+	c #9D972F",
"<2+	c #969120",
"[2+	c #908E22",
"}2+	c #918E1A",
"|2+	c #8B8C19",
"12+	c #8A8B19",
"22+	c #8B8D1B",
"32+	c #8F8E1C",
"42+	c #8F8E20",
"52+	c #939023",
"62+	c #929023",
"72+	c #9C9620",
"82+	c #A19922",
"92+	c #A39A33",
"02+	c #9E9A30",
"a2+	c #9E9C2E",
"b2+	c #9F9F31",
"c2+	c #9E9D2F",
"d2+	c #9B982C",
"e2+	c #9C9C30",
"f2+	c #A19D35",
"g2+	c #9A9531",
"h2+	c #97922D",
"i2+	c #8D8C2A",
"j2+	c #373520",
"k2+	c #3C3922",
"l2+	c #413A24",
"m2+	c #3F3B25",
"n2+	c #3B3821",
"o2+	c #363019",
"p2+	c #3F3B22",
"q2+	c #423720",
"r2+	c #982F1C",
"s2+	c #E13023",
"t2+	c #E72F23",
"u2+	c #E63022",
"v2+	c #EF3927",
"w2+	c #EA3F2A",
"x2+	c #B73722",
"y2+	c #623B21",
"z2+	c #443B1A",
"A2+	c #4A441E",
"B2+	c #564A27",
"C2+	c #624F2B",
"D2+	c #574B27",
"E2+	c #554A29",
"F2+	c #4B4623",
"G2+	c #534A27",
"H2+	c #584C2B",
"I2+	c #5E5424",
"J2+	c #8C8230",
"K2+	c #A9A12D",
"L2+	c #ADA432",
"M2+	c #ABA02E",
"N2+	c #ACA32A",
"O2+	c #ACA525",
"P2+	c #B09F1D",
"Q2+	c #ADA323",
"R2+	c #AEA62A",
"S2+	c #A8A128",
"T2+	c #A59E2F",
"U2+	c #A7A02F",
"V2+	c #A39E31",
"W2+	c #A99E2E",
"X2+	c #A99E2C",
"Y2+	c #A49B2D",
"Z2+	c #A09627",
"`2+	c #A29628",
" 3+	c #A49935",
".3+	c #A79F28",
"+3+	c #A5992A",
"@3+	c #99952D",
"#3+	c #A59C30",
"$3+	c #A59A31",
"%3+	c #A59C32",
"&3+	c #A6972F",
"*3+	c #9C8B34",
"=3+	c #988536",
"-3+	c #9A8833",
";3+	c #A39436",
">3+	c #A59534",
",3+	c #A39433",
"'3+	c #A1982C",
")3+	c #A3992F",
"!3+	c #A19B25",
"~3+	c #A39C26",
"{3+	c #9B9720",
"]3+	c #98951C",
"^3+	c #94911B",
"/3+	c #949222",
"(3+	c #949225",
"_3+	c #989520",
":3+	c #9C9A2B",
"<3+	c #9B992A",
"[3+	c #989727",
"}3+	c #959626",
"|3+	c #999D2C",
"13+	c #9A9E2D",
"23+	c #9B9C30",
"33+	c #A09D36",
"43+	c #9D9B34",
"53+	c #99922D",
"63+	c #3B3B23",
"73+	c #3E3A25",
"83+	c #3B391F",
"93+	c #3C3B24",
"03+	c #403D25",
"a3+	c #36331D",
"b3+	c #393523",
"c3+	c #3E3825",
"d3+	c #463922",
"e3+	c #A02F1D",
"f3+	c #E43223",
"g3+	c #EF422A",
"h3+	c #F1482D",
"i3+	c #F13D29",
"j3+	c #F1422A",
"k3+	c #E43525",
"l3+	c #B52E1D",
"m3+	c #67381D",
"n3+	c #423A1A",
"o3+	c #463B19",
"p3+	c #413A1B",
"q3+	c #4A401E",
"r3+	c #4A421F",
"s3+	c #564B28",
"t3+	c #534927",
"u3+	c #554B28",
"v3+	c #6A542E",
"w3+	c #6A522F",
"x3+	c #67522D",
"y3+	c #64502E",
"z3+	c #5C4D2B",
"A3+	c #594B28",
"B3+	c #575125",
"C3+	c #5B5324",
"D3+	c #8E8332",
"E3+	c #B2A737",
"F3+	c #AEA435",
"G3+	c #ABA231",
"H3+	c #B3A835",
"I3+	c #B4A935",
"J3+	c #B1A733",
"K3+	c #B1A830",
"L3+	c #B5AC2D",
"M3+	c #B4AA29",
"N3+	c #AFA823",
"O3+	c #B0A321",
"P3+	c #A9A027",
"Q3+	c #ABA32A",
"R3+	c #AAA22E",
"S3+	c #ABA32F",
"T3+	c #A9A12F",
"U3+	c #A9A12E",
"V3+	c #A69F2C",
"W3+	c #ADA435",
"X3+	c #B0A633",
"Y3+	c #ABA22E",
"Z3+	c #B2A534",
"`3+	c #B2A735",
" 4+	c #B4A83A",
".4+	c #AEA432",
"+4+	c #ABA22F",
"@4+	c #A69C2B",
"#4+	c #A09527",
"$4+	c #A09629",
"%4+	c #A1972D",
"&4+	c #A29831",
"*4+	c #A29833",
"=4+	c #A69D31",
"-4+	c #A59C25",
";4+	c #A49C26",
">4+	c #A59E26",
",4+	c #A39A23",
"'4+	c #A19820",
")4+	c #A99E2F",
"!4+	c #A99F30",
"~4+	c #A9A12C",
"{4+	c #B0A632",
"]4+	c #B2A733",
"^4+	c #B0A630",
"/4+	c #B0A62E",
"(4+	c #B1A633",
"_4+	c #AFA331",
":4+	c #B2A638",
"<4+	c #AA9F31",
"[4+	c #A59B32",
"}4+	c #A4992C",
"|4+	c #A1952B",
"14+	c #A0952C",
"24+	c #AC9E32",
"34+	c #A99734",
"44+	c #A59834",
"54+	c #A69731",
"64+	c #A79A35",
"74+	c #A39931",
"84+	c #AAA135",
"94+	c #ADA52C",
"04+	c #9E9823",
"a4+	c #96901E",
"b4+	c #97911F",
"c4+	c #989420",
"d4+	c #9D9827",
"e4+	c #9C9825",
"f4+	c #979623",
"g4+	c #8E8E25",
"h4+	c #898B22",
"i4+	c #808522",
"j4+	c #878823",
"k4+	c #8C8C25",
"l4+	c #949326",
"m4+	c #929227",
"n4+	c #9A9F2D",
"o4+	c #9A9D2E",
"p4+	c #99992A",
"q4+	c #9C9833",
"r4+	c #9C9834",
"s4+	c #9C9933",
"t4+	c #9B9731",
"u4+	c #9D9934",
"v4+	c #9D9A34",
"w4+	c #989331",
"x4+	c #39381F",
"y4+	c #393921",
"z4+	c #3A3624",
"A4+	c #3F3E23",
"B4+	c #3A3A22",
"C4+	c #3E3A23",
"D4+	c #36311E",
"E4+	c #3E3924",
"F4+	c #423A22",
"G4+	c #942A17",
"H4+	c #E83424",
"I4+	c #EF3E28",
"J4+	c #F1462C",
"K4+	c #F13D28",
"L4+	c #EB3424",
"M4+	c #F1472D",
"N4+	c #EE3D28",
"O4+	c #DE3323",
"P4+	c #AD2A19",
"Q4+	c #714224",
"R4+	c #463C19",
"S4+	c #453B1A",
"T4+	c #49401D",
"U4+	c #4C441F",
"V4+	c #524824",
"W4+	c #564A26",
"X4+	c #5A4A27",
"Y4+	c #5F4E2E",
"Z4+	c #5B4D28",
"`4+	c #69542D",
" 5+	c #6C592D",
".5+	c #6E582E",
"+5+	c #6F5530",
"@5+	c #6A522E",
"#5+	c #5B4D2B",
"$5+	c #565025",
"%5+	c #68542D",
"&5+	c #6B5D2B",
"*5+	c #69592B",
"=5+	c #918837",
"-5+	c #A29B35",
";5+	c #A5A038",
">5+	c #B0A739",
",5+	c #B2AB41",
"'5+	c #AFA52F",
")5+	c #AEA52D",
"!5+	c #B3AA30",
"~5+	c #ABA226",
"{5+	c #ACA326",
"]5+	c #AEA727",
"^5+	c #AFA824",
"/5+	c #B1AB24",
"(5+	c #A8A025",
"_5+	c #ADA42A",
":5+	c #ACA42B",
"<5+	c #ACA332",
"[5+	c #AFA535",
"}5+	c #B1A731",
"|5+	c #AFA530",
"15+	c #B1A72F",
"25+	c #B0A634",
"35+	c #B3A834",
"45+	c #B4A835",
"55+	c #B5A93A",
"65+	c #C5AA4B",
"75+	c #C9AA4D",
"85+	c #C9AE46",
"95+	c #C1B137",
"05+	c #B7AA34",
"a5+	c #AAA127",
"b5+	c #A69C27",
"c5+	c #ABA336",
"d5+	c #A59C23",
"e5+	c #A29A21",
"f5+	c #A29921",
"g5+	c #A1991F",
"h5+	c #ACA12F",
"i5+	c #B3A836",
"j5+	c #A59B2F",
"k5+	c #A9A02D",
"l5+	c #B1A732",
"m5+	c #B4A834",
"n5+	c #B5AA31",
"o5+	c #BAAB37",
"p5+	c #B5A830",
"q5+	c #B0A52E",
"r5+	c #AFA32F",
"s5+	c #B2A632",
"t5+	c #ACA230",
"u5+	c #AEA42F",
"v5+	c #AEA331",
"w5+	c #B1A635",
"x5+	c #AEA532",
"y5+	c #A89A32",
"z5+	c #A4982B",
"A5+	c #A79C30",
"B5+	c #AB9C38",
"C5+	c #A3942E",
"D5+	c #A29630",
"E5+	c #A69933",
"F5+	c #AAA02B",
"G5+	c #B3AA2E",
"H5+	c #9D9724",
"I5+	c #A09823",
"J5+	c #A09924",
"K5+	c #A39920",
"L5+	c #A9A228",
"M5+	c #A59E29",
"N5+	c #A49E2F",
"O5+	c #A89F38",
"P5+	c #A4A136",
"Q5+	c #A0A136",
"R5+	c #B0AE3F",
"S5+	c #9D9C30",
"T5+	c #929628",
"U5+	c #94972E",
"V5+	c #92922E",
"W5+	c #90922E",
"X5+	c #939530",
"Y5+	c #989A31",
"Z5+	c #989832",
"`5+	c #929131",
" 6+	c #949131",
".6+	c #979433",
"+6+	c #3E3C24",
"@6+	c #3B3B22",
"#6+	c #3B3B21",
"$6+	c #37341C",
"%6+	c #38341B",
"&6+	c #4B4527",
"*6+	c #863D21",
"=6+	c #DE3324",
"-6+	c #E83224",
";6+	c #E73223",
">6+	c #ED3726",
",6+	c #EF3E29",
"'6+	c #F1432B",
")6+	c #F1442B",
"!6+	c #F03E29",
"~6+	c #EC3826",
"{6+	c #EE4029",
"]6+	c #DF3726",
"^6+	c #AA3A20",
"/6+	c #735433",
"(6+	c #453E1F",
"_6+	c #494222",
":6+	c #4C441E",
"<6+	c #5F4E29",
"[6+	c #68502D",
"}6+	c #5E4D29",
"|6+	c #594B27",
"16+	c #6C5330",
"26+	c #6D532F",
"36+	c #6E562F",
"46+	c #61502A",
"56+	c #5E5128",
"66+	c #595026",
"76+	c #544A24",
"86+	c #5C5129",
"96+	c #5F5827",
"06+	c #69532D",
"a6+	c #6F582F",
"b6+	c #675629",
"c6+	c #8C8334",
"d6+	c #A39D38",
"e6+	c #ACA63B",
"f6+	c #B0A534",
"g6+	c #A29B27",
"h6+	c #ADA42C",
"i6+	c #ADA42B",
"j6+	c #B0A82B",
"k6+	c #B2A92C",
"l6+	c #ABA228",
"m6+	c #AAA227",
"n6+	c #ACA528",
"o6+	c #B1A929",
"p6+	c #A8A026",
"q6+	c #AFA62D",
"r6+	c #ADA430",
"s6+	c #B3A735",
"t6+	c #B4A934",
"u6+	c #B3A833",
"v6+	c #B8AC30",
"w6+	c #BBAF2B",
"x6+	c #A79F23",
"y6+	c #A59D21",
"z6+	c #A9A037",
"A6+	c #A19A21",
"B6+	c #A39C2E",
"C6+	c #B2A736",
"D6+	c #B4A838",
"E6+	c #B8A83A",
"F6+	c #BEAA43",
"G6+	c #C2AD3E",
"H6+	c #BCAF31",
"I6+	c #B5AB31",
"J6+	c #B5AC2F",
"K6+	c #B6AC2F",
"L6+	c #BAAF2E",
"M6+	c #C2AE3C",
"N6+	c #BAAB36",
"O6+	c #B5A934",
"P6+	c #B8AC33",
"Q6+	c #B0A536",
"R6+	c #ADA336",
"S6+	c #AA9E34",
"T6+	c #A79232",
"U6+	c #A88F32",
"V6+	c #A99134",
"W6+	c #A98F34",
"X6+	c #A18D2E",
"Y6+	c #A68F31",
"Z6+	c #A7932F",
"`6+	c #A59A2C",
" 7+	c #A59C24",
".7+	c #A29B24",
"+7+	c #9D951D",
"@7+	c #A19821",
"#7+	c #9E961E",
"$7+	c #9F971C",
"%7+	c #A59519",
"&7+	c #A29118",
"*7+	c #AB9317",
"=7+	c #B29215",
"-7+	c #A89E23",
";7+	c #AEA52A",
">7+	c #B8AD2B",
",7+	c #9D9A31",
"'7+	c #9C9C2F",
")7+	c #989729",
"!7+	c #9A9633",
"~7+	c #92912F",
"{7+	c #8E8F30",
"]7+	c #959438",
"^7+	c #8F8F33",
"/7+	c #8C8C2F",
"(7+	c #8C8D32",
"_7+	c #8F8F35",
":7+	c #9D993A",
"<7+	c #8C8D30",
"[7+	c #3F3A2A",
"}7+	c #29271E",
"|7+	c #352F20",
"17+	c #2E2A18",
"27+	c #3A3920",
"37+	c #3F3E1F",
"47+	c #36351E",
"57+	c #35321A",
"67+	c #464124",
"77+	c #564D27",
"87+	c #A26A46",
"97+	c #DA4032",
"07+	c #E62E24",
"a7+	c #E62F20",
"b7+	c #E93324",
"c7+	c #EE3F29",
"d7+	c #EB3624",
"e7+	c #E33A28",
"f7+	c #B16949",
"g7+	c #85684D",
"h7+	c #41381A",
"i7+	c #473B25",
"j7+	c #3E381B",
"k7+	c #433A19",
"l7+	c #483E1C",
"m7+	c #473F1D",
"n7+	c #483F1E",
"o7+	c #473E1E",
"p7+	c #48401C",
"q7+	c #594B21",
"r7+	c #68512C",
"s7+	c #6B562D",
"t7+	c #68532D",
"u7+	c #5F5428",
"v7+	c #69572C",
"w7+	c #6A542D",
"x7+	c #6E552F",
"y7+	c #625A27",
"z7+	c #69512E",
"A7+	c #665E27",
"B7+	c #8A8431",
"C7+	c #A8A02F",
"D7+	c #A7A030",
"E7+	c #A59E28",
"F7+	c #ACA32E",
"G7+	c #ACA22C",
"H7+	c #ACA32C",
"I7+	c #ABA328",
"J7+	c #A89F23",
"K7+	c #AAA126",
"L7+	c #ABA227",
"M7+	c #A69E22",
"N7+	c #A69D23",
"O7+	c #AAA12B",
"P7+	c #B1A634",
"Q7+	c #A89F2C",
"R7+	c #A49D28",
"S7+	c #A59C29",
"T7+	c #9F9729",
"U7+	c #ACA32B",
"V7+	c #A2991D",
"W7+	c #A79F21",
"X7+	c #949022",
"Y7+	c #9E8F2D",
"Z7+	c #A2972C",
"`7+	c #978F23",
" 8+	c #97901E",
".8+	c #9A911F",
"+8+	c #9A921E",
"@8+	c #98911C",
"#8+	c #8E8E19",
"$8+	c #8D8D17",
"%8+	c #8A8719",
"&8+	c #8E8C18",
"*8+	c #8D8819",
"=8+	c #8E8B19",
"-8+	c #8E8D1A",
";8+	c #918D1C",
">8+	c #928F1D",
",8+	c #95911F",
"'8+	c #AAA232",
")8+	c #B3A63B",
"!8+	c #AFA534",
"~8+	c #AAA030",
"{8+	c #A79D2A",
"]8+	c #A69929",
"^8+	c #A79A29",
"/8+	c #AC9F2D",
"(8+	c #AB9E31",
"_8+	c #A79D32",
":8+	c #A59B2E",
"<8+	c #A39A2E",
"[8+	c #A59A2D",
"}8+	c #A5972D",
"|8+	c #A1952C",
"18+	c #A0902D",
"28+	c #9B8930",
"38+	c #A38C35",
"48+	c #9C8B33",
"58+	c #9C8B2E",
"68+	c #978B27",
"78+	c #988D28",
"88+	c #9F912D",
"98+	c #9D8E2B",
"08+	c #A39728",
"a8+	c #9A941A",
"b8+	c #8E8A19",
"c8+	c #908A1A",
"d8+	c #91891A",
"e8+	c #8E851B",
"f8+	c #8B7E1B",
"g8+	c #8B7E1C",
"h8+	c #8A7F1B",
"i8+	c #8B831A",
"j8+	c #A79F2F",
"k8+	c #8C8A2B",
"l8+	c #86842A",
"m8+	c #84842D",
"n8+	c #86892E",
"o8+	c #8C8D2D",
"p8+	c #8B8B33",
"q8+	c #8A8B34",
"r8+	c #8B8B36",
"s8+	c #908E3C",
"t8+	c #98953F",
"u8+	c #8D8C3D",
"v8+	c #878934",
"w8+	c #818435",
"x8+	c #8D8C3A",
"y8+	c #949041",
"z8+	c #94913D",
"A8+	c #97933F",
"B8+	c #8C8A39",
"C8+	c #7C742F",
"   .  +  @  #  $  %  &  *  =  -  ;  ;  #  .  .  >  .  ,  '  )  !  ~  {  ]  ^  /  ]  ]  ]  /  (  _  :  :  !  ;  ;  <  <  [  [  }  |  ;  1  <  |  <  #  [  2  [  <  3  <  <  4  4  4  ;  ^  5  6  7  8  7  9  7  0  a  b  7  c  d  7  e  f  g  h  h  0  i  j  k  l  m  n  7  0  7  7  7  o  p  q  r  s  7  o  t  u  u  v  w  w  v  v  ~  x  :  _  y  j  z  (  (  (  A  A  A  A  /  /  B  C  :  :  :  :  :  :  ~  .  D  '  :  :  :  _  _  _  ]  E  F  !  :  _  _  G  H  j  j  j  I  j  v  v  w  J  5  K  L  G  K  5  M  N  G  A  G  O  P  P  P  Q  R  0  S  z  _  _  _  T  ]  :  H  G  :  D  :  :  :  :  x  ,  U  U  U  U  U  V  V  W  W  W  +  W  :  x  /  E  (  X  Y  _  :  x  ~  G  _  .  W  Z  P  P  `   . G  Z  .. :  _  G  G  G  H  K  _  :  :  ~  ~  .. D  _  +. R  n  @. #. #. K  _  G  V  ",
"F  <  <  $. %. ;  ;  }  *  [  &. &  -  *  *  *  *. =. *. *  &  -. ;. >. *  ,. '. 3  <  -  |  ). <  <  <  ). <  <  <  <  '  #  <  <  <  ). <  <  +  <  <  +  +  <  ). <  +  !. +  +  .  .  !. .  .  +  ). ,  .  .  <  <  <  <  <  1  W  +  2  ,  2  ). +  <  <  <  <  <  <  <  <  <  ,  W  :  W  .  !. !. !. !. <  <  <  +  +  <  #  U  U  U  ~. D  +  !. D  W  W  ~. {. ~. ~. D  ]. ]. !. ,  ,  U  ,  U  U  #  <  <  <  <  <  #  #  <  <  <  <  <  <  <  <  <  <  <  <  <  <  +  +  D  D  D  .  ^. :  D  D  ^. :  D  .  D  ,  W  {. ,  ,  1  +  D  D  +  !. !. .  D  :  :  W  ~. U  ,  <  <  <  <  <  #  /. <  U  U  U  U  U  ,  #  ,  ,  (. (. /. <  ). <  +  D  U  #  $. <  #  <  <  <  _. #  2  ,  U  ,  ~. U  ~. D  D  :  W  G  D  ^. :  +  W  W  W  1  1  1  D  _  :. <.    G  H  G  ~  x  ",
"O  <  #  $  }  }  ;. &  *  &  *  }  &  *  *  *  *. [. }. *. |. 1. ;. ;  3  [  -  =  ;  +  +  #  <  <  <  <  _. <  <  <  <  <  <  <  <  <  <  |  3  <  ). <  <  <  !. +  !. .  +  1  <  <  |  +  #  <  ,  U  #  2  <  <  <  |  3  &. -  }  *  *  [  ;  |  #  #  <  <  <  |  #  <  #  U  #  <  3  }  }  }  }  }  |  <  ). <  <  ,  U  ,  U  ~. ~. ,  1  1  D  ~. ~. ~. W  ,  ,  ~. .  .  W  1  :  ~  D  ,  ~. ). <  <  #  ,  U  U  U  #  #  <  <  <  <  <  +  #  #  #  #  ;  <  <  ,  W  ). 1  +  !. D  D  D  !. D  W  W  W  U  U  ,  ,  #  #  <  1  ,  1  !. 1  1  W  U  U  U  ,  U  2. [  <  /. #  #  #  #  $. ;  $. ,  U  U  U  ,  U  #  #  +  <  #  #  #  #  <  <  #  $. <  <  <  <  <  <  ;  [  #  #  ;  ;  #  (. <  ,  W  +  {. W  !. _  {. ~. ~. ). #  +  1  W  :  _  F  _  K  O  3. 4. _  ",
"N  <  $. 1. *  *  *  *  *  5. *  *  *  *  [. 6. *. *  [. |. &  &  3  }  |  [  _. <  <  }  7. <  <  <  <  7. [  |  <  <  <  <  <  <  <  <  <  <  <  ;  -  ;  <  <  #  +  D  !. <  #  ). <  +  <  #  ,  .. ,  ,  2  (. ;  _. }  [  &  -  [  7. }  =  |  3  %. #  <  <  <  #  %. $  %. (. #  <  |  <  <  <  <  |  <  <  <  <  (. %. /. #  /. ;  (. U  U  (. (. #  <  <  <  <  U  (. U  #  #  U  U  U  1  D  D  .  +  <  ,  U  8. (. <  ,  U  #  <  <  <  <  <  #  ,  U  (. ;. #  /. #  ;  (. |  <  <  <  !. <  !. D  U  U  U  U  (. (. <  U  #  <  @  @  #  #  <  #  #  8. (. U  U  U  8. %. |  %. ,  %. 1. #  ;  $. 1. 1. #  (. U  U  U  U  <  :  ). ,  U  U  U  <  <  <  <  <  <  <  <  <  1  <  <  #  U  U  U  (. <  <  +  ~. ,  _  :  +  :  {. ,  ,  D  +  D  ~. W  W  9. x  P  H  0. G  G  K  ",
"a. .  +  |  '. *  *  *  *  >. &  *  *  *. *  *. *  ,. 3  3  [  -  <  <  <  <  <  <  <  |  <  <  <  <  <  <  <  <  _. <  <  <  _. #  <  <  <  <  <  <  <  <  <  <  +  +  +  <  <  _. <  <  <  #  U  ,  W  ,  U  ,  #  ,  <  #  [  ;  3  &  ;  &  &  &  [  $  ;  #  <  <  <  #  [  [  ;  $. |  [  |  <  <  <  |  |  <  _. |  /. -. b. (. #  #  #  <  <  ;  #  <  <  <  <  <  <  <  U  #  #  U  U  U  W  !. +  ). !. !. ,  ,  U  ,  #  <  <  8. 2  #  <  <  ,  ,  1  U  ,  U  U  U  1  ,  W  :  D  :  .  !. !. !. +  U  b. 2. #  >  %. #  U  #  #  ;  7. #  2  1  c. $. #  ,  ,  U  U  U  #  b. <  <  #  @  %. <  <  #  #  <  8. %. ,  #  #  <  <  <  <  U  #  U  U  <  <  <  <  <  !. <  <  <  |  <  #  U  U  U  ,  #  #  U  ,  #  d. W  W  D  D  :  D  W  .  _  T  ~  Z  _  D  D  x  G  D  D  H  ",
"a  H  #  $. <  ,. =. *  *  *  *  *  *  *. [. [. *  *  &  #  <  <  <  <  <  <  <  7. |  <  #  [  ;. ;  #  #  <  <  3  ;  <  <  ;  |  <  <  <  <  <  <  <  <  <  <  <  <  !. +  <  7. |  #  U  2  ,  +  &. <  <  +  <  <  -  [  _. ;  -  ;  }  =  <  <  <  <  ). 1  !. !. !. +  <  U  #  <  <  +  <  #  ,  ,  (. &. }  1. $. $  /. /. $  <  U  #  $. -. $  #  #  <  <  <  #  <  <  #  1  ,  U  U  <  1  D  :  +  ,  U  W  1  U  #  #  U  U  U  U  #  #  ,  ,  ,  U  U  (. (. <  #  <  <  <  ,  ,  ,  U  ,  #  #  ,  U  (. #  %. $. /. $  <  <  <  #  8. ;  7. 3  7. /. 1. ;  ;  ;  (. U  U  U  U  U  ,  <  <  <  <  ,  <  #  e. U  ~. ,  ,  #  U  U  <  <  U  ,  U  U  #  <  <  D  ,  U  ,  ,  F  1  ,  U  U  U  ,  :  G  1  D  W  G  :  D  1  W  G  G   . f. (  x  P  x  9. {. D  _  D  D  :  ^. ",
"g. K  #  /. <  -  3  }  [  -. 5. *  *  [. ,. *  &  }  }  &. =  [  <  <  <  <  |  [  <  #  [  3  $. 1. ;  &. 3  <  |  3  #  _. |  <  |  <  #  <  <  <  <  <  }  -  <  ). <  ). +  |  #  }  @  #  2  ~. <  <  <  <  <  |  -  #  #  1  +  <  <  +  |  <  <  <  <  _. <  +  ). ). <  #  +  <  <  7. 7. ;  ;  /. 1. 1. [  /. |  }  &. &. &. #  ,  [  @  %. ;  &. (. ,  U  (. (. U  ,  ,  1  W  +  +  ). ;  +  !. D  {. W  .. U  U  ,  ,  U  ,  U  #  #  -. #  /. #  U  #  #  #  h. h. (. (. #  #  <  <  #  ,  #  [  4  %. U  <  /. ;  %. ;  1. /. /. $  $  <  <  <  |  #  $. $. ;  (. #  #  U  U  U  #  <  <  <  <  #  $. <  <  U  U  U  ,  ,  W  W  U  ,  +  +  ,  U  U  1  !. +  +  U  ,  U  ,  .. D  :  ,  U  W  ,  1  ,  _  G  i. :  O  D  :  W  ~  :  4. i. :  H  :  G  W  D  D  D  D  :  H  _  ",
"6  +  ,  F  ). <  ;  }  }  -. ;. &  *  *  *  =. *  =  &. =  }  |  <  +  <  <  <  |  <  <  3  =  ;  %. #  #  <  |  2  |  -  }  -  -  #  &. &  &  7. 7. }  3  }  ;  ;  #  #  #  +  .  <  <  }  4  #  <  <  <  <  .  +  <  ;  ;  |  <  #  |  #  <  W  +  <  <  <  ). |  [  -  #  <  <  <  +  <  ;  #  _. |  >. }  &  1. %. -  &. &. j. 1. (. %. ,  (. #  U  U  #  (. -  ;  ;  #  (. ~. W  +  1  :  !. +  >  +  +  ,  #  #  ,  x  D  W  U  ,  ,  #  &. ;  <  <  #  U  ,  #  #  %. %. h. (. #  ,  ,  ,  ,  #  ,  U  >  (. U  #  #  <  /. %. [  /. $. ;  <  <  <  <  <  #  #  <  <  $. /. #  #  <  e. ,  #  #  <  <  <  $. ;  <  U  U  U  ,  ,  +  ,  U  U  +  1  1  U  U  1  !. !. +  ,  ,  #  #  ,  2  2  #  ,  2  D  W  U  ~. ,  ~. D  G  :  ~  :  G  H  {. A  A  P  G  9. W  :  W  W  D  G  O  K  ",
"v  '  :  D  1  <  |  <  <  -. &  *  *  =  *  *  -  _. [  (. ,  !. ). #  <  <  <  <  <  <  _. +  <  &. ;. ;  }  ;  ,. &  7. &  *  [  ,. =  *  3  <  #  _. ;  |  <  |  #  >  3  (. #  _. <  |  &  }  3  3  <  -  |  <  <  ;  ;  (. (. &. (. ;  (. (. ,  D  !. 1  <  /. %. #  #  $. <  <  <  /. ;  #  ;  |  1. #  ;  &  k. *  &  [  |  <  <  #  #  (. ,  #  (. (. (. ;  &  *  ;  $. ~. +  +  ). <  <  +  :  D  +  #  (. ,  ~. {. D  W  ,  :  ~. W  %. (. ,  <  #  ,  ;  /. #  U  U  U  ,  #  (. (. (. #  U  U  <  <  <  |  }  &. [  /. ;  -. ;  #  <  <  <  <  <  <  U  8. #  <  U  /. $. <  #  #  U  U  U  ,  #  <  @  8. #  #  U  U  <  <  <  #  ,  U  U  ,  ,  U  ~. #  ). <  !. !. +  <  ,  V  x  :  W  U  :  W  W  U  U  U  :  W  D  D  G  5  N  :  D  _  G  _  G  :  H  K  O  :  D  D  D  K  ",
"z  D  +  1  _. ;  [  [  3  -. 1. }  *  *  *  *  <  <  _. 2  +  <  <  ;  [  7. <  <  _. &  [  &. <  [  *  5. 7. 3  [  |  3  [  &  5. %. &. ;  <  ). #  |  ). |  _. |  ;  &. }  |  #  1. ;  #  :  =  *  }  |  |  +  ,  U  #  }  %. (. |  &  [  >  (. |  -  3  -  ;  #  &  [  %. %. ;  $  -. -. 1. *  &  &. ;  $  %. [  }  *  &  &. [  $  <  [  ;  j. #  (. [  }  &. *  *  *  &  <  ~. <  ). <  <  <  .  ). :  <  <  #  +  1  ,  ,  U  U  (. ,  ,  #  #  %. /. (. U  ,  ;  ;  <  #  ;  /. #  /. <  <  (. b. <  $. <  #  <  ;  1. [  [  ;  1. &. -  <  <  <  <  <  /. $. b. (. <  #  ;  /. #  $  <  /. <  <  /. ;  #  #  #  <  ,  U  #  #  #  (. (. (. #  <  %. U  ,  W  +  !. +  +  +  ). <  #  ,  U  U  d. U  c. W  W  U  W  D  _  .  D  D  .  F  3. :  :  9. :  O  G  ~  G  _  ^. ^. D  D  D  G  ",
"D  .  +  1  #  ,  ;  &  |  5. |  <  #  [  &  [  $. $  ;  <  ;  <  <  -  &. ;  #  ;  [  3  _. |  #  #  |  3  ,. 3  <  <  _. %. #  U  ,  ). <  <  <  <  <  <  <  ). !. ). +  #  ,  U  ,  1  !. ). -  ;  _. ;  (. (. (. <  <  #  ;  ;  &  1. $  #  $. -. 3  [  -  |  <  |  }  5. &  ;  /. ;  ;  /. ;  (. ,  U  #  $. |  #  <  $  $. <  #  <  }  ;  ,  #  1. 5. &. |  1. &  *  [  (. #  #  |  2  <  .  .  :  .  2  2  >  (. #  ,  #  #  U  ,  <  /. }  /. <  [  %. #  <  %. ;  $. <  /. #  ;  $  <  <  #  /. <  <  <  $. <  <  $  %. /. $  #  $. $. <  <  |  <  #  $  ;  #  #  <  #  %. #  <  #  <  1. $  <  $. $  U  U  U  @  U  U  U  U  U  U  U  U  U  U  (. (. U  (. ,  #  .. ,  U  ,  W  ~. V  ,  U  U  U  ,  #  U  U  D  D  {. {. D  W  1  1  .. ~. :  W  :  :  G  :  K  D  D  D  W  D  D  G  ",
"]  +  .  1  #  ,  }  &  &  }  &  }  *  =  [  }  5. 1. /. <  |  <  <  ;  l. *  5. [  ;  [  }  ,. [  =  }  }  _. |  &  &  ;. ;  |  ;  =  3  <  +  +  <  <  [  <  <  7. 3  -  ). ,  ;  (. |  <  <  +  W  _  ~. #  h. +  #  <  _. <  <  #  $  %. <  /. -. <  <  <  <  <  #  }  ;. <  <  /. <  +  /. #  [  <  #  <  &  ;. ;  <  1. $. 3  |  <  <  #  @  1. ;  ;  }  *  &  &  &  *  [  #  &. *  [  <  <  <  +  !. 1  >  W  #  (. #  $. $  ;. #  ;  [  [  #  /. [  #  e. <  #  %. %. #  -. $. $. &. %. #  ,  <  #  #  <  <  <  #  (. ,  ,  /. #  /. #  [  ;  #  ;  #  /. %. #  ;  $  %. ;  ;  %. /. <  &  ;. $. (. (. U  U  ,  U  U  U  #  U  U  U  U  U  U  U  U  U  U  U  ,  U  ~. ~. U  ~. ~. ,  D  1  W  ,  U  ,  2  {. U  ,  ~. W  :  D  ~. {. 9. D  ~. x  A  G  :  ~  G  G  3. :  D  ~. ~. _  G  ",
"'  D  !. ). ;  ,  ;  [  2. #  |  -  |  |  1. ;  ;  ;  $  &  ;  <  <  #  (. #  #  [  5. &  |  7. m. }  ;  |  <  |  ;  <  #  j. (. #  _. _. <  |  ;  [  7. _. [  #  -  ). 7. <  #  [  %. ;  |  |  <  +  2  ;  |  +  ;  l. [  3  -  [  n. -. ;  #  $  $  <  $. /. #  ;  /. #  ;  [  |  <  ;  <  #  <  /. $  <  <  |  ;. #  <  >  }  #  [  <  <  ,  #  U  <  /. }  &  *  *  *  &  |  /. #  $  }  $. $. #  <  <  ;  (. %. ~. (. #  <  #  $  <  1. [  }  &  (. /. [  1. $. $. %. #  %. $. <  #  $  ;  &. [  $. ;  (. #  #  <  #  ;  4  #  <  #  <  @  ;  $  $  $. <  <  <  #  <  #  #  <  ;  $  $  #  #  #  /. (. #  #  ,  <  U  U  ,  #  U  U  ,  ,  U  U  U  U  ,  U  U  (. ,  1  1  ~. U  ,  +  ~  1  :  ,  ,  #  +  <  <  <  ,  ~. 9. :  ,  ,  ,  ,  ~. U  ,  G  O  ~  '  o. G  D  D  D  W  G  i. ",
"F  !. +  |  <  <  }  1. $  ;  |  ;  <  <  -  3  7. <  =  *  *  '. 3  ;  #  3  3  7. 7. 7. ;  ;  1. _. #  ). -  -  #  <  <  |  3  |  <  <  <  #  1. %. ). !. !. <  <  <  <  <  <  7. -  1. &. ;  &. %. -. [  [  &. [  [  }  $  [  #  ;  #  <  <  #  $. %. ;  [  }  %. #  ;  ;  ;  ;  <  -. ;  $  $  ;  ;  %. #  #  (. #  |  ;. [  $. <  <  #  ,  ,  #  ;  /. [  1. ;  ,. *  *  *  $. &. [  ;  <  <  <  <  <  |  #  -  -  #  <  <  #  #  #  #  $. ;. #  >  #  <  |  $  1. >  4  b. #  <  $. }  <  &  ;. $  $. #  <  #  #  #  <  ;  $. <  $. <  <  $. #  <  <  #  #  <  #  <  U  U  U  #  #  <  #  U  U  U  U  <  <  <  <  U  2  2  #  ,  #  (. (. ,  U  U  #  ,  (. ,  $  #  W  U  U  U  ,  ,  ~. ~. ,  W  .  <  <  <  <  ~  :  U  x  D  D  W  W  ~. W  ,  .. W  _  O  G  G  x  D  D  x  W  :  4. ",
"E  +  <  <  <  <  +  @  ;  ,  #  <  +  #  7. _. <  <  <  4  %. -  1. 1. #  |  -  <  <  <  _. 4  _. /. [  3  <  3  |  &  &. *  *  3  3  #  /. <  (. >  ;  -  |  |  <  3  &. |  ;  |  3  1  #  <  U  #  ;  (. <  <  |  $  ;  #  <  <  $. <  #  #  #  #  #  &  l. l. %. ;. 1. p. *  -. $  ;  ;  /. -. $  ;  (. #  <  <  #  [  $  [  ;. $  <  %. ,  #  #  $. [  *  ,. <  &  *  *  *  *  *  &  ;  |  <  |  [  <  3  ;  [  4  %. $. <  #  #  8. 3  *  5. 1. 5. &  ;  3  ;  #  $. <  ;  1. 1. }  *  *  *  ;. $. #  <  <  <  ,  #  <  %. /. <  -. $. $. <  <  <  %. #  $. 1. ;  ;  <  ;  $. <  <  #  <  ,  U  U  U  <  <  <  <  <  ,  U  ~. ). U  U  U  U  ,  #  ,  #  #  #  <  <  ,  U  U  U  U  U  U  ~. #  ,  D  <  <  +  +  +  D  D  #  ,  W  ,  W  ~. {. ~. _  :  ~  :  G  {. W  D  D  {. 1  ~. K  ",
"). !. <  !. +  !. <  #  <  <  <  [  +  |  _. ;  +  <  <  2  ;  <  +  $. <  <  <  |  <  [  &  _. <  &. *  [  <  }  *  [  &. *  *  ;. 5. [  =  &. &  &  7. 3  |  |  -  -  #  ;  2  #  <  +  +  <  <  <  <  <  |  <  <  ;  *  -  _. $. -. ;  1. [  b. %. ;  ;. >. >. >. ;. $  ;  >. $. -. $. &. }  -. $  -. $  ;  /. %. %. -. $  ;  -. ;  <  (. [  #  $  -. &  *  *  ;. *  *  *  *  }  >  4  |  ;  |  /. ;  ;  [  [  ;  &. ;  #  %. ;  <  ;  ,. *  *  *  *  ,. &  4  [  ,  ,  ,  <  1. ;. &  }  *  *  [  <  #  ,  <  #  <  <  <  #  ;  -. ;  <  <  <  <  <  ;  #  ;  $. ;  /. ;  ;  $. #  #  <  <  <  ;  (. ,  ,  ,  ,  ,  ,  #  #  ). <  U  U  U  U  U  U  U  #  /. #  /. #  #  ,  U  U  W  U  ,  ;  $. U  ~. <  <  #  <  _. >  #  #  +  .  1  {. W  W  D  W  x  ~. 1  W  .  G  D  D  D  +  2  _  ",
"D  D  +  ). ;  |  _. 7. <  <  !. :  !. <  [  #  -  <  <  ). -  <  3  |  #  <  -  ;  <  <  <  <  <  <  |  <  <  <  <  3  ;  ;  (. [  ;  =  3  &  <  [  }  |  <  |  #  #  ,  U  8. (. <  ). <  <  ;  <  +  #  <  #  <  _. -  ;  |  ;  /. ,  $. $. #  ;  ;  n. $  -. -. -. -. -. -. -  $  #  ;. *  -. -. -. -. %. b. /. >. -. -. -. /. ;  <  #  #  ;  -. 1. }  &. ,. *  &  |  |  1. |  4  >  <  <  <  ,  (. ;  1. &  *  4  $. #  /. |  |  |  &  |  7. }  *  *  ;. 1. &. #  #  (. <  ;  ;  *  *  *  *  [  #  /. @  <  U  #  <  #  #  ,  ,  #  #  #  $. ;  ;  ;  -. $  ;  7. ;  %. (. #  ,  ,  <  #  /. (. U  U  U  U  ,  #  #  <  <  <  <  #  U  U  ,  U  U  ,  #  -. <  <  <  <  <  #  #  ~. U  ,  ;  /. U  ,  #  #  U  #  V  x  D  +  !. D  !. 2  W  ,  1  W  :  G  :  W  D  G  :  :  D  D  D  q. ",
"D  D  :  .  D  !. +  !. D  :  D  .  +  <  <  <  |  +  <  -  <  ;  -  #  ;  3  -  <  <  <  _. _. <  <  1  +  <  <  <  ;  %. (. |  <  1. ;  &. #  |  }  ,. |  <  |  [  (. 1. %. ;  [  (. +  <  _. [  ;  1. _. -  [  #  3  3  <  <  ,  #  #  #  -. $  &. ;. ;  p. -. /. ;  /. /. -. 5. 5. 1. -. #  -. /. $. <  <  +  /. $. $  /. %. ;  #  <  %. $. <  ;  $. $  <  }  *  [  #  -. [  |  ,. =  +  <  #  #  U  ,  (. ;  &  -  -. $. ;  }  ,. 3  -  }  7. 5. *  *  }  -  *  &  ;. $  (. <  &. [  *  *  &  ;  #  ;. #  [  U  ,  #  ;  /. <  1  ,  U  #  1. *  1. %. $  ;  [  *  }  %. <  <  #  U  (. <  <  <  <  U  #  ,  (. -  h. <  <  <  <  1. &  1. #  ,  U  #  $. ;  <  <  #  ,  <  ;  <  U  U  U  #  ~. U  1  U  ,  %. $  $  |  <  1  +  +  +  U  U  #  #  ,  W  1  W  W  W  D  ~  _     _  G  r. ",
"_  D  D  .  +  .  D  D  .  #  +  .  !. <  <  #  ). <  <  <  ). ). <  <  <  |  -  ;  -  [  [  4  ,  <  ,  ). <  <  ;  (. (. ,  _. |  |  *  *  -  <  <  <  <  <  <  ). 7. _. <  <  b. [  >  >  }  &. #  ;  [  -  &. ;  ;  <  <  <  (. U  <  %. -. [  }  *  *  *  5. $  s. /. ;. -. -. -. %. %. %. /. /. /. <  <  ,  <  <  <  <  <  <  <  <  %. $. <  <  <  <  #  b. [  }  }  ;  3  $  %. (. <  <  <  [  [  %. $. $. ;  %. $  $  ;  %. &  }  |  ;  3  *  *  *  }  |  *  ;  -. /. 8. ;  &. >  [  *  1. #  #  }  #  8. #  %. ;  -. $. <  (. [  ;  <  #  [  [  ;. ;. [  1. [  /. <  U  ;  #  (. 8. $. <  <  <  U  (. #  (. 8. #  #  (. #  1  ~. b. $  <  $  <  1. 5. -. #  <  U  U  U  <  ,  ,  ,  U  U  ,  U  c. U  [  %. $. $. 1. /. #  #  #  ,  +  /. (. /. <  <  1  W  :  :  W  :  i. :  K  t. u. ",
"+  .  !. !. ). +  <  +  ). |  3  <  ;  _. <  <  _. |  <  <  -  3  <  |  -  }  ;  }  ,. &  &  ;  U  ;  +  ). <  ). 1. 8. #  ;  |  -  |  [  3  <  <  |  %. #  |  ;  |  |  }  |  [  1. 1. %. (. 3  (. #  ;  ,  ;  [  1. ;  <  <  <  b. U  <  ;  %. %. 1. *  *  *  *  l. -. -. %. $  /. #  <  #  <  .  :  D  D  1  ,  ,  ). <  <  #  ,  U  .. (. #  +  +  <  2  #  #  ,  ;  &  }  ;  /. #  %. /. <  %. ;. ,. 3  [  $  [  (. [  }  1. 1. ;  &  *  &  1. *  *  &  &  *  *  ;  m. ;  /. ;  ;  #  #  *  $  |  |  ;. $  ;  $  $. /. -. p. %. #  |  &. 1. #  /. }  [  $  /. $. %. /. <  U  ;  <  <  $. <  <  /. %. <  1. ;  #  #  $. /. <  ,  ,  #  #  <  <  #  <  ;  $  $. <  <  ,  U  U  ,  <  <  ,  ,  U  U  U  ,  #  #  #  #  b. /. ;  2  (. $  ;  $. <  #  #  <  #  #  ~. ,  ,  U  .. D  _  G  v. w. ",
"v  ]  :  1  !. <  <  <  .  <  |  _. -  !. <  #  ). <  ). <  _. ). |  <  |  ). <  #  |  <  /. ;  %. ,  W  +  <  _. &  &  5. &  |  #  [  *  [  <  |  &  &  |  |  7. <  <  <  *  3  &  ;  &. |  [  1. $. #  %. ;. ;. ;. ;  <  #  #  (. U  <  #  #  1. %. -  1. &  }  4  ;. #  +  ,  V  A  O  x. y. H  K  G  H  K  i. K  H  P  ~  z. A. B. K  C. C. D. A. D  D. E. F. b. 1. b. b. %. /. #  #  /. <  #  1. #  %. #  <  $. ;. 1. /. <  ,. ;. #  ;  ;  5. *  =  <  ;  ,. *  ,. ;  *  |  $. #  [  ;  *  ;. }  &. &. $  -  1. /. #  %. #  #  /. }  &  ;. -. $  #  #  #  #  1. /. #  U  8. #  #  #  <  <  <  $. -. %. %. #  <  $. #  $  ;  #  <  ,  <  #  #  (. #  $. $. <  ,  <  ,  U  U  U  U  #  <  ,  c. ,  ,  U  G. ,  U  U  U  U  U  ;  /. #  #  #  ;  <  <  <  #  #  U  U  U  U  U  ,  +  <  H  H. ",
"u  B  D  D  .  <  <  ). +  <  <  <  <  +  [  ;  <  <  -  ). -  #  |  <  <  _. |  7. -  <  #  ;  -  &  &  &  ;  *  &. ;  ;  }  ;  <  &. [. }  &  ,. [  &  |  |  3  |  |  ,. |  7. |  <  |  }  ;  /. ;  $. ;  -. -. %. <  <  (. ,  <  #  ,  U  +  c. #  <  #  /. %. 2  #  d. {. ~  I. J. K. L. M. M. N. O. P. Q. R. S. K  K  G  G  G  H  K  K  T. U. V. 9. W. X. #  %. Y. %. #  %. <  #  #  <  #  #  ,  U  #  <  /. /. $  -. -. $  $  ;  -. >. 5. *  l. &  #  <  <  [  *  *  *  =  ,. }  1. >. *  *  *  *  ,. k. *  5. [  ;  1. ,. ,. &  &  &  ;. #  $. $  <  #  $. [  &  ;  #  8. #  ,  ,  <  <  <  <  #  U  #  <  #  #  <  #  U  @  $. (. #  $. $. b. #  #  <  #  #  <  #  ,  #  #  U  ,  ,  U  (. #  ,  #  ,  ,  ,  U  ,  ,  U  #  /. #  ,  #  %. #  #  #  <  ,  U  ,  ,  ,  #  <  <  <  G  Z. ",
"+. ^  !. <  |  <  ). <  <  <  <  <  -  7. |  ). [  3  .  +  #  |  +  [  &. <  <  <  <  $. ;  ;  ;  #  (. |  ;. (. #  #  -  *  ;  <  -  [  &. -  -  *  $. $  &  *  &  ;  |  _. (. ;  <  1. ,  [  1. $  %. (. (. +  ,  #  <  #  <  $. <  U  U  W  ~. ~. ,  U  ,  <  U  ,  O  i. K  `.  + .+ ++ @+ @+ #+ $+ %+ &+ f  *+ n  =+ -+ ;+ >+ ,+ '+ )+ !+ ~+ O. {+ J. T. Z  U. A. ]+ ^+ ,  <  ;  $  #  +  #  ,  ,  <  <  $. ;  ;  -. /. $. %. -. -. -. ;. *  }  =  [  -. <  <  ;  [  *  *  *  *  *  *  *  *  *  *  7. $. $  %. 3  *  *  *  3  ;  $  <  /. -. $  /. /. #  %. ;  #  #  <  <  #  <  <  <  #  <  <  ,  U  U  #  <  #  <  /. /. $. -. <  <  <  <  <  <  #  <  /. -. -. %. $  [  ;  #  ,  U  U  ,  ,  ,  #  <  #  #  U  U  <  #  ,  <  b. U  #  <  U  U  U  (. ;  U  $. ;  <  ,  .. W  W  G  Q. ",
"j  {  +  <  <  <  #  |  <  =  *  =  ,. *  _. 7. <  <  .  ]  +  <  3  <  7. 7. <  /. ;  ;  #  (. +  _. 1  +  (. <  #  #  #  <  %. %. ;  ;  %. $  -. ;  -. 5. *  }  <  [  $. (. %. /. $  /. ;  -. -. /. ;  (. ,  ,  1  U  U  1  +  #  +  ~. ~. D  D  {. W  ~. ~. <  ,  F  G  i. /+ (+ _+ :+ <+ [+ }+ |+ 1+ 2+ 3+ 4+ 5+ 6+ {+ 7+ 7+ 8+ 9+ 0+ a+ b+ c+ d+ e+ f+ g+ ~+ Z. i. G  U. h+ U  #  $. <  -. $  e. U  -. <  <  #  ;  ;  -. $  -. -. -. n. i+ *  l. *  ;. #  <  <  <  /. $  <  $  &  *  &  3  '. *  *  *  #  #  ;  &  |  #  ;  ;  -  |  <  -. $. ;  ;. }  ,  #  %. $  b. U  U  %. (. ,  <  #  <  ;  1  #  #  #  ,  ,  <  <  $. $  <  <  <  <  <  <  %. $  /. <  #  #  <  $. #  <  <  <  #  <  +  +  ,  %. (. U  ,  <  <  ,  #  #  ,  <  ;  ;. #  <  <  (. b. <  <  -. <  ,  ,  ,  ,  U  W  H  ",
"_  +  !. !. !. ). &  ;  -  |  &  ;  [  [  3  }  _. <  +  ). |  |  [  <  |  |  <  /. -. 1. %. }  [  <  |  }  ;  *  *  ;  -  *  5. 5. *  *  *  ;. -. -. -. p. [  [  7. /. (. 8. b. -. -. /. #  $  $  -. #  ,  1  ~. U  U  U  ,  W  ~. ~  ~  :  O  Z  D  G  x  j+ W  ~  k+ l+ m+ n+ o+ p+ q+ r+ s+ t+ u+ v+ w+ x+ y+ z+ A+ B+ C+ D+ E+ F+ G+ H+ I+ J+ J+ K+ L+ M+ N+  + k+ O+ P+ Z  {. +  ,  (. ^+ Q+ U  8. $  $. <  <  ;  $  >. -. $  -. %. -. ;. *  *  *  >. /. #  <  ,  #  (. (. }  }  [  &  *  ,. *  *  *  =  &  5. *  &  $  $. [  R+ 1. %. -. ;  |  }  *  #  <  <  ;  #  ,  #  ,  ,  #  <  #  <  $. #  $  #  ;  (. #  <  <  <  $. <  e. ,  U  ,  U  ,  <  <  <  <  $. /. (. $. <  ,  ,  <  <  +  +  ,  |  /. %. (. #  ,  #  <  ,  U  ,  #  ;. (. &. U  U  U  ,  ,  %. ;  #  #  <  #  ,  W  G  ",
"^  .  D  +  <  ;  +  |  ). 3  ;  *  <  |  ). ). |  #  7. |  [  -  |  _. ;  7. |  <  }  ;  [  ;  [  #  <  -  <  &. *  =  3  *  *  *  *  *  }  #  #  /. <  <  <  G. (. #  ~. (. e. U  %. $  (. %. /. ;  (. ;  |  #  ,  1  U  U  ^. :  H  O  Z  T. t. C. t. G  S+ 9. i  T+ U+ V+ W+ X+ Y+ Z+ `+  @ .@ +@ @@ #@ $@ %@ &@ *@ =@ -@ ;@ >@ ,@ '@ )@ !@ ~@ {@ ]@ ^@ /@ (@ _@ :@ M. <@ '+ K  G  :  E. B. E. [@ -. %. /. %. $  p. $  >. ;. ;. l. &  $  ;. *  *  *  &  >. [  #  #  $. ;  8. (. 3  *  [  &  [  *  *  *  *  *  3  #  ;  %. $. /. ;. ;. &  &  *  [  '. &  <  $. $. ;  ;  $  #  #  #  #  #  <  <  /. ;  &  ;  ,. }@ ;. ;. }  [  /. <  ,  #  U  U  U  ,  ;  #  ;  1. }  [  %. #  #  U  U  ,  #  -. %. <  #  4  }  }  p. #  ,  #  U  U  U  #  %. (. W  ,  ,  ,  (. U  ~. 1  ,  #  <  <  ,  D  K  ",
"H  .  !. <  <  <  ;  #  [  |  }  <  <  ). !. ). _. 4  [  <  =  |  #  3  '. -  3  |  [  *  &. 3  7. -  <  <  <  <  |  |  3  *  *  *  *  &  $  $  +  <  <  ,  U  ~  W  +  +  ~. U  ,  ,  /. (. ,  #  (. %. [  3  ;  G. W  ,  W  D     K  v. |@ 1@ 2@ 3@ 4@ 5@ 6@ 7@ 8@ 9@ 0@ a@ b@ c@ d@ e@ f@ g@ h@ i@ j@ k@ l@ m@ n@ o@ p@ q@ r@ s@ t@ u@ v@ w@ x@ y@ z@ A@ B@ C@ D@ E@ U+ F@ G@ H@ C. Z  V. I@ I@ J@ Y. e. #  (. [  &  |  %. &  *  *  *  1. ;. 5. 3  &. *  &  [  -. <  <  #  <  #  3  3  5. &  _. K@ k. *  *  *  *  *  &  &  }  &  *  *  *  *  *  *  5. >. ;  -. [  %. %. #  <  <  %. 4  #  @  ;  $  1. *  7. [  [  &  *  *  ,. &  1. #  ;  2. U  ,  #  <  $. %. ;  (. (. ,  <  U  U  #  [  ;  %. -. #  <  /. #  #  <  #  U  U  #  ,  ,  #  #  $. #  #  ,  F  b. U  U  ,  ,  ,  <  <  ,  _  L@ ",
":  :  !. #  [  7. }  -  +  <  <  <  +  !. !. #  ). ). _. [  3  *  *  &  -  <  ;  #  &  *  =  |  3  [  -  |  &  ;  3  [  l. 3  }  &  7. <  ;  +  .  <  ,  U  U  U  U  1  +  ,  U  $. #  <  +  <  $. #  (. ,  2  c. U  ,  <  D. ~  -+ M@ b+ N@ O@ P@ Q@ R@ S@ T@ U@ V@ W@ X@ Y@ Z@ `@ n@  # .# +# @# ## $# %# &# *# =# -# ;# ># ,# z@ '# )# !# ~# n@ o@ -# {# ]# ^# /# (# _# :# <# [# }# |# 1# 2# 3# t. Z  /. <  /. 5. *  *  *  *  *  *  *  1. ;. 1. <  [  [  [  [  *  [  $  <  <  $  ;  -  &  ,. 3  *  *  *  *  *  *  *  *  *  ,. *  *  *  *  *  *  *  -. -. ;  -. 1. ;. p. %. <  <  2  (. [  #  [  [  [  *  *  &  &  }  }  ;. ;  (. $. $. ;  [  &. ;  -. ;  1. ,. &  ;. $  #  <  @  <  $. 1. ;  $. /. #  <  b. %. (. %. #  <  U  ,  (. &. (. <  <  $  $. [  1  #  <  <  ,  U  U  <  ,  U  W  4# ",
"_  :  <  |  ,. [  ;  <  <  <  <  $. d. +  <  <  ). -  &. &  }  *  [  <  |  [  '. '. *  &. |  -  7. [  |  *  =  l. *  7. ;  <  <  <  <  <  <  !. ,  U  ,  ,  +  ). D  !. 1  U  ,  <  <  <  (. #  $  #  #  %. -. U  ^+ ^+ )+ &+ 5# 6# 7# 8# 9# 0# a# b# c# d# e# f# g# h# i# j# k# l# *# m@ m# n# o# p# q# r# s# t# u# u# v# w# x# y# e@ z# A# B# C# D# E# F# G# H# I# J# K# L# M# N# O# P# Q# R# S# T# o. O  V  b. -. U# >. >. U# -. -. -. %. ;. }  &. &  %. /. #  ;  &  *  &  $  -. -. 1. *  *  *  [  *  *  *  *  *  *  *  *  ;  ;  [  k. *  ;. -. -. -. -. -. ;. *  5. 1. %. (. %. (. (. ;  1. }  &  *  *  &  |  k. }  }  %. ;  ;  ;. -. $. $. /. $  [  2. (. #  (. #  #  (. [  3  1. %. 3  ;  #  5. 1. #  1. [  [  1. #  ;  (. ,  4  b. 1. ;  ;  ;  ;  ;  >  <  <  <  ,  U  #  1. #  #  ,  4. ",
"j  !. <  <  =  _. <  <  -  <  _. +  .  ]. .  #  [  *  3  &. <  =  |  ;  }  *  |  &  &  #  3  ;  [  ;  5. 5. &  [  #  3  }  |  <  <  <  <  +  ). #  V# D  W  +  .  !. !. ~. U  U  ,  1  .  1  1  #  #  $. $  -. W# X# Y# Z# `#  $ .$ +$ @$ #$ $$ %$ &$ *$ =$ -$ ;$ >$ ,$ '$ )$ !$ ~$ d@ {$ ]$ ^$ /$ ($ _$ :$ <$ [$ e@ }$ q# p# |$ 1$ 2$ 3$ 4$ 5$ 6$ 7$ 8$ 9$ 0$ a$ b$ c$ d$ e$ f$ g$ h$ i$ j$ k$ l$ m$ n$ &+ K  A. V# %. -. o$ p$ 8. -. q$ -. 1. $  [  ;  }  }  ;. [  3  5. l. ;. k. 5. &  *  *  *  &  *  *  K@ k. *  *  *  [  3  #  -. *  *  ;. -. -. -. -. %. $  &. r$ r$ l. 2. -. (. #  -  5. *  *  *  &  [  [  5. ;  $  [  &  5. *  *  ;. -. $. |  &  5. }  %. ;. }  3  }  *  *  [  }  =  [  #  }  }  ;. (. /. /. ,  #  #  ,  U  (. #  ;  [  %. ;. ;. &  |  $. %. U  U  ,  ,  $. ;. $. #  G  ",
"E  <  7. -  <  <  |  -  <  <  1  <  <  #  <  p. [  &  7. |  &  <  &  &  ,. |  ;  &  |  ;  <  <  <  |  $. $. <  <  #  3  [  ;  <  <  +  +  +  <  <  /. .  _  :  +  .  .  1  U  U  A. +  :  x  D  G  W  V  A. e. s$ t$ u$ v$ w$ x$ y$ z$ A$ B$ C$ D$ E$ F$ G$ H$ I$ J$ K$ L$ M$ N$ ># O$ P$ Q$ R$ S$ S$ T$ U$ V$ W$ X$ m@ Y$ Z$ `$  % .% +% @% #% $% %% &% *% =% -% ;% >% ,% '% )% E# !% ~% {% ]% ^% /% (% _% :% P. '  ,  U  <% [% -. $  $  $  #  [  }  $  1. >. ;. 1. l. }% i+ &  |% 5. &  }  }  [  3  *  l. k. *  *  *  *  [  %. /. |  ;  <  $. -. -. -. -. >. 1. *  1% &. ;. $  %. $. ;  =  *  *  *  *  &  *  *  [  %. $  $. [  7. $. #  $. ;  %. /. &  *  &  ;  }  p. 1. &. [  ;. -  [  *  *  [  $  $  1. <  $. /. <  @  #  ). (. (. #  [  }  #  ,  ,  #  &. 1. U  %. U  [  &  ;  ,. $. ;  Z  ",
".  [  |  7. |  <  #  <  <  !. +  <  +  1  $. #  7. |  4  -  <  <  &. ;  }  <  <  #  <  <  <  <  |  -  |  7. &  }  [  [  -  <  <  <  +  ,  #  #  ,  1  :  H  '  F  D  !. +  ,  W  _  G  :  D  _  K  _  G  '+ 2% G@ 3% 4% 5% 6% 7% 8% 9% 0% @% a% b% c% d% e% f% g% h% ($ i% j% k% l% m% B# n% o% p% q% r% s% t% u% v% w% x% y% z% A% B% C% D% E% r# d@ F% G% H% '% 0$ I% J% K% L% M% N% O% P% Q% R% S% T% U% V% W% <@ :  X% Y% Z% b. <  %. ;  }  &  $. ;  n. q$ >. i+ `%  & -. $  -. -. -. -. *  *  *  *  *  *  *  *  *  *  &  ;  %. 1. #  <  <  -. 1. -. ;. *  *  *  l. (. [  %. }  ;  &  &  *  *  *  ,. /. $. ;  [  $. -. $  -. [  *  $  $  ;  |  $  5. *  &  <  ;  ;  %. (. <  %. 1. 3  *  *  [  $. $  #  $. <  <  <  #  @  <  #  V  <  ;  ;  -. %. (. %. _. ;. 1. 5. (. &  =  #  p. %. /. Z  ",
"). @  7. _. 3  |  <  <  .  .  ). $  %. $. <  ;  |  #  -  |  <  <  <  |  [  ;  <  <  <  <  <  <  [  -  -  3  &  *  *  &  #  <  <  1  D  ,  W  W  ~  +  '  G  :  D  ). 1  W  W  ~  K  K  :  :  K  K  H  .& +& @& #& $& z+ %& && *& =& -& ;& -& >& ,& ,& f% p% '& )& f% !& ~& f% {& ]& ^& /& (& _& :& <& [& }& |& 1& 2& 3& B# 4& 5& 6& 7& 8& 9& 0& a& b& c& d& e& f& g& h& i& j& k& l& {# m& n& o& p& q& r& s& t& u& v& w& I@ x& U  (. #  <  1. 3  ;  *  &. p. y& y& -. y& y& >. -. -. $  ;. -. 1. &  *  *  *  *  *  *  *  *  *  *  ;  $. 2. #  /. -. -. -. ;  ;  *  *  ;  ;  1. /. ,. [  [  &  *  *  *  }  7. <  *  *  *  %. $  <  %. %. ;  i+ }  [  ;  &  *  5. $  #  (. 8. <  <  |  -  ;  ;. *  &  [  1. &  }  #  #  ,  ,  #  U  U  1  <  $. -. %. [  |  }  [  &. 4  }@ (. ;. =  ;  $  /. <  F  ",
":  ;  +  D  ). <  <  $. ;  <  /. $. $  /. z& %  _. <  -  }  }  ;  $. ;  $  $. /. <  ;  $  $. %. [  <  $. <  }  *  *  =  <  (. ;  <  ,  .  D  :  H  {  :  .  D  ~  +  ,  ,  W  ^. _  D. Z  U. A& B& C& D& E& F& G& H& I& J& ;& d% =& e% K& L& M& M& K& K& N& '& 2& O& P& Q& Q& R& S& T& U& V& W& X& Y& Z& `&  * .* +* @* #* $* %* &* ** '& =* -* ;* >* ,* u# H# Q% G% '* #* )* !* ~* {* ]* p& ^* /* (* _* :* <* [* }* |* 1* x  z. X. 2* V# U  <  %. 1. %. >. $  -. -. -. $  [  5. 5. ;. ;. >. k. *  *  *  *  *  *  *  *  *  *  *  &  ;  %. /. %. $  $. -. ;. &  *  *  &  [  ;  -. $  &. *  *  *  *  *  7. }  ,. *  =  =  &  ,. [  #  $. %. $  %. }  *  *  *  ,. ,. [  >. $  <  #  1. *  *  [  *  ,. &  1. -  &. <  <  #  <  #  $. #  U  #  }  ;. -. -. ,. *  [  [  ;  l. &  2. l. *  5. }  #  <  ",
"<  ;  .  +  |  <  <  <  #  <  <  p. ;  $  <  }  &  |  <  |  |  #  $  %. #  $. /. $. %. $  %. >. %. -. ;  ;  &  }  [  [  ;  %. #  <  W  .  D  :  H  .  H  H  '  W  W  D. {. D  D  D  3* 4* w& 5* 6* 7* 8* 9* 0* a* b* c* d* e* e* K& e% K& f* g* h* i* j* k* l* 2& ~& '& m* n* o* p* q* r* s* +* t* u* v* w* x* y* z* A* B* #* C* D* E* F* '& G* H* I* J* K* =# c& L* M* ## '% n@ n@ N* O* P* Q* R* S* T* U* V* W* X* Y* o. O  D  z. B. D. z. #  /. /. <  $  $  -. %. ;  1. 1. *  *  *  ;. -. *  *  *  *  *  *  *  *  *  *  *  *  *  }  [  $. <  <  #  -. [  }  *  *  &. [  -. ;  %. }  *  *  *  &  l. 3  7. #  *  *  *  ,. &  &  [  -. ;  /. ;  &  *  [  *  7. <  /. %. $. #  <  $. /. /. <  [  ;  <  %. [  $  #  #  #  ;  -  [  ;  ~. .. #  [  &  ;  *  *  ;. &  }  *  &  *  5. }  *  *  5. (. ",
"E  .  ]. <  7. <  <  $. 1. #  <  /. /. $  ;  #  <  3  <  <  [  |  ;  $  $  $  1. 1. (. ;  ;  &. $. $. %. ;  [  3  3  [  }  /. %. #  +  '  F  '  :  D  D  {  5  :  D. U  W  D  D  {. X# Z* `*  = .= += @= #= $= %= &= *= == -= ;= K& >= e% ,= _& 2& '= [& )= )& _& != ~= {= ]= ^= /= (= _= -* := l* '& <= [= }= |= 1= #* n@ 2= 3= 4= 5= 6= 7= m* 8= 9= 0= a= b= c= d= o& e= f= g= f= h= h= i= j= k= l= m= n= o= p= q= r= s= t= 9. Q  P  :  G  @  $. -. $  -. -. -. -. -. p. &  }  *  *  ;. >. *  *  *  *  *  *  *  *  *  *  *  *  &  ,. =  ;  <  <  <  ;  [  &. *  *  }  }  ;  1. $  ,. *  k. l. &  *  *  *  }  *  *  l. *  *  [  [  $  ;  $  ;. k. 5. &. *  &  %. ;  }  |  <  <  ;  $. <  <  [  5. ;. 1. 1. }  ;  %. %. [  1. [  *  &. W  /. #  &  [  l. *  &  }  ;  l. <  ;  /. #  5. &  -. ). ",
"+  _. 3  3  3  3  |  <  =  ;  /. #  ;  #  /. $. <  =  |  ;  7. &. %. *  >. p. *  &  [  7. &  |  -. p. 1. ;. *  *  *  ,. [  -. -. $  #  <  +  .  1  W  ~. 1  {. D  D  :  G  _  G  '+ u= v= w= x= y= z= A= B= C= D= E= F= G= H= N& d% I= J= F= K= L= M= N= O= P= p% '& Q= R= v% N& S= 7= T= U= V= W= '& X= z* Y= Z= `=  - n@ .- +- @- #- E* Q& $- %- &- *- =- -- ;- %# >- ,- '- @# )- !- ~- {- ]- ^- /- (- _- :- <- [- }- |- 1- |# 2- y. G  G  U  b. -. -. -. -. -. 1. -. -. >. *  *  l. k. *  *  *  *  *  *  *  *  *  *  *  *  *  5. [  &  ;. U  <  <  ;  *  *  *  =  *  *  *  *  *  l. l. 3- K@ *  *  *  k. ,. *  &  -  *  &  [  -  *  i+ s. k. K@ ;. 5. *  &  ;  5. ;. }  #  <  <  $. <  #  [  s. i+ 5. }@ }% ;  5. ;  ;  ;. 7. ;. %. #  $  $  *  [  ,. [  }  }  (. ,. |  5. &  ;  $  $. #  +  ",
";  -  #  <  <  <  <  <  |  -  1. }  d. @  -. ;  ;  *  [  <  |  7. _. 7. &  &. [  #  &  3  -  3  }  }  }  1. ;. ,. 7. [  7. %. $. $. <  <  <  D  W  X. :  D  D  W  G  t. S. S. K  M. 4- 5- 6- 7- 8- 9- 0- a- b- c- d- e- f- g- l* N& O& h- i- j- k- l- m- n- o- p- L& q- r- s- S= '& t- u-  %  % v- w- x- y- z- A- h= B- n@ C- +- E% D- E- F- G- H- I- J- U= K- L- M- N- O- P- Q- R- S- T- U- V- ^- W- X- Y- Z- `-  ; .; +; @; #; $; %; &; *; _  =; 2. -. -. -; |% ;. 1. ;. ;. *  *  *  ,. *  *  *  *  *  *  *  ;. *  *  *  *  *  *  &  *  3  ;  3  #  ;  5. *  *  >  *  *  *  *  *  *  *  *  K@ *  l. *  *  l. k. k. l. *  5. l. l. l. l. ;. 5. ;; *. K@ *  ,. &. 1. ;  }  &  %. #  #  <  $. &  ;. >. >. i+ >. }  3- -  /. %. %. ;. &  1. _. [  *  ;. 3  #  ;  }  #  &. *  *  3  <  #  <  #  ~  ",
"#. E  .  <  <  <  <  2  <  -  &  |  &  -  }  p. -. >. |  _. *  *  &  *  *  &  4  ;  [  #  [  #  |  5. 5. 1. *  *  ,. |  =  p. -. $  #  #  ,  ~. ~. x  :  H  ~. Z  K  S. S. t. K  >; ,; '; ); !; ~; {; ]; ^; /; (; (; (; _; :; <; [; }; |; 1; 2; e* 3; 4; 5; 6; 7; R= P= '& 8; H- 9; 0; N% a; b; S- c; d; e; f; o& 2= g; 2= h; i; j; k; l; m; n; o; p; q; `$ r; s; t; u; v; w; x; '& y; #* e& z; A; B; C; D; E; F; G; H; I; J; K; L; M; N; O; P; K  e. -. -.  & -. >. *  *  *  *  *  *  *  *  *  *  *  *  *  i+ ;. >. 5. *  *  l. *  *  *  [  $  -  %. /. ;. *  *  &  *  *  *  *  *  *  *  *  ;. 5. ;; }@ l. 3- 3- Q; Q; *  K@ K@ *  }@ 5. l. &  l. l. }@ l. 5. ;. s. ,. *  *  3- 5. e. U  [  *  *  5. ;. 5. l. }  l. ;. %. %. $  $  [  }  ;. 1. =  7. }  [  ,. ;. 1. &  *  ;. $  <  <  ,  ,  K  ",
".  <  +  !. <  <  -  [  $  [  8. *  -  3  |  ;  -. >. $  }  *  *  ;. *  &  3  -  >  ;  #  &. $  &. ;  -  *  }  <  <  |  &. [  $  <  D  ~. U  U  ~. W  D  W  G  K  i. Q. i. R; S; T; U; V; W; e* X; Y; Z; `; /;  > }& .> +> @> `; #> $> %> &> *> => -> ;> >> ,> '> R= C% )> |; !> ~> m% {> ]> ^> b; L% Z$ /> Q% (> (> _> :> <> x% [> }> |> 1> 2> 3> l; 4> 5> 6> ** 7> 8> '& '& F* '& 9> 0> a> b> c> d> k= e> f> g> h> i> j> k> l> m> n> o> p> q> r> B. -. -. -. -. ;. *  *  *  ,. *  *  *  }  ;  }  *  &. %. ;. >. -. &  *  &. *  *  *  *  &  ;. [  &  ;. &  *  *  *  *  *  *  *  *  *  *  l. n. i+ ;; K@ l. l. 3- Q; s> s>  & -. 5. k. >. 5. l. 3- }@ K@ l. K@ ;  %. 5. 5. l. 3- 5. 8. 1. -  [  *  *  *  *  &  ;  [  }  #  ;  ;  |  *  #  $. [  &. |  *  ;  5. 7. =  *  &  |  #  #  U  U  {. H  ",
"!. <  <  <  <  <  <  ;  ;  #  c. 1% &. '. &. 1. $  p. [  &  *  &. ;. |  #  #  3  &  &  &  &  |  [  &  *  &  <  |  <  <  <  <  <  <  <  ,  U  U  1  ,  D  D  W  H  K  O  K  s= M. t> u> v> w> H= X= ~> x> y> (; z> A> B> C> D> E> F> G> %> H> I> J> K> L> M> N> O> P> Q> R> S> T> U> V> W> X> ;% Y> Z> `> d&  , ., +, @, ,# #, $, %, &, *, =, |> -, ;, A# T= x; >, k; ,, x; '& F* '& '& ,, J$ #* J% l@ ', ), !, Z- ~, {, {, ], ^, /, (, _, :, <, [, }, Y. -. -. -. >. *  *  *  *  *  *  *  *  5. *  *  &  -. -. 1. 1. 5. *  k. *  *  *  *  *  *  *  l. *  *  *  *  *  *  &  ,. *  *  *  *  *  ;. ;. K@ k. l. l. 3- }% |, >. -. -. 5. *  1. |% K@ l. K@ *  l. 3- }@ 5. s. ;. l. |% 5. ;. &  ;  |  &  *  *  *  *  *  '. =  &  *  &  &  *  =  1. ;. &  /. 5. =  [. ;. |  *  *  1. /. U  ~. W  D  G  ",
"D  +  <  <  |  #  <  <  #  <  -  [  |  [  ;  %. ;  $  ;  $  ;  ;  ;  $  -. -. }  }  5. ;  ;  <  <  }  *  -  /. $  }  *  %. 1  +  G. 1  <  1, G. W  ,  ,  W  D  G  K  2, 3, 4, 5, 6, 7, 8, g* '& [; 9, '& X= 0, a, B> b, D> c, D> D> D> D> %> d, e, B> f, g, h, i, j, -& $, k, l, m, n, o, p, q, r, u# s, t, u, v, w, x, [; y, z, A, B,  * C, l* @* D# D, E, F, G, H, I, 0& J, 3$ 7& '& ** R- K, L, M, N, O, P, Q, R, P, S, T, U, V, W, X, Y, Z, `,  ' .' +' Y. -. q$ s> 3- }% 5. i+ -. -. >. >. >. -. >. 1. -. -. -. -. >. }% K@ &. *  *  *  *  *  *  *  *  *  *  *  *  ,. &  *  *  *  *  *  *  &  3- k. 3- Q; |, }% }% -. -. -. -. -. *  l. *  K@ K@ 5. l. 5. k. Q; s> >. -. y& -. ;. *  *  *  *  *  *  *  *  *  *  *  *  *  *  *  *  *  *  l. l. 8. -. ;. l. *  *  *  *  ,. -. b. U  V# X. _  ",
"^. E  !. <  _. <  <  <  #  ;  _. <  <  <  |  /. #  /. $  $  <  <  ;  -. -. -. ;  7. |  ;  &. &. <  <  #  1. ;  &  }  &  [  #  ,  #  <  ,  W  W  U  :  W  D  D  G  m  5+ O@ @' #' $' %' &' *' '& =' O& -' ;' >' ,' '' )' B, !' B, ~' {' ]' A, ^' /' >' (' _' :' <' [' 0% }' Y; |' 1' 2' 3' 4' 5' 6' 7' 8' =# 9' 0' a' b' c' d' e' f' g' h' i' j' k' l' G% 3= M% m' n' :$ o' p' q' r' '& '& s' t' u' v' w' x' y' z' A' B' C' D' E' F' G' H' I' J' K' L' M' X. +' -. >. y& i+ >. -. 1. >. -. 1. s. }@ 1. -. ;. -. %. ;  -. ;. *  *  *  *  *  *  k. K@ l. *  ,. &  ,. *  *  *  }  ;. *  *  *  *  *  *  }@ ;; 3- s> N' K@ }% >. -. -. 1. &  l. K@ *  l. *  5. K@ }% k. 3- O' -; -; |,  & ;. *  *  *  *  *  *  *  *  *  *  *  &  *  ;. >. *  *  *  l. l. ;. -. 5. K@ *  }  *  3  R+ -. $  8. U  E. :  ",
"P' .  +  <  ). <  !. ,  ,  8. 1. #  <  <  <  %. %. $. $. <  <  7. ;. ;  %. $  3  3  &  *  [  =  ;  ;  /. (. ;  5. -  (. #  U  #  <  @  ,  +  W  #  D  D  D  _  s  Q' R' S' T' U' V' W' X' ;, '& Y' N- Z' `'  ) .) +) @) #) $) %) &) *) =) -) ;) >) ,) ') )) !) ~) i- ,& {) ]) ;> ^) /) () _) :) <) [) }) *# |) C* 7& w; [; 1) 2) +> 3) 4) Y; 5) 6) 7) 8) ,% 9) 0) '* a) b) c) d) e) ** '& f) g) h) i) j) k) l) m) 6) n) o) p) q) r) s) t) u) v) w) x) y) z) A) <% Y.  & -. -. -. 1. y& U# ;. 5. [. 5. %. >. n. 5. n. ;. q$ 5. &  5. l. l. *  l. l. k. *  '. &  ,. *  ;. ;. >. 1. ;. *  *  *  *  l. 3- 3- 3- B) l. l. *  >. -. ;. *  *  *  *  K@ K@ l. K@ [. }% l. K@ }% i+ i+ i+ ;. *  *  *  *  l. l. k. l. k. k. *  &  #  1. 1. 1. *  *  *  *  *  5. ;  }  l. *  }  5. }% |%  & Y. V# j+ x  D  ",
"E  G  :  +  D  ). <  #  %. 2. (. %. #  -. %. -. -. $. -  &  &  [  *  <  <  7. =  }  *  *  *  *  5. 5. >. /. #  (. ,  U  ,  U  <  <  <  +  V  <  1  :  :  G  C) :@ D) E) F) G) H) I) J) K) L) 9> M) N) O) P) Q) y; R) -, S) F* T) U) V) W) X) Y) Z) `)  ! o; .! +! @! N& H= C, f- #! $! %! &! *! =! -! ;! 4& >! ,! '! )! !! V& V> ~! {! ]! d- ^! /! (! _! :! <! [! }! |! 1! 2! 3! Y= 4! h% 5! 6! 7! 8! 9! 0! a! }= P) }! b! c! d! e! f! g! h! i! j! k! l! m! n! W# -.  & y& -. -. >. |, Q; 3- 3- k. *  (. 8. 1. &  *  *  s> *  ;. &  K@ *  l. K@ *  *  l. *  *  *  *  l. s. -. -. >. *  *  *  &  }% 3- 3- 3- *  *  *  *  -. 1. *  *  *  *  ,. K@ 3- *  5. ;. *  *  *  *  *  *  *  >. &  *  *  *  l. K@ l. 3- ;; K@ [  #  #  -. -. -. &  *  *  *  *  *  ;  7. *  *  *  1. N' <% b. /. /. +  :  K  ",
"D  .  +  <  <  <  <  (. 1. (. ;  4  /. #  -. ;  $. _. -  [  -  3  &  <  <  -  &  &  [  7. -  -  %. ;  -. ;  #  <  <  <  <  #  <  <  <  <  <  <  D  V. Z  K  M@ o! p! q! r! s! t! u! v! w! x! y! z! A! B! C! D! {% E! x; F! G! w' H! -# I! Z> J! K! L! 8& M! N! A* P) O! p% P! Q! R! S! T! u% U! @# '% 4& V! W! X! t- Y! Z! N& $, L& K& `! t*  ~ f& .~ +~ @~ #~ $~ %~ 8' a$ &~ *~ =~ -~ ;~ >~ ,~ g! '~ )~ ,! !~ ~~ 9& {~ i= m& ]~ ^~ /~ D; (~ _~ :~ <~ [~ }~ |~ 1~ V# -. >. -. -. >. 3- 3- 3- 3- k. }  -. ;. i+ l. *  *  s> *  *  *  *  *  k. l. l. *  *  *  -  &. *  >. -. -. 1. >. *  *  *  /. &  l. 3- K@ }  &  *  *  -. ;  *  *  *  *  *  *  l. K@ 5. 5. }@ l. *  *  K@ k. l. K@ *  *  *  *  l. 3- 3- 3- 3- l. &  ;  -. >. 1. -. -. *  *  *  *  ;. #  <  [  *  7. ;  %. h+ ^+ b. #  W  D  D  ",
"'  _  D  +  <  <  #  $  ;  #  1. p. $  -. -. p. 7. -  *  *  *  }  [  $  #  $. ;  (. [  ;. <  <  <  <  #  $. <  <  <  /. -. <  <  <  ,  U  <  ,  Z  W  P  2~ 3~ 4~ 5~ 6~ 7~ C= 8~ Y& V& 9~ 4$ 0~ a~ b~ *# c~ d~ *! e~ f~ g~ h~ i~ r; i@ j~ C! k~ l~ m~ n~ o~ p~ !~ q~ Q) a' r* $, r~ s~ t~ J= u~ v~ w~ x~ y~ z~ A~ B~ C~ =* 7> =' D~ E~ F~ P> G~ H~ I~ J~ K~ L~ M~ N~ i) O~ P~ Q~ R~ S~ T~ U~ V~ W~ X~ Y~ Z~ `~  { .{ +{ @{ #{ ${ %{ &{ *{ ={ -{ ;{ >{ ,{ '{ ){ ~  E. !{ b. -. $  -. >. i+ ;. -. -. $  -. ;  *  *  *  *  *  *  [  ;  *  [  }  *  *  *  y& -.  & y& n. *  *  5. ;. *  *  *  *  <  %. ;. *  *  &. ;  ;. %. ;  ;  $  *  *  *  *  *  *  *  *  *  *  *  3- 3- 3- 3- 3- l. *  *  *  k. *  l. *  *  *  *  ;  %. ;  &  *  &  ;  *  7. 7. >. -. 2. b. %. $. $. #  #  ,  U  U  ,  W  W  ,  ",
"D  :  !. +  +  ,  %. [  =  |  [  ;  $  $  -. ;. 7. 3  3  *  *  &  &  ;. ;  ;  ;  }  }  [  <  <  $  $. %. $. <  ;  /. 1. #  #  ;  <  <  ,  +  :  ~  U. C. ~{ {{ @' ]{ ^{ /{ ({ L> L> _{ c' :{ <{ [{ }{ |{ 1{ 2{ 9= D~ 3{ 4{ Q& 5{ 6{ 7{ 8{ 9{ 0{ a{ b{ c{ d{ e{ f{ g{ q# h{ i{ j{ k{ l{ m{ 2) n{ 0$ o{ p{ q{ r{ r{ !~ s{ t{ k' %% !% u{ /> v{ c) w{ @{ x{ y{ z{ A{ B{ C{ D{ E{ F{ G{ H{ I{ J{ K{ L{ M{ N{ O{ P{ Q{ i& R{ S{ T{ U{ V{ W{ X{ Y{ Z{ `{  ] .] +] @] #] Z  V# b. $  $  -. $   & -. ;. -. $. /. -. *  *  '. *  *  &  &. &. ;  &  '. *  *  *  -. y& -; q$ `% K@ l. *  5. *  *  *  *  *  &  5. *  *  *  5. 1. /. b. /. ;  &  ,. *  *  k. *  *  l. k. l. k. 3- 3- 3- 3- 3- 3- l. *  *  l. *  *  *  *  *  *  ;  ;  &  *  *  *  &  *  *  [  &  -. ;. >. -. }  -. $  %. -. /. #  <  #  U  ,  ",
"^  D  ). <  +  ,  #  _. |  _. -. -. -. -. -. ;. 7. [  }  *  7. <  2  #  ;  ;  ;  =  }  [  ;  #  $  ;  ;  ;  /. <  $. $  ;  $  $  #  U  V# D. V  _  ~  ,+ ~{ $] %] &] *] =] -] ;] >] ,] '] )] !] ~] {] v* x, ]] ^] /] (] _] :] <] [] }] o# |] 1] 2] 3] 4] 5] k) 6] 6] a& J, >! 7] 8] 9] 0] a] P> b] e; 1= c] d] e] f] o{ ]> g] h] J{ L~ X> i] <) j] O* c& k] l] m] n] o] p] q] r] s] t] #{ u] ]- U, v] w] x] :> y] z] w' A] #{ B] C] D] E] n= F] G] H] I] J] K] L] M] N] O] -. -. -. -. -. -. -. $. /. |  5. *  k. *  *  *  *  &  &  |  *  *  *  *  *  s. i+ `% `% P] K@ l. *  *  *  *  *  *  *  ;. ;. *  *  *  &  [  <  (. #  #  %. >. ;. *  3- 3- l. *  *  3- 3- 3- 3- }@ K@ 3- }@ l. k. k. l. *  *  *  *  *  1. ;  -  l. l. k. *  *  }  [  }% ;. -. ;. /. ;. ;. -. -. ;  ;  <  <  #  U  U  W  ",
"k  _  +  #  _. +  >  ;  <  <  ;  -. -. -. -. ;  ;  [  ;. [  #  #  #  #  <  <  <  3  |  <  <  ;  ;  $  $  %. $. $. $  -. -. -. -. U  U  ,  G  Q] R] K  S] M@ T] F& U] V] W] X] Y] Z] `]  ^ .^ `& +^ @^ B, #^ $^ {' %^ &^ d' l, *^ =^ -^ ;^ >^ ,^ '^ e; >! 6> 5! M, )^ !^ `> l~ ~^ {^ r' ]^ j, @, ^^ /^ (^ u; 7& _^ u, :^ <^ [^ (~ }^ |^ P, 1^ 2^ 3^ n@ 4^ Q% 5^ 6^ 0! 7^ 8^ 9^ ,% 0^ a^ 2! S{ N* b^ c^ {> ,% ^> d^ e^ f^ g^ h^ i^ C' j^ k^ l^ m^ Z{ n^ o^ p^ q^ r^ s^ t^ u^ v^ -; -. -. -. $  $  #  ;  *  *  *  *  *  *  l. *  *  [  &. *  *  *  ,. *  *  *  ,. 5. *  *  *  *  *  *  *  *  *  &  -. ;. *  *  *  p. ;  <  <  <  <  #  -. -. 8. 1. %. ;  [  *  3- 3- K@ K@ [. *  3- }@ l. *  *  l. *  k. *  *  *  k. 5. *  }% 3- ,. '. *  1. &  i+ -. b. b. $  #  $  -. -. %. #  #  <  <  U  ~. D  ",
"w^ .  ). 2  ). -  &  |  <  |  $  /. -. -. $  <  <  #  ;. ;  #  #  _. <  |  ;  |  <  [  [  #  $  -. ;  %. $  %. <  #  %. <  %. U  U  U  2* T. H  K  K  x^ y^ z^ A^ B^ C^ D^ E^ F^ F^ G^ H^ ;] I^ J^ K^ L^ M^ '& N^ ^' m; !> #^ '= T$ ;^ O^ {% P^ Q^ R^ S^ G* T^ U^ V^ W^ X^ Y^ Z^ `^ K% %#  / ./ +/ F* @/ #/ $/ %/ &/ J% */ [) =/ -/ ;/ !, C' >/ a^ ,/ ,/ '/ {~ s, >- )/ =~ !/ f= ~/ l& {/ G{ ]/ ^/ // u# (/ _/ :/ </ [/ }/ |/ 1/ -/ 2/ 3/ 4/ _- 5/ 6/ 7/ 8/ 9/ 0/ R# a/ b/ Z% c/ -. -. -. ;  -. -. ;  &  *  *  *  *  *  l. l. *  |  &  }  *  ;  %. ,. *  *  [  ;. *  *  *  *  *  *  *  *  5. *  1. ;. *  *  *  [  %. $  <  #  (. (. -. b. 8. b. %. /. ;  *  i+ }@ *  *  *  *  k. *  l. l. *  *  *  *  *  *  *  *  ;. 5. >. n. =  [  *  *  *  *  1. 2. #  <  <  <  $  <  %. $  #  <  #  U  W  A  ",
"4# +  <  [  [  [  _. <  |  =  1. $  $. -. $. <  #  $  2. [  3  <  7. <  |  -  <  <  <  [  ;. -. -. /. $. /. %. <  <  <  #  $. /. <  W  :  K  K  K  C) 7+ $] d/ e/ f/ g/ h/ +^ i/ i/ j/ k/ +^ l/ m/ n/ o/ @) E- ** M^ p/ q/ '& [{ 5& M- r/ s/ 7= R) t/ u/ $) /^ v/ -# +~ w/ X> x/ y/ z/ A/ b) n# B/ C/ D/ E/ F/ 7= -* G/ )^ H/ I/ J/ K/ L/ M/ N/ O/ P/ p] Q/ R/ S/ T/ U/ V/ j) D! W/ @~ X/ Y/ Z/ `/  ( .( U^ +( e^ @( #( $( %( -{ &( 3/ *( =( -( ;( >( ,( '( )( !( ~( {( ]( x& -. -. -. 1. 5. 5. *  *  *  *  ;. l. l. 5. l. s. -. -. -. $  |  }  *  *  1. >. %. $  ;. *  *  *  *  *  }% }% U# 1. -. -. &  *  &  #  ;  $. <  $  /. #  #  U  /. ;  ;  |  1. j. 2. ;. K@ l. *  *  *  l. K@ l. K@ *  *  *  *  *  l. 1. %. ;  $. #  |  ,  1. *  *  5. 1. 1. -. $. <  %. ;  1. %. %. ,  U  U  ,  U  _  ",
"]  <  <  <  <  <  <  ;  &  -  <  <  $. -. $. ;  #  $  }  ;  #  <  <  <  |  -  <  <  <  ;  1. ;  %. $  <  <  #  #  U  #  $  %. /. #  {. G  K  K  ^( /( (( _( :( <( [( }( |( 1( 2( 3( ') 4( 5( 6( 7( l; 7{ 8( 9( B% 0( a( b( -~ c( d( e( f( g( h( i( j( k( *, l( X) m( n( 1^ o( w] [) o( <) p( q( O$ r( Q) s( t( u( ** v( y~ r] w( x( y( z( A( B( C( D( E( F( G( H( I( J( K( L( M( N( V- O( P( Q( R( S( ^> T( U( V( a^ 9^ W( #~ C' Y- X( Y( Z( `(  _ g> ._ +_ @_ #_ $_ %_ &_ *_  & $  /. 1. *  ;. k. [. l. 5. 5. -. -. -. -. $  -. -. ;  -. ;. *  *  *  1. -. $  -. >. *  *  *  &  *  5. ;. ;. $  -. -. ;. *  ;. }  #  $. ;  -. -. /. #  (. %. &. *  -. 5. k. m. >. k. *  *  *  *  *  l. *  *  *  *  *  *  *  ,. 5. -. $. <  <  U  U  (. &  *  [  -. $  /. /. <  ;  ;  [  (. #  U  U  W  {. U  Q  ",
"o  .  <  ;  ;  <  -  [  7. #  -. -. /. -. $. ;. *  ;  ;  }  *  3  <  <  #  ;  #  #  [  1. 1. ;  $. #  1. $  ;. ;  #  %. $  <  <  #  D  G  G  t. =_ -_ ;_ >_ ,_ '_ )_ I# !_ ~_ {_ ]_ /= ^_ E- /_ 6] (_ L% a~ N- __ =* :_ <_ [_ }_ |_ 1_ G( 2_ 3_ 4_ f' 5_ 6_ 7_ 8_ S{ 9_ 0_ a_ b_ c_ d_ e_ }) f_ g_ h_ i_ j_ k_ l_ V/ m_ n_ h= o_ 4/ p_ q_ f! n) r_ s_ t_ u_ v_ w_ x_ y_ z_ A_ }) 1^ B_ C_ Q( D_ E_ A; F_ G_ H_ I_ J_ K_ L_ M_ U- Y/ N_ 8' O_ P_ h> Q_ R_ S_ T_ U_ V_ W_ X_ Y_ >. $  ;  -. &  -. ;. 5. l. i+ n. 5. s. >. 1. -. -. -. -. -. }  &  &  =  1. -. ;   & n. i+ ;. ;. >. 5. *  5. ;. [  ;. >. 5. 5. ;. &  n. ;. >. >. >. ;. ;  %. -. &  1. -. ;. *  5. >. *  *  *  *  l. 3- K@ l. K@ *  *  *  *  [. *  ;. 1. #  <  <  #  #  #  ;. &  ;. /. %. -. $  #  ;  1. [  [  (. ,  U  W  {. U  Z  ",
"'  #  #  $  $  ;  [  *  &  1. %. -. -. -. ;  ;. &  |  &  1. 5. ;  <  <  #  /. -. -. -. ;. =  <  [  }  3  %. -. %. #  /. $. <  <  <  W  A. Z_ K. (( `_  : .: D^ +: @: w{ #: $: %: &: *: K( =: -: ;: >: 0! ,: 1{ ': ): !: ~: {: ]: n~ ^: /: (: _: ::  * <: [: }: |: 1: 2: *{ 3: 4: b_ 5' 5: 6: 7: 8: 9: 0: a: b: c: J% d: -: e: f: 4/ g: h: i: j: k: C( l: m: n: o: p: q: r: s: t: u: v: w: x: y: z: A: ^~ B: N~ C: D: C' E: F: G: H: n@ a$ I: J: K: L: M: N: O: P: Q: R: S: A& T: -. -. -. 1. -. -. -. U# }% >. >. n. 5. -. -. -. -. y& -. $  ;  $  [  ;. 1. -. q$ |, 3- -;  & -. 1. *  *  *  *  *  s. q$ ;. K@ l. k. l. l. k. l. l. s. /. $  -. b. e. b. &  *  *  *  *  *  *  k. [. 3- K@ l. *  *  *  3  -  *  *  &  $. <  $  ;. 7. $. $  $. -. >. -. -. ;. e. #  -  [  #  #  U  U  ,  ,  U  V  ",
"w  ;  ;  ;  %. #  ;  3  &  1. $  $  >. ;. &  &  *  *  ;. *  *  [  <  <  <  #  ;  [  5. -. $  #  *  *  ;  /. /. #  #  #  <  +  /. +  .  ~  -+ U: V: W: X: Y: Z: `:  < .< y{ +< @< #< $< %< &< *< =< -< ;< >< ,< 6> '< )< !< ~< {< ]< ^< /< (< _< :< << G! [< }< |< 1< 2< 3< {, 4< 5< 6< 7< 8< 9< 0< Z' a< +/ ;- s, b< c< d< e< f< f! g< h< i< t) j< k< l< !- m< O/ n< o< a^ A- p< :^ q< E] E] r< L{ 4< s< t< E: W~ u< v< w< x< y< 7! b> >~ i] z< A< B< C< D< E< F< G< H< I< T. J< K< -. -. -. -. -. 1. -. -. -. -. -. &  *  1. $  -. q$ q$ }% l. *  *  1. ;. -. y& Q; O' y& -. -. 1. *  *  *  *  *  s. -. 1. ;. -. *  k. *  *  ;. ;  %. ;  /. -. 8. 2. 8. &. *  *  *  *  *  *  *  l. 3- K@ *  *  *  *  *  *  *  *  *  &  _. *  *  ;. 1. %. ;  &  l. *  1. ;. ;. %. '. >. $  ;  #  U  U  U  ,  :  ",
"H  G  <  $. $  %. $  3  %. [  ;  $  |  $  #  #  ;  *  *  *  *  }  #  ,  #  #  <  #  ;  -. -. -. 1. >. n. [  (. #  $. <  <  $  e. D  :  G  q. L< M< N< X; O< Z: .^ P< Q< 6' R< S< t; P) T< U< P* )* V< W< X< Y< Z< `<  [ .[ +[ !< @[ #[ $[ %[ &[ *[ P~ =[ -[ ;[ >[ ,[ '[ ~< )[ `{ ![ ~[ {[ #: H% |{ s/ %: Z) ][ z] =: P~ ^[ _! /[ ([ x( _[ :[ <[ [[ }[ |[ 1[ 2[ 3[ 4[ l= h] 5[ 6[ 7[ 8[ Y- 2/ 9[ L{ `{ 0[ a[ b[ c[ L{ d[ e[ f[ g[ {- l' x{ 5[ h[ i[ j[ k[ l[ m[ n[ o[ p[ q[ O+ J@ p$ $  -. -. ;  -. s. 5. $  -. -. &  *  *  -. -. -. -.  & 5. *  *  l. *  *  ;. ;. }% }% i+ q$ -. -. >. l. ;. 1. >. 5. 5. *  >. 5. &  n. *  *  *  *  &  >. $  [  -. b. $  7. &. *  *  ;. 1. >. n. i+ l. k. *  *  *  *  *  *  *  *  *  *  k. ,. }  [  =  ,. s. &  ,. [  $  %. 1. -. |  ;  /. #  $  U  U  U  U  G  ",
"!. +  -. %. ;  ;  $  [  ,. }  &  ;. &  l. k. *  K@ l. l. *  *  *  =  ;  }  }  $  %. -. n. -. -. -. $  [  #  ;  &  2. [  _. #  U  U  .. :  r[ s[ t[ u[ ]^ v[ &^ w[ x[ c= y[ @~ z[ 3= A[ B[ C[ D[ E[ y_ F[ >, G[ #< H[ I[ J[ K[ L[ M[ N[ O[ g& Y= t{ P[ U{ Q[ R[ 9_ S[ T[ U[ V{ V[ W[ X[ Y[ Z[ =% v, `[ `[  } .} 5! M* +} C_ @} #} $} %} &} *} =} =} b[ _- _- -} ;} >} ,} '} k= )} !} ~} {} ]} ^} /} (} _} :} o= <} [} }} |} 1} 2} 3} 0^ L~ 4} 5} 6} 7} 8} 9} 0} a} b} c} d} t= b. 8. b. -. >. >. >. >. >. l. ;. -. *  *  &  -. -. -. -. -. &  *  *  *  *  *  &  }  l. }@ s. y& -. -. `% -. -. 1. -. ;. *  *  &  *  &  -. *  *  *  *  *  [  [  [  1. l. ;. ;. =  *  1. $  -. -. }@ }% 5. *  *  *  *  *  *  &  *  *  *  &  ;. *  &  5. *  }  n. -. 1. ;  $  ;  -. -. #  }  #  ;  ;  ;  <  ,  U  ~  ",
"+  <  ;  $  %. -. %. 4  |  /. 7. [  ;. 1. }  5. 7. K@ K@ k. *  ,. [  ;  <  #  $. <  $  /. $  $  1. #  $. #  #  1. (. %. ;  (. ,  ,  _  T  e} f} g} h} ~! ;' l* J= i} ## j} k} l} '* 0! O% m} P[ n} o} c] p} q} #/ r} Z< s} t} u} v} w} x} y} z} e] A} 5[ C' B} C} 4[ D} E} F} G} H} I} J} K} l@ L} M} s; N} O} P} f] U< Q} R} S} t< T} r& U} V} `{ W} X} {, f> Y} D; D; t< Z} 0_ `} D;  | .| ^} +| @| @| #| $| %| &| *| =| v< -| ;| >| ,| '| L[ )| !| K: ~| {| ]| ^| /| (| _| V# 8. -. y& :| >. ;. >. ;. l. K@ n. *  *  ;. -. -. -. -. y& &  &  *  k. k. *  =  -  -  *  ;. -. -. -. -.  &  &  &  & ;. 5. 5. 5. 5. ;. -. =  *  *  K@ *  }  &  &  -. ;. #  1. 5. &  $  -. 5. l. 1.  & i+ l. k. k. *  *  *  -  *  5. }  ;. ;. 5. l. *  *  &. 5. 5. %. &. ;. %. -. 2. (. %. 4  %. 1. }  1. #  U  _  ",
"G. #  <  <  <  $  ;  ;  $  &. 3  3  1. 4  &  &  &  *  l. *  *  *  *  &  $. #  <  <  /. -. ;  /. #  (. (. ;  #  -. $  %. #  ,  1, #  .. m  <| [| }| || 1| >& g* 2| 3| 4| 5| 0! 6| 7| b~ Q% d= 8| 9| G# 0| D% a| b| c| d| B% d: e| J_ f| g| M_ h| 7' i| j| w< k| t< E: 7' l| m| n| o| p| x{ q| Z= r| s| t| u| v| w| x| @} y| z| ([ A| B| C| D| E| F| G| M{ H| I| J| K| L| M| m^ i: N| h< /} O| P| Q| R| S| T| R| M: U| V| L{ ]} !, W| 4< X| Y| +[ Z| `|  1 .1 +1 @1 O: #1 $1 %1 &1 -. -. -; q$ s. >. ;. 1. *  *  *  *  *  &  $  %. -. >. -. 5. k. }@ 3- 3- K@ l. *  *  *  ;. -. -. ;. >. -; -; -; -; U# ;  $. -.  & y& -. }  *  [. 3- l. k. *  *  >. -. -. -. -. -. >. |% 3- ;. 1. -; Q; 3- 3- 3- l. *  *  '. *  1. ;. >. *1 >. 3- k. *  *  '. *  *  5. 1. -. -. -. ,. *  &  }  *  ;  }  <  ,  _  ",
",  #  <  <  #  -. -. -. ;  &. '. *  *  *  1. &  k. k. 3  }  *  *  *  5. 1. ;  $. #  $. ;  %. -. ,  W  #  #  %. #  $. %. %. d. W  ,  ~  r. o! =1 -1 F% L, ;1 >1 ,1 '1 )1 !1 ~1 U= {1 ]1 ^1 F~ d) /1 l| l| '- (1 _1 :1 <1 D% >, [1 }1 |1 11 21 31 =[ 41 w< 51 61 t< t< $} 71 >% y[ 81 n= 91 d& 01 31 a1 b1 c1 h| d1 e1 j< f1 g1 h1 i1 j1 k1 l1 m1 n1 n1 `{ o=  1 $| o1 p1 q1 r1 s1 t1 u1 v1 w1 x1 Q| y1 @_ z1 A1 B1 C1  1 q1 D1 E1 `{ F1 G1 ]> U{ H1 h< D1 I1 J1 K1 L1 M1 N1 %1 Z  -. -. y& -; -. -. -. 1. *  *  *  *  ;  ;  #  ;  -. q$ s> Q; K@ K@ 3- 3- l. 5. &  *  *  ;. -. >. -. -. -. -. -. y& q$ ;. >. y& -; |, -; K@ l. K@ l. 5. K@ l. K@ n. *  *  n. s. }% |% >. -. -. 1. -; Q; 3- 3- K@ *  &  *  *  *  >. -. -. -. >. K@ *  *  *  *  *  *  *  }@ >. &  -. |  $  %. <  &  &  ;. %. #  G  ",
"D  1  %. ;. ;. >. 5. 1. -. ;. >. ;. 5. >. $  1. *  *  '. [  *  &  }  3  ;  $  /. #  #  <  <  /. #  #  $. ;  /. #  ,  #  #  #  (. 2. K  7@ O1 P1 Q1 e] M% R1 ~& S1 T1 U1 V1 W1 6> X1 Y1 Z1 P> y% `1 r{ 1= s' _1 8>  2 h% =* .2 f( +2 @2 #2 $2 %2 H, ][ &2 *2 =2 x{ -2 ;2 >2 ,2 '2 o( )2 !2 I! ~2 J_ U[ m| {2 4} <^ J{ *2 '~ 4/ ]2 Y[ ^2 /2 (2 _2 :2 <2 `{ o= [2 }2 |2 12 22 32 42 52 62 p1 M{ 72 82 92 02 a2 b2 c2 d2 e2  1 f2 g2 h2 `{ i2 j2 j= A: Z( k2 l2 m2 n2 o2 p2 q2 r2 U. b. -. y& s> 1. -. ;  -. ;. *  ;. ,. ;. %. %. `% -. -. >. y& ;. >. s2 s. >. %. $. 1. 5. >. >. n. -. -. -. -. -. y&  & -. -. y& y& y& `% 3- 5. 5. P] n. l. *  3- }@ *  ;. >. >. s. ;. ;. ;. ;. ;. `% :| |% |% ;. p. ;  |  #  1. -. -. -. $  -. >. ;. *  *  *  *  *  *  *  [  &  $. 3  ;  #  <  [  [  %. %. b. Z  ",
"O  1  #  _. &  $  $  <  ;  -. -. /. /. -. [  &. *  *  *  ,. }  *  [  <  <  <  #  #  #  #  #  %. <  ;  ;  <  b. $  [  $  (. #  b. U  2, q> t2 u2 v2 w2 x2 y2 z2 A2 B2 C2 [< o] B% D2 E2 F2 G2 H2 9& I2 J2 K2 R) L2 M2 T& N2 y* O2 A[ P2 Q2 R2 o] S2 T2 '* f; U2 V2 W2 X2 1/ ;% Y2 '2 Y~ z{ Z2 `2 |/ #{  3 .3 /- L~ +3 ^- ^- @3 #3 $3 %3 S- 9{ &3 *3 =3 -3 F1 ;3 >3 ,3 '3 )3 !3 ~3 {3 Q| #| ;3 ]3 W[ ^3 /3 (3 _3 :3 <3 [3 }3 Q| |3 13 23 33 43 q& 53 I| /} 63 73 83 93 03 a3 b3 .. 2.  & y& s> 1. ;  >. 1. 5. s. 1. *  *  K@ >. s> `% P] -. -. -. -. i+ -. -. ;  ;  -. 1. >. }% s. -. -. -. -. $  -. -. -. -. -. }% }% >. 5. l. }% K@ }% *  [  l. K@ *  1. -. -. -. *  *  *  *  K@ m. ;. 5. ;. -. $  ;  =  *  &  $  -. -. -. `% `% >. *  *  &. ;  3  *  [  &. }  1. *  l. 1. ;. -. -. /. b. /. Z  ",
"Z  <  #  *  *  ;. p. ;  -. -. -. ;  $. %. &  *  *  *  *  *  }  -  5. #  <  <  #  <  <  /. $  $. %. %. $. $. -. -. [  -  1. b. #  @  c3 a+ d3 e3 f3 g3 h3 }< i3 j3 `; k3 l3 W1 $* F% m3 n3 o3 p3 ): 6] q3 r3 [{ s3 ^_ t3 E> u3 v3 z] w3 I_ x3 a! H( k; y3 !~ z3 A3 B3 C3 D3 E3 F3 G3 x/ C! I! H3 /* I3 y| J3 ,} K3 t) ^- ^- V- I! L3 M3 m* N3 g@ c) O3 P3 :2 Q3 R3 >3 S3 T3 42 42 Q| Q| U3 V3 W3 X3 Y3 Z3 `3  4 m[ .4 +4 Q| Q| +4 @4 #4 $4 %4 &4 (} *4 =4 -4 ;4 >4 ,4 '4 )4 !4 U  2. y& y& -; >. }% }% l. }@ }% ;. *  *  K@ y& `% P] y& -. -. -. -. -. ;. -. %. $  1. -. -. >. >. ;. -. -. $  p. ;. -. -. -. -. q$ B) ;. l. *  *  l. *  k. l. l. *  *  1. ;  ;  >. *  *  *  *  *  -. -. >. &  &  &  5. *  *  }  1. -. -. -. y& i+ >. *  *  *  m. &. *  >. }  [  3  &  [  1. 1. -. -. <  $  (. T. ",
":  <  /. 1. &  ,. *  *  &. /. %. >. &  ,. &  &  *  *  *  *  *  &  -. -. -. <  <  #  U  #  <  #  #  <  &. &  >. -. -. $. #  #  1, S+ ~4 {4 ]4 ^4 /4 U= (4 _4 M^ :4 <4 A, w- [4 W^ j~ }4 c~ L, |4 14 24 J_ 2= 4> 34 44 54 D> 64 74 r; 84 |/ l: 94 04 a4 b4 R- c4 d4 e4 f4 g4 h4 n( i4 c& j4 i^ /* k4 H1 l4 E] m4 ,} *2 ^- n4 o4 '/ p4 q4 r4 s4 t4 u4 v4 w4 F' x4 y4 E1 z4 A4 12 Q| Q| Q| f2 _[ B4 C4 r& D4 E4 F4 G4 m[ H4 I4 Q| J4 K4 L4 x1 M4 N4 O4 P4 Q4 X- R4 S4 T4 U4 V4 U. 2* W4 y& -. q$ s. i+ s. 5. 5. i+ 3- K@ *  }@ 3- }@ s2 s> -. -. -. 1. $  `% -. -. -. -. &  *  *  *  *  *  *  *  *  &  ;. >. -. 1. 1. 1. 1. -. ;. *  *  *  *  *  *  *  *  1. $  }  1. $. &  ;. -. -. $  }  *  *  &. }  *  *  *  }  &  5. ;. -. &  ;. 1. *  3  &  }  K@ >. 5. ;. 1. 5. >. `% y& -; >. -. -. <  ,  P  ",
"~. #  $  -. ,. ,. *  *  ,. p. >. z& 3  *  3  X4 ,. *  *  *  *  }  /. ;  -. ;  <  #  #  $. <  U  ;  |  *  [  #  $. ;  $. $. b. U  T. Y4 0+ Z4 `4  5 ]] .5 |>  ) +5 u* A, h{ @5 X^ #5 )~ q# 4! $5 z_ E[ %5 &5 ~~ *5 U= =5 ^' 64 -5 ;5 d4 F_ >5 ,5 '5 )5 !5 ~5 g[ {5 ]5 ^5 /5 (5 '| _5 N_ i; :5 <5 K3 [5 k| t< S} g! }5 +3 L~ U- G{ |5 15 r4 25 35 g{ 45 Q% {> T} =/ 55 65 75 M: Q| Q| Q| 85 95 05 )} a5 b5 c5 d5 e5 m[ m[ f5 g5 h5 i5 j5 +4 Q| J4 k5 g> =( p) 5< l5 m5 n5 o5 p5 A) -. -. -. B) 5. ;; l. &  s. -. }% K@ K@ K@ k. >. >. q$ |, -; `% s. -. q$ -. -. -. `% k. *  5. ;. '. -  =  *  *  k. l. >. -. -. >. -. 1. 1. >. *  *  *  *  *  *  *  *  1. $. |  &. $  ;  $  %. -. &  *  *  *  q5 *  [  5. *  1. ;  ;. &  ;  ;  $  ;  |  =  *  *  l. ;. k. ;. 1. *  5. n. y& s> 1. -. $  #  U  Y  ",
"1  /. <  %. ;. *  *  &  [  }  ;. 7. &  *  3  +  ;  *  *  *  &. ;  $  -. $. $. <  $. ;  $. <  U  ,  4  ;  [  ;  $  #  #  #  $. @  *; r5 s5 t5 u5 v5 n* *, w5 @! #, l* A, x5 y5 z5 A5 B5 C5 I[ D5 }< ]: E5 G} F5 M) s3 U! r* G5 74 $< i~ H5 #~ 91 I5 J5 K5 L5 M5 N5 O5 P5 2: Q5 R5 6^ S5 T5 U5 C| b_ D| V5 b[ t< g! ^- h] W5 X5 Y5 Z5 `5  6 .6 +6 @6 #6 $6 '/ %6 &6 *6 =6 <} -6 ;6 >6 ,6 g> '6 )6 !6 ]- ~6 4< {6 ]6 ^6 m[ m[ m[ /6 m[ (6 _6 h5 :6 <6 h> i> n= [6 }6 |6 16 26 36 F. -. -. -. -. -. i+ }@ }% s. s. l. 5. *  l. ;. -. -. >. N' }% P] s. 5. y& -. -. >. i+ *  5. ;. 1. ;. k. *  l. *  *  *  ;. -. ;. ;. >. ;. ;. 1. *  *  *  *  *  *  *  *  ;. [  $. -  ;  ;  %. -. -. ;. 5. *  *  *  1. *  3  *  &. &. _. #  $. $. /. ;  /. [  5. &  ;. ;. ;. 5. [  *  *  &  n. i+ -. $  [  <  U  46 ",
"D  <  /. %. %. 5. *  }  &  *  *  *  *  7. %. [  (. &. -  3  %. ;  -. -. $. <  <  /. %. |  ;  %. <  $. $. %. %. /. 4  ,  %. %. 1, c3 K. S@ 56 66 76 86 c, 96 06 .% o; &) i( a6 c) b6 c6 d6 (: e6 f6 g6 h6 B} i6 j6 }= i& I% k6 #/ Z< l6 z- m6 k^ n6 o6 p6 q6 r6 s6 t6 u6 v6 *{ ^- w6 /> }$ x6 y6 z6 A6 B6 C6 D6 E6 E6 I/ F6 G6 *~ H6 I6 J6 K6 L6 M6 N6 i~ O6 ^> i= P6 X| Q6 R6 S6 T6 U6 V6 W6 [^ Y| M~ n| X6 s& Y6 Z6 E< `6 `6 m[  7 .7 `6 m[ <6 +7 @7 g: #7 $7 %7 &7 '4 O+ 1~ -.  & -.  & q$ >. }% }% 3- ;. >. ;; ;; *  ;. >. -. -. -. %. $  >. >. }% >. >. ;. &  *  5. ;. -. -. 1. *  *  *  *  *  *  *  >. -. -. s. *7 5. >. *  *  *  *  *  *  *  *  *  &  [  #  -. -. -. -.  & -. p. *  [  #  -  &  *  *  *  &  1. $  $  ;  %. ;  p. ;. }  -  3  &. *  *  3  }  &  &  p. }  $  $  <  U  .. H  ",
"D  <  -. 1. <  &  *  7. -  3  -  $  5. |  |  [  1. }  =  *  ;. -. -. $  #  <  <  #  (. /. 1. 1. $  }  3  [  [  ,. 1. $. -. /. <  &1 =7 -7 ;7 >7 !/ ,7 '7 )7 !7 ~7 /= :: f' 7( 0; {7 c= ]7 ^7 /7 << (7 d4 E_ _7 z- :7 <7 [7 }7 |7 17 27 u( 37 -2 g! 47 57 67 77 77 +3 n4 '~ $} B6 +, 87 u4 97 3] 07 a7 b7 c7 ^- d7 C' e7 m& f7 g7 h7 i7 j7 k7 l7 m7 n7 o7 w_ p7 01 q7 6' -{ r7 s7 13 ]} t7 v< u7 v7 w7 v: x7 y7 M{ z7 A7 B7 C7 D7 E7 F7 G7 E< H7 G; 85 R3 Y( I7 J7 K7 L7 M7 Y. -. q$ q$ -; |, 3- K@ l. }% -. -. [  ;. k. K@ K@ s. -. ;  >. s. 5. }% -. k. s. >. l. *  >. -. -. -. 1. *  *  *  *  *  *  *  1. >. -. >. }% l. k. *  K@ K@ *  *  *  *  *  *  *  *  *  ;  -. -. -. y&  & ;  $  1. &  [  [  *  5. *  ;  $  -. -. $. U# $  &  [  3  *  *  '. *  *  1. [  3  ;  /. <  ;  $  <  U  W  _  ",
".  $. &  *  *  *  *  *  *  -. -. $  ;. ;. *  ,. 3  *  |  [  1. -. /. $. $. #  <  /. /. #  #  %. ;  ;  *  *  &  -. %. $  n. F. *; N7 O7 t5 P7 Q7 R7 S7 T7 >' U7 >~ ): #/ V7 W7 m_ X7 >- Y7 5! Z7 #/ `7  8 #~ .8 +8 -[ @8 #8 $8 %8 &8 -^ *8 =8 -8 ;8 2/ `} >8 ,8 `} h[ t< i: '8 )8 !8 ~8 ~= {8 ]8 ^8 /8 (8 D! i4 S* _8 :8 <8 q] [8 }8 |8 64 *) q} 18 m7 28 38 48 58 -% ]# 68 78 T, 4< -( {} 88 98 M_ 08 a8 b8 }5 c8 :}  4 m[ d8 `6 e8 d8 f8 g8 D< h8 G; i8 j8 k8 l8 m8 n8 o8 <% y& q$ -; Q; Q; >. 5. >. -. -. -. >. k. *  *  *  ;. -; O' :| i+ }% U# 1. ;. s. s. >. ;. *  *  *  &  *  *  *  *  *  *  *  *  n. ;. n. >. *  *  *  3- 3- 3- l. *  *  *  *  =  5. >. s. q$ s> y& -. *  .. (. /. $  *  -  [  &  $  -. -. -. -. $  $. $  %. *  *  *  *  *  *  *  *  ;  &  *  [  #  $. $  -. /. #  U  D  ",
"+  <  7. *  *  *  *  }  5. -. -. -. -. [  *  &. *  *  <  <  #  %. %. $  -. $  #  /. <  #  $  %. $. #  *  &  7. -. -. -. D. A. p8 q8 r8 s8 t8 u8 v8 w8 Z: f' M3 x8 O/ y8 z8 I[ A8 u' H! B8 L- C8 #/ D8 E8 F8 G8 9| H8 I8 J8 K8 L8 M8 N8 n} N* O8 P8 d[ `| g< x( i: w< Q8 R8 S8 T8 P^ x[ U8 V8 4$ W8 X8 Y8 S[ Z8 `8  9 .9 +9 @9 #9 x5 $9 A, .5 *: %9 `5 &9 *9 =9 G, ]7 T~ -9 x: ;9 >9 ,9 '9 )9 <^ !9 ~9 ]5 {9 ]9 ^9 /9 (9 _9 :9 <9 [9 e8 D7 m[ }9 |9 y1 f2 f2 19 29 39 49 59 Z% -. -. y& s> O' 1. ;. -. -. ;. >. -. *  k. *  k. ;. 69 -; :| 3- :| 1. ;. 1. -. -. &  ;. ;. 5. *  *  *  *  *  *  *  l. l. K@ K@ }% s. >. *  K@ *  3- 3- 3- 3- l. *  =  }  ,. ;. $  $  q$ q$ -. ;. R+ &  *  ;. [  *  *  *  ,. 1. -. -. >. -. ;  -. &  &  *  *  *  *  *  *  ;. *  -  *  *  1. [  &. }  1. 1. /. ,  {. ",
"D  <  <  ,. *  ;. ;. ;. [  -. -. -. -. >. ;. 5. =  =  <  [  ;. %. ;  %. -. ;  #  <  <  /. -. ;. $  ;  =  *  ;. -. /. [  T: S+ ~+ 79 89 99 09 a9 b9 c9 :{ d9 e9 S[ f9 B_ A{ g9 h9 i9 >- j9 9: n' N} k9 l9 u] m9 M~ n9 o9 p9 q9 r9 s9 t9 u9 v9 w9 p6 Y{ x9 y9 z9 Z- A9 o= B9 }) [$ Y! b' C9 .* D9 6$ z] E9 F9 G9 H9 I9 J9 K9 L9 6{ ^= M9 D> &) N9 T) T) `5 O9 P9 Q9 k9 R9 0^ S9 j2 w] d_ [) T9 8| U9 V9 W9 2: X9 Y9 Z9 ~, `9  0 .0 m[ m[ +0 `6 E< @0 #0 $0 J4 %0 &0 *0 =0 -0 ;0  & -. -. y& s> -. 1. -. 1. s. 1. 1. ;. *  i+ }% |% -; y& ;. >. 1. ;. ;. 5. ;. ;. ;. k. i+ ;. *  &  &  *  *  *  *  *  k. 5. s. 5. ;. 1. ;. K@ 5. 3- ;; P] 5. ;. ;. 1. n. ;. >. -. ;  -. -. ;. &  -  &  *  *  ,. *  *  l. *  &  5. >. -. -. 1. ;. k. l. l. l. l. *  ;. ;. 1. ;. &. *  *  [  ;  ;. 5. *  &. $. #  D  ",
"G  +  ;  *  5. -. -. -. -. -. -. -. -. >. ;  ;  -  =  3  &  [  $. ;  $  $  |  %. #  ;  ;  |  |  <  <  7. *  ;  /. #  $. A. >0 ,0 '0 )0 !0 ~0 n& {0 b) ]0 9> ^0 /0 (0 _0 :0 <0 [0 n& }0 l] d= /! )- f= t# c! |0 10 20 D; 30 40 50 60 70 80 90 00 a0 >8 ;2 `| b0 p1 K/ c0 c_ d0 y% e0  * G> f0 ** E! t_ g0 h0 i0 j0 k0 l0 m0 n0 %- o0 p0 q0 o0 r0 m7 s0 t0 %9 u0 15 v0 w0 x0 y0 *< i_ [) '2 z0 A0 B0 C0 D0 E0 J8 F0 G0 <[ H0 +0  7 I0 I0 m[ I0 J0 K0 L0 M0 N0 O0 P0 Q0 R0 S0  & -. -. -. y& -; >. -. -. ;. -. -. -. 1. 5. i+ Q; 3- -;  & *  *  *  *  k. *  *  *  *  k. }% ;. =  [  }  *  *  *  *  *  *  *  K@ 3- ;. -. U# 3- >. >. P] *  3- n. ;. >. -. -. >. >. -. $  }  *  *  *  *  *  *  *  *  *  *  k. *  *  5. 5. l. *  *  l. 3- 3- K@ K@ l. -. %. -. $  ,. ,. *  &  &  *  *  *  [  <  ,  D  ",
"G  <  &  5. -. -. -. -. -. -. -. -. -. ;  <  <  -  *  <  =  1. $  -. $  ;. $. #  <  %. /. %. %. <  <  -  *  -. $  /. $. A. T0 U0 V0 W0 X0 Y0 &2 F3 p) Z0 `0  a '- .a 4/ $} (0 o( W^ b& +a @a Z^ +~ #a J3 #a $a %a _- q_ &a *a =a -a ;a >a ,a 'a )a !a i: ~a {a ]a ]2 ^a /a (a _a :a G> H> <a k, &* [a }a |a f7 h0 1a 2a y_ 3a 4a 5a 6a 7a 8a 9a 0a aa 15 P9 15 15 ba ca da ea C3 fa ga (5 ha ia ja ka la ma na oa pa B_ qa ra `6 m[ f8 m[ P: f8 f8 K1 sa ta ua va wa xa ya Y. -. 2.  & -. -. }% l. 5. -. ;. $  ;. $  >. s. Q; N' P] y& &  *  l. l. [  '. *  *  *  *  1. ;. *  *  *  k. k. *  *  *  *  *  k. 3- s. }% ;; 3- >. }% }% k. ;; ;. s2 ;. k. ;. 1. 1. 5. ;. 5. *  *  *  *  *  *  *  *  *  *  *  *  *  l. l. ;. *  *  l. 3- l. 5. 5. &  1. 1. -. $  1. 5. &  *  *  *  *  *  ;. $  U  ~  ",
"E  ;  -. -. $  $  $  -. -. &  ;  ;. &  <  <  }  #  [  |  7. ;  $. %. -. -. %. $  %. &  ,. &. 3  &  &  '. *  -. -. $  #  Y_ t. w. za Aa Ba Ca Da Ea Fa 4/ Ga Ha $( 4/ Ia Ja %} Ka La R1 5^ m4 ;} J{ X- m4 S} Ma Na Oa Pa Pa Qa Ra Sa Ta Ua Va Wa Xa Ya Qa Za `a  b .b Q* +- j6 _= +b i/ @b #b $b `: %b f6 &b *b =b -b 8( ;b >b E> ,b 'b )b !b D> ~b {b ]b ^b /b (b _b :b <b [b '[ }b |b 1b 2b 3b 4b 5b 6b u9 7b 8b 9b 0b c0 ab [9 bb D7 m[  7 K0 f8 E< cb db eb fb gb hb ib K< -. $  -. >. l. i+ l. }@ l. 5. 1. }@ *  *  *  *  *  k. k. }  5. ;. 5. *  *  *  &  1. 5. *  *  *  3  &  *  *  *  *  *  *  5. >. &  -. s. 3- 1. -. -; N' Q; |% l. l. *  l. >. n. }% *  *  *  *  k. *  *  l. l. *  *  *  *  *  l. 3- k. l. 3- 5. K@ k. *  *  *  *  7. ;. l. ;. *  &. *  *  l. l. *  *  *  ;. -. X% G  ",
"+  <  }  >. -. >. s. >. -. &  3  |  &  <  <  [  |  *  =  *  ;. -. $  -. -. $  $. <  &  *  *  3  =  [  1. >. -. ;  $. #  D. K  jb kb lb mb nb ob pb S} qb rb sb tb ub vb wb L/ xb S$ E- yb zb C( Ab Bb i: Cb Db Eb Fb Gb Hb Ib Jb t< b[ t< Kb k| Lb Mb Mb Nb ;2 s< d_ %6 +} Ob Pb Qb i/ @b Rb 5_ Sb Tb Ub 27 Vb Wb Xb Yb Zb `b M9  c .c +c ,b @c #c $c %c &c *c =c -c ;c >c m0 '[ E{ ,c 'c )c !c ~c {c f7 |b ]c ^c /c (c D] _c :c C7 <c [c D7 E< E< m[ m[ D7 }c |c 1c 2c 3c K< -. -. -. >. }% 5. $  -. s. >. n. k. *  *  l. *  &  *  l. P] n. 1. 5. *  ;. &  &  -. s. ;; ;. 5. *  *  *  &  [  *  *  =  [  -. -. -. 1. n. 1. -. -; Q; O' 3- 5. &  *  *  *  l. *  *  K@ *  l. *  *  l. l. *  K@ *  *  *  *  K@ 3- K@ 3- 3- m. *  5. 5. *  *  *  &. &  *  *  *  *  *  l. 5. *  *  K@ *  ;. -. p$ Q. ",
"#  /. -. -. -. -. *  l. -. &  ,. &  ;. $. $  ;  -  *  ;  &  ;. -. -. -. %. -. $  /. }  *  *  &  &  m. ;. -. 1. 1. 1. #  W  G  V4 4c 5c 6c 7c 8c u: E: w< N| Lb 9c 0c ac bc cc dc <{ ec (7 fc f< gc -} i: t< hc ic jc kc lc mc Ib nc &a Y} q_ &a k| oc pc w< N| s< qc O/ rc ): q; sc i/ tc @b i/ uc 2( vc wc xc L^ yc zc M9 M9 ,b ,b !b J> Ac Bc Cc Dc J( Ec Fc Gc Hc '[ Ic Jc Kc h0 7b Lc Mc j0 Nc Oc j0 Pc K9 Qc Rc Sc |0 Tc Uc [c [c [c [9 Vc <c D7 m[ Vc Wc Xc Yc Zc 1* <% -. -. -. -. >. $  1. -. ;. >. }% *  K@ l. l. l. 5. k. }% |, i+ 1. 1. 5. >. ;. ;. s. ;. >. (. *  K@ *  *  &  ;  &  &  >. -. -. -. -. -. $  1. $  `% Q; P] }% n. *  &  *  5. p. &  *  *  l. l. *  *  5. *  l. l. 5. *  *  *  K@ 3- }@ }% }% K@ k. i+ &  *  *  *  *  &  l. l. l. l. 5. 5. >. *  *  *  *  >. -. V# K  ",
"#  ;  -. -. ;. -. *  ;. p. -. &  ;. -. -. -. -. 1. *  *  *  ;. -. -. -. $  %. $. -. ;  *  &  [  1. -. -. -. -. 1. &  $  :  W. _| `c  d .d +d @d D_ #d $d %d &d *d *d K| =d -d ': J- ;d =c >d ,d q9 'd )d !d ~d {d ]d ^d /d (d _d :d *d ;8 k| t< <d [d }d q_ i> A| |d 1d *c 2d 3d 4d 5d Z] 6d 5d 7d 8d tc i/ Rb 9d 0d ad bd .c .c cd dd  c Bc ed fd gd hd id [b h0 h0 h0 h0 '[ Kc h0 f7 jd kd ld ma md 7b ma ma nd od pd qd rd sd D7 b} td ud vd wd D7 <c xd yd zd Ad .& K  .' -. -. -. (. %. -. 1. ;. ;. 3- l. *  *  l. Bd Bd i+ Q; Q; 3- K@ }% l. i+ s. 1. 1. l. *  ;. ;. *  l. k. *  5. ;. -. -. -. -. -. -. -. >. *  5. &  *  K@ *  k. k. l. *  *  >. s. =. *  *  *  k. k. ;. >. 1. -. U# >. *  *  l. 3- 3- K@ k. [. l. *  *  &  *  ;. &  *  K@ 3- 3- 3- l. 1. p. ;. l. K@ l. *  >. -. G. K  ",
",  #  $  -. ;. 1. ;. -. p. >. 5. 5. -. -. -. /. -  *  *  *  ;. -. %. $  ;  |  /. ;. *  *  ,. }  1. -. -. -. -. 1. 5. >. -. $. Cd Dd Ed Fd Gd Hd 8) Id Jd A< Kd Za i2 _} Ld '~ R2 u0 o7 Md fa Nd Od Pd Qd Rd Sd 4/ 5/ Td Td Ud q_ Vd Wd i: Xd Yd Zd `d nc  e .e ,} +e @e #e $e %e &e *e =e -e ;e ;e >e ,e 3( 'e 9d 9d +c )e !e ~e ~e {e ]e ^e /e (e _e :e <e [e h0 }e h0 h0 h0 h0 h0 h0 |e 1e 2e 3e ma ma ma s_ F{ 4e 5e 6e 7e 8e 9e 0e Wc ae Wc be ce e8 0e de ee fe 59 K  ~  -. -. -. 2. y& -. -. 1. >. 5. *  *  &  *  5. 3- i+ Q; Q; 3- l. k. ;. >. >. -. >. n. >. }@ K@ k. K@ l. k. *  *  -. $  $  s. >. -. -. 5. *  l. l. *  *  *  *  *  }@ *  ge }@ 5. k. l. [. *  *  *  *  1. -. -. -. >. K@ 3- 3- 3- 3- l. *  *  *  *  *  *  *  *  *  *  *  3- 3- 3- l. ;. 1. |% ;; 3- k. ;; 3- -. ). G  ",
":  #  -. ;. -. -. -. &  *  *  *  *  *  }  ;  1. -  *  *  *  ;. /. -. ;  #  ;  -. }  *  3  ;  #  -. >. n. -. >. -. -. -. -. -. he ie je ke le me ne oe pe qe A< *} re se te ue r3 ve h7 &c 1d oe we xe ye ze Db Oa 5/ Jb Ae Ae Ae `a Be Ce Yd De Ee Fe Ge _} He R( Ie Je Ke A, b, Le Me Ne Ne *e Oe >e Pe Qe Re zc Se Te Ue Ve We Xe Ye Ze `e  f .f +f @f #f $f %f &f *f h0 h0 h0 h0 =f -f ;f *f ma ma >f ,f 4e 'f )f !f ~f V{ {f ]f ^f /f Wc Wc (f :9 _f b} :f <f [f }f G  W  -. -. -. -. -. -. -. 5. l. *  }  ,. *  *  }% k. }@ K@ }% 3- l. &  &. l. l. >. 1. i+ *  k. l. l. *  *  ;. >. 1. s. s. ;. }% l. 5. i+ &  }@ l. 5. 1. ;. *  l. *  K@ *  l. 3- *  l. *  K@ k. *  *  *  5. &  ;. ;. k. l. l. l. l. k. l. l. l. *  *  3  [  &. &  *  *  *  l. l. *  l. l. l. l. K@ k. l. 5. i+ 5. $. W  ",
"P  %. -. &  ;. -. -. &  *  *  *  *  *  &  [  }  -  *  *  *  ;. ;  %. 1. -  #  ;. 1. *  [  ;  %. -. n. l. *  1. -. >. -. -. -. |f O+ 1f 2f 3f 4f 5f gc O8 I/ 6f 7f 8f 9f 0f %6 af bf cf P/ df ef ff gf hf if jf kf ;8 lf mf bc g> =d nf of `| pf *d Ae {} qf rf sf D{ tf uf %> vf Le =e wf xf Le -e yf zf 9d  c Af T) Bf Cf Df Ef Ff Gf Hf If Hf Jf Kf Lf Mf h0 Nf ld Of h0 h0 V( h0 *f Pf Qf f7 Pc Rf Sf Tf Uf Vf Wf Xf Yf -4 &} g8 b} Zf `f  g .g `6 I0 +g @g #g o8 .& ~  #  -. -. -. -. >. 1. 1. *  K@ *  k. *  K@ k. *  *  K@ K@ K@ K@ *  *  *  *  l. 5. -. &  *  l. k. *  *  *  ;. -. 1. 5. >. *  *  l. *  *  l. k. l. 1. -. ;. *  *  *  *  *  s. s. ;. 5. n. s. *  *  *  *  *  *  *  l. K@ l. *  *  *  *  k. }  *  *  *  &. &. =  *  *  *  *  *  &  *  l. *  K@ l. l. *  *  5. n. s. /. :  ",
"'  /. -. -. -. $  1. &  *  *  *  *  *  *  *  *  ,. *  *  *  ;. $  /. [  [  <  }  p. *  }  ;. ;  -. -. 5. 5. ;. =. 5. >. U# -. q$ 2. k+ $g %g &g $~ *g Y| z6 =g -g Q> ;g >g ,g G# 'g )g !g .8 ~g {g ]g ^g /g (g _g Ee Ib g> :g <g [g }g |g 1g 2g d[ *| X} 81 3g -[ 4g 15 @) 5g i/ 6g 7g 8g 9g 0g ag bg cg uf dg &b l9 If H_ eg na fg gg hg ig jg kg T( lg If h0 mg *f ma |a h0 ng [e g0 og Tf u9 pg qg rg n: sg tg ug vg wg 81 xg yg zg Wc ^f Ag e8 `6 `6 Bg Cg Dg O; K  G  /. -. -. -. y& P] >. ;. *  *  *  5. }  l. *  K@ l. l. K@ l. *  *  *  *  *  l. 5. >. 5. *  *  l. *  5. i+ k. -. &  1. n. *  5. >. >. *  l. *  *  1. 1. 5. *  *  *  *  *  1. >. n. ;. -. ;. &  K@ k. *  *  l. l. l. *  *  *  *  *  *  l. }  [  *  *  '. =  *  *  *  *  *  *  &  &  *  *  [. [. l. *  l. >. ;. -. $. ,  ",
"Eg %. -. 1. &  |  *  &  ,. ,. &  *  *  *  *  *  *  *  [  *  ,. #  <  *  *  }  &  <  &  [  #  $  $  $  -. -. -. >. 1. p. 5. >. q$ %. 1, Fg Gg Hg Ig T8 Jg Kg Lg Mg Ng `1 Og y0 _5 Pg $f Qg n9 -} Rg Sg Tg Sg Ug Sa Mb 51 Vg v< Wg |g Xg Yg g> b0 *} Zg S} `g j}  h /: .h @) T1 uc +h @h #h !b 54 `b $h %h w0 &h '[ *h 2e =h -h p6 >} ;h >h [[ J{ n4 ,h O, n} w2 Y8 'h ma *f h0 Hc )h 7b Od Od !h ma ~h {h ]h ^h /h (h _h {, R3 :h |3 <h [h }h .7 D7 m[ m[ |h 1h 2h T# C. Z  T: -. -. -. >. *  *  *  l. 5. }  -. s. l. 5. ;. K@ l. l. *  *  l. l. K@ *  l. ;. l. K@ l. l. k. *  1. -. ;. >. *  *  l. K@ *  k. >. }@ l. k. *  >. *  *  *  *  *  l. l. *  n. }% }% 1. -. &  *  *  *  *  l. *  l. k. k. l. *  *  *  *  l. *  *  *  *  l. *  *  *  *  *  *  *  *  *  k. *  *  *  *  l. |% -. -. #  C  ",
"+  %. -. 1. *  *  *  *  *  1. &  *  *  &  }  k. *  *  *  *  =  ;  #  *  *  *  *  ,. *  ;. -. -. -. -. -. 1. >. ;. >. -. s. >. -. -. #  W  3h 4h 5h 6h 7h 8h {! 9h Lg '- @e 0h _* x| ah bh ch dh eh fh gh hh ih jh kh lh 9c mh nh oh ph qh rh sh th z: uh vh k& wh 15 .h xh ~' *, xh yh ]e zh Ah ec Bh Ch 2< h0 |a !h Nd Dh _8 Bb S} W~ Eh Fh ;/ Gh ^- A; Hh x2 Ih Ih bh Jh Kh V( h0 Lh {9 J8 Mh Nh Oh Ph Bb [[ Qh Rh Sh Th Uh Q| I4 m[ Vh e8 +0 m[ m[ m[ Wh Xh Yh Zh `h z. b. -. -. -. >. *  *  *  3- }% l. ;; i+ }@ }@ ;; l. l. *  *  *  K@ l. k. }@ ;. k. l. 3- l. l. *  *  ;. 1. >. *  K@ k. 3- ;; ;; K@ >. l. K@ *  -. 1. *  *  *  *  k. K@ *  *  k. }@ }@ }@ >. *  *  *  *  *  l. *  *  *  k. l. K@ k. *  *  *  *  *  *  *  s. *  *  *  *  *  *  *  *  *  n. k. k. l. *  *  l. >. $  #  G  ",
"D  $. $  /. +  p. >. ;. &  -. &  3  7. }  ;  *  *  *  l. ;. ;  $. %. [  *  *  *  >. >. 1. $  $. -. -. 1. ;. 5. &  l. 5. -. -. n. >. 1. ,  =+  i .i +i @i B$ #i $i %i G2 q3 g= 0_ K~ &i qd k< *i /d =i -i ;i >i ,i 'i )i !i ~i {i oh ]i ,( ^i /i (i D6 _i :i I% o7 aa <i [i }i |i 1i 2i 3i 4i 5i 6i 7i 8i '[ f7 k0 9i ]5 0i ai _* i< bi ci q1 L{ _} 0[ G1 di ei qd fi gi hi ii ji g0 sg 2: {9 ki li '~ 4/ mi ni 32 oi pi qi ri si ti m[  7 e8 D7 m[  7 Vc ui vi wi xi x. ~  e.  & -. -. >. ;. >. ;. K@ }@ *  }@ ;. ;; l. yi }@ 3- l. l. *  *  K@ n. ;. ;. >. >. 5. ;. *  *  *  ;. ;. 5. i+ }% ;; 3- }@ l. l. 5. l. K@ *  -. 1. *  *  *  *  K@ 3  l. l. k. K@ *  }@ 5. l. k. *  l. l. *  l. l. l. l. K@ l. l. *  *  *  *  ;. ;. 1. 1. *  *  *  *  *  *  &  p. ;. >. *  *  *  *  *  1. -. 1. /. G  ",
"+  $. $  -. -. $  -. -. -. -. &  *  *  *  *  *  *  *  }  }  [  $  -. 1. 3  *  *  -. -.  & >. >. -. -. >. *  l. *  *  &  -. -. i+ 1. ;. ,  zi Ai Bi Ci Di Ei :& Fi Gi I% Hi Ii u: '2 A( Ji Ki Li Mi Ni D; (g Oi p6 Pi Qi Rd 9c J/ _} o= g> g> =d Ri K3 e1 Si Ti Ui Vi Wi *) Xi Yi Zi (b `i =c  j .j +j @j i0 <8 ne #j $j %j &j *j =j -j ;j >j ,j 'j `( 4< )j !j {h ld ~j +j >c {j h0 ]j ^j ]9 /j =} P4 (j _j :j <j [j [j }j |j 1j 2j (6 xd b} [9 /6 3j b} 4j 5j 6j 7j P. G  V# `% -. n. ;. 1. >. 5. K@ 5. -. l. 3- 1. l. 8j 3- 3- 3- l. *  *  k. >. -. -. >. 1. 1. >. k. [. l. *  K@ K@ 5. 1. K@ }% k. l. K@ *  k. *  *  ;. >. -. ;. &  *  [  *  *  3- s. k. ;. 3- [. }@ }@ K@ K@ l. *  K@ l. k. *  l. l. 3- l. *  *  *  -. -. -. n. l. *  *  k. *  l. K@ 5. >. -. ;. 5. *  l. *  1. 5. 5. #  G  ",
"#  -. -. -. -. -. -. -. -. -. 5. *  *  *  *  *  *  &  ,. ;. -. $  -. >. =  *  *  -. s. y& -. -. -. n. 5. *  &  *  *  5. l. ;; >. $  @  G  9j }~ 0j aj bj cj dj ej fj ## gj d^ q7 t) y: hj ij jj kj lj mj nj *i (h oj }d nc pj qj Z- b0 g> rj -( sj u: tj l_ uj .6 Vi #/ q} vj wj xj &c l9 8i 8i yj zj <8 #( Aj Bj Cj 54 5( Dj Ej Fj 0b Gj f2 Q| G; ,j _} Hj Ij md Jj Kj Lj Mj Nj )h sg Oj Pj K/ U3 Qj Rj Sj Tj <j Uj Vj )3 k[ m[ A7 B7 Wc vd Wj Xj Yj Zj b} `j  k .k +k 46 U  }% s. -. -. &  >. *  5. *  1. 1. >. 5. yi @k 3- l. *  *  3- l. 5. ;. -. -. -. ;. -. ;. 1. ;. K@ *  *  *  &  z& }@ k. [. K@ *  *  l. K@ *  -. ;. >. -. -. *  *  *  *  }@ K@ *  l. yi }@ 3- K@ *  *  l. =. l. K@ *  l. *  }@ 3- l. l. *  =  %. s. s. s. [  *  *  &  k. K@ ;. 1. -. -. -. &  [  }  *  >. 5. >. +  H  ",
"+  %. -. -. >. -. -. -. -. -. &. [  *  *  ,. &  &  }  &  *  ;. -. -. -. %. 1. >. -. 1. ;. s. 1. ;. >. >. >. >. >. s. s. 5. &  1. $  W  #k Dd $k %k &k *k =k -k ;k }! e: @8 +( >k t) a[ A| 20 Bb pe N| ,k *4 'k )k !k Yd Zd ~k {k g> g> h> Z- ]k S* ^k /k (k _k +6 #< #< :k <k [k #e }k Mf |k 8i 1k sg 2k 3k 4k C> D> ~b 5k 6k Ef Gf {9 4: t1 G; Q| Q| V} 7k f< 8k 9k 0k ii ak bk h0 ck ,| 9[ R_ dk C< Sj oi ek fk gk R_ hk 9} m[ m[ 9e Wc Wc ik jk Zf b} b} vd kk lk t= .. U  ;. -. >. s. >. 3- 3- 5. 5. l. l. ;. >. @k s2 l. k. k. l. k. }% }% [. 3- >. 5. l. 5. >. >. &  l. 5. ;. ;; }@ yi 3- 3- ;; i+ ;. 1. ;. >. 3  &. ;  5. 5. ;. 5. *  *  *  *  }@ 3- 3- 3- 6. 3- K@ 3- 3- l. l. k. *  l. K@ *  l. l. k. 3- l. ;. s. ;. ;. ;. K@ *  *  }  k. 1. 1. ;. -. -. *  *  *  *  }  1. -. >. (. 3. ",
"1  #  /. ;. z& -. -. -. -. -. 1. *  *  *  *  }  [  ,. ,. &  ;. -. -. -. -. $  -. >. &  >. ;. >. -. -. -. >. ;. ;. 5. s. >. |% ;  #  W  &+ mk nk ok pk qk rk v8 J, sk M~ tk uk m& ), (i `{  | c8 c0 6/ vk wk q_ `a xk yk Wd zk Ak Bk Ck d[ E; Dk oe Ek Fk Gk Hk H[ #/ #< Ik Xe Jk Kk 8i Lk P( $f 3e Oc Mk Nk :k Ok w0 Pk e: Qk Rk Sk ;h Tk K/ Uk Q| Q| Vk >9 Dh Wk Xk Yk Zk Gc Hc h0 `k ;(  l }j Sj .l +l @l vb Vg #l $l %l pi m[ .7 &l Wc Wc ^f vd ae ik *l =l -l xa D. 8. b. ;  -. 5. 5. >. i+ }% ;. }% 5. 3- 3- }@ ;; i+ *  l. *  }  *  >. -. >. n. 1. >. >. >. 1. 1. }@ ;; }@ }@ ge 3- 3- yi yi yi ;; l. -. -. (. U  #  #  &. *  5. *  l. *  *  K@ 3- 3- 3- }@ 3- l. *  *  k. *  l. ,. k. K@ K@ K@ l. l. l. }@ *  -. 1. 1. -. >. K@ *  =  *  &  -. -. -. -. -. *  *  *  *  5. 1. -. -. (. G  ",
"+  $. ;  *  *  -. -. -. -. -. 1. &  *  *  }  ;. 1. ;. &  *  -  ;. 1. $  -. -. -. i+ l. k. 5. -. ;. ;. -. &  -. >. -. -. -. s. %. ;  e. ;l >l ,l 'l )l !l ~l {l ]l _7 S} E_ S* Q} ^l /l V} `{ (l _l ,j :l <l [l A< }l xe |l 1l 2l 3l %d 4l Ni 5l 3e 6l 7l v0 8l 9l 0l al u0 Dj :_ Zk Jc bl 8k ]c cl 8i f6 =9 dl el fl Nd gl hl il jl kl J/ *} b0 +| Q| R3 ll ml u9 nl ol Ec pl ql h0 d1 rl hk sl sl ~| tl ul <l vl wl xl yl zl sl +0 ae Wc Wc Al Bl Cl Wc Dl El Fl hb z. b. -. -. -. y& i+ ;. *  l. *  l. k. 3- K@ }% n. ;. *  l. *  &  *  l. i+ -. >. -. 1. ;. -. -. ;. 8j yi ge ;; yi yi }% yi ge }@ K@ s2 >. p. |  |  &  1. $  >. -. *  }@ k. *  k. *  K@ }@ *  n. k. 5. ;. 5. *  *  *  *  k. *  l. l. l. l. *  5. -. -. >. -. ;. *  *  *  *  *  -. -. >. |  ;  *  *  *  3  *  1. -. $  +  0. ",
"+  /. 7. *  *  *  >. -. -. $  [  &  *  *  -. -. >. -. p. *  }  ;  ;. -. -. -. -. P] 3- 3- K@ *  5. ;. -. 1. p. -. -. >. >. -. -. %. W# )+ Gl ,l Hl Il Y0 Jl Kl Ll 3[ V~ D; F' Ml O_ !, T, H| Nl M: Ol Pl Ql Rl Sl Tl Ul Vl Wl Xl Yl Zl `l  m Ki )h .m +m r4 r} r} Ve al @m #m $m %m .j &m md Ek Mk l9 Kk 2a *m =m Ef -m ;m na >m ,m ), !, /} 'm n^  1 )m !m gc F9 ~m 8l {m g7 ]m f7 ^m /m (m A1 _m Sj :m <m [m [m }m 8} |m 1m `6 <9 `f Wc Wc 2m 3m 4m 5m 6m 7m 8m 9m e. -.  & s>  & -; `% >. i+ l. s. ;; ;. i+ 5. 5. >. s. *  *  *  *  *  ;. >. s. i+ -. ;. ;. >. 5. ;. @k yi yi 3- }@ |% >. l. 5. 5. 5. i+ 1. *  *  *  *  1. -. -. -. -  K@ *  *  *  k. *  *  *  n. l. 5. i+ l. }  *  *  *  *  *  l. }@ *  K@ *  l. s. 5. ;. -. *  *  *  *  *  *  -. -. $  5. 5. *  *  *  &  *  1. #  2  W  S. ",
"!. <  7. *  *  *  ;. p. -. #  &  *  *  *  -. -. ;. 1. ;. *  n. -. -. -. $  -. -. ;. 3- 3- K@ *  s. >. >. n. ;. -. |% }% ;. >. >. b. U  P  0m am bm cm dm em >: fm gm |[ w< hm  | qj im Gj K/ 9[ jm km lm [j mm vl nm om pm qm rm sm tm um vm wm xm ym 15 zm Am k7 Bm Cm vj v0 Dm Em Fm Gm Hm Im .m 8i F( Ej Jm Km Lf .m Lm Mm Nm Om x8 Pm Qm Rm @4 9[ A: Sm Tm Um w0 Vm Wm Xm Ym Zm `m /m  n .n Sj +n @n #n $n %n %n &n C< D7 ]f ^f Wc *n =n Wc Wc -n ;n >n ,n 'n X% -. -.  & s> 3- 3- ;; l. 5. l. l. 5. ;. >. n. l. ;. l. *  *  *  *  l. [. [. }% ;; 3- ;; 3- ;; l. 5. }@ [. l. K@ l. }@ >. -. U# -. -. >. ;. *  *  *  *  1. -. -. -. %. k. *  *  *  k. l. K@ K@ 3- ;; 3- ge 3- K@ k. l. k. *  *  l. l. l. k. *  [. ;; K@ >. i+ 5. *  *  *  *  k. >. 1. l. l. 5. *  *  *  ;  3  -. /. #  ~. 4# ",
"!. <  7. *  *  ;. >. 5. $  ;  }  -. ;. -. 5. *  &  &  *  [  >. 1. -. -. >. y& -. -. s. s. -. -. -. -. ;. 5. 1. >. ;. ;. -. 1. >. $. (. z. )n g+ .= !n ~n {n ]n Si ^n ^~ ;8 /n _} j8 h> ]a [} K/ (n _n >3 :3 :n 'k <n [n }n s9 |n sm 1n 2n 3n 4n 5n 6n h7 7n [i Cc Bm 8n 9n 0n an Em bn cn 6i cn dn en fn @f gn +f hn Em in jn o4 kn ln z' mn X6 M{ {i nn on pn qn k9 n7 rn sn tn f4 -9 @4 +7 un vn C1 wn xn &a ~a Yg yn zn An ae Wc Wc Bn Cn Wc Dn En Fn 8m Gn Hn In y& y& s> O' n. n. *7 [. *  }@ 3- K@ *  l. *  *  &  >. 5. *  *  *  k. *  *  *  3- 3- K@ k. l. l. -. 1. >. i+ i+ 5. *  *  [  }  ;. >. [  %. &  *  *  -. -. 1. >. -. [  *  *  *  &  [  *  K@ 3- [. ;; 8j yi ;; }@ *  k. l. *  *  *  *  *  *  *  *  [. 3- *  3- *  K@ *  *  *  [. 5. i+ [. 3- >. *  &  &  [  [  $  ;  <  #  K  ",
"+  <  }  *  >. >. [. -. ,. >. %. 1. -. -. *  *  *  *  *  1. >. -. -. -. >. -. -. -. s. l. >. -. -. -. -. ;. ,. 1. 5. }@ }@ >. -. /. ,  A. o. Jn ,; Kn Ln Mn Nn On Pn Qn {d Rn `{ `{ Sn Z- L{ 'j Y( 88 Tn $| Un Vn g: Li Wn Ug Xn Yn Zn `n  o .o +o @o Q9 #o Cc cd $o %o ]e &o *o :e =o Em Em -o :e ;o Kf +f >o .f ,o dn 'o 58 3= )o !o y2 O/ ~o {o ]o ^o gi /o (o e{ %c _o :o :e <o >d [o }o |o 1o ,( ,k ;2 20 _- {a o1 2o 3o jk 0e 4o 5o 6o 7o 8o 9o 0o 3# ao K< q$ -; q$ -; |, s. s2 3- l. i+ 3- 3- 3- l. 3- K@ k. 5. >. *  l. *  &  p. ;  &  *  K@ bo |% ;; ge ;; }% l. 5. 5. i+ 5. l. l. 1. 5. 5. s. K@ *  l. l. *  >. 3- ;; s. 5. *  *  *  *  *  *  l. l. l. K@ s2 ;; yi ge }@ l. }  l. l. *  l. k. &  ,. *  l. *  3- *  3- }@ }@ l. *  }@ ;. $  5. ;. s. >. &  #  #  ,. *  1. -. <  ,  _  ",
"+  <  [  ;. -. *7 ;. s. -. -. -. -. ;. 5. *  *  *  *  *. z& *  ;. ;. ;. >. 5. }% >. >. s. ;. ;. ;. ;. 1. z& &  ;. l. 5. $  -. $  $. <  #  :  P; co do eo fo go *2 ho 8[ #} io _[ P4 un jo K: g> 1g ko hm M{ h> G] ]} 3/ f! lo k< mo no oo po qo 3e Lf ro 8n [i cd $o so to uo vo wo xo yo zo Ao Bo I6 Co +f 4i Do Do ym Eo >, Fo Go i) +} Ho Io ,m Jo Ko Q/ e{ M, M, .{ Lo Mo No Oo G_  | Po mm 1g Qo ^d Ro $l So To Uo Vo Wo b} Xo Yo Zo `o  p .p +p *_ V# |f @p y& -; -; |, N' }@ ;; 3- ;; }@ }@ }@ l. K@ 3- K@ l. k. }@ K@ K@ k. 5. ;. 3  &  *  [. [. }@ 5. 3- *  l. 3- K@ l. l. l. l. l. m. l. k. *  l. *  l. K@ K@ i+ ;; @k ;; 5. k. *  &. &  *  *  l. 5. m. 3- ge yi ge ;; l. K@ ;; 3- 3- #p }@ }% ;. *  *  l. l. }@ *  K@ K@ K@ }@ *  3- k. }% }@ 3- l. *  *  5. 5. *  *  1. -. ;  V# z. ",
"!. /. 1. -. -. &  ;. >. >. -. ;. *7 [. *  *  *  =. *  *. =. *  *  *  *  &  >. >. >. -. ;. *  *  *  *  5. -. -. -. |% %. $  -. $  %. $. #  ,  Q  $p %p &p *p =p r< -p 6' -{ g! Tk ;p >p A1 <6 ,p 'p )p _} !p gk D1 n^ o= z( E] ~p 10 {p ]p k| ^p gi bn /p (p _p  c :p Te <p %o Cc [i [p }p |p 1p 2p 3p -o 4p Do lg 5p Mk 6p d< 7p H! e: 8p 9p 0p [a ap ca :b bp cp Mk K, %b dp  c ep fp gp hp ~k ip jp kp lp mp '~ X| np op b} pp qp rp sp tp up Z* 26 Y% <% vp b. -. B) |, 3- 3- 3- 3- 3- 3- 3- k. *  [. K@ K@ *  *  }% s. *  l. [. *  &  [  [  *  *  *  ;. -. K@ K@ *  l. *  l. *  *  *  *  5. *  k. l. l. *  *  *  l. }% 3- yi 8j s2 }@ l. &  *  *  }  ;. -. 1. 3- yi yi 3- 3- K@ }@ ;; }. 3- }@ K@ 5. >. ;. k. K@ *  5. *  ;. ;. *  *  k. }@ *  -. 5. }@ *  *  *  *  *  *  *  >. -. -; @p B. ",
".  <  1. >. 5. *  5. |% }% }% l. s. }  *  *  *  *  ;. ;. *  *  *  *  *  *  k. l. s. -. ;. ,. &  '. }  1. -. -. $  $  -. ;  $. $  -. #  (. ,  W  D  5# wp xp yp zp Ap %} Bp mi N|  | Cp z1 sl Dp Th Ep Fp 42 U| $| +| Gp Hp %} Ip e7 we Jp Kp Lp t9 Mp 4i Np [i %o so Op Pp so Qp !e Cc Rp Sp wj Wm Tp Up Vp Wp Xp Yp Zp `p K9 Lh  q +9 Ih H! x_ .q Vm I6 +q @q h0 ng 8i U= 9; #q $q Q/ G9 %q &q *q =q -q ;q >q  e ,q 'q D7 )q !q ~q {q ]q ^q 1# /q (q _q 1~ <% y& i+ 3- }% l. 3- ;; ge 3- 3- s2 l. K@ l. K@ 3- i+ }@ >. ;. *  l. *  l. *  *  *  *  K@ *  ;. -. k. }@ *  *  5. ;. *  *  *  *  1. *  5. *  *  *  *  *  l. -. l. ;; }. 6. }@ *  *  *  *  5. ;. -. -. l. yi yi 3- 3- l. bo ;; 3- bo bo *. 5. *  }% k. *  *  *  k. 5. |% |% l. l. l. 3- -. 5. *  k. *  *  *  *  K@ 3- 3- s. -; 2. V# ",
"<  %. 1. ;. *  1. >. |% k. }% l. 6. =. &  ;. >. ;. *  *  =. *  *  *  *. [. 6. ;; }% n. s. -. >. 1. >. >. -. -. >. 1. -. -. -. [  ;. #  U  U  W  :  :q (+ <q [q }q R3  | {, |q i> {, Gp 1q 2q sl m[ m[ b2 m[ 3q >p Uh Uh ]a i: 4q 2[ 5q k0 ]g 6q 7q &h 4i }p u3 8q 9q D> D> D> 0q  c aq Bc :o k7 bq We cq gn dq Oo eq o: fq gi gq hq iq $( jq f( Vi kq gn lq Kh B3 Gc mq nq oq pq <p v0 qq rq sq tq uq _d vq t7  _  l wq +0 xq yq zq Aq Bq Cq Dq p5 <% -. >. Y.  & |, 3- N' :| 3- K@ K@ K@ *  [. 3- K@ *  l. }@ n. }@ 5. -. 5. *  *  k. l. k. *  *  *  *  ;. ;  5. l. *  *  l. l. l. l. *  &  }  l. k. l. *  K@ l. l. l. k. }@ 3- 3- 3- K@ *  *  *  l. l. ;. -. -. }@ yi }. 8j bo K@ 3- 3- 3- ;; bo ;; ;; |% [. K@ i+ 1. >. l. m. #p Bd 3- l. l. 3- l. *  l. l. 3- 3- 3- 3- 3- 3- 3- }% }% 1. U  ",
"!. %. 1. ;. &  1. l. 1. 5. ;. 5. *. 1. >. ;. ;. &  *  *  *  *  [. =. [. *  }@ ;; l. [. l. 1. ;. >. -. -. -. -. -. -. -. -. -. -. ;  U  U  (. #  ,  ]. Eq Z# Fq Gq Hq Iq Rh Jq :} Z- K: ri >p Kq m[ m[ m[ m[ A7 Lq ,( Mq e2 p_ Wn 20 Nq Oq =f Pq Mh &h Qq Ui Rq Sq ~' E> D> D> E> M9 so _p Tq %o ^e (p Uq ro Vq Wq Kc Xq Yq Zq 8p `q kg  r .r `5 &: +r ro @r #r $r V( B3 %r D* &r *r =r -r A0 ;r >r ,r 'r jp )r =d R_ !r ~r {r ]r ^r /r (r n! W. B. O] 1. -. :| y& 3- N' N' Q; |, 5. *  l. *  k. l. 3- l. *  s. ;. ;. >. i+ *  *  *  *  l. K@ k. 3- 3- ;. 1. b. &  *  *  *  *  *  *  *  *  *  k. K@ K@ }@ *  l. l. 3- K@ *  *  l. 3- 3- l. *  *  *  l. }@ }@ 5. |% }@ yi @k 8j }. 3- 3- 3- 3- ;; 3- K@ i+ n. >. s. $  s. i+ 5. }% }@ bo 3- }@ k. 3- l. *  K@ K@ 3- 3- 3- 3- bo 3- 3- 3- *  %. :  ",
"!. ;  -. -. >. >. ;. ;. *  5. 5. *. 1. $  >. >. *  *  *  *  *  *  [. 5. m. l. l. >. 5. l. l. s. -. -. -. $  1. -. ;. 5. *  >. -. $  -. U# -. ;  #  +  W  _r :r <r [r }r |r )p 1r ^i 2r 3r Uh 4r m[ m[ D7 <c b2 ri 5r Uh h> g: 6r 4q 7r 8r 9r 0r ar Mf Do v0 br cr &) dr er fr fr <p :p $o gr %o ]e j7 We 3i _b $m @q hr F{ ir jr !1 kr K, H6 lr &: mr nr or pr h0 B3 Hc bp Eo Y< qr rr @r sr tr !h ur vr wr Zd 4l xr yr zr Ar Br Cr fe Dr S+ V  ,  -. >. P]  &  & y& -; -; s> O' s. k. l. k. l. *  *  &  *  &  >. -. 1. l. *  *  *  *  *  *  5. 5. 5. 1. /. #  %. [  &  *  *  *  ,. *  &  &  l. *  K@ 3- }@ *  [. l. *  *  [  ,. K@ K@ K@ }@ }@ l. }@ }@ l. }@ ;; 3- 8j @k @k 3- 3- 3- 3- 3- 3- l. ;. -. >. -. ;; 1. s. }@ |% 5. l. }@ K@ 3- k. 3- l. l. *  *  }@ K@ K@ K@ K@ k. 5. *  *  %. ,  ",
"+  /. $  y& }@ *  *  *  ,. -. &  =. 1. -. *  *  k. K@ K@ *  *  *  *  >. q$ i+ }@ *  ;. ;. >. n. -. -. -. -. p. }  *  *  *  &  1. -. `% 3- U# -. -. %. %. W. +k Er Fr Gr Hr Ir ,j >j Th C1 un Jr b2 +0 Kr b} `6 Lr ^i 62 ,q h: `} .8 gc ^j Mr Nr Or &b .q Pr .6 Qr A, r0 64 64 8q ~e :p Te 8q [i ~e [i Am #/ #/ Rr Bh Sr R{ P/ Tr e{ Ur &c Ao Vr (p Wr Xr Yr Zr h0 `r Kc 8i (7  s .s +s @s #s $s sg i0 %s ih &s pe <n Z( V3 *s =s -s ;s ~  &1 D. -. -. y& -. -. y& -.  & -. >. y& Q; |, 3- K@ K@ *  *  *  *  -. -. U# >. >. *  -  1. [  -  [  ;. >. 1. -. $  $  $  $  ,. *  *  *  *  *  *  &  *. *  }@ ;; ;; s. ;; }@ k. *  *  *  l. l. l. 3- 3- K@ [. 5. ;. [. K@ ;; }. 8j }. ;; 3- 3- 3- 3- 3- K@ k. ;. >. 1. yi $  U# l. |% ;. 1. l. l. k. *  l. l. l. l. k. l. *  *  *  *  *  [  s. >. %. 2  ",
"/. -. >. -; 3- *  *  *  *  ;. >. -. ;. *. l. *  l. 3- 3- >. ;. 5. -. k. |, -; i+ >. ;. 5. 1. 1. 1. -. >. -. -. 1. *  *  *  *  >. -. -. -. -. -. -. -. -. /. x  3. f  Fr >s ,s 's )s G; Fp ;p !s A1 +0 ~s ik {s :6 Q| ]s mm ]a ^s /k l9 /s Kk n0 (s s; _s +6 vj :s <s A, r0 _p [i <p M9 cd Ac $o [s Qp }s |s #/ #/ #/ 1s M6 Dj D* Bh uj Vr 2s j7 2s Xe 3s 4s 5s 6s 7s mq 8s 9s 0s as bs cs 1k ds es h0 Lh fs gs k: D; 2/ n1 hs is js ks D  <  (. -. q$ s> y& -. -. -. -. -. -. >. s> s> O' s> *  *  *  *  *  ;. 1. ;. l. i+ 1. ,  <  #  U  #  /. $. $. #  #  <  #  -. -. n. K@ K@ *  *  *  *  l. l. l. i+ ;. k. K@ [. ,. *  *  l. 3- 3- 3- }@ }@ 3- bo 8j 5. l. ;; ;; @k 8j }. ;; ;; 3- 3- 3- 6. }. 8j yi }@ i+ 3- -. $  s. ,. 5. 5. *  *  *  k. l. *  K@ k. l. K@ l. *  *  *  *  5. >. -. $  1  ",
"-. -. -. >. >. 5. ;. ;. ;. 1. >. ;. =. *. *. l. 5. k. K@ 5. ;. *  5. 5. }% i+ >. 1. -. >. n. 1. ;. >. >. >. 5. 5. *  *  *  >. 1. -. -. -. -. -. -. -. -. -. V# O  y. ls ms ns os ps qs rs Z- b0 |o b2 ss ik b} bb ts us vs fk ws xs =9 ys vj zs zh R) 9> $c a| As <s Bs <s A, _p [i dr Cc Sq %o [i Bm Bm Am Cm Cs Ds Es <k Fs Gs 0n Hs [p Vr Vr Is 3p Js Ks Ls h0 Ms =m 8i Ns :b Os Ps Qs Rs Ss Mh |a Ts Lh 2: ^n Qn Us _} Vs Ws Xs w. .. U  Ys -. -; s>  & -. -. -. -. 1. 1. &  i+ }% l. }% >. >. *  ;. *  *  &  5. &  %. #  <  #  U  ,  <  #  $  -. $  <  +  <  $. -. -. 1. >. >. [  [  *  K@ 3- 3- 3- yi @k ;; |% 3- K@ ;. 5. 3- ;; *1 ;  }@ 3- }@ l. |% }@ yi 3- }. ;; 3- 3- ;; bo 3- 6. bo 6. 6. 8j 3- ;; ;; yi @k ge 5. l. 1. *  *  *  *  *  ;. 5. ;. ;. >. l. *  *  *  *  ;. -. -. %. +  ",
"-. %. 1. *  ;. -. -. -. 1. ;. >. 1. -. 5. 5. 5. ;. l. K@ }% i+ }@ 3- }@ l. >. -. ;. -. -. -. -. -. -. -. 1. *  *  *  5. 5. >. ;. -. -. ;  -. -. -. -. -. -. -. b. =; Zs `s  t .t +t @t E1 G] g> #t $t %t &t xd [9 *t =t -t ;t x( ki >t ,t 't <k G[ 2{ /_ )t ^_ Yb o* o* <s #) i( }i cr !t Pp [i ~t #/ #/ Cm {t ]t ~t ^t /t (e 2s Vr 2s k7 Vr (t _t :t <t [t }t Ms |t 1t @f Os 2t :e 3p 3t Wk 6e qd Tf H_ 4t Ih {9 &2 T} %4 $0 5t 6t 7t X% U  G. 8. -; s> q$ -. -. -. -. n. 5. *  *  *  l. l. 1. -. -. 1. *  *  *  *  *  /. }  p. %. #  |  ;  $. $. -. $  F  :  ~. ,  V# p$ <% +' F. (. ,  #  i+ K@ K@ K@ 3- }@ 3- ;. k. *  >. 5. l. k. |% ;; ge ;; 3- }@ }@ ;; @k 3- 3- 3- 3- 3- *1 }@ K@ 3- 3- 3- bo 8j Bd Bd 6. @k yi yi bo -. 5. K@ *  *  5. ;. -. -. -. -. 1. &  &. 5. *  }  -. -. $  ;  ,  ",
"5. 5. |% *  *  &  1. 1. ;. 1. ;. 1. >. *  l. }% *  }% l. k. 5. ;. l. n. i+ 1. 1. 1. 1. >. >. 1. &  >. *  ,. *  5. 5. &  >. s. >. -. -. -. -. -. -. -. -. -. -. -. $. +  9. k+  + R0 8t 9t K: g> K: 0t at bt C7 ct dt rs et Sh ft mp G9 A] h~ D* _s 9> h% F* m* (= ^_ .6 gt Wb :s ht it jt :s Vi kt lt vj <k q} 74 Es ^t mt ~t nt 8n 2s 2s Wm ot pt qt rt st }t tt ut Bo hn an vt Do /p wt *m xt yt zt a^ At 2k Bt Ct 4: Dt Et <q xi Ft ib u^ Gt p$ :| |, |, -. -. >. -; 5. &. *  *  5. 5. n. -. -. -. 1. *  *  *  5. 7. ;  &  *  }  7. 1. -. -. $. -. -. &1 5  :  ~  D. G. ^+ E. A& 9. .. 1  $  5. *  5. s. s. 5. |% l. k. 5. |% *  [. [. l. 5. ;. s. ;. [. }@ }@ *  k. 5. k. N' `% }% l. 3- K@ l. 5. 5. i+ }% ;; 8j 3- s. ;. *  *  &. }  5. }  ;  %. -. -. [  [  >  ;  %. 4  #  #  %. %. /. ,  ",
"5. *  *  *  *  *  *  &  y& *  *  *  *  l. q$ i+ *  K@ l. *  5. ;. ;. -. &  *  *  *  *  ;. >. ;. >. *  l. *  *  >. -. ;. -. >. -. -. >. -. -; y& -. -. -. -. -. -. /. <  <  Eg 6  1@ Ht It Rm K: g> Q_ 32 Jt Kt `9 Lt >( Mt >( wl hj gm O/ Nt 1= z_ Ot Pt B% )& '& d| $/ Qt vj Rt St Tt Ut 8l Vt Z7 Wt n7 ot Xt Yt i7 Uq 2s Bm Zt 2s Vr Vr `t  u Hi Kk .u +u h0 @u #u Up /p 3i ap $u %u &u cf *u =u .8 h= +} 01 k} M( -u ;u >u ,u 'u w& Y%  & -. -. |, Q; Q; l. |% i+ *  *  =  *  }@ ;. U# -. -. -. -. %. 1. s. K@ -. -. -. ;  &  =  [  $. $  -.  & >. `% )u !u ~u {u ]u ]u ^u /u (u _u :u D. +  %. &  5. -. >. l. n. l. 5. -. *  *  &  &  5. >. -. =  *  *  *  *  ;. ;  -. y& 69 s> }% l. *  *  K@ s. -. -. y& `% l. }@ ;. *  *  l. &  %. -. -. [  1. -. ;  -  1. >  %. %. (. (. ;  -. <  #  D  ",
"-. -. 5. *. 6. *  *  5. |% *  *  *  *  K@ s> P] &  l. K@ l. l. *  ;. ;. 5. *  *  *  *  ;. s. }% s. *  *  *  *  l. s. ;. -. -. ;. 1. ;. n. n. y& -. -. -. -. -. -. -. %. <  !. :  7+ <u [u }u |u g> g> K: 1u +l 2u 3u o1 wn  | Nq 4u 5u ~< 2k 6u 7u 8u V! 4= C~ '& F* 9u 0u au Pb 2{ bu N6 cu 15  u 15 15 ca 15 Xt Ve du eu fu Vr Vr gu hu Eo lg P( If iu ju ku lu mu nu ou pu Is qu ru mt :b su tu uu h^ >: d& vu c_ wu xu yu zu Au Bu Cu K< <% J@ -. `% l. ;. -. 1. *  *  &  '. ;. 1. l. -. -. -. -. -. -. 1. 5. }% >. 1. 5. *  *  *  }  >. s. :| s> Du U. Eu Fu Gu Hu Iu Ju Ku Lu Mu Nu Ou [@ <  %. $  $  z& >. *  5. ;. >. &  R+ ;  ;. ;. 1. >. [. =  &  *  k. ;. /. /. -. s. k. ;. m. '. ;. ;. -. -. -. -. -. 1. ;. >. *  *  }@ l. -. -. >. z& [  $  1. *  R+ 2. 4  ;  ;  #  ;  $  %. <  W  ",
">. ;. 5. 5. =. }@ l. }% }% l. }@ ;. K@ }@ y& 5. *  *  k. *  &  >. p. -. 1. 5. 5. l. >. ;. ;. ;. &  l. l. *  5. ;. ;. >. s. ;. i+ l. |% s2 i+ >. -. -. $  ;  -. -. ;  /. ,  D  ^. 7+ Pu Qu Ru 1r g> g> g> rh Su 42 v1 Tu M: (} Uu g= K, Vu (_ g& m' Wu Xu T= J* T= -* Yu 9> 9> I( k9 H, Zu `u &c @f ca /b  v 15 /7 Vi du Am Vr (p .v +v @v #v D{ $v %v [e &v #v *v =v -v ;v >v ,v [s  c 'v =9 )v !v Dk ~v u# {v ]v d_ ^v /v (v d} _v :v >. y& y& -. 1. ;. >. 1. ;. 5. *  *  5. >. l. }  ,. ;. ;. ;. }  1. 1. |  ;. &  m. ;  &  *  *  *  ,. ;. ;. 3- |, s> <v [v }v |v 1v 2v 3v 4v 3v 5v 6v 7v 8v $. %. /. -. #  }  k. &  &. ;. &. %. -  *  }  5. ;. }  <  ;  >. >.  & -. $  -. 5. *  l. l. *  [  $. $. $. $. $. $. ;. ;. 5. *  *  *  5. ;  /. -. 1. $  -. [  *  *  *  &  #  <  #  ;  $  ;  <  ~. ",
"-. &  =. =. *  9v }@ }% >. >. >. s. >. 5. 1. *  *  *  =  *  ;. >. -. -. 1. >. U# -. i+ *  *  *  *  }  ;  ;. 5. K@ ;; 9v 3- -. 5. k. >. >. ;. }@ n. -. ;  #  -. -. $. #  ,  x  P  N. 0v av bv :l 1g ~k cv dv ek Uh $| ev =t @4 ![ fv t# R2 gv hv bu 44 ,: iv oq jv M} J( #9 D* e( %h kv ): lv |< mv nv H, Eo tf ot ov j7 j7 (p Ve pv qv rv V( H_ Mk 4g f7 <e sv 2i tv Rp .c :p uv vv vv wv xv =[ yv zv @~ d& }) }0 Av Bv Cv (v Dv Ev [% s> y& Fv U  i+ l. >. >. 5. *  *  5. ;. -. -. n. l. 3- *  *  ,. &. &. =  *  *  &. *  ,. *  k. *  *  *  l. }@ Q; <% U. Gv Hv Iv Jv Kv Lv Mv Nv 3v Ov Pv `  ). $. %. /. $. [  [  &. *  ;  %. &  ,. *  3  l. *  ;. <  <  #  $. -. -. -. -. *  *  *  *  *  $  <  #  <  $. <  ;  3  *  *  *  5. 5. i+ ;. %. $  %. -. ;  [  1. &  *  |  &  <  -. -. -. -. (. ~. ",
"-. &  >. 1. *  *  *  l. >. p. 5. -. ;; ;. l. *  *  *. *  *  5. -. -. -. -. ;; 3- }% >. ;. k. k. *  *  ;. 5. i+ *  >. s. l. -. 5. ;. >. l. |% s. -. -. %. ;  -. -. b. %. #  B. G  Qv Rv Sv Tv D1 jp 2n 2n `n Uv 2r Q| >6 |3 rl W} uh Vv E[ Wv ca 3a r4 Pr r4 oq Xv ;5 D* ,t Yv $5 Zv `v  w .w H, +w nv H, Bh  u _< (p Vr Ve #/ @w #w $w %w Xq cp 2a 9^ &w *w =w -w ;w >w wt qv ,w 'w )w !w r3 N~ ~w g< {w d& b& ]w ^w /w (w _w :w Zc 3c s> >.  & y& 3- }@ *  *  *  K@ }@ l. l. ;; 5. }% ;; }@ *  *  ,. %. *  *  =  *  *  -  #  ,. l. *  *  *  *  }% 3- y& <w [w }w Mv Mv Mv Mv |w Mv Mv 1w 2w S. ,  <  $  -. 1. *  ,. &. &. *  ,. *  *  *  -  *  *  $  <  #  <  <  -. -. -. -. *  *  *  &  *  ;  (. (. -. -. #  1. *  *  *  *  ;. &  >. >. -. -. %. %. $. 2  x  4  %. ;  1. 5. -. -. -. -. #  x  ",
";. 5. ;. >. *  -. ;. 5. 5. i+ }@ =. 6. *  *  *  *  *  *  *  5. >. -. -. >. s. -. >. -. >. n. -. 5. n. ;. *  l. *  *  5. s. s2 }@ ;. -. >. -. -. -. -. $  /. -. -. -. %. $. +  :  3w 4w 5w 6w &| 7w Nb Fe 8w 2g 9w P4 0w aw bw cw dw 7' ew v' Q9 fw +f gw hw $5 G, iw jw kw w0 Bh iw tf lw mw +w a4 H, 38 hw ro (p Vr r} #/ #/ nw Ff 7s 'f 0r U^ ow Io ma pw qw rw sw tw uw vw <t ww xw yw zw +e D] hm Aw o& }0 Bw Cw Dw Ew Fw Gw Hw Z% y& -. -. y& 3- 3- l. K@ *  3- k. [. K@ *  }  &  k. k. >. -. 1. >. *  *  -  *  *  5. -. l. ;; 5. -. -. s. l. K@ 2. <w Iw Jw Mv Kw Lv Mv Lw Mw Nw Ow Pw Qw {. h+ b. -. -. -. -. $. _. *  1. %. *  *  -  [  [  $. <  <  <  <  %. -. ;  -. K@ *  *  [  }  7. }  ;.  & -. -. -. -. -. -. -. -. -. -. -. -. $  (. (. <  +  ,  (. 46 ,  #  ;  -. 1. -. -.  & A) ",
"-. 5. ;. :| 5. &  ;. 5. }@ }@ 3- K@ [. [. *  *  *  *  *  *  ;. ;. -. -. -. -. 1. s. l. ;. |% ;. }@ }@ 5. *  *  *  *  5. -. -. i+ ;. >. U# >. k. 5. >. -. %. /. %.  & -. #  ,  D  Rw Sw Tw Uw q1 `| `a Vw *d nf sh 9[ Ww Xw Yw p6 w9 `0 g3 Zw 48 N} `w  x n7  f Hs zm .x iw Q9 +x $5 Vq @x #x 38 H, nv hv `5 :< $x (p Vi Wt %x &x *x d^ =x kr M, >* E5 pa -x ;x >x ,x 'x Uf G6 )x 6b kd !x >/ ~x X~ _} (0 Ct Bw {x ]x ^x /x (x Gw _x :x q$ -. -. `% 3- 3- K@ K@ 3- }@ ;; #p *  *  ;. 5. 5. ;. >. -. -. 1. *  *  =  *  *   & >. n. |% }@ l. ;. >. }@ `% V# <x [x }x |x 1x Kw Mv 2x 3x 4x 5x 6x 2# x  V. ^+ p$ b. -. -. -. &  *  *  *  *  *  }  ;. %. (. #  <  (. (. #  #  #  %. i+ ;. &. %. 5. 5. l. 5. -. -. -. %. -. -. y& -. $  -. -. -. %. /. %. [  @  ~. W  W  #  <  %. >. -. ;. -. -.  & J@ ",
"5. *  5. i+ k. *  *  =. *. ;. |% *. [. 6. *. *  *  *  *  *  5. -. -. -. $  ;  s. 3- 3- |% 3- >. -. -. 1. ;. ;. ;. ;. ;. ;. 1. n. i+ }@ yi ;; l. *  ;. -. -. n. `% y& -. e. z. G  2% 7x 8x 9x g> 0x Hb ax bx cx @7 t1 V, 33 dx ex Ha fx ym  v Dj gx D* hx Kf 0n ix jx jw Vq kx lx mx @v nx Wv T2 38 k9 15 15 ve ox ix ro N} px qx H_ rx T{ a^ Vu |) .~ _8 s) $a B; R} o9 Ab ds sx ]5 08 tx K3 cw Bp _[ ux vx wx xx yx zx Ax Bx Cx Dx  & >. %. >. -; 3- i+ k. 3- }@ }% ;; 3- l. k. &  &  5. l. >. -. >. i+ l. i+ i+ i+ ;. -. ;. 3- ;; yi 3- 5. ;. }% P] Ex Fx Gx Hx Ix Jx Kx Lx Mx Nx Ox Px Qx M] 9. S+ h+ $. V#  & $  $  &  *  *  *  ;. ;. >. ;  ;. *  1. ;  -. ao .' Rx y& Sx Tx U  Ux U  (. U# s. >. -. $  /. $  ,  (. Gt W# V# ~. ,  ,  +  [@ @p =; ~. W  ~  W  <  <  $. -. 1. ;. &  1. b. G. ",
"*  }@ }@ K@ l. *  *  *  *  1. ;. 5. =. |. *. =. *  *  *  [. }@ |% ;. -.  & $  s. s2 ;; i+ ;. -. -. -. -. -. ;. -. -. -. -. -. -. i+ #p yi ge }@ s. ;. 1. `% q$ -. -. -. /. B. G  Rw Vx Wx Xx Yx b0 g> Xg Zx bc p1 D1 G] {a `x  y M_ .y +y (b @y <k &9 Dj Cf Gs #y $y #m `7 %y &y *y =y $m -y ;y nq 38 hv  u Vq  u I6 o7 Fo >y Xq ,y bh 'y )y !y ~y v} {y I/ 61  | =} ]y Z- J/ -} il ^y /y ,} *( o= (y _y :y <y `{ `- [y U_ }y |y 1y v^ -. 8. -. q$ n. -. s. yi }@ i+ 5. *  l. l. 3- 3- 3- l. 1. -. -. n. i+ |, Q; :| i+ >. >. l. }@ 8j K@ *  *  }@ 3- F. n! 2y 3y 4y 5y 6y 7y 8y Ox 9y 0y ay by 9. ~  ,  (. F. p$ z. V# 2. 1. -. >. -. -. -. %. ;. 5. ;  #  >. J@ R] cy dy ey fy gy hy iy jy J@ b. b. Y. %. <  ,  .  :  iy I@ ky 3c .' ly W  ~  D. *; f. D  W  U  #  /. #  ;  5. *  *  %. ~. y. ",
"l. ;. ;. K@ }@ *  *  *  *  -. >. =. *  *. 6. [. *  =. *  *  l. 5. $  -. /. p. n. -. >. i+ }% -. -. n. >. -. 1. -. -. -. -. -. -. ;. yi yi yi ;; 3- 3- K@ P] |% i+ >. -. -. b. ,  p8 my ny G; =t 9w g> g> g> g> oy h> py qy ry Ga sy ty uy kv 15 't vy X7 wy hn xy yy zy Ay lq By Cy Dy Ey .m Fy nx 38 k9 Dm tf Gy $5 G, 2a Hy F{ *% y2  [ 27 Iy Jy Ky r, J{ 5/ 3/ J/ Ly ^i G; Lt Ap My Ny th ;( Pj Us Oy Py zp oh 12 Qy Ry Sy Ty Uy N] 2. -. -. `% |% n. l. bo |% 5. k. 5. 5. K@ 3- K@ l. l. >. #p ;; 3- 3- |, 3- }% y& -. -. s. ;; bo l. *  *  }@ 3- 8. Y_ Vy Wy 8y 8y 8y 8y 8y 8y Xy Yy Zy `y  z .z +z )4 @z &; #z G. b. ;. l. i+ -. -. -. -. ;. %. -. /. #  Z  $z %z &z *z =z -z ;z >z ,z 'z 69 T: $  <  <  <  he )z !z ~z {z {z ]z ^z /z (z _z A& _  W  W  U  e. $  %. $  1. [  -  +  W  H  ",
"-. n. >. ;; >. ;. 1. 1. >. l. }@ yi }@ s. }@ }@ l. ;. *  *  ;. -. >. -. -. $  -. -. -. 1. ;. >. U# >. -. -. -. s. -. >. s> s> Q; 3- N' 3- 3- l. :| s> s> |, |, `% >. $. #  U  {. :z <z [z }z P4 g> rh R_ g> |z |z b0 q1 xn 1z 2z 2[ 2[ iq Or $< 3z 4z a! 5z M} 6z 7z 8z 9z 0z az bz cz da dz &y ez 38 $m @f fz hw 38 6] gz O~ *~ !1 hz iz jz kz !t Af lz jn $a _h E] Q8 oh +| >j gk _} Eh E] mz Ab g! 4/ nz bw @7 oz /6 pz qz ms rz sz /. -. -. >. |, y& `% l. 5. ;. *  *  3- 3- 3- 3- K@ k. l. }% K@ K@ }@ l. k. l. l. >. -. ;. l. }@ 3- 3- Q; N' 3- 8. 1* tz uz 8y 8y 8y 8y 8y 8y vz wz xz yz zz Az Bz Cz Dz Ez Fz U  :| *  *  5. *  *  1. -. -. $. #  <  ,  Y_ Gz Hz Iz Jz Kz Lz |v Mz Nz Oz |f 2. %. /. Y. 1~ Zs Pz Qz Rz Sz Tz Uz Vz Wz Xz Yz K  K  U. V  V  V  +  #  #  <  <  <  ,  U  G  ",
">. ;. $  %. -. -. ;. &  >. }@ }@ 5. -. -. ;. ;. l. m. K@ K@ }% >. $. ;  -. %. $  -. -. -. -. -. -. -. -. 1. 1. |% 1. >. s> s> |, |, Q; ;; 3- }@ y& -; Q; N' s>  &  & %. U  D. D  C) }# Zz `z %q mj rj  A b0 H| (} .A  _ xn +A oe fi @A #A $A K- %A h~ xv c( t' &A  a *A Ay =A -A ;A <b Im >A ,A 'A +w )A k9 38 2d s; '< hz M, (o h~ x5 B, kz M9 #) 3d !A }= O~ ~A 3[ ;2 im ,q >j =t =d oh V{ {A ]A h[ w< Y- Q, ni ^A /6 /A (A ]q _A :A [@ -. -. -. q$ -. O' 3- }% 1. }  l. k. 3- 3- 3- l. l. p. 1. l. [. l. K@ *  *  }  p. ;. l. }@ }@ 3- 3- Q; N' K@ ,  D. <A [A 8y 8y }A |A 8y Xy 1A 2A 3A 4A 5A 5A 5A 6A 4A 7A 8A 9A }% K@ K@ }@ l. ,. 1. -. -. ;  $  e. ,  0A aA bA |A 9y cA dA eA fA gA hA .' +' Y. +' p$ iA jA kA lA mA nA oA pA oA qA rA sA K  P  K  S. _  9. ,  ,  ,  +  ,  ~. ,  W  C) ",
"1. &  l. }@ >. 5. 5. l. -. -. -. -. -. -. ;. i+ [. 5. i+ i+ >. /. %. -. %. $  ;  1. >. -. -. -. -. >. -. >. -. l. &  n. P] P] 3- Q; }% l. i+ l. y& y& y& -; y& -. -. b. V# .. D  k+ tA uA vA wA xA yA <l oh Eh  | I| *4 |q zA AA BA Ek CA DA EA c~ __ Zu e{ Yv FA F[ GA gu HA IA JA <b KA x3 ez mv H( H, H, 14 6] M, M, K, M, LA 4k MA NA d, i( #< C/ I* v( OA r: 0h %} PA H| d2 QA RA h> 1^ SA TA h[ Za UA gk #| VA WA XA YA ZA `A T0 36 e. -. -. y& -. `% i+ [  $. 7. k. *  K@ 3- 3- s. }@ i+ l. }@ }% 3- l. *  *  *  }  1. [. K@ 3- K@ 3- Q; 3- }% 8. W.  B .B 8y 8y |A +B }A 4x @B #B 5A 5A 5A $B %B &B 5A *B =B -B X% >. i+ Q; }@ l. 1. $  /. (. b. 8. ,  H@ ;B >B ,B ,B 9y 'B Nv )B !B ~B V  2* -.  & T: u^ {B ]B ^B /B /B /B /B /B (B _B :B t. P  D. z. D. ~  _  {. D  D  D  D  _  _  O  ",
"-. 5. *  5. -. >. $. >. %. -. >. -. -. -. >. 5. p. p. -. >. s. -. -. %. %. $  n. -. ;. l. -. -. -. >. -. -. U# ;; ;; }@ l. *  9v i+ ;. s.  & B) >. y& -. >. -. -. $  b. E. B. G  :@ <B [B }B |B bc 1B 2B {} q_ 3B d[ Kd 4B 5B Y8 |a )h pn 6B 7B `w .{ Dj a~ J( 8B 9B (b 0B aB bB az cB Df 8s dB a4 nv eB *x fB U^ M, M, X) gB hB h' iB jB kB *) (: lB $< 15 38 14 mB nB oB Ap pB qB rB sB Yw tB uB S, s1 vB v1 wB 4r An xB yB zB u= AB S0 ,  p. s. >. -. y& P] &  ;  #  *  *  *  l. 3- >. s2 -. s. 5. >. }% *  *  *  *  *  *  *  3- l. *  K@ 3- 3- 3- (. H  BB CB 8y 8y DB Xy Xy EB FB GB $B HB 5A IB JB &B IB KB LB MB V# /.  & O' Q; ;. $  +  G     D. B. c3 X# NB OB PB OB QB RB SB eA TB UB ~. h+ y& >. VB WB Dq XB YB ZB mA /B `B  C ZB .C +C t. t. K  O  D  D  D  D  D  D  D  1  ,  1  K  ",
";. *  5. l. >. ;  ;  -. >. 1. $  -. -. -. 5. |% -. U# -. n. -. 1. 1. 5. >. -. ;  /. 1. ;; 1. -. -. -. -. -. -. 5. ge ;; 3- i+ 5. s. 1. y& y& -. -. -. -. -. -. -. b. 2* X. ^+ ;l @C #C $C %C [} wb &C *C i> D; ;2 =C Kd -C ;C qd |b l0 *f T( >C ,C y_ 'C m' )C !C ~C $u {C 7l ]C ^C #w /C 8s (C Kk &b If _C 2a Y5 :C  a [< <C (1 D> @^ `] j3 N^ D5 G! $< [C }C 48 |C 5p 1C fv 2C 3C m[ .4 4C 5C 6C e> 7C :j Q| Qj b2 {| 8C 9C 0C aC r5 iy #  -. >. >. -. Q; }@ *  &  ,. *  *  *  -. -. $  i+ 1. -. -. ;. ;. *  *  *  *  *  k. &  k. l. l. }@ 3- 3- l. 8. :  bC cC 8y 8y 8y 8y 8y EB }A dC 5A 5A 5A eC fC gC &B KB hC iC A. #  y& q$  & ;  $. :  H  T. c3 1* jC jA kC lC mC nC oC pC qC Kv rC sC :  W# tC T: 69 p$ 1* uC vC wC xC /B /B /B yC zC AC BC S. K  K  H  O  ~  G  D  D  ~. U  W  D  K  ",
"-. 1. ;. ;. -. %. -. 5. *  1. -. s. i+ >. -. >. $  -. -. U# i+ 5. 1. n. >. -. $  -. $  #p ;. -. -. -. -. -. -. ;. i+ s. yi }@ *  }% i+ |, -; -. -. -. T: b. F. /. F. V# X. V. CC DC EC FC GC *} vl HC IC i> D' w< JC [} KC a[ LC MC l0 7b NC en  a R1 xs 5! K* OC PC f6 QC RC pt SC TC UC VC =m WC Ms h0 h0 XC B3 Hc YC ZC `C  D .D +D C> d| $5 px :_ @D #D M} $D %D 4z W< +e &D *D m[ m[ =D -D ;D v6 I| >D ,D 'D /6 )D !D ~D {D ]D ^D 36 $   & `% l. }% l. K@ }@ 5. p. 1. $  %. $  -. 5. s2 `% -; }% K@ *  *  *  l. *  }% l. n. -; Q; 3- 3- 3- 3- 3- 1. ,  /D (D 8y Xy Ox Ox 8y }A EB _D $B HB 5A :D fC <D JB [D }D |D h+ b. -. -. -. <  <  B. A. S+ K  O  T. 1D 2D 3D 4D Ox Xy 5D 6D 7D 8D 9D {. p$ T:  & Du J< 0D aD bD cD dD eD ZB /B fD zC gD b3 T. T. Fx <v i. H  K  G  W  {. D  D  Z  `  ",
"-. -. -. $  -. ;  1. *  ,. l. K@ 5. >. ;. -. -. -. -. -. -. >. >. -. 1. 5. -. >. s. ;. 3- 5. |% ;. -. -. -. -. -. ;. >. l. 5. 5. -; -; s> y& -. -. -. -. -. O] -. b. #  A. ^( hD iD jD kD lD mD *C |z th =( .b D6 nD oD d[ pD h[ qD ]c rD  8 Yq sD &< 5| e( U^ tD Z5 uD vD wD xD yD zD AD BD CD DD ED }t h0 =f %f %f U( it q} @y N9 FD GD .{  h HD ID JD K( c] KD LD 4z M- |/ S8 MD sl ND OD PD QD Ij 95 RD SD hk 0} TD UD VD WD 03 XD V# -. -. y& }% ;. YD h. #  #  ;  /. <  <  <  /. ;  >. -. U# l. l. *  *  *  }  k. -. n. s. Q; N' 3- 3- 3- 3- 3- ;. .. ZD `D 8y Xy  E  E 4x Ox .E +E &B %B $B eC @E @E JB #E $E |D 36 +' -. $  ;  #  W  V  ^+ Z  Z  %E &E *E =E -E 8y +B |A 8y ;E >E ,E 'E )E F. W# p$ Y% [% I@ !E ~E {E ]E ]E /B /B ^E /E (E Er o8 _E :E <E [E }E 3. K  H  _  D  :  V. Qw ",
"-. n. }% l. -. -. -. *  l. k. 3- i+ -. -. -. -. ;  %. -. -. -. -. >. ;. l. 5. 9v s. ;. >. 1. k. }% >. -. $   & >. n. y& |% i+ i+ s> s> s> -; -. -. >. -. -. -. -. b. [@ :  |E 1E 2E 3E 4E 5E 6E (} Z- 7E 8E 9E l4 i: ]y 0E Rn nc i: #d gm `m aE 7) bE Q7 e{ cE Yp dE eE el fE gE hE mx iE /C 94 jE kE lE mE nE oE pE [a qE rE sE 2d tE uE vE ', l= 4[ s{ l_ %~ i4 wE 5! k' P* xE yE  4 12 wB zE $8 l^ mh 'j =t H4 AE BE CE DE EE FE GE ^+ F. -.  & i+ l. q5 2  @  U  ;  ,  <  <  <  (. 4  }  b. 1. &  &  5. 5. ;. >. ;  -. -. l. ;; Q; HE 3- 3- 3- 3- 5. .. IE JE 8y DB EB .E 9y +B KE LE &B JB IB gC <D <D ME NE OE PE QE RE SE TE C. C. UE 1* MB VE WE XE YE ZE `E  F Xy 8y 8y Xy Nx 9y .F +F U  p$ 1~ -. X. J@ ya @F #F $F %F ]E eD /B &F *F =F -F ;F >F ,F ,F 'F )F !F |~ i  5  G  :  V. T. ",
"-. l. ge s2 ;. 1. -. *  l. l. =. *. i+ U# >. 5. |% 5. ;. -. ;. -. n. 1. 1. -. -. -. -. -. -. 1. l. l. i+ |% -; s> s> q$ -. s> s> |, Q; s> Q; P] P] Q; :| B) -. -. -. ~F CC {F ]F ^F /F (F _F :F V| H| mD k^ gp B6 <F nD [F `{ }F vk i> 2/ Fa l4 91 A' W- A- 8^ Jo jg ~< I9 |F 'w Sr h9 1F =9 tf [b 2F 3F nE 4F 5F 6F 7F 8F D8 &9 G, 9F ', 0F aF 3/ bF cF H/ dF eF 8) fF x{ C| B9 o= gF 12 d2 l4 ^- hF %q 1r iF jF kF lF mF nF oF Pu pF U. ~  V  ^+ 2. -. 1% 2  #  (. ,  U  (. V  !4 qF rF M] cy M] sF tF r2 r2 M] b. %. }  >. 3- bo Q; 3- 3- 3- 3- 3- %. W  IE uF 8y 8y 8y 8y |A vF wF xF &B JB ME JB JB yF JB zF AF BF CF DF EF FF GF HF IF JF KF LF MF NF OF PF QF RF SF }A +B }A 8y Xy TF UF ~. iA O] -.  & ~. sz VF WF fD XF /B /B /B ]E YF ZF `F  G .G +G +G @G #G $G %G Q. K  K  T. ~  Q] ",
"i+ }@ >. i+ *  >. -. *  *  &  }@ l. -. 1. -. ;  ;  %. 1. -. -. -. -. %. -. -. -. -. -. -. -. -. -. l. l. Q; s> s> s> -. -. -. -. y& s> s> s> Q; 3- O' y& -. -. -. &1 &G 4~ *G =G -G ;G >G ,G %4 j8 )p 'G vx gp K3 W3 t< j> =} Wg )G Wg y( !G ~G {G ]G r& Aw ^G 3^ /G (G _G :G <G q] dl ca [G }G |G 1G 2G 3G sr 4G 5G /b 6G ;5 y~ +{ _7 7G &( ]a $| Q| 8G gk Hp 0[ Hp 9G 0G aG bG (j cG dG Q| eG fG gG hG iG sl I0 jG kG lG mG nG oG pG K  K  T. G. W# U  8. 8. ,  ;  $. (. e. qG rG sG tG tG uG vG wG xG yG zG AG BG U  ;  >. N' 3- 3- 3- 3- 3- 3- i+ .. G  CG DG 8y Nx |A +B |A EG vz FG &B JB JB JB JB JB &B GG HG IG JG JG KG LG MG NG OG PG QG RG SG SG <D TG UG EB ,B Xy VG .E Xy }A WG XG D. [% J< -. -. h+ iy YG ZG XF /B /B /B /B `G  H .H +H fA fA fA )B 3v @H #H $H t. K  K  K  K  K  ",
"[  5. -. 1. *  *  &  *  *  &  1. -. -. -. 1. -. -. ;  1. 1. -. %. -. /. -. -. -. -. -. -. i+ -. 1. K@ K@ k.  & >. >. y& y& -. -; O' s> s> s> y& y& y&  & -. -. %H 3, &H *H =H -H -G ;H >H n1 Lt q1 :} ,H 'H k= ^- m4 E] n= ~, *4  _ Ld g< O_ )H b_ !H nD ,| _i ~H #{ {H ]H ^H /H (H 8z Ay _H J[ :H I% x_ e^ Zp <H :b [H }H 5! ^[ |H aF 1H 2H 3H |o ~| ra 4H :3 4H 5H 6H 7H 8H ~| 9H 0H aH bH :3 cH U3 _l 62 sl dH eH cb fH gH hH iH !u K  Q. K  U  -. 8. 8. (. <  /. $  b. Ux jH kH lH fA fA fA fA mH fA nH oH pH qH W# ;. >. 3- l. }@ 3- 3- 3- l. j. _  H  rH sH 8y 8y tH EB 8y 8y KE uH &B JB JB JB vH IB HB wH xH yH zH AH AH BH AH CH DH EH EH fC JB JB fC @E FH EB 8y 8y EG KE 8y 4x GH HH Gt Gt O] -. -. F. 3* IH JH KH ^E /B /B dD /B LH MH NH OH fA fA )B eA SB PH QH Qw Qw K  O  G  t. ",
";  >. -. 1. *  *  *  }  [  }  ;. >. 1. -. $  -. -. -. $  %. $  <  /. $  $  -. -. -. -. l. U# -. >. *  k. *  K@ n. -. q$ q$ -. -; |, s> -; y&  &  & -. -. -. RH 5# SH TH UH -G -G VH WH XH YH ZH P4 H| `H k=  I zE c7 ^- .I KC py |u d[ +I i: ^- vx N( @I #I l4 J~ b8 [/ $I %I wt &I P9 tf *I =I -I ;I |C WC >I ,I I6 9s 0! (a 'I 4< D1 qh )I rB !I Mq $| U3 Q| ~I {I m[ m[ m[ `6 m[ Kt ]I 9e ^I /I (I _I 4H :I :- <I [I }I |I 1I 0+ _| K  i. K  D. U  U  U  (. <  e. +' p$ U# 2I 3I 4I fA fA fA fA fA 5I 6I 7I 8I 9I p$ }%  & }% k. }@ 5. 5. K@ *  4  D  _  0I aI 8y |A Ox ,B 8y 8y Ox bI $B JB JB fC @E :D 5A cI xH dI eI fI fI fI AH gI TG EH EH fC JB JB vH TG hI  E Xy 8y 4D EG ,B }A iI jI n! X. O] -. -. b. &E kI lI mI KH nI &F ]E oI pI qI Kw SB )B fA fA 2v Kw rI sI BC i. ~  O  K  Q. ",
"/. >. -. -. ;. 5. 5. ;  ;  (. /. /. $  $  -. -. -. $  b. /. ;  %. ;  -. -. 1. -. -. 1. &  ;. ;. >. 5. k. }% k. y& P] P] q$ -. q$ -; -; y& -. -.  & y& >. [% G@ tI uI vI wI -G -G xI yI zI 8G G; AI BI d7 CI DI K3 X- t) w< %l P4 ,( py nc b[ <F ^- 0F Q* ,~ EI FI GI +y  f zo Ao HI sE Eo h9 7! /8 II JI ;y cB KI 8z fB 0| <) _[ Uk qh }o 7C LI MI ~, NI o= 7/ G; bH m[ m[  7 e8 Zf ^f &l b} OI PI bb QI RI ^} s& SI TI UI VI WI XI '+ K  K  i. V  n! U  b. ;  <  G. U. iA Du YI ZI )B fA fA fA fA `I  J .J +J @J #J $J %J -; l. }@ K@ 3- K@ l. *  [  {. D  &J *J 8y .E Ox 8y 8y 8y 8y =J 5A JB JB fC @E :D 5A -J ;J >J ,J BH 'J BH AH )J !J EH <D <D ~J {J !J EH ]J EB 8y 8y 8y Xy Ox .E ^J /J K  B. O] -. -. p$ (J _J :J <J XF [J }J ZB /B |J 1J Kw eA Iv 2J )B SB Mv 3J 4J BC Q. K  K  i. i. ",
"-. -. -. -. -. -. -. %. $. <  ,  #  %. $  1. -. $  -. /. $  1. -. -. -. -. >. -. ;. 1. 1. -. >. s. n. l. N' 3- 3- |, N' O' y& -. -. -. -. -.  & `% Q; Rx x^ 5J 6J 7J 8J -G -G i! 9J 0J aJ bJ ZH V} cJ k= '2 pb I/ ^- dJ Y- mj nf eJ fJ dv gJ t< ,} @3 <^ 2[ hJ Og $m iJ @f jJ _t `5 _t &I f6 kJ {2 lJ d4 q] mJ o: nJ y2 oJ zp H] pJ K: :} Us Wn D; ux t< y7 _} U3 Q| qJ rJ sJ B7 tJ uJ Wc jk vJ &l jk wJ xJ :- yJ zJ AJ BJ CJ $] DJ H@ K  K  H  W  G. %. e. p$ G. W. t. +  F. EJ ZI @H fA fA fA fA FJ GJ 8y HJ IJ JJ KJ LJ }@ K@ K@ 3- 3- l. k. >. /. #  x  MJ NJ 8y Xy 8y 8y 8y 8y 8y OJ &B JB JB !J TG gC $B PJ QJ RJ SJ AH TJ UJ UJ VJ TG EH {J vH JB {J <D EH WJ 4x 4x }A XJ ,B 8y }A YJ ZJ K  A& +' -. -. +' C. _J `J /B  K .K }J ]E /B +K @K 1x SB 2v +H )B Kw Mv #K $K BC BC S. K  K  K  ",
"-. ;. &  ;. 1. -. -. $  $. <  <  $. -. %. -. >. -. -. -. 5. n. -. -. -. -. -. -. -. -. -. >. }@ yi K@ s. `% Q; N' |, :|  & -. -. -. -.  & q$ s> %K y& &K a+ *K =K -K bv ;K >K ,K 'K )K eG !K f2 V} ~K @3 G3 l= *2 m4 g! E] q_ {K |u ]K 0t ^K z< p_ D; lo /K (K _K  w 2t :K <K v/ [K i) !o C3 }K &h |K {9 1K 2K ^n _5 0F n^ >j v1 P4 >( My 3K 4K 5K 6K 7K {} 8K z9 ci 9K .1 0K m[ m[ )q E7 aK m[ Vh bK cK 4r /m >3 {| dK eK fK XI Er gK hK t. t. A. n! e. ^+ E. ,  iK O. ~  V  jK kK 2v OH +H fA lK mK nK nK oK pK qK @p 3- k. k. 3- 3- 3- l. ;. -. #  W  D  rK sK }A Xy 8y 8y 8y 8y 8y tK &B {J JB vH vH JB &B PJ uK vK wK xK yK zK UJ AK BK !J JB JB JB JB @E <D CK DK  E  E Nx 4D +B tH EK FK G  Y_ V# b. -. U  t. GK HK /B /B <J /B /B /B IK JK 1x 1x eA +H Iv SB KK #K LK MK MK p8 t. K  NK ",
"$  -. ;. &  [  -. -. /. $. U  W# %. $  -. -. -. $  -. -. >. `% >. }% >. -. $  %. -. -. -. |% Q; N' P] }% l. `% s. s> -;  & -. -. y& q$ `% O' q$ >. OK PK QK RK SK TK UK VK Y( WK o=  | %l ^i Q| (n To // <^ ^~ XK }[ YK ZK +I =| =d HC [m `K Yg |u -( 30 ~x Tm  L Df .L >: -# ', >d c! O/ +L @L #L cl (8 (5 F0 Ij pb $L (9 Q| G; =} Eh *2 !x %L Vf &L *L =L 95 oh )s Uc -L m[ m[ `6 ;L cK 1j >L ,L 'L .g )L  4 ^6 !L ~L {L ]L ^L /L (L _L [E 0A J@ p$ :L >. U# V  ~+ M. o. Q. <L [L |v fA OH +H }L |L mC 1L HJ 2L 3L 1~ l. l. l. l. }@ 3- }% l. s. /. ~. D  <w 4L }A Xy 8y 8y 8y 8y vz 5L &B JB JB JB JB ME 5A 6L 7L 8L 9L 0L fI aL TJ bL <D JB JB JB JB <D vH @E cL .E tH EB SF dL eL |A fL gL +. U. V# e. F. G. Qw hL iL /B /B /B /B /B ZB jL JK 1x 5v fA fA eA Mv kL lL mL fe K. q> Y4 !+ r[ ",
";  -. *  &  #  &  >. $  #  -. -. -. -. -. -. -. -. %. >. -;  & -. -. -. -. -. >. s. -. l. >. Q; N' O' y& >. -. -. y& Y. _q -. y&  & s> -; y& |f z. nL oL pL qL rL -j th sL Hp ~, ~, tL 4C Fp K4 y7 B9 uL F3 vL vL hj wL xL yL zL A< bc 1B HC AL BL ;t L| CL {9 E9 DL %8 EL 8' EI >5 FL d^ c< Wp 8i Y5 m9 GL ([ HL IL 4B JL V6 o= `{ PA ^j KL LL >i ML NL OL PL QL ev VA RL SL TL UL ;L k[ 'D VL ,L jF <c <c WL XL `6 YL qi ZL `L  M .M +M @M #M Y# $M %M (L &M *M {{ =M -M ;M >M ,M 'M 'M )B )M !M ~M {M ]M PB 2L qK G. *  *  K@ K@ K@ Q; |% }@ }@ %. ~. h+ ^M /M Ox 8y 8y 8y 8y 8y 9y (M _M JB JB gC {J JB &B :M <M RJ dI >J [M }M yH |M vH JB JB JB fC vH fC !J 1M vz 8y 8y 8y 8y +B ,B 2M 3M 4M c3 V# Fv K< V# Dr 5M 6M ZB /B /B ]E /B ZB 7M 8M Kv 9M )B +H 4v 0M aM bM cM dM 2@ eM fM gM hM ",
";  $  *  &  $. }  $  %. b. %. -. -. -. -. -. >. $  -. s>  & -. -. -. -. -. >. >. -. -. 1.  & q$ -;  & q$ -. -. -. y& <% Y% Y. -.  & s> 69 =; iM jM kM lM mM Mn nM .b tL oh He 0[ oM NI hm /m pM W, D| e7 +A qM rM sM fh tM uM vM wM wM vb xM yM zM AM [l xl BM `8 tk CM N5 x| G# Io G{ DM EM +( D{ Zp +L gc ux bw KC I| [} NI n= 3/ FM XC GM HM IM JM gh KM kj I| ,q ri C1 LM Ag MM NM !3 OM PM QM RM &t SM @0 TM UM b2 'D VM WM XM YM ZM `M  N .N +N @N #N $N %N &N *N =N -N ;N >N ,N 'N Lz )N oC ~M EG !N nC ~N {N ~. *  *  5. ,. K@ s> k. K@ *  %. D  D. ]N ^N /N (N  F _N :N <N [N }N |N JB JB ME JB %B $B %B 1N 2N 3N 2N 4N 5N 6N 7N ~J JB vH !J !J <D EH @E 8N 9N 0N aN bN cN dN eN fN gN S. S. V# -. -. /. 1* hN iN jN XF  C eD dD /B kN lN mN nN oN pN qN rN sN tN uN vN wN xN yN zN AN ",
"%. ;  $  %. ;  $  /. #  /. <  8. b. $  -. -. >. >. -. q$  & -. -. -. -. -. y& q$ -. -. -. -. -. -. -. .' x& u^ u^ 3c jy BN CN u^ u^ 3c DN EN 6, -7 FN GN HN IN N/ JN KN r< mD O_ i: g< q1 wn @7 n1 ^/ sM LN MN NN _8 ON PN QN RN ft 4l 4l {K SN TN 2B py qy Qn _8 Bb qb UN on _C Xq `q O/ VN m< ', WN jr XN x2 YN ZN m4 `N  O g! W{ ,y %D .O }t Zm +O @O #O DI W~ Z( y( !p Lq TL $O %O &O qh *O =O QM -O ;O [9 .g m[ >O <m  n ,O 'O )O !O ~O {O ]O ^O /O (O _O :O <O [O }O |O 1O 2O 3O 4O 5O 6O mC dL ,B 7O 8O 9O 0O 1  q$ -. i+ `% l. k. l. l. *  (. ,  9. aO bO cO dO eO fO gO hO iO jO #E JB $B $B %B %B 5A %B kO lO HB mO nO oO pO qO {J JB @E @E <D EH EH EH rO sO tO uO vO wO xO yO zO AO Qw Q. G. -. 2. ~  c3 BO CO ZB }J <J mA eD /B DO EO FO GO HO IO HO JO JO KO LO MO MO NO OO fA PO ",
";  ;  -. -. %. %. <  ,  #  e. b. -. $  -. >. B) -; y&  & y& -. -. -. -. /.  &  & -. y& -. (. e. .' 36 >0 c3 QO RO Gn SO Dx TO UO VO WO XO YO ZO `O  P .P g@ At y] ne ]w .I `H oB ;} 4/ [F v1 M{ +P (~ {[ b$ @P #P sx $P %P &P *P _h 4l I| 2g =P -P ;P >P Kd 20 ,P S} D; ZN 'P @L sD %( d! J~ Vv )P !P Lk {j Nj ~P {P ]P Wf ^P ^m Ho Kj /P @e (P Kh og |a hi J8 i> _P qb <[ 0[ >p :P <P [P 6r }P |P 1P 2P 3P 4P 5P D7 Sj 6P 7P 8P 9P 0P aP bP cP dP mH eP fP gP `G `G hP cD eD ZB iP jP kP lP mP nC nK 8y OB nC nP oP A  $  >. N' |, }% K@ K@ k. k. &. #  x  L  '+ j+ pP qP rP Fx &E sP tP uP JB :D &B IB $B 5A SG <D vH :D gC ~J {J <D fC fC TG EH EH EH EH EH EH vP wP Gn -0 Y_ X# x  0A 0A K  G  A  A) -. A. K  C. xP yP /B <J /B /B ]E /B zP AP BP CP DP DP EP EP CP FP GP MO MO HP |v fA Iv ",
"$  ;  ;  /. #  <  #  /. /. T: -. -. -. -. -. b. (. U  (. V# e. $  T: V# x  z. u^ -. -. Ys h+ .. z. p5 Cq IP JP KP lk Xs LP ^q MP y^ NP OP PP QP RP SP TP A_ 8{ &~ UP A' `H ~p Hh Oi zE -C VP WP '} B| d& XP YP ZP `P {: ,i  Q 9| e! v< I| *| of ;P .Q 1B x9 zv {d &a g< +Q @Q Jc #Q 9| TA Hh w2 %w xm 8k <e @v Xr $Q @Q %Q Z5 &Q [a +x *Q )g =Q -Q ;Q >A >Q 'y -} ,Q 'Q 4/ mi /m )Q !Q $t 0E i> 32 ~Q {Q ]Q ^Q /Q m[ (Q _Q :Q <Q [Q }Q |Q 1Q 2Q 3Q 4Q 5Q 6Q 7Q eD dD ]E /B /B ZB 8Q 9Q 0Q aQ EG !N EG KE !N +J bQ cQ `  ,  1. 3- K@ K@ K@ l. l. W  W  ,  W  n! I@ iy 1* dy qG c3 O  dQ eQ fQ JB JB :D %B %B IB JB JB JB JB JB JB {J @E TG vH gC {J JB IB gC TG @E gQ hQ iQ I@ B. W  ^. H     K  H  G  ~. b. ,  i. t= jQ kQ lQ /B /B /B eD ]E mQ nQ oQ pQ DP DP qQ BP rQ sQ tQ uQ MO HP |v fA OH ",
"%. %. %. <  <  <  #  b. y& 1~ b. 1~ V# G. p$ U  ,  W  D. e. $  <% *_ 36 X. iy I@ *_ vQ *_ I@ iy iy Uy wQ xQ yQ zQ AQ wQ BQ 7j CQ DQ EQ FQ GQ `O HQ IQ ** H, H2 JQ .< KQ )~ LQ MQ 5K NQ OQ PQ QQ b_ RQ F% SQ @% TQ P~ JM UQ VQ d1 w: WQ Gj q1 g> py py rj XQ YQ 0c N| U* )h ZQ `Q ML  R Jj .R +R @R #R $R %R ro xy xy &R =b #e ,t hd  u ;5 =b *R =R -R yo ;R 1k >R ,R M5 Ga 'R ]a ,p _9 )R '6 |q s1 Un gF !R ~R {R ]R hp ^R Zx /R -q 2n (R _R :R <R %8 [R }R |R ZB ZB ZB /B /B ZB 1R Mv 2R 3R dL nK EG 4R nK 5R 6R 7R S. :  >  l. k. *  ,. *  |  :  :  U  U  z. iy K  K  K  :  G  1* %E 8R 6A JB JB JB JB JB JB JB JB JB JB {J gC eC ~J gC &B %B JB JB vH fC vH fC 9R 0R aR n! :  D  G  _  D  _  G  f. .. U  e. T. t= bR cR qA /B /B /B cD ]E dR eR fR rQ DP DP gR hR EP iR jR HP MO kR fA fA lR ",
";  $  <  <  <  ,  #  -. b. mR v^ X% %H &1 nR _  D  W  j+ ^+ ^+ 1* :A oR pR VO qR QO rR /q /q sR tR uR vR wR xR Gw yR ms zR AR BR CR DR ER FR GR HR IR F* y_ t' $* 6: <) -# JR Gf KR LR Za MR D| Bw {7 NR D% OR __ 'o PR ^j QR =u )} @3 _P %q F; g> g> 2B RR SR `d Y} ^9 hi TR UR VR WR XR YR ZR pa $( `R  S HA .S +S Hi |= >< bu @S `t |= %x `v kv ^b  f 8s XC ,c #S $S UQ %S 61 &S lm *S ,k =S ]a P4 [o n[ -S ;S zn >S HC vl ac ,S 2n _R _R 'S )S !S >x ~S {S cD cD cD dD /B ZB ]S Mv ^S /S PB ,B ,B Xy 8y (S _S :S 4# G  W  }  ;  ,  ,  4  >  9. D  U  U  ~  K  K  K  K  H  P  1* TE <S [S JB JB JB JB JB JB JB JB JB JB {J }S 5A HB 5A 5A %B JB <D @E EH @E JB |S 1S I@ I@ S+ D  G  O  D  K  K  K  P  D. z. t. 2S bR 3S 4S /B /B /B cD ]E 5S 6S 7S fR DP 8S hR 9S 0S aS bS cS MO dS eS fS Lz ",
"-. -. <  <  <  +' T: -. -. Y. gS p5 :  O  H  T. G  V  z. =; sz RO ks hS iS jS kS wQ wQ lS mS nS oS pS qS rS sS tS uS vS wS xS yS zS AS BS CS DS ES l* '& hw 4! s, }0 d= -< Ec FS GS -x HS 5< S8 !2 %# IS 7& =' H* JS KS $8 ]5 x8 F3 G3 LS `{ ~, MS cx py NS OS 2n PS -} 5q qg QS RS SS TS US VS ,c WS XS YS ZS Wv Ej gv Wt No `S  T .T 14 /b ot @D `t Gs Dm _C |a ]h +T @T $s `} #T !p 9[ ;2 IL :} n^ 42 >L $T %T &T *T =T Bk -T ;T >T ,T 'T )T !T :R ~T {T ]T cD cD cD dD mA dD 1R ^T /T (T !N 8y 8y 8y 8y _T :T <T 0. K  G  #  <  1  ^+ b. /. x  D. D  ~  K  K  K  K  K  K  T. :. [T }T |T JB ME JB JB JB JB JB JB JB JB IB 5A 5A 5A 5A 5A IB JB fC EH EH !J gC 1T 2T I@ p5 _  :  G  K  K  c3 iy K  K  Y_ P  i. p8 3T 4T 5T <J /B /B cD ZB DO 6T 7T 8T EP 9T 0T aT 0T aS bT NO cT Mz cT dS dT ",
"-. -. %. $  #  -. -. -. -. ;  ^+ X. h+ A) U. H  I. TO .& eT fT gT hT hT iT jT 03 ]q Aq kT lT mT nT oT .$ pT qT rT sT tT mb uT vT r! wT xT yT zT }' AT BT r4 )/ CT DT ET e{ @f FT f4 GT HT IT JT KT LT ~7 9> MT .6 NT hi OT PT ~- QT {y RT ST y7 &| TT UT tm VT 2n WT XT _8 !a YT p6 ZT `T  U 5b .U +U @U #U cn $U  v 2p ]e %U 8l &U *U =U 9n -b >C &U [k e( <7 Oc Od -U ;U 6e >U ~a  e h> #T ,U 'U )Q ct )U !U ~U Kq {U ]U py ^K ^U /U (U _U :U <U [U }U |U 1U cD cD cD eD dD dD 1R 2U 3U 4U !N 8y 8y 8y EG 5U 6U +M P. K  H  W  ,  W  D. (. (. h+ z. G  K  K  o. C) 3. K  R] iy c3 c3 7U 8U JB {J IB IB %B JB JB JB JB JB ME &B 5A 5A 5A 5A 5A &B gC JB ~J JB IB 9U 0U 1* U. _  G  D  D  f. iy I@ c3 K  P  i. K  TE aU bU qA <J /B ZB eD mA cU dU oQ eU fU gU hR hU iU jU kU cS cT fS dS lU mU ",
"$. <  @  %. -. Y. b. %. ^+ A. A. B. Z  C. G  C. >+ hS fe fe VO nU /L  z oU pU qU rU Dv sU tU uU vU ,@ wU xU yU 8* zU AU q+ BU CU DU EU FU GU HU IU l6 Ui fw &A G_ b$ s# a6 Gy JU KU LU MU NU A6 {7 OU 4= PU QU RU m7 {H SU og iq TU v: '2 UU `{ %l C1 q1 VU WU RR wb dx ,R rb Qa ZN XU YU Kc [e TS ZU `U <7  V gn .f 2s .V xh t3 +V @V zh #V i~ $V +r #< f( =[ Mh 7b %V &V *V I9 =V -V 2g ;V ux y7 >V ,V 'V )V !V ~V pi {V ]V ^V /V (V <U _V :V <V }U }U [V }V cD cD cD eD /B eD |V 1V 2V mC KE KE +B +B 3V 4V 5V _E 6V K  K  _  _  {. A. h+ z. z. W. K  c3 )4 xi 7V 8V 9V ks 0V aV bV cV dV &B &B 5A %B 5A IB gC gC JB JB JB eV fV fV IB IB gC vH !J <D IB IB }S gV hV iV jV kV 4* lV 1* A& iy U. I@ T. K  K  v. H@ mV nV oV pV qV rV sV tV uV vV wV xV hU hU hU hU yV zV AV dS BV CV DV HP EV ",
"#  W  [@  & O] [@ ^+ A) ^+ =; A) V. H@ FV GV HV a3 2c fe +z IV JV 'u KV ]q LV MV NV OV PV QV RV SV TV UV VV WV XV x+ YV ZV `V Q!  W .W +W @W #W $W %W &W Gy X7 +} 9! F5 Z7 ot *W =W -W R, ;W >W m' p} ,W As 'W ~b )W uj !W ~W Ih {W  3 {y ]W X} K/ ^W 1r xn /W (W _W :W <W [W 5/ }W KR {j |W 1W 2W 3W 4W 5W wo Wm 2p 6W mt 7W 8W Qt 6& 9W s' 0W aW bW it St cW ]h w9 >i dW od Y8 eW fW &a gW `H !, :3 hW iW jW kW lW b2 mW nW oW Zn pW qW rW sW tW }U }U uW vW wW cD hP ]E /B ]E xW yW zW AW BW CW DW EW FW GW HW IW p  Q. i. K  K  V  ,  ~. D  :  S+ 1* JW KW LW MW NW OW PW QW RW SW TW UW VW WW XW YW ZW `W  X .X +X @X #X $X %X &X *X =X -X -X ;X >X ,X 'X )X !X ~X {X ]X ^X /X (X _X :X <X P. 1* K  K  i. [X :. }X |X 1X 2X 3X 4X 5X 6X 7X 8X 9X 0X hU hU hU hU yV EP aX bX cX dX eX fX gX ",
"<  #  -. Y. Y% I@ A. z. V  Y_ P. P  ^D hX Zh /L hX a3 fe iX jX ]q ]q ]q (| kX lX mX nX oX pX qX 06 rX l{ sX tX uX vX wX 4{ q; }i Sq xX bd yX zX zX .6 .6 F[ <K Nt 2k M, AX BX CX DX EX R, FX 8] J, ec GX HX A, !t IX JX KX LX MX Ih L[ LN u7 IL H| 9[ fG *S NX A< OX PX Td t< t< QX RX Y8 SX kJ TX ak |W 0n UX mt VX .S wt gw WX XX YX jt ZX `X [i fr &) 1< |/ QR ]h  Y Pi .Y P5 Ki +Y }d @Y #Y Zg $Y %Y &Y *Y =Y =Y <c Kq Yg vq 2n -Y ;Y <U >Y ,Y 'Y }U )Y !Y ~Y ZB eD cD cD `G {Y ]Y ^Y /Y (Y _Y :Y <Y [Y }Y |Y Z. 1Y S. K  K  K  S+ ~. D  D  :  :  O  2Y 3Y 4Y 5Y 5Y 5Y 5Y 5Y 5Y 5Y 6Y 7Y 8Y 9Y zK UJ UJ 0Y aY bY cY dY eY fY gY hY iY jY kY lY mY nY oY pY qY rY sY tY uY vY vY vY wY xY yY zY K  K  Q. AY t. 4# BY CY DY 3* :z EY EY [E FY GY HY HY xV hU hU hU eU pQ IY JY KY LY MY NY OY ",
",  36 $  /. X. D. ^+ $  T: Y_ n! (J PY hX a3 fe fe 'u 7j QY kT RY SY TY UY VY WY |+ XY YY ZY `Y  Z .Z +Z @Z #Z $Z %Z &Z *Z =Z -Z D> cd Ac yX RU ;Z >Z Ui Gy )/ ,Z 'Z p} )Z al !Z ~Z {Z ]Z ^Z 9W 0= (1 !t /Z HX }i u3 <k (Z _Z :Z Ih Ih 2^ <Z O_ y7 D1 >j fG [Z *4 ^K }Z Mi |Z f! 1Z >i 2: 2Z X/ 3Z 4Z <b 5Z 6Z 7Z 8Z Qs 9Z 0Z ca &9 eu <i aZ bZ cZ /= *5 dZ ,P eZ fZ tM gZ `x hZ iZ jj zv ;2 )m jZ kZ {R iW lZ aK mZ mZ PM Ck `n nZ oZ pZ qW qZ rZ sZ }U tZ uZ vZ ZB ZB dD cD cD wZ :B xZ U0 yZ zZ AZ BZ CZ AY v. 0. 4# K  K  K  K  O  G  H  H  P  O  D  V. DZ EZ 5Y 5Y 5Y 5Y 5Y 5Y 5Y FZ GZ BH BH BH BH HZ IZ JZ KZ %E LZ MZ NZ OZ rK PZ QZ >J RZ SZ TZ UZ VZ WZ XZ YZ vY vY vY vY vY vY wY ZZ `Z 3. K  S. AY S.  ` .` R] T. K  t. BC +` IW @` #` HY 0X $` hU hU hU %` &` *` =` -` ;` >` ,` '` ",
":  Y_ -. +' ^+ V. h+ $  -. D. n! o8 a3 fe fe )` !` wR vS ~` {` ]` ^` /` (` _` :` <` [` }` |` 1` 2` bs 3` 4` 5` 6` 7` 8` xh 9` Ac ,b 0` .c a` >Z b` b` c` hd P} d` e` 1< f` Xt g` h` i` j` k` Pb cZ A, ]' l` !t Sq _p BX m` GM n` Ih Ih o` p` p) k> !p v1 M: +7 .A {K q` r` s` t` u` v` JM ]9 gc m: 4e Dy w` .T /e x` y` z` 6l Jf 3p >o A` B` 6) C` ,g D` ([ mo !k >q nj E` F` j[ rh bc G` Vn 3r H` I` J` K` L` M` kW kW N` g> ;T O` P` Q` <U R` S` T` T` U` V` W` ZB eD eD eD cD X` Y` (L a3 Z` o8 O. `` K  G  K  i. K  i. K  H  G  K  K  H  H  K  K  {. >0   .. .5Y 5Y 5Y 5Y 5Y 5Y 5Y + .@ .BH BH BH # .$ .% .& .* .A& c3 !4 3c h+ D. = .- .>J >J ; .> ., .SZ ' .) .YZ vY vY vY vY vY vY vY ! .~ .H  K  t. t. Q. i. K  K  K  K  T. T. t. R] { .] .HY 0X hU hU hU hU %` ^ ./ .( ._ .: .< .[ .} .",
"K  U. $  1~ p$ G. n! ~  36 V. ky hT hS iX !` | .1 .2 .3 .4 .5 .6 .!0 7 .8 .9 .0 .a .b .c .d .e .f .g .h .i .j .k .(e r0 !t Te cd Ac 8a dd l .N2 m .54 n .o .jq p .<7 cu @/ /7 q .r .s .tj M, Rt t .B, E> $9 A, A, !t u .hn v .w .Ih Ih x .y .i] d7 Ap s1 Uh Uh 9[ z .Ak A .B .C .D .E .om F .p` e1 %5 m| G .H .I .YU J .K .+R cn L .M .N .O .n= P .;8 Q .R .S .T .U .^R |g V .W .X .|g g> ,( |o Y .4P Z .` .K`  .....+..<6 bc @..2n #..$..%..[U &..*..=..U` -..;..>..eD cD hP cD ,..'../L U0 -+ O+ Cd o. Q  r  i. K  K  K  H  :  ^. K  K  G  G  K  K  _  Y_ )..!..~..5Y 5Y 5Y 5Y 5Y 5Y {..]..BH BH BH BH ^..# ./..(..S+ 1* Fx <x n! V. _..:..>J >J <..UZ [..}..|..1..tY vY vY vY vY vY vY vY 2..3..K  K  `  AY S. K  G  Z  U. K  S. K  1* c3 4..5..HY HY $` hU hU hU 6..0X 7..8..: .9..0..a..b..",
"P+ A& %. -. -. ]+ S+ ~  I@ 0A c..:E d..e..f..g..h..i..j..k..l..m..n..o..p..q..B= r..s..t..u..v..0q w..x..c` &W pu [i $9 {' t3 cd Ac 8a y..>Z z..5g A..n .B..F( Y5 C..v( V7 /< D..E..F..]j K2 $W G..D> H..E> &) A, *) vo I..J..}b K..Ih nB &5 j= B} l4 *} F; $| WK L..M..N..O..P..Q..R..*a _- h[ V~ B_ ,h S..Jj T..U..V..W..X..Y..yj Z..`..'k yA yA  +..+.++.Uv @+.#+.$+.%+.8} [g &+.B< 8} *+.=+.-+.ra ;+.`6 hW >+.,+.'+.)+.yM !+.~+.{+.]+.pZ ^+./+.(+._+.'Y :+.<+.]T eD cD cD eD [+.}+._L /+ |+..` 0. l+ Q. BC i. Q. Q. K  _  D  ^. K  K  O  O  O  T. 1* ya 1+.2+.3+.~..5Y 5Y 5Y 5Y 5Y 4+.5+.BH BH BH BH BH BH 6+.7+.G  t. i. T. K  O  8+.9+.XZ ; .>J >J 0+.a+.b+.c+.d+.vY vY vY vY vY vY vY e+.f+.K  K  t. i. i. K  K  c3 O  K  K  K  T. g+.h+.i+.HY HY %` hU hU hR fU j+.k+.8..: .: .l+.m+.n+.",
"o+.Z  F. A) B. Y_ O  H  n! LZ Er  + p+.q+.r+.s+.t+.u+.v+.w+.x+.y+.z+.A+.B+.C+.D+.E+.8a F+.G+.H+.I+.J+.K+.L+.M+.N+.8q D> D> B,  c Ac O+.P+.#W Q+.R+.t..L6 Os e{ %v S+.T+.U+.V+.W+.X+.Y+.`U ym As D> D> D> D> dr r0 C2 A, +r Z+.>y Ie Ih 2: c! r, i] t) c0 sh ,j @4 Tn _- `+. @..@.Pa +@.k| t< g< Rn @I R( 4[ J8 @@.#@.$@.%@.&@.*@.=@.-@.;@.rj yM &d >@.,@.'@.)@.2B !@.~@.kZ {@.]@.+l )3 Sj NM ^@..0 Jt mm /@.(@._@.~Q :@.<@.F` [@.,@.}@.|@.1@.^+.pZ 2@.3@.4@.5@.6@.7@.cD cD eD eD 8@.9@.K. 0@.h  d  3. t. i. i. K  K  K  K  K  :  9. :  Y_ Z  H  a@.<x iy b@.c@.d@.6Y e@.f@.e@.g@.5Y 5Y 4+.5+.h@.BH BH BH BH BH 6+.i@.t. K  t. K  K  K  j@.k@.WZ l@.m@.n@.o@.p@.>J q@.r@.vY vY vY vY vY vY s@.t@.u@..& K  S. Q. t. '+ K  K  T. K  K  K  K  T. v@.w@.HY HY HY 6..hU hU aT x@.y@.z@.A@.: .B@.C@.D@.",
"M. E@.,  Z  D. G  T. 1* ]+ ,0 {+ F@.G@.H@.I@.J@.K@.'_ L@.M@.N@.K^ bd H..O@.N@.P@.I> Q@.R@.0d t..S@.T@.U@.V@.WX WX W@.M9 D> {'  c  c L^ X@.I..l .Y@.Qe Z@.Pr `@. #.q3 6= A, << .#.+#.@#.##.$#.%#.M9 H.. c cg &#.[i 8W *#.=#.3z dn -#.;#.>#.,#.o& 8| '#.S} Ld $| ZH ]a .I Li )#.3l .Q !#.kj g< q_ ~#.{#.zv CL ]#.^#./#.V..(#.kd _#.:#.<#.[#.}#.Eb |#.1#.2#.2n 3#.Ce 4#.5#.6#.7#.8#.ft fk [P 9#.0#.:m a#.b#.c#.d#.e#.f#.g#.h#.i#.(R j#.k#.l#.m#.^+.qW n#.o#.*..p#.q#.r#.IK cD ZB cD s#.t#.U0 {+ q> 6V 3. 0. K  H  K  K  K  G  .. z. z. A. G. :  :  W  .' 36 n! c@.u#.v#.w#.x#.3+.5Y y#.z#.v#.A#.B#.BH BH BH BH BH 6+.C#.&E K  D#.H@ T. 1* E#.F#.G#.H#.I#.J#.K#.[..1..L#.M#.vY vY vY vY vY vY N#.O#.P#.4M t= r> EY 2S PY Q#.,+ iy K  K  K  K  g+.R#.S#.HY HY HY HY 0X $` hU T#.U#.V#.W#.X#.Y#.Z#.9..",
".k C. DN '+ K  K  K  g+.R] `#. $..$.+$.@$.#$.$$.%$.&$.*$.8d G+.u..9d K^ ,b Ac I+.=$.#h 9d 9d t..-$.e .;$.>$.Ah ,$.Q+.'$.)$.@c E> D> T1 !$.~$.{$.]$.^$.%o /$.38 ($.Z5 _1 B, zy _$.:$.<$.[$.}$.Jy B, ,b cd &) er [i [i |$.1$.2$..q q] 3$.{# h4 4$.5$.6$.h] bF 9[ `( ]} nD 7$.8$.9$.0$.a$.Mt Sh Ck Pa =| }F b$.c$.d$.:#.e$.f$.g$.h$.i$.j$.k$.l$.*w m$.n$.o$.p$.q$.r$.s$.t$.u$.v$.w$.x$.y$.Vn `9 9#.PM |o wn 3r z$.A$.B$.C$.N` D$.E$.F$.G$.H$.I$.pZ qW J$.K$.L$.M$.N$.O$.P$.Q$.cD cD R$.S$.hX q> nL &+ h  |+.=+ K  5  i. A& S+ D. S+ Fx T0 A& P  5  5  T$.W. qR U$.V$.v#.6Y W$.W$.z#.z#.x#.X$.Y$.Z$.BH BH BH BH BH 6+.`$.Cd  %.Ev gK TE 3* .%.+%.a+.RJ >J @%.o@.}..#%.$%.%%.vY vY vY vY vY vY &%.*%.=%.-%.;%.>%.,%.'%.)%.!%.~%.dy H  K  K  K  {%.]%.^%./%.(%._%.:%.<%.[%.}%.|%.1%.2%.3%.W#.4%.5%.6%.",
"`A 3* 6@ C. O  O  }f 7%.iX iT zB 8%.9%.0%.a%.b%.c%.Z] >e >e Pe G+.d%.7a kz ,b :p e%.vv f%.7a 7a 7a -$.e .g%.1$.Vm h%.i%.j%.k%.l%.m%.C> n%.MT o%.p%.q%.r%.+6 wh s%.Dm t%.') u%.v%.w%.Wk x%._e y%.*, cd Ac E> :p Cc r0 k7 z%.1$.Bf -Q DM WN Ih {: A%.B%.hj My C%.]a L{ qj 5/ oj =P ax D%.E%.F%.G%.H%.3n kc I%.J%.K%.L%.M%.<W N%.O%.P%.Q%.R%.6s }t SS S%.T%.U%.V%.W%.nm wm X%.Y%.Z%.kh `%.'6  &.0#..&.xJ 5r h> +&.C< @&.T .#&.$&.%&.&&.*&.=&.-&.;&.>&.]+.,&.'&.)&.!&.~&.{&.]&.|R cD ^&./&.(&._&.){ :&.q. M. Er Er M@ O. `` `` `h hb <&.[&.}&.|&.1&.2&.3&.4&.5&.6&.7&.8&.9&.0&.a&.9&.b&.c&.d&.e&.f&.BH g&.h&.g&.fI i&.j&.k&.l&.m&.n&.o&.p&.q&.r&.s&.t&.u&.v&.w&.x&.SJ y&.z&.vY vY vY vY vY vY wY A&.B&.C&.D&.E&.F&.G&.H&.I&.J&.nR G  K  K  K  t. K&.L&.M&.N&.O&.P&.Q&.R&.S&.T&.U&.V&.W&.: .X&.4%.Y&.",
"G@ Z&.sz ao *_ `&. *./r .*.+*.@*.#*.$*.%*.&*.tc 0d Z] >e >e >e 0d ]$.u..7a bd [s **.=*.>v Mo -*.t..7a ;*.>*.,*.'*.25 )*.8W A..!*.~*.{*.t .]*.^*./*.(*.ad _*./b QC  u :*.f' Bf <*.[*.<o NT JX }*.|*.[s 1*.xX 1*.j( W@.Ve n .RU 2*.3*.h~ u8 7q 4*.Ih 5*.6*.7*.8*.Kd `(  _ #T `a ~#.,S -q 9*.0*.a*.b*..o c*.d*.e*.:Z f*.=d 5r g*.)i h*.i*.j*.JM 'c k*.l*.m*.nm n*.o*.}m p*.q*.r*.s*.t*.u*.qh v*.w*.NM x*.y*.[l z*.A*.B*.SN C*.D*.E*.F*.G*.H*.I*.pZ pZ J*.K*.L*.M*.N*.O*.P*.Q*.R*.S*.T*.U*.V*.W*.X*.Y*.Z*.`*. =..=.+=.@=.#=.$=.%=.&=.*=.==.-=.;=.>=.,=.'=.)=.!=.~=.{=.]=.^=./=.(=./=._=.:=._=.<=.BH BH [=.}=.|=.1=.2=.3=.4=.5=.6=.7=.8=.9=.0=.a=.b=.c=.d=.e=.f=.g=.h=.wY vY vY vY vY vY vY vY vY i=.j=.k=.l=.m=.n=.^ .o=.p=.q=.r=.O  K  K  K  S. s=._r %E P+ 3* _r t=.u=.Er v=.w=.x=.X&.: .y=.z=.A=.",
"q> VO Gt Y. BN B=.4@ C=.D=.E=.;7 F=.G=.H=.I=.0d G+.Z] >e >e >e Z] 0d Pe t..+c kz J=.K=.L=.Mo -*.u..e .-*.M=.N=.T1 O=.c` ^t P=.Q=.R=.@b S=.$c o%.p%.T=.G+.%o U=.15 `5 54 V=.T) W=.X=..u Y=.Xb !t *, Te 1*.^' &) cg Z=.`=.<k QU  -..-.#D +-.L8 @-.%s #-.$-.%-.mo mj t7 u1 WK Y( W6 !d &-.D%.*-.=-.--.>x ;-.>-.,-.'-.Z{ )-.Sj !-.Lb ~-.{-.]-.{#.*i Sd ={ ^-./-.(-.5#._-.:-.vr <-.[-. +.p1 Kq }-.w*.|-.9H >S wM V .1-.2-.3-.4-.5-.6-.7-.8-.9-.0-.a-.J*.b-.c-.d-.e-.f-.g-.h-.i-.j-.k-.l-.m-.n-.o-.p-.q-.r-.s-.q-.t-.u-.v-.w-.x-.u-.y-.w-.z-.A-.~..B-.5Y 5Y 5Y 5Y B-.C-.:=.0Y D-.E-.F-.TJ UJ AH G-.H-.BH h@.h&.'J I-.J-.K-.L-.}=.M-.N-.O-.P-.2=.Q-.R-.S-.vY vY vY vY vY vY vY vY vY vY vY vY vY vY T-.U-.V-.4%.W-.X-.Y-.Z-.`-. ;..;.K  K  K  K  K  S. S. P+ ,+ I. i. jb nU {+ +;.@;.#;.C@.: .: .D@.A=.",
"y^ $;.p$ Y. Y% %;.wQ &;.*;.=;.-;.;;.>;.,;.0d 0d ';.=e >e );.);.>e 0d G+.R@.!;.7a =$.cd Ac +c -$.-$.-*.~;.{;.];.^;.T1 _e /;.(;./*._;.R=.:;.<;.9q M=.[;.};.Qp |;.(: 1;.9q e, 3z 2;.3;.5G 4;.5;.cg &) so M9 }i E> cd }i /t i3 6;.RU .6 Ui 't 4i Zk i0 7;.@O 8;._h Wg t7 *S MI &| d[ |} 2n _d 9;.SN 0;.a;.b;.c;.kd d;.mh |z Qj e;.f;.ax qy 4l vl g;.h;.cx i;.j;.k;.W%.l;.m;.n;.o;.W%.AL p;.q;.r;.s;.t;._@.>S 2g u;.v;.w;.x;.y;.z;.A;.B;.8-.C;.D;.E;.tW F;.G;.H;.I;.J;.K;.L;.M;.N;.O;.P;.Q;.R;.S;.T;.v-.U;.V;.w-.w-.x-.q-.s-.W;.v-.u-.u-.X;.A-.5Y 5Y 5Y 5Y 5Y 5Y 5Y Y;.Z;.`;. >.E-..>.% .AH +>.@>..>.G-.BH BH #>.BH $>.%>.&>.*>.=>.->.;>.>>.,>.'>.)>.S-.vY vY vY vY vY vY vY vY vY vY vY vY vY vY !>.U-.~>.4%.{>.]>.HY HY ^>./>.~ .1* Dq H@ ,+ (>.^( t. H@ P+ .& 3* [, hS a3 _>.:>.,` m+.: .: .C@.<>.",
"[>.>+ F. |f Z% Ft }>.vS |>.1>.2>.3>.4>.R@.0d 0d 0d 7d Oe 5>.R=.);.6>.Z] Pe 7>.7a -$.S@.kz 8>.7a ;*.9>.0>.a>.b>.c>.d>.e>.f>.g>.h>.i>.j>.(*.k>.Se 5a l>.m>.n>.|;.Xt n .yc o>.~$.p>.q>.m0 r>.J> )' !t }i D> fr D> cd 64 qu :*.s>.;Z ;Z t>.Ui v0 ca >c *V A%.u>.E] Z( |B t1 v>.o1 L{ w>.x>.ip 2n y>.z>.A>.C0 *w |a B>.Qa mo Za [Z u< pD SR -P Zd Jd 1g z*.C>.8} D>.E>.|Z Vw AM F>.G>.<j xJ c#.'L H>.I>.J>.z*.K>.L>.M>.N>.O>.P>.Q>.R>.S>.T>.U>.V>.E;.W>.X>.Y>.Z>.`>.7-. ,..,.+,.@,.#,.$,.%,.&,.o-.*,.u-.=,.-,.-,.-,.t-.-,.U;.u-.u-.u-.u-.;,.>,.,,.y#.3+.3+.B-.5Y 5Y ',.),.!,.~,.{,..>.],.'J BH @>..>..>.^..h&.I-.^,./,.KG B#.N-.(,._,.:,.<,.+>.[,.vY },.|,.vY vY vY vY vY vY vY vY vY vY vY vY 1,.2,.y=.3,.4,.5,.^ .HY HY 6,.7,.8,.9,.0,.a,.b,.1c c,.d,.e,.f,.g,.h,.i,.j,.k,.l,.m,.n,.o,.: .: .p,.l+.",
"u= ,+ e. q$ }, iX q,.r,.s,.t,.u,.v,.3( Qe 7>.;*.w,.x,.R@.0d 0d 0d G+.6>.6>.0d u..-$.y,.z,.A,.-*.B,.C,.D,.E,.F,.G,.H,.Qe so I,.as J,.K,.[;.Qe L,.M,.N,.O,.P,.u3 @S J6 8>.Q,.Qt R,.S,.$U e>.T,.U,.B, V,.B, *, D> cd Bs }*.1$.W,.X,.Y,.RU [k Z,.`,.Do  '.A%..'.+'.@'.H| 9[ 2H #'.{i Ni $'.D%.>T %'.&'.SR Ul Vl *'.='.-'.;'.5l >'.,'.''.57 Li Xd )'.)k F>.)3 !'.~'.-P {'.-t ]'.^'.k[ B< /'.sl m[ ce =n ('.*T <l _'.:'.<'.['.}'.|'.1'.2'.3'.3'.4'.5'.6'.7'.8'.9'.0'.a'.b'.:+.c'.d'.e'.f'.g'.h'.i'.*,.u-.U;.-,.-,.-,.-,.-,.j'.q-.x-.u-.u-.k'.l'.,,.f@.FZ w#.5Y 5Y B-.m'.n'.o'.~,..>..>.p'.H-.BH BH BH @>.$ .BH G-..>.F-.q'.r'.s'.t'.u'.v'.w'.F-.x'.vY vY vY vY vY vY vY vY vY vY vY vY vY vY vY y'.z'.A'.B'.C'.D'.HY Y-.HY HY E'.F'.G'.H'.I'.J'.K'.L'.M'.N'.O'.P'.Q'.R'.S'.T'.U'.V'.W'.X'.W#.5%.Y'.m+.",
"Z'.,+ `'. )..).+).@).#).$).%).&).1& N@.K^ *).-$.=).xm -).;).>).>e >e ,).').;e Oe )).7>.7a y,.!).Pe ,).~).{).]).^)./).()._).:).h .<).N,.T=.j>.[).}).Q@.|).1).2).(e k7 3).7a zh 4).5).6).Jy 7).Qe 8).9).E> @c dd 54 0).a).b).t>.c).2$.c).c).}$.}$.d).Wp $8 e).f).no z .=d sh wn Z- g).h).i).j).k).l).j).m).n).o).p).ze q).>r r).s).t).u).v).po ko Sh 'D &+.w).x).i).<Q )3 y).e;.z).42 P&.4H b2 NM =n A).B).&+.rj C).D).E).F).G).H).I).4'.T>.U>.J).K).L).M).N).O).P).Q).R).S).T).U).V).W).X).o-.Y).Z).`).q-.r-.t-.r-.W;.v-.w-.u-.u-.u-.k'. !.5Y 5Y 5Y 5Y 5Y .!.+!.b&.@!.#!.$!.% .^..BH BH BH BH # .],.F-.%!..>.&!.*!.=!.-!.;!.>!.t'.,!.'!..>.)!.vY |,.vY vY vY vY vY vY vY vY vY vY vY vY &%.n-.!!.~!.{!.]!.]!.]!.HY HY HY ^!./!.(!._!.:!.<!.[!.}!.|!.1!.2!.3!.4!.5!.6!.7!.8!.9!.0!.a!.b!.c!.p,.m+.",
"d!.Uy =; e!.L] f!.G& g!.h!.i!.j!.k!.P,.l!.'$.m!.n!.o!.gl p!.q!.G+.6>.r!.>).Z] >e ').6>.s!.9d Q,.{;.(*.K,.t!.u!.v!.w!.x!.Qe f%.Tq y!.z!.A!.T=.R=.|` B!.);.c>.C!.Qp Cc D!.E!.F!.in G!.Ec H!.8a I!.'e D> D> D> J!.n%.K!.2$..6 .6 L!.c` +f .6 aa M!.+f ym N!.O!.P!.Q!.Ak {k U3 @7 bc Za R!._d S!.T!.U!.V!.HC W!.X!.Y!.T .Z!.`!. ~..~.+~./9 xn Jq [P @~.[j Vj #~.$~.%~.5#.&~.*~.p;.+7 =~.5H 9} b2 m[ -~.;~.>~.hk <g ,~.'~.)~.!~.~~.{~.]~.^~./~.N).(~._~.[U :~.<~.N).[~.}~.|~.1~.T).2~.3~.4~.5~.6~.7~.8~.u-.u-.u-.u-.y-.u-.u-.u-.u-.u-.u-.9~.0~.5Y 5Y 5Y 5Y 5Y 5Y ~..a~.b~.TJ c~. >.BH BH BH BH d~.HZ G-.$ .+>.e~.f~.g~.h~.i~.j~.k~.l~.m~.n~.o~.p~.wY vY vY vY vY vY vY vY vY vY vY vY vY tY q~.r~.s~.t~.u~.v~.w~.hU hU xV x~.y~.z~.A~.B~.C~.D~.E~.F~.G~.H~.I~.J~.K~.K~.L~.M~.N~.O~.P~.Q~.R~.S~.T~.<>.",
"-F `&.U~.G@ V~.W~.X~.Y~.a .Z~.`~. {..{.+{.@{.#{.${.%{.&{.*{.M+.={.-{.>*.>*.>e >e ;{.>{.8d K^ )).,{._;.j>.b>.'{.]).w!.){.!{.~{.{{.]{.^{./{.b>.];.N=.({.M=._{.:{.3).t3 ,b Se bZ <{.[{.@o }{.@W H> |{.T1 G> J!. c 1{.2{.t>..6 Ui 3{.}$.}$./$./$.Ui M!.{C 4{.Oc 5{.6{.Td *| RA g> g> Ld 7{.R!.8{.9{.0{.0$.~k 2B G%.g> j).a{.A9 b{.F; +7 @l ]i c{.d{.e{.$n =T 5#.f{.j).g{.h{.fJ K: i{.+0 jF S3 P&.b2 j{.kW k{.[j l{.m{.n{.o{.p{.q{.r{.!T s{.t{.u{.v{.w{.1@.x{.y{.z{.A{.B{.C{.D{.E{.F{.G{.H{.I{.6~.J{.K{.Z).u-.u-.u-.L{.L{.M{.N{.O{.u-.u-.P{.Q{.w#.R{.5Y .!.y#..!.3+.S{.T{.%!.G-.U{.V{.g&.'J W{.X{.Y{.Z{.`{. ]..].+].:..@].#].$].%].&].*].=].-].;].>].vY vY vY vY vY vY vY vY vY vY ,].'].)].!].<>.~].{].]].^]./].(]._].eU :].<].[].}].}!.|].1].2].3].2!.4].2!.5].6].7].8].9].0].a].b].c].d].e].R~.<>.",
"f].g].h].D=.i].j].k].l].m].n].o].p].q].r].s].t].u].v].Mc w].x].y].z].A,.A].N=.B].C].D].').E].F].T=.G].b>.H].j>.x!.w!.I].J].K].+c D!.L].M].N].N].c>.O].l%.P].Q].R].I+.S].M9 a| $Q  j T]._e U].4( V].L^ 8a H> W].X].Y].2$.<k Ui Z].}$.Ui _e /$.+6 _e .q Lf Fc `]. ^..^.+^.fk bc g> |u A< ;@.G%.w>.}Z D%.,S y>.@^.#^.$^.Hb yr }j %^.&^.+&.4H *^.=^.]U -^.;^.>^.vs }m X!.[m ,^.V .'^.I>.NM )^.]R }j q;.!^.~^.[g {^.]^.^^./^.(^._^.:^.<^.[^.}^.|^.1^.2@.>&.2^.3^.4^.5^.6^.7^.8^.9^.0^.a^.b^.c^.6~.d^.e^.f^.u-.u-.g^.h^.i^.i^.i^.j^.k^.l^.m^.n^.o^.v#.p^.4+.v#.v#.v#.q^.r^.s^.t^.u^.v^.w^.x^.y^.z^.&>.A^.A^.B^.r'.A^.A^.C^.D^.E^.F^.G^.H-.H-.H^.I^.J^.vY vY vY vY vY vY K^.L^.vY M^.vY 1,.N^.O^.P^.Q^.R^.S^.T^.U^.V^.W^.X^.Y^.Z^.`^. /../.+/.@/.#/.$/.%/.&/.*/.=/.-/.;/.>/.,/.'/.)/.!/.~/.{/.]/.{/.{/.",
"n8 ^/.//.(/._/.:/.</.[/.}/.|/.S$ 1/.2/.3/.9).4/.5/.6/.7/.TR 8/.9/.0/.a/.A,.A].6>.b/.c>.c>.c/.d/.i>.~).e/.f/.b>.g/.w!.w!.v!.h/.i/.Mo D!.K^ r!.b>.E,.e/.|` j/.k/.d .=$.Ac n>.+V B..|k 6n xj l/.^' k%.!;.B> I> d, <p m/.;Z j .+f +f +f c)..6 .6 .6 _e _e =).n/.o/.p/.q/.r/.z< *4 F] =d B$.Zx py W6 nc s/.u` t/.-T a$.u/.9*.g> P&.9} m[ sl OM k[ Sj v/.|g AM g> [m 6#.]U -T Yg %^.w/.x/.:c _c qi y/.:I z/.A/.B/.C/.D/.E/.F/.G/.H/.I/.J/.K/.L/.M/.N/.O/.[U P/.(~.C;.Q/.R/.S/.T/.U/.V/.W/.X/.Y/.Z/.c^.`/. (.u-.u-..(.+(.v#.v#.v#.v#.v#.v#.v#.@(.#(.$(.%(.&(.*(.#(.=(.-(. ].;(.>(.,(.'(.)(.!(.~(.J^.>].!(.{(.%%.>].](.)(.^(.L-.=]./(.t&.wK ((._(.:(.vY vY vY vY vY vY vY vY vY <(.[(.}(.|(.1(.2(.3(.4(.<>.<>.<>.<>.<>.<>.<>.<>.5(.6(.7(.@/.8(.9(.0(.a(.b(.c(.d(.e(.f(.g(.h(.i(.j(.k(.]!.HY Y-.HY Y-.l(.",
"m(.n(.o(.p(.q(.r(.s(.t(.u(.v(.w(.x(.y(.R@.9d 7a z(.A(.54 B(.&h C(.D(.E(.F(.|{.G(.];.N].N].|).Z] Pe 6>.];.H(.N].N].I(.t!.H,.a>.J(.K(.L(.f .7>.p%.M(.N(.O(.z,.A].P(.e .Q(.R(.S(.n0 T(.A` 4z U(.V(.W(.Rb 2( i/ B!.,b j%.+V X(.Vm 0n Y(.n .zs zX .6 _e /$.T+.=o Z(.`(. _.._.+_.Kd t7 fk Zx bc g> [l [F 3B @_.Y- z< Y} #_.$_.xA %_.&_.*_. n SD Z .=_.Sj  A rj ^R AM h;.rj ,^.[P -_.;_.>_.TL rs ,_.&+.[m !'.n*.Y!.'_.)_.!_.~_.{_.]_.^_./_.tW I*.d-.(_.__.J*.:_.3^.P).*&.<_.[_.}_.|_.1_.,'.2_.3_.4_.5_.6_.7_.8_.O{.9_.0_.v#.a_.v#.v#.v#.v#.v#.b_.D^.E^.A^.A^.A^.A^./(.k~.k~.c_.d_.N#.vY vY {(.wY vY s@.uY &%.vY vY vY vY e_.h&.AH c~.F-.{,.((.f_.g_.tY uY s@.L^.h_.s@.vY vY vY i_.j_.j_.j_.k_.l_.R;.m_.n_.<>.<>.<>.<>.<>.<>.<>.o_.p_.[!.q_.L~.r_.s_.t_.u_.v_.w_.x_.y_.z_.A_.B_.C_.D_.^ .HY HY HY HY HY ",
"E_.F_.G_.H_.I_.J_.K_.L_.M_.N_.O_.P_.C].Q=.9d 5a l%.Q_.R_.S_.;o T_.U_.V_.W_.X_.Y_.r!._;.t!.F,.b>.);.Z_.G(.{;.N].b>.`_.H(.`_.H(. :.i/.q0 .:.9d 0d 6>.+:.0d @:.u..N=.F].d .#:.er $:.%:.LA &:.*:.=:.-:.W].i/ 3( H> cd 5( 8W ;:.<k Uq ^t wo No .6 .6 .6 Ui 't M!.*b =f >:.,:.':.=| 4l vl =d 2B Xg }g yr !p c8 _P t< ):.!:.~:.{:.xM Ib Wg ]:.^:./:.(:._:.'D }o ]U B< ::.<:.Sj m[ [:.E7 [h }:.I| `| '_.|:.1:.2:.3:.4:.5:.6:.7:.8:.9:.0:.a:.]+.b:.(~.G;.c:.pZ d:.e:.f:.g:.h:.i:.j:.k:.l:.m:.n:.o:.6~.p:.q:.r:.s:.t:.u:.0_.v#.v:.v#.v#.v#.w:.v#.x:.2=.2=.A^.A^.A^.A^.x^.@>.y:.z:.vY vY vY vY vY vY vY vY vY vY vY vY vY vY )(.t&.$!.A:.B:.V{.C:.D:.E:.F:.tY s@.N#.&%.vY vY vY K^.G:.j_.j_.j_.H:.l_.I:.J:.K:.<>.<>.<>.<>.<>.<>.<>.L:.M:.N:.O:.P:.Q:.R:.S:.T:.U:.V:.W:.X:.Y:.Z:.`:. <..<.l(.HY HY HY HY HY ",
"+<.@<.#<.$<.%<.&<.*<.=<.-<.;<.;{.><.;{.C].d%.,<.q!.'<.)<.!<.!<.M!.~<.{<.]<.^<./<.(<.i>.N].H,.]).N].5>.G(.B].N].N]._<.^$.:<.)).q%.<<.e .I+.d .P(.[<.t..0d 0d 0d 6>.;e >e zf 7a ~' }<.|<.1<.1{.{' B, D> 6_ 7a 2<.d, -:.W,.3<.Q+.4<.Bm }s 5<. 6 Is 6<.zh .6 Z].:e 7s 7<.8<.9<.vM O>.>T ax 1g }m )I *_.g> b0 hm $} 0<.a<.b<.c<.d<.e<.f<.g<.h<.b2 i<.j<.9} |o |o Ql k<.l<.m<.n<.<h td [h o<.p<.q<.r<.s<.t<.u<.v<.w<.x<.y<.z<.A<.B<.C<.D<.E<.F<.G<.M*.H<.^+.I<.J<.K<.L<.M<.N<.O<.P<.Q<.Y%.R<.S<.T<.U<.V<.W<.X<.Y<.Z<.`<.v#.v#.v#.v#.v#.v#.v#. [.A^.B^..[.+[.@[.&>.#[.F-.$[.&%.vY s@.%[.&[.&[.d_.d_.N#.vY vY vY vY vY vY *[.=[.-[.F-.F-.((.F-..>.E:.vY vY L^.;[.vY vY vY vY K^.>[.,[.j_.j_.H:.'[.)[.![.~[.<>.<>.<>.<>.<>.<>.<>.{[.][.^[./[.([._[.:[.<[.[[.}[.|[.|[.1[.2[.3[.4[.5[.6[.Y-.%` HY HY HY HY ",
"7[.8[.9[.0[.a[.b[.c[.d[.;<.;{.];.e[.(*.Q=.f[.!;.;*.-*.g[.h[.i[.j[.k[.l[.m[.n[.ng o[.p[.c>.b>.q[.H,.c>.Oe b/.a>.N].N].d>.;*.Mo P].A,.;*.;*.9>.A].A].t..6>.Oe G+.Q=.i>.R=.r[.s[.-$.Se t[.u[.O@.~' ^' t%.v[.!;.2<.uc )' L^ w[.2{.i%.zh 8B Vr 8B nt ,v rn x[.2$.Kf y[.z[.A[.B[.-a p*.2n /R C[.Zx )I 42 2r g> ~, a*.D[.E[.F[.G[.H[.I[.Xg Y .J[.K[.L[.s;.M[.N[.Dp %O O[.Wc Wc (f OI P[.Q[.R[.S[.T[.U[.V[.W[.X[.Y[.Z[.`[. }..}.+}.@}.#}.$}.K).%}.&}.*}.=}.a-.-}.J;.;}.>}.,}.}~.'}.)}.!}.,a ~}.{}.]}.^}./}.(}._}.:}.<}.[}.}}.v#.v#.v#.v#.v#.v#. [.A^.|}.1}.2}.3}.4}.=]..>.5}.s@.y'.tY &[.&[.&[.%[.&[.6}.tY vY vY vY vY vY 7}.*!.#>.G-.F-. >.G-..>..>.wY vY L^.L^.vY vY vY vY vY 8}.j_.j_.j_.H:.'[.9}.0}.C@.<>.<>.<>.<>.<>.<>.<>.a}.b}.c}.d}.1[.e}.f}.g}.h}.h}.i}.j}.k}.k}.k}.l}.m}.n}.Y-.$` 0X HY HY HY ",
"o}.p}.q}.r}.s}.t}.u}.;{.;{.;{.e[.e[.e[.v}.w}.0d C,.A].>*.7a x}.[<.9d %u y}.z}.A}.+{.B}.C}.c>.K,.K,.j>.N].N].|).N].N].c>.D}.L(.E}.5/.K^ ;*.D}.9>.-*.u..G+.0d 0d 6>.>e ;e G(.>e 1).M=.bd 5g B> !b {' Bs i%.5;.0` 'b F}.2(  c G}.V@.H}.*U Vr Vr Vr 5<.[i Z=.i%.ys n/.I}.J}.K}.L}.M}.3l _d SN y>.|g N}.O}.5r D1 P}.Q}.R}.S}.T}.U}.V}.F; :m MM W}.X}.X}.Y}.Z}.`}. |.Wc Wc Wc .|.Wc `f +|.AL @|.L<.#|.*}.O/.$|.%|.&|.*|.=|.-|.;|.>|.,|.qW K).%}.(~.'|.)|.;Y !|.~|.{|.]|.Z>.^|.[*./|.(|.,a _|.:|.<|.[|.}|.||.1|.2|.3|.4|.5|.6|.v#.v#.v#.v#.v#.7|.B^.8|.9|.0|.t&.^..a|.b|.c|.d|.&[.&[.&[.&[.d_.tY y'.uY vY vY vY vY vY vY ](.e|.+>.@>.a|.G-.<=.f|.g|.h|.vY vY N#.vY vY vY s@.L^.i|.j_.j_.j_.j|.k|.&[.l|.C@.<>.<>.<>.<>.<>.<>.<>.m|.n|.o|.p|.1[.1[.q|.r|.f}.s|.t|.u|.r|.1[.v|.w|.x|.y|.]!.$` j+.HY HY Z-.",
"z|.A|.B|.C|.D|.E|.0d !*.!*.Q=.C].F|.;{.O,.r!.0d G|.p%.0d zf Q,.Z] 9d P=.rn H|.el &w I|.J|.B].G].q[.q[.j>.I(.H(.|).N].N].Oe K|.**.=*.L|.e .7a E!.M|.7a N|.O|.0d 0d R@.,e 0d ').,{.P|.Qe Q|.R|.k%.5_ B, W,.<s ^' J!.)b I=.'b V,._o rn S|.Uq Bm [p k7 k7 rn T|.U|.V|.S+.m$.W|.R).X|.Y|.Z|.`|. 1.Ck #n [g mm d2 (} Tl .1.+1.@1.#1.$1.P4 P&.NM %1.&1.Wc Dn *1.I>.=n Wc Wc Wc Wc ae }-.*+.y>.=1.-1.;1.>1.,1.d:.'1.)1.!1.~1.{1.]1.7'.^1.:R /1.:_.(1._1.:1.<1.[1.}1.|1.11.21.F*.31.41.51.61.Y%.71.81.91.01.a1.b1.c1.d1.e1.f1.v#.v#.v#.v#.v#.v#.g1.h1.i1.j1.k1.w^.'!..>.l1.m1.&[.&[.&[.d_.n1.uY vY vY vY vY vY vY vY vY vY o1.p1.q1.r1.s1.t1.u1.v1.w1.vY s@.d_.tY vY vY vY s@.s@.x1.j_.j_.j_.y1.k|.&[.z1.C@.<>.<>.<>.<>.<>.<>.<>.A1.B1.C1.D1.d}.1[.E1.F1.G1.H1.de I1.J1.K1.L1.M1.N1.O1.P1._].j+.0X Q1.Q1.",
"R1.S1.T1.U1.,;.V1.0d Pe 0d Pe p%.Q=.Q=.F|.Q=.W1.().);.Pe Z] >e s[.)).X1.Y1.)b <k in ]c Z1.`1. 2..2.E,.K,.+2.j>.b/.a>.N].b>.@2.D}.5/.[s #2.$2.%2.R(.I+.7a &2.Pe R@.9d 7a @:.G+.*2.v}.P|.=2.Q_.O+.Rb 5g j%.p* !t cr E> -2.)b 54 ;2.Z=.@V ~t [i [i [i k7 l7 >2./;.;o -c +R ,2.'2.=1.)2.!2.~2.{2.`n bc ]2.vn ^2./2.%l (2.!i _2.:2.qy <2.9} cK F7 [2.}2.Wc Zf Wc Wc Wc Wc zg 0e &l |2.X .S!.12.22.32.L<.c<.42.d-.52.62.72.82.92.W>.3^.02.a2.b2.c2.d2.e2.f2.g2.h2.i2.j2.k2.l2.m2.n2.o2.p2.q2.80 r2.s2.t2.u2.v2.w2.x2.y2.z2.A2.v#.v#.v#.v#.v#.B2.TJ C2.D2.E2.F2..>.b|.G2.H2.&[.&[.%[.y'.YZ s@.vY vY vY vY vY vY vY vY vY I2.J2.A^.K2.L2.M2.|=.9|.x'.|,.N2.O2.P2.Q2.R2.S2.T2.U2.V2.j_.j_.j_.H:.W2.X2.Y2.A=.<>.<>.<>.<>.<>.<>.<>.Z2.`2.C1. 3..3.+3.@3.#3.$3.%3.&3.*3.=3.-3.;3.>3.,3.'3.)3.!3.~3.{3.]3.]3.",
"^3./3.(3._3.;*.P(.M=.').Pe Oe C].F|.0d 0d O,.(*.:3.').M=.d .~;.Pe <3.t!._;.B].[3.35 +o }3.|3.13.H+..2.23.23.K,.b>.H(.33.b>.c>.=e 6a 43.2` 53.63.$2.*r 9>.y,.D}.Qe t..7a D}.x}.Oe e[.D,.I!.73.T1 'e )b ]_ !t 64 (e (e 83. c E> *, A, 93.hB /t [i rn vo 03.a3.wo +f :e b3.c3.sw d3.e3.f3.g3.h3.i3.j3.yA Rl k3.l3.m3.PQ Gj HL n3.Zx RI o3.p3.q3.xd uJ }h b} ae /f ^f ae r3.Kr /6 Uh G%.s3.t3.[*.z}.u3.v3.7'.w3.x3.U>.y3.z3.A3.}U B3.C3.D3.E3.N/.<~.F3.(~.G3.H3.I3.8-.8-.J3.K3.L3.M3.N3.,a O3.P3.Q3.R3.S3.T3.U3.V3.W3.X3.Y3.Z3.`3. 4..4.+4.@4.#4.$4.%4.&4.&4.&4.*4.=4.-4.&[.&[.%[.y'.N#.y'.y'.y'.s@.s@.vY vY vY vY vY s@.tY ;4.vY uY vY z:.>4.,4.'4.j_.j_.j_.j_.j_.j_.j_.j_.j_.j_.j_.j_.H:.)4.&[.!4.~4.<>.<>.<>.<>.<>.<>.<>.{4.]4.d}.|[.}[.k}.^4./4.(4.6~.6~.6~.6~.6~.6~._4.:4.<4.[4.}4.|4.14.6~.24.",
"34.44.54.F].64.u..74.d>.6>.0d 0d 0d F|.!*./*.C].c>.e[.F|.R@.84.G(.a>.I(.a>.:3.94.>' fw 04.a4.b4.c4.Q@.d4.]).e4.F,.N].|).`_.b/.>e Z] f4.g4.2` K=.Ac J=.E!.'<.h4.5a 5a 5a K^ 9d Pe ];.i4.j4.k4.9).l4.9d kz m4.'W 64 k7 k7 er n4.A, Bs !t Yb |$.[i L6 %W .6 o4.S|.}$.d).p4.4{.}e q4.r4.s4.R}.t4.u4.&'.yA v4.m[ w4.`6 x4.5H 7H qB ND sl 4P y4.Ag z4.Wc vd }c ik Ag ik &l q3.A4.B4.Z- ;P C4.D4.E4.z}.F4.G4.H4.I4.J4.K4.y3.L4.M4.}U N4.F<.O4.P4.Q4.d2.R4.(~.9-.S4.V_.T4.U4.V4.W4.V_.X4.Y4.Z4.`4. 5..5.+5.@5.#5.$5.%5.&5.*5.}..>J RJ RJ =5.-5.;5.>5.&[.,5.'5.)5.!5.!5.~5.{5.&[.&[.&[.N#.d_.&[.]5.6}.N#.tY vY vY vY vY vY vY vY vY vY vY YZ ^5.y'.N#./5.j_.j_.j_.j_.(5._5._5.:5.j_.j_.j_.j_.<5.[5.&[.}5.W&.<>.<>.<>.<>.<>.<>.<>.|5.15.d}.t|.{q g}.25.35.45.55.6~._4.65.75.85.95.05.a5.b5.c5._4.d5.75.e5.",
"f5.g5.h5.N=.Qe |{.6>.6>.u..0d M=.C,.94.v}.i>.i5.~).j5.i4._;._;.D,.><.D,.R=.i4.e[.94.k5.c` l5.m5.ah n5.o5.G,.p5.q[.N].|).q5.Oe ;e >e r5.D!.43.K=.2` s5.$2.$2.2` R(.R(.43.5/.t5.Oe D,.e[.D,.u5.'W v5.0q ~e w5.M9 M9 cg so Pp 3<.x5.*, 'W 8W &#.y5. D Z,.Ui Bf +6 o4.JX Ui hn z5.pE A5.B5.C5.R}.tm :d Ck #t {I `6 I0 /6 .7 D7 .7 m[  7 e8 D7 {s D5.Wc ae Wc 0e P[.)L E5.F5.G5./i =d )r H5.C(.E4.z}.t3.N<.I5.J5.K5.L5.M5.N5.O5.sW P5.x{.Q5.R5.S5.T5.d2.U5.j2.V5.u3.W5.X5.J3.Y5.I3.Z5.`5. 6..6.+6.@6.+5.+5.+5.#6.$6.%6.%5.&6.>J >J >J >J *6.=6.&[.&[.&[.&[.&[.&[.&[.&[.&[.&[.&[.&[.%[.&[.&[.n1.6}.&[.d|.vY vY vY vY vY vY vY vY vY vY tY &[.d|.tY -6.j_.j_.j_.(5.L{.;6.>6.,6.j_.j_.j_.j_.'6.)6.!6.~6.,` <>.<>.<>.<>.<>.<>.<>.{6.]6.^6./6.(6._6.:6.<6.[6.W<.6~.6~.6~.}6.b5.|6.16.26.6~.~6.36.46.6~.56.",
"66.76.8d 6>.P|.);.M(.w}.6>.F].t..x}.q5.];.];.b>.j5.j5.i4.~).];.c>.5>.Q=.F|.Q=.;{.:3.86.96.06.a6.b6.U_.c6.V].]).d6.F,.|).e6.f6.g6.h6.i6.I+.Ac .:.$2.vv 2` 2` ed bs =*.63.L(.j6.zf 6>.G(.D,.k6.qu l6.&#.Sq A, A(.cg :p yh |*.}i W,.W,.b` W,.>Z r>.No G[ /$.t0 +6 c).QU JX Ui #x m6.b6.n6.o6.wL p6.]d {K 1g L: S_ q6.r6.E< s6.t6.m[ u6.b} b} e8 0e Ag e8 &l E7 &^.4H ri ~| v6.w6.g> W%.x6.y6.z6.A6.B6.C6.D6.E6.F6.I4.G6.H6.I6.J6.H;.5@.E;.(~.K6.L6.M6.N6.8-.O6.P6.[_.Q6.R6.S6.T6.21.U6.V6.W6.X6.Y6.#6.Z6.`6.%6. 7.Z6..7.K#.1..+7.<..@7.#7.=6.$7.&[.&[.&[.&[.&[.&[.&[.&[.&[.&[.&[.n1.&[.&[.&[.&[.&[.&[.y'.YZ s@.F:.s@.vY vY vY vY vY vY vY vY M^.%7.j_.j_.j_.(5.N{._5.(5.&7.j_.j_.j_.j_.*7.=7.-7.75.;7.<>.<>.<>.<>.<>.<>.<>.>7.,7.'7.)7.!7.~7.{7.]7.^7./7.(7._7.c5.75.75./7.6~.6~.6~.~6.~6.6~.6~.:7.",
"<7.7>.b/.H(.t!.F,.*2.[7.7).ad ad G(.}7.b>.];.];.Q=.~).:3.r!.D,.6>.;{.,).94.r!.:3.c>.><.r!.86.|7.@q 17.27.I|.Q_.37.G,.F,.`_.47.57.yf 67.k>.Ac s5.=*.$2.77.87.97.ed 07.$2.s5.e .a7.Oe Oe R=.'' b7.c7._o _p }*.r>.86 er |*.B, A(.<s A, W,.t .*#.$- zs K6 m7 d7.e7.M!.Ui .6 c` >o JS /#.f7.6{.g7.h7.):.5/ qy bc xJ zl Qj `9 m[ WA m[ )q b} jk }c t;. 7 i7.j7.k7.l7.>3 m7.v1 n7.o7.]a p7.q7.41.r7.s7.t7.u7.v7.w7.x7.y7.z7.A7.B7.)Y Z>.C7.D7.(~.E7.F7.G7.H7.I7.J7.K7.L7.X5.C;.M7.N7.O7.P7.Q7.R7.S7.T7.U7.V7.W7.X7.Y7.Z7.`7. 8.=5..8.+8.RJ +7.@8.#8.&[.X2.&[.X2.{5.X2.&[.#8.&[.&[.&[.d|.&[.&[.&[.&[.&[.%[.&[.&[.&[.&[.&[.^5.N#.s@.s@.YZ d|.$8.s@.%8.&8.j_.j_.*8.,6.u-.Z).=8.-8.;6.j_.j_.j_.;8.)6.>8.,8.'8.<>.<>.<>.<>.<>.<>.<>.)8.!8.~8.{8.]8.^8.*/./8.(8._8.:8.<8.[8._7.}8._4.6~.~6.|8.18.28._4.d5.38.",
"48.Qe a>.g/.x!.+2.33.58.68.6>.p%.G,.I(.F,.e[.78.!*.q5.88.98.,e 08.><.~).a8._;.G(.><.N].><.c>.];.b8.c8.d8.e8.+j f8.H,.F,.I(.H(.f6.g8.F,.,e h8.g4.`S i8.j8.j8.2` 2` 2` 2` **.t5.O(.Pe Oe Q=.[<.k8.l8.m8.qu [i n8.86 *) xX `b B, *, A, <s @W E> o8.p8.G[ .6 q8..T fw _k /$.Ui c` $#.cn yj r8._8 _8 s8.t8.Ud i> VK ,j u8.oz /6 `6 m[ q3.jk jk v8.Z .Lr (3 un P4 w8.fk qj Kd bc G] -( qy x8.n$.y8.z8.A8.B8.C8.D8.E8.F8.G8.H8.I8.x7.J8.K8.L8.8'.M8.N8.N8.O8.P8.Q8.R8.g:.S8.T8.U8.V8.W8.X8.Y8.Z8.`8. 9..9.+9.@9.#9.$9.%9.&9.*9.=9.-9.;9.>9.,9.'9.)9.!9.~9.{9.]9.^9./9.(9._9.:9.<9.[9.}9.|9.19.19.19.29.39.49.49.49.19.59.49.69.79.89.99.09.a9.S-.b9.c9.d9.d9.d9.e9.f9.g9.h9.i9.j9.k9.l9.m9.n9.o9.p9.q9.r9.s9.t9.u9.v9.w9.x9.y9.z9.A9.B9.C9.D9.E9.F9.G9.H9.I9.J9.K9.L9.M9.N9.O9.P9.Q9.R9.S9.T9.U9.U9.U9.",
"V9.W9.X9.e4.+2.v!.'{.H(._<.g/.Y9.]).t!.N].|).f/.').Z9.`9.e .+:.,).N]._;.N].t!.I(.];.j>. 0._;.N].N]..0.+0.@0.#0.D{ o%.r!.c>.<3.0d g8.$0.7d %0.;$.&0.2` *0.=0.2` 2` 2` =*.s5.=$.-0.>e >e ').a7.Y,.;0.>0.,0.'0.)0._p r0 8q D> D> {' B, B, B, D> D> n%.Lo .6 m7 m7 Vt &W O9 /$.c` Gs >o !0.|b L%._8 hj ~0.{0.oc i> wA ,j ]0.Kt m[ m[ `6 .7 ^0.;+.G; D1 q1 =d .A /0.=P (0._0.Vg ^W Ae {#.:0.<0.[0.}0.17.t7.|0.P5.F<.10.20.30.I6.^1.I7.40.50.60.N7.;}.N7.70.S8.80.M*.90.G*.j2.00.a0.)}.b0.P7.c0.d0.3'.e0.f0.g0.h0.i0.j0.k0.l0.m0.n0.o0.p0.q0.r0.s0.t0.u0.v0.w0.x0.y0.z0.A0.B0.C0.D0.E0.F0.G0.H0.I0.J0.K0.L0.M0.N0.O0.P0.Q0.R0.S0.T0.U0.V0.W0.V0.W0.X0.Y0.Z0.`0. a..a.+a.@a.#a.$a.%a.&a.*a.=a.-a.;a.>a.,a.'a.)a.!a.~a.{a.]a.^a./a.(a._a.:a.<a.[a.}a.|a.1a.2a.3a.4a.5a.6a.7a.8a.9a.0a.aa.ba.ba.ca.da.ea.",
"fa.8d ga.t!.w!.]).]).ha.w!.ia.ia.w!.g/.c>.t!.a>.t!.`_.x}.ja.N(._;.ia.N].ka.I(.ia.N].N].N].b>.N].N].1).la.ma.#@.4F na.oa.pa.').!*.qa.i/ ra.>e sa.ta.2` $2.2` g4.g4.2` 43.43.D!.ua.Pe >e Pe -$.Z=.va.wa.x[.1$.xa.rn [i [i [i M9 H..H..jz B, T1 T1 E> ya.U=.d7.$h za.`5 Z+.15 n7 3p _e $#.Aa.Ba.Ca.Da.%a Ea.ZK Td Fa.)G 2B ,_.$t Dp  n 'D R| $| hG v< Ga.Za p7.8w !d Ha.Ia.Wg Z( Ja.nc Ka.%@.La.c3.Ma.Na.W5.Oa.E8._^.J).qW Pa.8'.Qa.Ra.Sa.Ta.V8.Ua.M8.~|.8-.Va.Wa.Xa.Ya.8-.Za.N7.S4.`a.3^.y7. b..b.+b.@b.#b.$b.k}.@3.%b.&b.C1.*b.=b.1[.@3.|[.|[.h}.r|.-b.;b.>b.1[.d}.+3.,b.d}.1[.p|.'b.)b.'b.1[.@3.!b.$b.!b.~b.>b.>b.k}.k}.{b.]b.-b.^b./b.1[.(b._b.:b.<b.[b.}b.|b.1b.2b.3b.4b.5b.6b.7b.8b.<a.9b.9b.0b.8b.ab.bb.cb.db.eb.fb.gb.hb.[a.ib.jb.kb.lb.mb.nb.ob.pb.qb.rb.sb.tb.ub.F9.vb.wb.7b.xb.yb.zb.Ab.",
"Bb.Cb. 2.H(.~).I(.G,.w!.w!.w!.w!.w!.w!.I(.ia.t!.g/.Db.Eb.().x!.g/.w!.I(.w!.ia.g/.D,.Fb.N].N].N].j>.c>.8d %> Gb.Hb.Ib.Jb.Kb.G}.Lb.y(.i/ Mb.t!.Nb.J=.Ob.i[.Pb.Qb.Rb.f%.Sb.Tb.Ub.Vb.s[.0>.O(.Wb.Xb.Yb.$2.;2.)W k7 %o Zb.L6 `b.Pp A(.M9 J!.%> !b m%.A(. c._*..c.u0 +c.@y $h @c.$h  6 #c.$c.nr %c.&c.*c.=c.-c.<W ^d ;c.>c.5:.R!.,c.p1 5r o1 b0 W6 Ha.5/ 'c.Y} 3n 0c _d [@.[@.)c.!c.~c.Q .S).{c.]c.^c./c.J7.(c.c2._c.:c.F6.<c.W>.d-.V8.[c.}c.:1.|c.1c.2c.3c.4c.5c.:+.6c.P).Ya.sw 7c.m2.L7.M). ,.8c.9c.0c.ac.bc.1[.k}.cc.1[.d}.{b.d}.d}.}[.h}.r|.k}.{b.{b.d}.1[.bc.bc.dc.t|.ec.fc.k}.gc.hc.ic.jc.}[.1[.1[.1[.@3.{b.k}.@3.d}.1[.kc.lc.mc.nc.oc.pc.qc.rc.sc.tc.uc.vc.wc.xc.yc.zc.Ac.Bc.Cc.Dc.Ec.Fc.Gc.Gc.Hc.Ic.jb.Jc.Kc.Lc.Mc.bb.hb.Nc.rb.Oc.Pc.Qc.Rc.Sc.Tc.Tc.Sc.Sc.Tc.Tc.Tc.Uc.Vc.Tc.Tc.Wc.Xc.Yc.Wc.Zc.",
"`c. d..d.+d.@d.#d.I(.w!.w!.w!.w!.w!.ia.g/.w!.w!.w!.ia.#d.g/.g/.w!.ia.N].N].$d.x!.%d.);.c>.N].N].b>.N].j>.);.6_ &d.*d.=d.A8.Nf -d.;d.>d. 2.N].,d.'d.)d.!d.~d.{d.]d.^d.r[./d.(d._d.c/.:d.<d.06.[d.A,.}d.!;.Q_.r0 %o |d.}$.6Z #c.+V 1d.$9 2d.<p Sq k7 u .3d.Vi eu 4d.r4 Is v( +6 5d.6d.Y(.$c.7d.8d.9d.0d.ad.6*.GT bd.cd.dd.ed.fd.gd.{-.g).hd.;8 t< t< ;8 id.!:.jd.t*.(d ye Fe Gb kd.-a ld.md.nd.od.u3.pd.qd.t{.e-.rd.sd.td.Q5.F3.~|.[c.ud.vd.wd.xd.yd.zd.Ad.Oa.Bd.i:.T4.Cd.Dd.U8.m2.I3.qd.d-.Ed.Fd.Gd.Hd.p|.Id.bc.@3.Jd.Jd.k}.}[.h}.ec.k}.d}.1[.d}.d}.1[.{b.|[.r|.h}.h}.h}.Kd.{b.1[.1[.d}.d}.d}.1[.1[.d}.}[.|[.Ld.Md.Md.Nd.Od.Pd.Qd.Rd.Sd.Td.Ud.Vd.Wd.Xd.Yd.Zd.`d. e.Cc.Bc..e.+e.@e.#e.$e.8b.%e.Nc.&e.*e.*e.=e.-e.Sc.Sc.;e.>e.,e.=e.Kc.'e.)e.!e.~e.Tc.Sc.Sc.Sc.Sc.Sc.Sc.Sc.~e.{e.{e.Wc.|a.{e.mb.]e.",
"6d >e >e ;e N].u!.G,.w!.ia.w!.w!.w!.w!.w!.w!.w!.w!.w!.w!.w!.ia.w!.g/.t!.t!.w!.w!.N].N].N].N].N].N].N].a>.N].^e.V1./e.[t (e.m2._e.7( :e.G(.;e |).G].q[.q[.d4.<e.[e.}e.(d./d.|e.G|.1e.2e.3e.zX 4e.5e.6e.V1.0d 7e.0q f>.>o M!.8e.$c. 6 XX i7 9e.|;.9l r} 0e..c.ae.v3 m7 $h *9 r4 +c.[C be.ce./$.de.ee.X5 fe.ge.he.ie.je.ke.le.E[.E[.E[.me.ne.Ra t< t< Td u).oe.Ea.pe.qe.re.se.te.ue.ve.we.xe.US ye.ze.Ae.Be.Ce.De.Ee.Fe.Ge.D3.U5.8-.V8.qd.40.He.Ie.Ua.8-.Je.5c.4^.Ke.X5.k2.Le.Me.i2.Ne.Oe.d-.Pe.Qe.Re.Se.Te.Ue.1[.@3.E1.Ve.}[.|[.}[.r|.ec.1[.1[.k}.k}.1[.ec.h}.h}.f}.We.{q Kd.Xe.Ye.Ye.Ze.fc.`e.r|.$b. f..f.+f.@f.#f.$f.%f.&f.*f.=f.-f.;f.>f.,f.'f.)f.!f.Ic.~f.{f.]f.^f./f.(f.(f._f.:f.<f.[f.}f.Pc.|f.|f.1f.2f.2!.Tc.Sc.3f.*e.=e.=e.4f.2!.2!.5f.~e.6f.~e.-e.7f.8f.lb.9f.-e.4f.0f.Zc.Yc.|a.{e.Tc.Uc.",
"af.bf.Ne cf.t!.g/.G,.ia.g/.w!.){.){.w!.df.w!.w!.w!.w!.w!.w!.w!.w!.w!.w!.ha.ia.ia.I(.b>.N].N].a>.N].a>.N].N].N].i>.ef.ff.gf.Ua.hf.+u if.jf.{;.N].N].kf.lf.mf.nf.K].of.[7.>e ').5>.G(.pf.qf.rf.sf.tf.uf.vf.M=.];.F].2d.[k wf.i7 xf.M!.}$./$.+6  6 0e.`5 iz yf.yf.3z `5 zf.o7 28 Af.%c Bf.Ps Ao yo :e Cf.Df.E0 Ef.Ka.Ff.,a Gf.Hf.t).If.Jf.hf Td vm Kf.Lf.S[.Mf.Nf.Of.Pf.Qf.Rf.Sf.Tf.Uf.Vf.Wf.Xf.Yf.K<.Zf.`f. g.Ke..g.+g.K).@g.#g.T4.$g.%g.&g.uw *g.=g.-g.;g.|^.V>.T>.>g.,g.R).'g.)g.i2.J8.U4.!g.ex ~g.{g.]g.d}.^g.)b.q|./g.Ve.@3.r|.@3.}[.{b.d}.k}.|[.d}.}[.r|.r|.Kd.dc.Jd.(g.}[._g.,b.:g.1[.<g.$b.&b.[g.}g.|g.1g.2g.3g.4g.5g.6g.7g.8g.9g.0g.0g.ag.bg.cg.dg.eg.fg. e.gg.hg.ig.jg.$e.kg.lg.yc.ab.Sc.mg.ng.og.pg.qg.~e.Sc.~e.ng.pb.2!.2!.rg.)e.sg.6f.~e.qg.qb.tg.tg.=e.qb.7f.ib.-e.!e.5f.ug.vg.Sc.wg.",
"xg.yg.zg.d4.H,.u!.Ag.Bg.w!.w!.){.df.){.Cg.Dg.){.w!.df.w!.w!.w!.w!.w!.w!.]).Eg.I(.ia.g/.t!.N].H(.|).N].N].N].N].N].v}.Fg.Gg.`T D..Hg.Ig.-> i/ 08.f/.>e nf.>e -e Jg.>e [7.c/.Kg.{{.Lg.Mg.Ng.Og.Pg.Qg.Rg.1p Sg.R@.,).7>.jz Tg.Ug.]*.Ke /$.Ui 't Vg.9B <k .6 +6 ,< Wg.*9 Gy 4z Gy *9 ^b  u 4z n7 cq Xg. V Yg.Lk Zg.Nc `g. h..h.40 +h.@h.#h.$h.%h.;'.&h.*h.E .=h.-h.;h.>h.,h.'h.)h.!h.~h.{h.]h.^h./h.(h._h.Ae.]|.:h.w7.1^.<h.[h.}h.|h.1h.J<.2h.3h.4h.5h.6h.7h.y{.<~.8h.9h.0h.,}.'}.(h.Zf.C;.ah.bh.ch.j= dh./g./g.eh.{q fh.]q Xe.r|.k}.1[.@3.|[.r|.d}.1[.k}.@3.cc.gh.hh.ih.jh.kh.lh.mh.nh.oh.ph.qh.rh.sh.th.uh.vh.wh.xh.yh.zh.Ah.Bh.`d.eg.~f.Ch.Dh.Eh.Fh.Gh.Hh.Ih.8b.Jh.Kh.Lh.$e.kg.Mh.$e.8b.8b.Nh.-e.sb.Tc.vg.6f.~e.Oh.Ph.vg.]e.ob.Qh.Rh.Sh.Th.Uh.)e.og.Qc.Vh.Wh.[a.Qh.Xh.mb.Oh.-e.!e.Yh.vg.Tc.Sc.Zh.",
"`h. i..i.+i.@i.#i.$i.%i.&i.*i.*i.=i.-i.;i.;i.Dg.){.df.w!.w!.){.w!.w!.w!.]).ia.ia.g/.I(.I(.N].|).b>.b>.j>.N].N].N].b>.~).W1.86 >i.,i.'i.)i.!i.uc ~i.{i.]i.^i.yf 0>./i.(i._i.54 F(.ch.:i.<i.h4.[i.:o k .;0.l8.}i.|i.0d R@.]$.88.w,.1i.m .gt QU &W Gs /$.+6 [k #D 2i.@y 3i._s q4 Hk %c &c {C 4i.xj 5i.lx 6i.7i.$U 8i.s_ k0 9i.Ka.0i.ai.bi.ci.di.ei.fi.gi.hi.ii.ji.D{.ki.x8.h*.li.mi.K$.ni.oi.pi.qi.tw K<.ri.G*.L3.si.ti.H;.a'.ui.|h.vi.wi.N7.xi.yi.zi.Ai.d2.(~.}^.|h.4'.Bi.Ci.Di.5F I3.[~.Ei.Fi.Gi.r_ yu Hi.Ii.@M Ji.t|./g.@3.@3.r|.|[.{b.@3.d}.k}.k}.ec.{b.|[.}[.:g.d}.:g.jh.Ki.Li.Mi.Ni.Oi.Pi.Qi.Ri.Si.Ti.Ui.Vi.Wi.Xi.gg.Yi.Zi.dg.Cc.`i. j..j.+j.@j.#j.(f.$e.ab.ab.$j.%j.$e.$e.$e.$e.8b.[a.og.wb.&j.7f.Oc.*j.Rh.=j.-j.]e.Yc.wg.Xc.Wc.|a.;j.Zc.>j.Sh.]e.2!.Oh.!e.,j.'j.;j.)j.vg.{e.!j.Uc.Tc.Tc.Wc.",
"~j.{j.]j.^j./j.PO 1x (j._j.:j.<j.[j.}j.|j.1j.2j.3j.df.w!.w!.w!.w!.w!.w!.]).w!.I(.g/.G,.'{.c>.|).F,._;.b>.];._;._;.N].<3.;e {{.4j.5j.*w 6j.7j.8j.9j.17 8W }i &#.W@.0j.25 27 -d.44 aj.g:.bj.ZS Cc z,.S@.2).cj.t3 P,.9d u..dj.0d 0d 0d F].ej.fj.Zb.`X n .+6 n .gx _k _e (s ]b iw Gy e( k9 Lf *b wD *R Or )g $U 'g Mf P( jq Zp gj.hj.ij.jj.kj.lj.mj.nj.]g 1_.oj.pj.qj.rj.sj.tj.uj.vj.wj.xj.,A @o yj.zj.Aj.Bj._h.V5.Cj.9-.}^.N6.j2.Dj.|1.Ej.Fj.Gj.Hj.Ij.Jj.d-.(~.H;.Fj.Kj.C;.C;.Lj.Mj.Nj.Oj.y7.Fi.Pj.Qj.Rj.Sj.Tj.Uj.Vj.Wj.Xj.Yj.2[.}[.}[.d}.Zj.k}.2[.+3.gh.|[.`j. k..k.+k.@k.#k.$k.#f.%k.&k.*k.=k.-k.;k.>k.Uc.tb.`d.dg.,k.{f.{f.'k.{f.Ec.)k.!k.~k.Ic.{k.]k.^k.[a./k.rb.<a.!k.jg.kg.(k.:f.Lh.~e.{e.Sc.Sc._k.!e.-e.Tc.Tc.Tc.Tc.Wc.|a.Xc.wg.Xc.|a.|a.:k.!j.<k.]8.[k.}k.)e.rg.1f.[k.1f.|k.Sh.-j.]e.1k.{e.",
"2k.3k.qC 4k.5k.6k.6k.6k.kL 7k.JK 8k.9k.0k.ak.bk.ck.df.w!.w!.w!.w!.w!.w!.g/.w!.ia.ia.H,.I(.g/.N].N].N].N].N].{;.dk.5>.;e i>.+:.`=.ek.fk.gk.hk.ik.jk.kk.&V lk.y` mk.nk.ok.pk.N+.*#.qk.rk.sk.tk.>I uk.3).64.F].vk.Q@.7a 7a 7a A].0d 0d 0d 0d d%.=$.wk.54 `b %#.zs xk.an _s _s k9 38 38 38 48 G, JS yk.&j (o {H zk.pl Ak.D{ Wk Qf K%.Bk.Ck.Dk.Ek.Fk.9c.`].Gk.Hk.Ik.Jk.'g.Kk.Lk.Mk.M<.Nk.Ok.tf Cf *@.Pk.n[.Qk.Rk.8-.Sk.70.Tk.Uk.Vk.Wk.Ne.Xk.00.Yk.Zk.`k. l.M/.(~.|^.|1.:h..l.[c.F*.+l.]|. 9.9h.d:.@l.&{ #l.$l.%l.&l.*l.=l.>F -l.;l.|[.>l.,l.Yj.'l.)l.!l.~l.Yj.{l.}[.d}..f.]l.^l./l.(l._l.:l.<l.[l.}l.|l.1l.2l.3l. e.dg.4l.5l.`d.Ec.6l.7l.5l.5l.Ic.~k.Jc.=e.=e.1f.)e.[k.8l.,e.9l.,e.*e.Nc.$j.Sc.Sc.Sc.Sc.Sc.Sc.0l.{e.Xc.Xc.Xc.wg.wg.al.bl.cl.dl.wg.0f.el.fl.gl.Oh.hl.il.}k.2f.|f.1f.|f.Ph.Ph.jl.kl.ll.",
"ml.nl.ol.pl.6k.6k.6k.6k.6k.6k.6k.ql.rl.1x sl.tl.ul.){.vl.Dg.){.w!.w!.w!.w!.w!.w!.t!.wl.e4.N].N].N].N].c>.i6.Pe H].;e ').D,.i5.J=.xl.]h.Xf.qq yl.zl.Al.1~.Bl.Kk.Cl.Dl.51.'h wy El.Fl.Gl.Hl.Il.Jl.Kl.|s 7>.78.Ll.Ml.=$.5a K^ =$.y,.Q,.,e G+.0d s!.v..Nl.dd M9 Ol.MT Hk vy ba Dm %c  s Pl.38 38 Ql.-c Ej Je Rl.6i.Sl.J..Jc Ms V( Tl.gj.Ul.Vl.Wl.Xl.Yl.Zl.`l. m..m.1h.+m.@m.#m.$m.u7.%m.SS &R Jk &m.*m.U_.[*.T4.}h.=m.-m.;m.>m.4c.L6.R6.8-.,m.vw 'm.)m.!m.<~.3^.z{.M7.~m.{m.]m.]m.00.^m./m.N6.(m._m._* :m.q2 <m.[m.fe fe }m.'b.@3.h}.r|.1[.1[.1[.1[.r|.|m.^4.1m.2m.3m.4m.5m.6m.7m.8m.9m.Fc.0m.ab.;e.am.bm._f.(k.Gh.cm.5l.5l.Ec.5l.5l.5l.5l.dm.em.1f.fm.2f.[k.)e.[k.4f.gm.Wh.=e.=e.=e.,e.xc.hm.Rc.Sc.Sc.im.=j.jm.Sc.Tc.Uc.Xc.wg.km.lm.mm.nm.om.dl.wg.0f.nm.nm.pm.2!.*/.]8.qm.|k.)e.2!.6f.rm.7b.sm.sb.",
"tm.um.JK ql.7k.JK 6k.6k.6k.6k.6k.6k.@K 9M vm.wm.xm.ym.){.w!.w!.w!.w!.w!.w!.w!.]).t!.]).w!.g/.t!._;.i5.e[.').G+.Qe Z] G+.G+.ja.zm.Am.JA Bm.`i Cm.Dm.Em.Fm.Gm.X..Hk vt Hm.Im.Jm.#V Km.Lm.Mm.Nm.Om.vw Pm.H}.Qm.Rm.Sm.Tm.Nl.K^ Ac f .kz t5.Um.Vm.&2.h6.6a +c kz cd fr  c.zs Wm..T hw Xm.Xm.@f Ec  v @f %Q F( <e &b g7 Ym.KA WS Zm.`m. n..n.+n.@n.#n.Ls $n.%n.jE Ij.1c.&n.*n.90.u7.=n.[*.-n.;n.>n.pi.,n.'n.|1.[c.70.N6.8-.)n.}^.!n.~n.h2.U4.{n.]n.^n./n.(n.H7._n.8-.R6.f-.:n.<n.l2.[n.}n.O*.N*.|n.1n.2n.3n.4n.Xs 5n.dM q> .z 6n.{b.cc.{b. f.7n.8n.9n.0n.an.bn./l.cn.dn.en.fn.{e.gn.Vi.hn.in.sm.Sc.Tc.~e.jn.kn.ln.~k.5l.5l.5l.5l.mn.nn.5l.5l.~k.on.pn.qn.rn.sn.Uh.Uh.Kc.Wh.Wh.=e.[a.*e.tn.un.jl.vn.*j.pg.wn.*j.1k.{e.Tc.Tc.Wc.Wc.xn.)j.)j.<k.yn.zn.el.B~.8m.An.Bn.Cn.Dn.)e.]8.En.sn.2!.sg.-j.-j.Fn.:k.",
"Gn.Hn.In.Jn.Lv Mv Kn.@K 1J kL ql.6k.1J Ln.Mn.Nn.On.Dg.Dg.w!.w!.w!.w!.w!.w!.){.I(.Pn.w!.]).23.X9.H,.K,.j>.c>.<3.r!.86.F+.Um.t..!).9n Qn.Rn.Sn.Tn.Un.rj.$f T].Vn.5a f8.<C Wn.Xn.Yn..R Zn./i.`n. o..o.+o.@o Pr @o.#o.y,.y,.$o.Ac f .f .Ac kz %o.Tm.&o.y,.7a +c 5a I+.,b M9 *o.=o.#y bq -o. u Jk pt Q/ Xp Ms ;o.fn Hm 2< >o.<$.yj ,o.'o.)o.iu !o.~o.{o.]o.^o./o.(o._o.:o.<o.[o.A8.31.m2.}o.RC _H tt |o.22.|1.1o.8-.ui.Fj.2o.3o.4o.5o.K6.6o.I3.7o.8o.9o.0o.Q4.ao.bo.co.R6.P).X5.do.eo.ze.S/.K<.fo.l4 go.ho.io.jo.{+ {+ =M dM b,.cc.r|.}[.~b. f.ko.u0.lo.mo.no.oo.Vc.Tc.po.qo.Vc.wg.wg.Wc.F9.vg.pg.)e.1f.4f.ro.so.Jc.Ic.Ec.5l.5l.to.dm.uo.dm.5l.dm.Ic.vo.wo.xo.yo.zo.Ao.Bo.D9.Co.Do.Qc.Sc.qb.9l.qb.-e.Tc.;j.Eo.vg.]e.Wc.Vc.Vc.wg.>j.mb.)e.2!.8m.Fo.ob.s_._!.Go.Ho.Ho.gl.Io.5].Io.2!.wg.I~.wg.wg.wg.wg.",
"Jo.8M Jn.|x Lv Mv Mv Mv Mv Jn.Lv JK In.Ko.Lo.Mo.On.ym.){.w!.w!.w!.w!.ia.w!.){.No.Oo.]).G,.}7.'{.}7.H,.N].j>.N].E,.T=.d>.u..R@.!*.Po.lq Yr Qo.Ro.So.To.Uo.eq l7 H+.Z] |{.Vo.Wo.J3.`f.Xo.&#.`n.Yo.Zo.-Z k .&u Tq .c +c 7a {{.K^ kz .c 2).L|.`o.=$.7a K^ K^ .c .c .c Ac Ac ~e 7W wv  p..p.zm ix +p.tf $m Ns `i J..If @p.3Z #p.$p.Yk %p.<b &p.*p.=p.-p.;p.>p.Il.,p.'p.)p.!p.sw ~p.E4.m2.st {p.]p.^p./p.(p.Fj.Ne.Dj.Dj.W4._p.j2.K6.70.8-.:p.<p.E7.[p.}p.|p.d2.u{.1p.8-.J3.P).2p.t3.3p.4p.5p.6p.L3.7p.8p.9p.0p.R0 ap.bp.cp.dp.ep.fp.gp.hp.ip.jp.kp.lp.mp.np.op.|a.Rc./k.Do.rm.vg.;j.vg.pp.'e.qp.^8.|k.Yh.ib.rp.sp.tp.~k.jb.gm.gm.up.vp.wp.tp.tp.xp.yp.zp.Ap.Bp.Cp.pn.Pc.Dp.ab.ab.%e.Sc.rb.~e.im.~e.Tc.!e.'j.;j.9f.pp.~e.{e.Sc.{e.vg.>j.'j.Zc.Fn.Io.gl.8m.pm.Ep.Fp.Fp.Gp.Ep.Bn.Bn.Hp.Ip.Jp.Kp.Lp.1!.1!.",
"Mp.1J |x 1x 1x |x Kw Mv Mv Mv Mv Mv kL 1J Lo.Np.On.ym.w!.w!.w!.w!.w!.]).]).w!.ym.w!.w!.I(.D,.R=.{;.N].j>.E,.K,.K,.T=.g8.t..Qe 0d Op.mt Pp.V( Qp.#) Rp.)c ZR 7d.v5.Sp.Tp.i6.Up.Vp.Wp.Xp.Xk Yp.Zp.(i.`p.Re  q.43.wk.=$.9d t..R@.u..7a q0 Wb..q.I+..c .c .c .c [s Ac 9` Ac L=.Ac $o +q.0l 8n Zt ix ix `t @q./7 kw J[ &y #q.&y >I $q.RC %q.&q.*q.$2 Cf.=q.-q.;q.>q.,q.U..'q.e*.6p.)q.!q.~q.{q.8n ]q.^q./q.[o.;}.(q._q.:q.<q.[q.}q.|q.1q.=m.Dj.a0.2q.3q.4q.5q.6q.7q.8q.9q.0q.Z5.aq./p.bq.cq.dq.eq.fq.gq.hq.iq.jq.kq.lq.mq.nq.oq.pq.qq.rq.sq.tq.uq.vq.Pc.Kc.fm.fm.Bp.wq.wq.*e.bb.xq.yq.|f.=e.qm.}k.Yh.vg.mb.=j.zq.Aq.zq.4f.Oh.}k.[k.1f.rp.Bq.Cq.Dq.wq.=e.Wh.Ao.Eq.|f.Fq.,e.>e.Gq.Co.Mh.Hq.6f.Iq.hn.ib.hn.ab./k.sb.-e.9f.Yh.Jq.qp.4f.~e.!e.Tc.pp.sg.Kq.Cn.Lq.Ho.Hp.Mq.Bn.Ho.Nq.Dq.Oq.Pq.Qq.Rq.Sq.Tq.Uq.",
"Vq.In.1x 1x 1x 1x 1x |x Mv Mv Mv Mv kL kL Wq.Xq.3j.Dg.w!.w!.Yq.Dg.w!.x!.w!.Dg.;i.){.w!.ga.Zq.c>.E,.q[.q[.K,.N].j>.R=.N=.e .h4.`q.bW  r.@p..r.*m +r.@r.#r.$r.%r.&r.*r.{{.=r.-r.;r.>r.IA ,r.Ao nt 'r.Wb.)r.%0.Nl.S@.9d h5.R@.G+.r5.%o.!r.E> n>.[s Te &#.~r.E}.~e !e {r.[s ~e <p ]r.^r./r.(r._r.8n Zt #o <i (< #/ ot :r.<r.[r.}r.|r.1r.2r.J[ 3r.4r.%r.5r.=b H .6r.7r.8r.9r.0r.4F !q.ar.br.cr.dr.er.fr.gr.[*.m2.Xp.R6.4c.hr.ir.1h.(e.a0.z{.R6.R6.jr.kr.lr.mr.nr.or.pr.ir.qr.rr.sr.tr.ur.J%.vr.wr.xr.&/ yr.zr.Ar.Br.Cr.Dr.Er.Fr.Gr.Hr.Ir.Jr.Kr.Wh.Lr.Mr.Dc.5l.Fc.~k.Jr.wq.Nr.jl.Oh.kl.Oh.Jq.Or.Pr.)e.1].&/.I~.Qr.pm.Io.2!.2!.gl.Kq.Rr.Sr.Qq.Tr.Tr.zo.Ur.Vr.Wr.Nq.pn.wq.9l.=e.Wh.*e.*e.qb.hn.Sc.7f.qg.hn.Xr.un.7b.Yr.jl.}a.pb.5f.qg.Oc.~e._k.Tc.mb.pp.-j.vq.Ir.Bn.Nq.Zr.`r.K~.yo. s..s.+s.`r.b(.@s.#s.",
"$s.Ln.Iv 1x 1x 1x 1x Kw Mv Mv Mv Mv kL 6k.%s.&s.*s.ck.]).w!.]).e4.|).I(.v!.){.){.ha.p5.]).x!.G].q[.j>.b>.a>.=s.'d.-s.v3 G( ;s.>s.,s.'s.)s.!s.~s.{s.]s.^s./s.(s.11 _s.:s.9> v; <s.[s.}s.|s.lB b( 1s.2s.1<  } 3s.4s.Tt 5s.6s.7s.8s.9s.Qr 0s.We xy <C Ik as.bs.cs.Wm +p.Rr ]q.ds.es.fs.gs.(p ]q.hs.ox is.js.0l .h ks.D8 ls.D8 ms.Xt $5 ns.14 ls.os.ps.qs.rs.u| ss.ts.]C us.vs.ws.xs.ys.9r.zs.As.Bs.Cs.Ds.Es.Fs.Gs.Hs.Is.Js.Ks.Ls.Ms.U8.O7.V8.Xp.2q.Ns.Os.Ps.Qs.Rs.Ss.Fj.wi.Ts.Us.Vs.Ws.Xs.Ys.Zs.`s. t..t.+t.@t.#t.$t.%t.Ir.so.Ao.&t.qp.*t.=t.-t.7l.;t.>t.,t.'t.)t.Do.Dp.8l.4f.2!.sg.Yh.3l.kl.Pr.rn.!t.1].Uh.^8.~t.|k.2!.2!.{t.]t.Dn.^t./t./t.Cn.Ho.Dq.Vr.(t.yo.Lr._t.:t.Bp.Jc.=e.=e.<t.Or._k.Sc.Sc.Sc.Sc.Tc.Oc.~e.~e.{e.{e.Sc.Tc.Uc.Uc.Uc.~e.{e.Eo.>j.>j.*/.[t.Ir.Nq.K~.yo.b(.+s.}t.b(.b(.b(.|t.1t.",
"2t.Kw eA 2J 1x 1x 1x 1x Lv Mv Mv Mv kL 6k.4v 3t.On.Dg.'{.a>.33.a>.33.ga.ia.]).X9.I(.]).v!.p5.4t.K,.b>.37.Rm.5t.cr 6t.7t.8t.9t.0t.0t.0t.at.bt.ct.dt.et.ft.gt.ht.0t.it.0t.jt.kt.jt.lt.lt.mt.nt.ot.pt.qt.rt.ot.st.tt.ut.ut.vt.wt.xt.yt.zt.At.Bt.Ct.Dt.Et.Ft.Gt.Ht.It.Jt.Kt.Lt.Mt.Nt.Ot.Pt.Qt.Rt.St.Tt.Ut.Vt.Wt.Xt.Yt.Zt.`t. u..u.+u.@u.#u.$u.%u.&u.*u.=u.-u.;u.>u.,u.'u.)u.!u.~u.{u.]u.^u./u.(u._u.:u.<u.[u.}u.|u.1u.2u.3u.4u.5u.6u.7u.8u.9u.0u.au.bu.cu.du.eu.fu.gu.hu.iu.ju.ku.lu.mu.nu.ou.pu.qu.ru.su.tu.uu.vu.wu./t.xu. j.yu.zu.Jc.Eq.Lr.5l.(k.Au.Bu.;t.<f.Nc.Gq.Cu.sb.Oh.9f.Du.)e.pg.Eu.4f.Dn.Uh.Kq.pp.pg.Fu.Gu.Gu.Hu.Iu.1f.9l.em.Ju.Ku.vo.Jc.Lu.~k.Mu.Nu.sp.Ou.Pu.jb.Qu.Oh.ng.-e.hn.Tc.Oc.Rc.qg._k._k.Oc.2!.Rh.{e.|a.Sc.Sc.Sc.Sc.Sc.Sc.Sc.Tc.;j.nb.2!.[k.*j.Kq.]8.{t.Ru.Su.Ho.C~.Tu.@s.Uu.wg.",
"Vu.1x eA fA PO 1x 1x 1x 1x Mv Mv Mv kL ql.4v Wu.Xu.Yq.23.Yu.Zu.`u. v.'{.p5.ia.w!.w!.w!.w!.ha.23.q[.G]..v.+v.@v.#v.$v.bt.0t.%v.0t.&v.*v.ft.=v.-v.-v.-v.-v.;v.ft.0t.>v.,v.0t.0t.0t.'v.ft.0t.ft.)v.!v.=v.'v.)v.~v.-v.-v.-v.-v.=v.)v.{v.]v.et.qt.^v.^v.^v.^v.^v.;v./v.(v.)v.jt._v.:v.ft.ft.:v._v.:v.<v.[v.jt.}v.|v.(v.1v.*v.*v.*v.,v.2v.3v.4v.5v.6v.7v.8v.9v.0v.av.bv.cv.dv.ev.fv.fv.gv.hv.nu.iv.jv.jv.kv.lv.mv.nv.ov.pv.qv.rv.sv.tv.uv.fv.vv.vv.wv.xv.tv.sv.yv.zv.Av.Bv.Cv.tv.tv.tv.Dv.Ev.Fv.Gv.Gv.Hv.tu.Iv.pv.Jv.zu.(t.Kv.Lv.Mv.Nv.jb.[f.)k.Ov.Pv.$e.Qv.Rv.Sv.Tv.Lh.Uv.8g.,e.Vv.8l.3l.Wv.}a.Xv.Xv.Yv.Zv.`v.'t.`d. w..w.+w.@w.{k.{k.Fc.5l.5l.5l.5l.5l.on.Ap.Mu.-t.5l.~k.Wv.kb.#w.)e.2!.2!.9f.2!.6f.pg.)e.pg.6f.-j.{e.Sc.Sc.Sc.Sc.Sc.$w.;j.~e.Tc.*j.pp.!e.pg.Kc.%w.Xv.2!.2f.2!.2!.~t.Bn.Bn.Ep.&w.*w.",
"=w.PO +H fA eA 1x 1x 1x 1x Lv Mv Mv @K kL Nv -w.;w.>w.ym.,w.'w.)w.H,.q[.23.w!.w!.w!.w!.]).Y9.K,.37.>e Up.!w.~w.{w.]w.0t.0t.0t.^w./w.0t.ft.(w._w.-v.-v.-v.-v.!v.~v.:w.<w.0t.[w.ft.-v.!v.}w.-v.-v.|w.1w.2w.3w.-v.-v.-v.-v.-v.-v.-v.-v.4w.-v.-v.5w.6w.7w.-v.-v.-v.-v.-v.-v.!v.-v.-v.-v.-v.;v.:v.^v.~v.ft.ft.0t.0t.0t.0t.0t.ft.8w.1w.,v.9w.0w.aw.bw.4v.cw.dw.4v.bv.ew.uu.fw.gw.tv.tv.tv.Dv.tv.hw.Fv.iw.tv.jw.kw.lw.pv.tv.tv.sv.tv.tv.tv.tv.tv.lw.tv.Dv.hw.mw.nw.tv.ow.pw.sv.tv.tv.tv.tv.tv.tv.tv.tv.nw.qw.rw.sw.tw.uw.so.Eq.(t.Vr.Eq.[f.$e.Ec.lg.Pv.#e.Ih.(f.Tv.vw.ww.$j.xw.yw.zw. e.Aw.Bw.Cw.Dw.7l.5l.Cc.zw.dg.~f.Ew.cm.5l.mn.Fw.Gw.5l.5l.Hw.Hw.jb.5l.5l.&e.=e.Wh.=e.Iw.}f.*e.jn.Rh.Rh.*j.2!.2!.4f.)e.6f.mb.wg.Xc.Xc.|a.Tc.Sc.vg.Zc.Sh.Sh.2!.vg.4f.Eu.vg.*j.og.qb.pg.Jw.*/.*/.2!.2!.Io.Go.Kw._!._!.",
"Lw.SB fA fA OH SB SB 1x 1x 1x Lv Mv Jn.1J um.Mw.Nw.>w.On.On.Ow.w!.ia.p5.d6.w!.w!.w!.w!.$d.x!.q[.Pw.Qw.Rw.Sw.Tw.9w.9t.0t.0t.0t.0t.0t.0t.0t.0t.}w.-v.-v.Uw.Vw.~v.'v.Ww.Xw.Yw.Zw.-v.1w.|w.`w. x..x.+x.@x.#x.$x.%x.&x.*x.=x.5w.-x.-x.-v.|w.;x.3v.>x.,x.'x.%x.3w.;x.)x.!x.~x.{x.1w.3w.-v.-v.=v.=v.-v.-v.-v.=v. x.'x.]x.;v.^x.Yw./x.(x._x.:x.<x.ew.[x.}x.|x.1x.2x.3x.4x.5x.6x.7x.mw.nv.Fv.8x.9x.kw.nv.0x.tv.tv.ax.bx.cx.Dv.jw.tv.tv.tv.tv.tv.iw.dx.lw.dx.iw.fv.ov.nw.ex.hw.tv.tv.tv.tv.tv.sv.tv.tv.nw.fx.zp.so.Jr.Vr.Vr.gx.hx.Ho.qm.-t.jb.ix.!k.jg.lg.gg.dg.dg.zw.vw.jx.(f. e.kx.lx.cm.Wi.mx.nx.nx.<f.(k.ox.px.lg.6l.@w.Gw.uo.qx.rx.5l.5l.Hw.sx.tx.ux.5l.&e.Hw.Ou.em.ln.ib.|f.Hq.pb.Rh.6f.6f.2!.2!.2!.Rh.6f.'j.vx.Tc.wx.ob.ob.xx.Jw.2!.Oh.1f.hl.4f.|f.En.5].Sh.6f.=j.6f.4].xx.4].yx.2!.Qr.B~.s_._!.s_.",
"=w.Iv +H fA fA fA )B 5v 1x Kw Mv Mv kL ql.|x Mw.zx.;i.xm.;i.Ax.w!.w!.]).]).]).w!.w!.w!.G,.'{.Bx.Cx.Dx.Ex.Fx.it.0t.ft.lt.lt.=v.'v.lt.ft.ft.Gx.Hx.Ix.Jx.Jx.|w.Kx.Lx.=v.-v.Mx.1w.1w.:w.-v.~x.Nx.cv.bv.ew.ew.ew.ew.av.Ox.5v.Px.ew.ew.<x.<x.Px.ew.Qx.Rx.Sx.Tx.Sx.ew.Sx.Rx.Ux.Vx.Wx.Xx.Yx.Zx.,x.`x.6w.Jx.|w.`w. y.3v.Ox.$x. y.1w.1w.|w..y.+y.+y.ew.ew.ew.ew.@y.#y.$y.%y.&y.Dv.pv.pv.tv.tv.tv.wv.tv.kw.*y.tv.*y.cx.=y.#x.-y.;y.>y.,y.wv.tv.tv.tv.tv.nv.'y.)y.!y.~y.{y.]y.^y.vv.8x.Dv.tv.tv.tv.tv.tv./y.Bv.(y.uw.Vr.Ho./t.so._y.*e.=e.bb.$j.Iw.=e._y.Ov.hg.dg.dg.dg.{f.dg.fg.hg.fg./f./f.:y.`i._f.<y.[y.`i.5l.5l.}f.5l.5l.{k.)k.Ic.Yi.mn.up.[y.}y.|y.1y.}f.9l.vo.2y.Bq.3y.2y.]8.)e.[k.[k.4y.&/.2!.2!.Rh.Jw.Rh.=j.Rh.5y.2!.2!.2!.Io.2!.2!.2!.4f.&/.6y.s_.yx.7y.s_.2!.8y.2!.*/.Io.9y.0y.0y.B~.ay._!.B~.yx.",
"by.eA OH fA fA fA fA fA PO Kw Mv Jn.ql.JK Lv cy.&i.On.>w.dy.ey.fy.df.w!.w!.e4.w!.df.ck.gy.hy.iy.jy.ky.ly.0t.0t.)v.=v.-v.}w.-v.-v.-v.|w.my.ew.ny.oy.py.qy.Mx.ry.sy.-x.4w.ty.`x.uy.vy.Jx.}x.+x.wy.xy.@x.Rx.Rx.+y.Rx.Rx.ew.ew.Rx.Rx.av.ew.ew.ew.+y.yy.4x.zy.Ay.4x.By.Cy.Dy.Ey.Vx.Fy.ew.ew.ew.+y.wy.<x.Gy.@x.#x.@x.uy.@x.Nx._x..y.Hy.,x.av.Wx.Vx.#y.ew.Iy.Jy.Ky.fv.tv.nv.*y.Ly.My.~y.Ny.Oy.ax.ax.jw.sv.tv.jw.Py.Qy.Ry.Sy.Ty.{y.Uy.Vy.tv.tv.^y.tv.ax.Wy.Qy.Xy.)y.=y.Yy.Zy.sv.`y.Cv.Cv.sv.sv.ex. z..z.Bv.fx.+z.=t.@z.#z.~e.$z.<a.Pc.mg.3f.sb.Nr.hn.wb.%z.&z.{f.Cc.*z.=z.-z.;z.>z.,z.'z.)z.!z.~z.{z.]z.5l.dm.Ic.Ic.Gw.tp.Ap.^z./z.(z._z.:z.<z.[z.Yv.}z.ll.|z.1z.2z.2z.3z.4z.Ou.5z.6z.7z.sn.G~.G~.2!.8y.2!.2!.Jw.8z.8z.2!.2!.2!.s_.*/.G~.9z.0z.az.bz.cz.dz.dz.ez.fz.}!.gz.ay._!.hz.iz.jz.jz.jz._!.kz.gz.",
"=w.@H fA fA fA fA fA fA fA Kw Lv Kn.7k.1J 4k.lz.mz.nz.oz.pz.qz.Cg.ym.ym.rz.sz.I].Dg.tz.uz.vz.wz.xz.yz.zz.0t.ft.=v.-v.|w.'v.Xw.Zw.Az.Zx.Bz.Sx.Cz.Dz.Ez.Fz.Gz.Hz.Iz.bv.Jz.@y.ew.Ay.ew.Bz.ew.ew.By.Kz.Lz.By.Mz.Nz.Oz.Pz.Qz.Qz.4x.Sx.Sx.ew.4x.4x.Rz.Sz.Tz.Uz.Qz.Lz.Vz.Dy.Wz.3x.av.Rx.Fy.Xz.ew.#y.Fy.Yz.+y.Vx.Zz.@x.Rx.ew.ew.ew.wy.wy.ew.`z.Xz. A..A.+A.@A.@A.#A.$A.$A..z.%A.&A.*A.=A.-A.uu.fv.Ly.;A.>A.ov.,A.'A.`y.kw.ax.)A.kw.jw.sv.wv.$y.!A.=A.~A.{A.]A.^A.vu.yv./A.;A.(A._A.:A.>A.#A.vp.<A.[A.vp.}A.Ap.|A.1A.1A.2A.3A.3A.4A.5A.6A.vg.7A.8A.8A.9A.im.0A.aA.bA.cA.dA.eA.fA.gA.hA.iA.jA.kA.0A.lA.mA.nA.oA.pA.qA.rA.sA.tA.uA.vA.wA.wA.xA.yA.zA.wA.2].zA.AA.uA.BA.CA.DA.EA.[k.)e.2!.Jw.Jw.2!.2!.G~.FA.GA.G~.HA.IA.JA.2!.2!.Qr.KA.LA.MA.NA.NA.OA.PA.QA.RA.SA.ay.TA.UA.VA.WA._!.ay.XA.YA.YA.ZA.`A. B..B.",
"+B.5v +H fA fA fA fA fA eA |x Mv Jn.6k.1J @B.#B.@i.$B.%B.&B.On.xm.>w.On.*B.=B.Ow.>w.-B.;B.>B.,B.'B.)B.!B./x.gt./x.3w.-v.-v.:w..y.1w.%x.6w.>x.{x.~B.{B.]B.^B./B.(B.`z.4x.ew.ew.Sx.ew.Tz.Sx.ew.4x.By._B.Pz.:B.`z.Tz.Tz.Mz.By.By.Tx.zy.`z.<B.[B.}B.}B.|B.1B.2B.3B.4B.5B.6B.7B.8B.9B.Dy.0B.Ux.aB.bB.6B.cB.dB.eB.fB.gB.hB. A.ew.ew.iB.5x.gB.jB.kB.lB.mB.nB.(y.oB.pB.qB.qB.qB.rB.sB.Cp.>A.Wz.tB.uB.uB.vB.wB.xB.yB.zB.AB.BB.CB.DB.EB.=A.FB.GB.AB..z.HB.=A.nw.IB.yv.JB.ex.DB..A..A.KB.LB.MB.zp.NB.fx.OB.PB.QB.RB.SB.TB.UB.VB.WB.Ph.XB.8A.Iq.9A.YB.ZB.`B. C..C.+C.@C.#C.RB.$C.$C.%C.fA.&C.*C.=C.-C.=j.5y.;C.4].>C.>C.,C.'C.)C.!C.~C.{C.]C.^C./C.]C.]C.(C.(C._C.:C.8y.2!.8y.8y.Jw.<C.*C.[C.}C.8z.Jw.Rh.Oc.jm.|C.8z.Jw.8y.G~.1C.2C. B.3C.3C.OA.QA.4C.`A.5C.6C.7C.jz.jz.8C.9C.9C.0C.aC.3C.bC.cC.OA.dC.eC.fC.",
"gC.@H Iv )B fA fA fA hC.Kv Lv Mv Jn.Ko.1J kL iC.jC.%B.kC.lC.mC.nC.oC.pC.qC.rC.sC.tC.uC.vC.wC.xC.yC.zC.AC.BC.CC.Hy.!x.Zw.DC.{x.EC.+y.FC.Rx.Rx.,x.GC.HC.IC.Ez.JC.KC.Sx.0B.ew.ew.ew.ew.jB.LC._B.}B.}B.Mz.Tx.iB.Mz.MC._B.zy.Qz.Ay.`z.:B.NC.OC.PC.|B.QC.QC.1B.}B.-/.RC.QC.NC.NC.2B.4B.SC.SC.NC.|B.TC.UC.7].VC.`r.WC.4B.XC.YC.ZC.4x.5x.ZC.`C. D.>A.#A..D.+D.@D.b(.#D.$D.$D.$D.$D.%D.&D.PB.*D.=D.-D.;D.>D.em.*t.!f.,D.Ah.Fw.wp.'D.fx.fx.PB.(A.)D.!D.~D.qu.ov. D.{D.#A.Dy.]D.Zz.zB.vB.pw.#A.(y.#A.(y.^D.wp./D.(D._D.:D.<D.~z.[D.}D.|D.1D.2D.3D.gA.4D.vA.!z.`B.5D. C.6D.4D. C.7D.fA.8D.~e.9D.8D.jm.0D.aD.bD.H~.cD.dD.fz.JA.eD.fD.gD.eD.hD.wA.(C.iD.(C.]C.]C.jD.jD.hD.hD.2!.2!.1C.kD.lD.mD.bD.nD.wx.!e.6f.9f.5y.Jw.Jw.kz.B~._!.oD.pD.XA.SA.7C.WA.qD.rD.sD.(C.(C.rD.ay.tD.uD.vD.wD.xD.QA.yD.zD.AD.AD.AD.eC.",
"BD.CD.CD..H DD.ED.DD.4k.1J 1J 1J 8M ql.ql.1J FD.GD.HD.ID.%B.%B.JD.KD.%B.%B.LD.MD.uQ ND.OD.PD.QD.RD.SD.TD.UD.7f.VD.WD.#x./x.2w.:w.1w.XD.YD.$x.uy.wy.Qx.4x.+y.Rx.ew.#y.0v.$y.pu.Gv.#y.#y.lw.hw.ZD.`D.4x.Pz.1B.#D.$D. s. E..E..E.|B.QC.QC.+E.@E.#E.$E.%E.&E.*E.=E.-E.8].b(.#D.WC.;E.-/.#D.q_.>E.TC.,E.'E.b(.)E.|B.XC.kB.1B.2B.}B.}B.SC.!E.}B.}B.}B.~E.{E.WC.TC.]E.]E.$D.1B.1B.{E.^E.Bv./E.PB.(E.PB._E._E.:E.<E.lB.[E.KB.KB.}E.|E.#A.#A.1E.#A.{D.uu.7x..z.fx.1E.#A.:A.}A.2E.3E.4E.#A.}E.LB.LB.(y.5E.@w.Zd.2D.6E.7E.7E.!z.8E.9E.0E.aE./z.^z.bE./z.cE.dE.eE.fE.gE.,C.hE.8y.&C.iE.7D.4D. C.jE.tA.)C.3].kE.2].lE.mE.nE.~C.]C.zA.8C.F~.oE.(C.(C.(C.pE.]C.pE.(C.jz.B~.kz.Io.Io.B~.kD.=C.H~.8z.2!.;C.gD.2!.6f.jm.qE.2!.4].|!.rE.jz.jz.KA.(C.(C.sE.tE.uE.(C.(C.(C.vE.wE.xE.yE.zE.3C.3C.NA.AE.AD.BE.AE.fC.AD.",
"CE.DE.EE.FE.GE.HE.IE.IE.JE.KE.KE.KE.LE.JE.ME.NE.OE.PE.QE.QE.QE.RE.SE.Mn.Mn.Mn.SE.TE.Kv Mv Mv Kv 1x UE.VE.=A.WE.$x.wy.#x.#x.#x.#x.XE.Ox.Px.Rx.wy.Ox.0v.YE.ZE.`E. F.FB.!A..F.+F.tv.wv.qu.@F.#F.$F.%F.&F.*F.=F.yo.@s.-F.>E.L~.q_./C.;F.>F.,F.'F.)F.)F.'F.)F.!F.~F.~F.{F.]F.WC.1B.^F.$D.1B.$D.TC.]F./C. s./F.~F.8].(F.`r._F.+s.7].]F.1B..s.:F.:F.<F.$D.|B.]F.$D.]E.[F.QC.PC.}F.Cp.|F.1F.2F.^E./E.QC.mB.mB.mB.@A.9B.9B.Dy.2E.#A.#A.^D.#A.@A.@A.:A.3F.AB.%A.(y.#A.4F.sB.5F..D.[A.}E.zv.PB.|F.#A.fx.}A.6F.7F.gn.8F.Oc.$C.9F.0A.0F.8D.%C.9A.0A.aF.bF.cF..C.bF.dF.eF.dA.eF.UB.fF.6D.CA.gF.&/.GA.hF.8z.Jw.2!.iF.4].4].Jw.4].jF.AA.kF.lF.G~.mF.nF.jD.oF._!._!.ZA.Io.|!.2C.9y.s_.B~.bD.Jw.8y.2!.FA.Du.;C.AA.1C.Jw.Jw.AA.pF.qF.rF.sF.{C.tF.]C.]C.(C.(C.(C.6C.RA.e(.uF.vF.wF.xF.SA.yF.zF.Uq.zE.AF.fC.AD.AD.BF.",
"CF.DF.KH .K EF.FF.FF.FF.EF.FF.nI GF.GF.HF.IF.JF.ql.Ko.Ko.Jn.KK KK |x Mv Mv |x 1x Lv Lv Lv Mv Mv Kw KF.LF.MF.+y.wy.#x.wy.#x.#x.@x.NF.My.OF.wy.$x.PF.|E.#A.QF.4F.RF.SF.qv.TF.UF.UF.pv.VF./A.WF.XF.YF.ZF.Ur..E.+s.`F. G.>E..G.-E.+G.@G.Uq.#G.;/.$G.%G.&G.*G.NC.{F.1B.=G.:F.<B.eB._B.WC.TC.$D.QC.WC.$D. s.-G.7].@t.@t.}t.8].|B.]F.1B.;G.1B.QC.1B.QC.RC./C.>G.,G.,G.-/.b(.1B.'G.YC.=D.kB.)G.4B.3B.XC.!G.>A.6B.lB.~G.AB.{G.]G.^G.GB.:A.^D.@A.@A.@A.#A.#A.>A.Bv.>A.5F./G._E.^E.lB.=D.(G.PB._G.|F.:G.1F.<G.:C.g0.[G.=C.cD.8z.}G.|G.=C.cD.1G.1G.2G.#C.3G.4G.bD.hF.bD.5G.6G.7G.8G.9G.8G.bD.0G.aG.kD.5G.H~.5G.kD.kD.kD.kD.kD.kD.kD.kD.kD.H~.bG.4C.QA.cG.hz.s_.dG.eG.2C.fG.dG._!.LA.bD.H~.4].Jw.Jw.8z.8y.8y.8y.mF.Du.c(.gG.hG._F.iG.iG.jG.-/.kG.lG.mG.(C.nG.SA.oG.pG.pE.qG.rG.sG.tG.tG.cG.QA.uG.vG.AD.AD.wG.",
"xG.DF.yG.EF.KH FF.FF.FF.FF.FF.FF.GF.GF.nI DF.zG.1J rl.Jn.Mv Lv Lv Kv |x Mv Kw Lv Kv Kw Lv Mv Mv Kw AG.BG.CG.@x.Hv.#x.#x.#x.Px.!A.vu.yv.,A.DG.ov.EG.FG.@A.CB.GG.NF.HG.EB.`y.sv.IG.pv.wv.pv..z.+j.:A.JG.KG.LG.MG.wu.5B.%D.+D.pB.+D.oB.NG.YC.OG.PG.QG.[B.ZC.aB.[B.Mz.RG._B.SG.Mz.SG.NC.1B.}B.2B.#D.TG.-F.`r.WC.b(.b(.b(.q_.q_.=F./C.UG.VG.Tq.#D.WG.8].XG.~F.=F.jG.#D.jG.iD.YG.,G.iD.ZG.`G.TC.WC.NC.~E.lB. H.PC..H.+H.=D._G.(A.)G./E._E.5B.<E.>A.nB.vp.@H./E./E.#H.b(.pB.qB.$H.b(.b(.qB.qB.%H.2F.&H.*H.hD.|C.1G.[C.=H.0D.1G.4G.-H.0D.;H.[G.}G.>H.jm.hA.,H.7D.'H.)H.!H.!H.5y.bD.bD.}C.;H.aG.4G.aG.kD.kD.~H.{H.]H.kD.cC.^H.~H.kD.kD.kD.kD.kD.QA.OA.OA.OA./H.(H._H.:H.`A.4].`A.cz.<H._H.kD.bD.kD.5G.hF.kF.kz.1C.Qr.jz.ay.[H.;/.7C.pE.gz.jz.}H.|H.SA.jz.tD.(C.(C.(C.1H.1H.2H.2H.fG. B.xE.tG.3H.BE.AD.AD.",
"4H.5H.FF.FF.KH FF.FF.FF.FF.$F FF.$F [J KH DF.JF.KK Mv Mv Lv Kv Kv Mv 1x Kv Lv Mv Kv Kv Lv Mv Mv Kw 6H.7H.8H.9H.=y.#x.#x.0H.aH.nw.ex.Cv.IG.Dv.Gv.Xz.qu.Wz.bH.cH.%F. A.WE.dH.eH.WE.%F.fH.)D.gH.<t.hH.Nu.2F.kB.*D.5F.iH.jH.sB.kH.lH.mH.nH.oH.)D.%D.pH.qH.`F.-F.Fp.Fp.iz.rH.yE.sH.tH.uH.vH.+E.2B.b(.{F.wH.(F..E.#D.b(.b(.b(.;G.b(.b(.b(.b(.#D.b(.q_.xH.Sq.yH._!._!.ay.zH.nG.pG.TA.(C.(C.jG.b(.AH.|B.;G.b(.BH.CH.ZG.ZG.b(.b(.b(.ZG.b(.b(.qB.rB.-D.a(._E.#H.b(.DH.#D.;G.#H.pB.;G.#D.EH.CH.pB.NB.FH.FH.GH.HH.8C.IH.mF.cD.hF.|C.JH.[C.1G.>H.kD.aD.|C.4].KH.`B.@C.LH.MH.2!.2!.5y.0l.Vc.NH.OH.PH.{H.QH.vx.~H.RH.SH.TH.UH.VH.WH.{H.kD.dz. B.az.kD.dz.dz.XH.yD.YH.ZH.`H. I..I.+I.(H. I.@I.#I.$I.%I.<H.7y.kz.KA.;C.&I.ay._!.pD.*I.#G.=I.ay.ay.eG.-I.;I.;I.cz.>I.aC.MA.MA.KA.xF.sD.0C.WA.xF.MA.,I.'I.)I.AD.AD.",
"!I.xG.$F FF.GF.FF.FF.$F ~I.{I.FF.FF.fD yC ]I.zG.In.Mv Mv |x |x |x Lv |x Lv Mv Lv Mv Lv Mv Mv Mv 1x ^I./I.(I.-y.*y.Ny.#x._I.nv.Dv.Xz.3F.]A.:I.<I.[I.:F.}I.|I.1I.2I.3I.4I.5I.6I.7I.8I.9I.0I.aI.bI.cI.Lq.>E.dI.eI.fI.AH.NC.XC.+H.OC.]F.gI.hI.+G.iI.jI.jI.kI.lI.mI.nI.oI.pI.T'.qI.(H.rI.9].sI.tI.8]..G.M~.uI.Kw.vI.q_.q_.q_.b(.b(.b(.b(.b(.b(.|B.QC.RC.wI.Ho.Ep.jz.]C./C.tF.iG./C.ZG.{F.xI.jG.tF.yI.nE../.zI.HH.BH.ZG.b(.TC.EH.ZG.b(.b(.b(.#H.b(.*D.qB.pB.*D.{E.$D.{F.ZG.CH.#D.$D.#D.;G.qB.1F.sB.pB.GH./C.gz.H~.5G.;H.>H.<C.AI.BI.1G.CI.DI.aG.kD.5G.EI.FI.GI.HI.)H.wx.!e.'j.II.JI.NH.KI.LI.MI.NI.NI.OI.SH.%I.RH.PI.QI.^H.RI.vx.SI.TI.WH.PA.UI.OA.VI.WI.QA.dz. B.XI.%I.YI.ZI.YI.`I.`I. J.cI..J.+J.@J.#J.$J.wF.jz.ay._!.%J.uF.=I.iz.'I.&J.ZH.*J.ZH.az.3C.3C.NA.aC.3C.XA.jz.xE.RA.MA.vD.=J.'I.-J.AE.AE.",
";J.4H.>J.$F ,J.~I.FF.$F 'J.)J.$F FF.%F /B !J.zG.In.Lv Lv Mv Lv Mv Lv Lv Lv Mv Mv Mv Mv Mv Mv Mv 1x ~J.{J.]J.^J.>y./J.]y.(J._J.:J.<J.3E.[J.}J.|J.1J.2J.3J.4J.5M 5J.6J.7J.j0.8J.9J.0J.aJ.bJ.cJ.>I.-G.dJ.LC.eJ.'G.PG.fJ..E.gJ.hJ.iJ.jJ.kJ.lJ.2g.mJ.nJ.oJ.oJ.1g.pJ.qJ.rJ.sJ.tJ.uJ.vJ.MG.wJ.Sr.Rr.Rr.&w._!.xJ.rE.Qq.Tq.Kw.yJ.-F.Rq.`r.b(.b(.yo.-F.`r.`r.fI./t.Ho.Sq.vI.,G.]C.zJ.sD.]C.]C.]C.AJ.-/.jG.jG.]C.]C.BJ.jG.BJ.jG.#D.EH.-/.BJ.b(.BH.$D.]F.$D.b(.;G.qB.{E.PC.3B.CJ.CH.pB.;G.pB.$D.qB.DJ.EJ.pB.ZG.BJ.pE.FJ.kD.ez.aD.>C.fD.5G.hF.|C.DI.kD.>H.GJ.HJ.IJ.JJ.GJ.0l.KJ.LJ.;H.aG.bG.MJ.NJ.<H.UH.OJ.OJ.Zh.OI.PJ.dl.*J.RH.QJ.Zh.OI.Zh.PJ.QI.RJ.SJ.TJ.OA.dz.OA.`A.cC.ZH.ZH.UJ.'I.VJ.*J.WJ.XJ.XJ.YJ.ZJ.|H.gz.XJ.VI.`J.]C. K.|].%J._!.iz..K.WI.+K.@K.@K.#K.#K.$K.UJ.NA.NA.NA.4C. B. B.cz.-I.%K.,I.&K.WH.WH.",
"!I.xG.~I.$F *K.=K.FF.FF.-K.>J.FF.fD <J ;K.>K.zG.@K Mv Mv Mv Mv Mv Jn.Mv Mv Mv Mv Mv Mv Mv Mv Kv 1x ,K.'K.)K.!K.~K.{K.]K.^K./K.(K._K.:K.<K.[K.}K.5J.|K.1K.1K.2K.3K.4K.5K.6K.aC.qB.:E.q_.8].~E.}B.<B.Ux.4x.7K.8K.2B.9K.0K.aK.bK.cK.dK.eK.fK.gK.mc.jh.hK.iK.jK.kK.oo.lK.<k.#w.rp.mK.nK.uw.Cq.pm.oK.=F.Sq._!.0y. G.Go.B~.Go.rE.pK.Tq.qK.rK.q_.Fp.sK.tK.dI.uK.vK._F._F.nE. K.wK.xK.jz.pK.jz.gz.gG.E~.yK.pE.pE.zK.zK.AK.nE.nE.,G.BJ.BJ.iD.]C.pE.iD.]C.]C.9C.BK.CK.jG.DK.DK./C./C.DK.jG.AJ.EK.FK.GK.]C.xF.tD.7C.HK.IK.JK.IK.KK.LK.UI.PA.cC.kD.kD.MK.NK.[C.OK.PK.QK.RK.SK.aG.IJ.kD.kD.[G.qE.Sh.MJ.H~.kF.TK.~H.%I.UK.VK.WK.WK.wg.XK.UK._H.kD.~H.MI.YK.ZK.`K. L.d(.d(.kF.kF..L.zJ.eD.+L.2H.wK.KA.jz.`A.kF.2C.TK.+J.+J.2C.+J.YJ.YJ.ay.oD.oG.cG.MA.@L.XA.hz.#L. B.oG.$L. B.%L.az.&L.*L.WJ.(!.*I.|I.=L.-L.TI.",
";L.xG.4H.4H.*K.-K.>L.FF.FF.FF.FF.%F fD [J ,L.JF.Ln.Lv Mv Mv Mv Kn.Ko.Mv Mv Mv Mv Mv Mv Mv Mv |x 1x 'L.)L.!L.)e.~L.{L.]L.^L./L./L.^4.(L._L.Md.9n.:L.<L.[L.}L.|L.1L.cJ. G.XC.&y.cx.BB.Cv.%y.FB.2L.xB.XC.hz.3L.4L.5L.6L.1[.1[.7L./b.8L.9L.1K.0L.aL.bL.cL.dL.eL.fL.vg.Oc.pg.wo.em.gL.hL.Th.3y.[!.iL.jL.kL.*/.*w.B~.eG.|!.s_.s_.B~.Sq.lL.qK.Kw.dI.TG.tK._F.mL.nL.>E.oL.E~.yI.pK.|].Tq.yI.pL.qL.zH.pE.sD.(C.sD.eD.zH.BJ.,G.(C.(C.gz.zK.F~.gG.iD.rL.sL.rD.VG.tL.uL.vL.wL.xL.yL.uE.mG.tD.e(.zL.AL.BL.AE.)I.NA.aC.CL.wG.DL.EL.AD.AD.AD.eC.FL.HK.eC.LK. B.cC.CI.<C.kD.GL.[G.HL.IL.JL.kD.0G.NJ.H~.`K.0z.qE.8z.Jw.KL.bD.XJ.bG.LL.<H.H~.5G.hF.ML.QA.:H.cG..L.iF.5G.NL.0z.KL.iF.fz.eD.OL.,G.,G.(C.pE.0z.AI.`K.PL.Qr._!._!.s_.2C.ez.ez.#L.dG.s_.dG._!.ay._!.ay.jz.ay.5C.5C.iz.NA.QA.#K._!.>I.QL.cI.>I.RL.AD.AD.",
"!I.>J.4H.4H.xG.~I.SL.FF.FF.FF.%F %F KH GF.TL.JF.Ln.Lv Mv Mv Mv Mv Mv Mv Mv Mv Mv Mv Mv Mv Lv |x PO UL.VL.WL.XL.YL.ZL.`L. M.1[.`L.lc..M.+M.@M.#M.$M.VJ.uI.%M.^F.hB.&M.*M.=M.-M.;M.tu.>M.)E.,M.'M.)M.!M.~M.{M.]M.^M./M.(M._M._L..f.:M.:M.<M.[M.}M.|M..K.Qh.1M.;z.dm.Av.Bv./G.hx.:t.Ju.hl.wJ.|].oK. G.2M.3M.Kw._!._!.ay.Fp.Tq.yI.qK.wI.wI._F.#D._F.,E.4M.1B.|B.1B.5M.6M.7M.qK.Tq.=F.VG.pL.ay.kz.VI.oD._!._!.#K.jz.]C.(C.iD.]C.UG.jD.sD.|].8M.9M.pE.gz.3].0M.aM.]C.xE..G.bM.cM.uL.dM.eM.yE.fM.gM.hM.iM.jM.kM.BE.AD.AD.AD.AD.AD.AD.AD.eC.AD.AD.fC.lM.HK.DI.kD.mM.nM.DI.oM.pM.qM.kD.NH.rM.qM.H~.<H.4].5G.FJ.YA.bD..J.CI.bD.sM.tM.4].uM.]H.WI.vM.KL.sG..L.5G.5G.FJ.FJ.wM.wK.oE.2].gz.gz.(C.8C._C.eD.|H.KA.(C.sD.sD.(C.TA.oF.B~.xM.2C.*/.s_._!._!._!.hz.#L.yM.QA.'I.3C.QA.YK.iz._!.XA.'I.zM.AM.lM.AD.AD.",
"BM.CM.4H.4H.*K.SL.DM.FF.FF.[J ^E EM.EM.yC !J.FM.Ln.Lv Mv Mv Lv Mv Mv Mv Mv Mv Mv Mv Mv Mv Mv Ln.GM.HM.IM.JM.KM.LM.0L.|K.an.MM.NM.OM.PM.vI.2F.QM.RM.SM.TM.:t.3F.UM.VM.WM.XM.YM.ZM.`M. N..N.+N.j0.@N.1[.1[.1[.#N.^6.$N.%N.&N.*N.=N.-N.;N.6K.TH.>N.,N.cJ.'N.)N.!N.~N.a(.on.{N.rp.3y.]N.xH.wI.Io.^N../.hG.=/.s_.gz.AK.jz._!.r_.=F.jG. G.wI.Mq./t.b(.WC.|B.|B./N./N.NC.SC.4M.E~./F.b(.sK.rL.(C.q_.(N._N.:N.<N.uL.]C.6M.zJ.b(.BJ.kG.>G.{F.[F.$D.ZG.ZG.b(.ZG.BJ./C.[N.+L.8C.vF.5C.=I.Tq.uL.uD.dM.sH.e(.yE.bM.}N.3C.OA.TH.lM.zD.AD.AD.|N.FL.AD.AD.AD.AD.yD.1N.kD.kD.mM.kD.{H.2N.kD.MK.%I.dl.<H.;I.XK.@K.@K.cC.cC.UK.kD.GL._H.{H.WH.UH.dz.PA.SJ.]H.]H.kD.kD.kD.kD.kD.az.RA.jz.3N.pE.(C.(C.(C._C.~C.gz.oE.TA.(C.sD.sD.TA.TA.sD._!.Qr.B~.B~.hz.iz._!.XJ.oD.'I.,I.aC.XK.VK.4N.5N..K.'I.XA.iz.%J.6N.7N.AF.AM.",
"8N.*K.4H.4H.9N.FF.FF.FF.FF.FF.fD /B /B >K.0N.aN.Lv Mv Lv Mv Lv Mv Mv Mv Mv Mv Mv Mv Mv Mv Lv Mv bN.cN.dN.eN.fN.gN.hN.iN.jN.5M.kN.lN.mN.nN.oN.pN.qN.CB.rN.|B.sN.tN.uN.vN.wN.xN.yN.1[.1[./b.zN.AN.1[.BN.0L.kc.0L.%N.eK.CN.DN.EN.FN.GN.HN.XK.0y.Io.IN.JN.KN.hx.so.LN.em.sp.MN.)N.NN.ON.pm.Sq.Io.*/.vI.$D.mL.,G.rE.PN.qK.Hp.Ep.Sq.qK.wI.TG.yo.@t.=G.2B.NC.}B.SC.SC./N.QN.2B.>E._F.+s.fI.nL.fI.-/.RN.SN.8].TN.&E.b(.ZG.UG.$D.]F.RC.{F.UN.QC.VN.{E.1B.{F.b(.$D.PC.PC.PC.;G.b(.pB.b(.]F.WN.XN.rL.YN.]E.ZN.,G.`N. O..O.+O.MA.fG.OA.NA.@O.)I.AE.fC.fC.zD.IK.#O.dz.3C.QA.dz.QA.QA.yM.bD.kD.kD.YI.ZI.ZI._H.kD.kD.kD.{H.ZH.yM.kD.kD.OA.VH.vG.dz.kD.kD.cC.kD.dz.fG.sG.$O.B~.QL.jz.%O.G~.gz.sD.TA.zK. K.gz.&O.qG.(C.sD._!._!.B~.(C.@L.YJ.XJ.s_._!._!.XA.VK.xM.XA..K.'I.cz.XI.*O.=O.1!.*O.iz..K.aC.%K.ZK.AF.hM.",
"BM.xG.4H.'J.FF.FF.FF.FF.FF.[J FF.&F <J  K yG.-O.um.Lv Lv |x Lv Mv Mv Mv Mv Mv Mv Mv Mv Mv Kv 1x SB ;O.>O.,O.'O.RG.)O.!O.~O.{O.]O.CB.^O./O.(O.sN._O.:O.<O.[O.}O.|O.1O./b.1[.1[.1[.1[.2O.`L.1[.`L.k}.BN.3O.4O.5O.6O.7O.|N.8O.9O.>C.0O.aO.mB.@A.#A.}A.Cp.bO.cO.fm.Wh.En.6f.sg.Io.Io.Sq.Fp._!.Fp.=F.dO.q_.b(.TC.b(.b(.`F.eO.fO.TC.8].b(.qB.gO.TC._F.1B.]F.|B.1B.1B.{F.xI.QC.L~.hO.iO.WC.+s.iO.`r.jO./C.E~.TA.sD._F.RC.1B.;G.kO.6M.lO.mO.pB.nO.VC.EH.CJ.oO.pO.oB.GH.DH.;G.-/.CH.pB.b(.BJ.ZN.qO.rO.{C.sO.{C.rL.tO.uO.vO.wO.YJ.*L.WI.3C.UI.xO.AM.UI.yO.IK.FL.2N.dz.2N.cC.TI.RH.yM.aG.kD.kD.kD.kD._H.qM.II.%I.ZI.DI.ZI.yM.zO.{H.kD.~H.DI.DI.kD.kD.kD.kD.bG.AO.$J.2C.eG._!.KA.iF.9z.ay._!.oF.BO.zK.!C.zK.G~.zH.ay._!.s_.lF.zH.QL.#J.ay.B~._!._!._!.hz.hz.hz._!._!.CO.iz.hz.'I.iz.NA.aC.NA.NA.aC.yF.DO.EO.",
"FO..K *K.SL.FF.FF.FF.[J GF.$F mI  C <J GO.EF.HO.Lv Lv Mv Lv Mv Mv Mv Jn.Kn.Mv Mv |x Lv Mv Mv Kw 1x IO.JO.KO.LO.MO.NO.OO.TM.)j.PO.QO.RO.SO.TO.UO.VO.WO.1[.1[.1[.1[.1[.1[.1[.1[.1[.kc.XO.*b. M.YO.ZO.`O.7O.iF. P..P.+P..D.@P.#P.Gh.Gw.Av.Bv.bO.$P.%P.Lu.&P.sB.vp.4F.Cp.tp.*P.=P.#D.-P.(F.s_.B~.Go.Kw.`r.;P.(N.vI.$D.1B.PC.>P.RG.fB.<E.DH.,P.$D.#D.1B.2B.}B.}B.}B.6B.aB.jB.3F.Dy.DB.+A._G./E.'P.a(.!N.)P.rB.!P.~P.=D.*D.AH.$D.1B.]F.b(.<E.UD.{P.]P.=D.rB.#H.^P./P.qB.b(.BH.BH.rL.{C.CK.EH.YG.(P._P.:P.vD.,I.aC.<P.sH.yE.NA.3C.@O.xO.VH.TH.{H.[P.IK.TH.IK.}P.SJ.{H.~H.mM.CI.kD.}C.rM.0D.<C.5G._H.<C.UK.|P.{H.1P.vx.UH.OH.2P.kD.NH.%I.kD.kD.kD.kD.5G.VI.lF.VI.0z.yM.bG.FJ.d(.9y.hz.ay.sD.+G.@L.@L.oF.%O.vF.ay.B~.s_.B~.B~.yx.`J.(C.pE.B~._!._!.iz. B.dz.4C.3P.iz.iz._!.XA.iz.XA.e(.yF.sH.4P.3H.BE.AD.",
"5P.6P.7P.>L.FF.FF.FF.[J GF.$F 8P.;K.}J 9P.FF.0P.um.Lv Kv Kv Lv Mv Mv Kn.rl.Mv Mv Kw Lv Mv Lv Kw 1x aP.bP.cP.tA.bl.dP.eP.fP.gP.hP.iP.zN.&N.j0.lo.dK.7J.%N.AN.jP./b.1[.1[.1[.0L.1[.1[.1[.1[.|K.kP.lP.mP.nP.oP.pP.SJ.qP.-G.rP.sP.tP.7l.@P.uP.tp.KG.C~.Mu.nA.7l.:G.Av.su.vP.kH.sB.wP.xP.yP.xp.nO. G.UG.`r.zP.$D.$D.q_.5B.1E.@A.mB.cB.2F.rB.@H.nB.bB.bB.YC.*D.AP.PB.'D.KB.7x.BP.&A.CP.GB./y. D. D.@A.Bv.(y.fx.uo.$H.$P.5F.;G.;G.$D.QC.5B.DP.NC..H.EP.kN.2B.VC.nB.FP.kB.FH.AP.GP.HP.IP.CH.JP.yP.EH.jE.iG.KP.tF.LP.rL.]C.jG.[H.MP.`N.$G.vF.xK.xK.KA.NP.wF.OP.PP.aG.bG.ML.]H.hF.QP.8z.!H.gD.4].<H.RP.5y.5G.ez.*L.fG.TK.lF.eD.SP.bD.bD.TP.aD.cD.8z.4].4].UP.dG.<H.5G.5G.bG.:H.TK.#L.aC.XA.NA.3H.NA.yF.e(.,I.@L.hz.B~.jz.jz.s_.8z.9O.FJ.ez.|!.'I.hz.hz.TK.az.NA.NA.$K.aC.#G.hz.aC.hz.iI.VP.=J.NA.NA.)I.BE.",
"WP.CM.XP.>L.FF.FF.FF.FF.[J FF.$F FF.}J ^E FF.YP.Kw Kw Mv Lv Mv Lv Lv Ko.Kn.Mv Mv Mv Mv Mv Mv Mv 1x ZP.`P. Q..Q..Q.+Q.@Q.#Q.$Q.*N.%N.%Q.lo.$Q.bn.dK._b.j0.j0.&N.zN.1[.1[.`L.kc.1[.1[.1[.1[.1[.jP.}O.&Q.*Q.%N.:M.8J.=Q.-Q.;Q.5y.rA.>Q.,Q.'Q.rB.a(.|F.(y.(y.zv.Cp.Bv.^D.'D.iH.~N.@w.wp.'D.[A.[A.9B.bO.Cp.Cp.rB.rB.)Q.%D.!Q.Bv.~Q.tB.Cp.fx.#A./E.wp.FG.#A.wp.KB.@A.#A.>A.vB.AB.AB.*A. D.Cv.]G.{Q.]Q.]Q.^Q./Q.[A.XC.kN.~P.(Q._Q./N.SC.:Q.kN.<E.<Q.BH.[Q./P.[F.5F.@H.=D.FH./E.}Q.|Q.1Q.@H.2Q.3Q.4Q.5Q.qO.CH.6Q.7Q.8Q.VA.ZN.9Q.0Q.aQ.bQ.cQ.dQ.EH.rL.BJ.AJ.(C.iG.oE.eQ.ML.fQ.8F.6D.uA.uA.gQ.ML.5G.5G.FJ.FJ.H~.|C.hF.qE.Jw.H~.bD.H~.|C.OP.hQ.ML.kD.TP.iF.hz.>I.CI.bD.ez.`A.*L.$L.$L.XA._!.*I.iQ.dM.jQ.%J.iz.NP.kQ.zK.sD.(C.pE.gz.8C.lQ.6C.RA.mQ.@L.6C.nQ.vF.,I.3C.QA.QA.aC.QA.3C.NA.NA.QA.YK.zM.NA.NA.NA.",
"oQ.pQ.FF.FF.FF.FF.FF.FF.$F [J $F $F nI [J KH qQ.Kw 1x Lv Kw Lv Lv Kv Mv Mv Mv Mv Mv Mv Mv Mv Mv Kw rQ.sQ.tQ..Q..Q.uQ.vQ.wQ.xQ.yQ.zQ.yQ.AQ.eK.$Q.BQ.lo.#Q.xQ.CQ.DQ.1[.1[.1[.1[.1[.1[./b./L.&N.EQ.FQ.GQ.HQ.IQ./b.JQ.qJ.KQ._C.LQ.MQ.dE.NQ.OQ.:C.)Q.!Q.fx._E.jH.'D.|F._G.PQ.{P.sB.wp.wp.wp.vp.vp.0(.0(.@P.vp.)D.nB.5B.5B.}F.QM.<I.QQ.CP.$A.0x.&y.]K. D.~Q.@A.@A.@A.^D.Av.vp.fx.@A.Bv.fx.RQ.SQ.TQ._A.UQ.VQ.WQ.XQ.xP.YQ.ZQ.iD.`Q.GP.GP. R..R.+R.xP.@R.#R.$R.%R.&R.iH.jH.*R.=R.-R.;R.>R.,R.[Q.'R.)R.!R.~R.sO.qG.{R.]R.VA.1H.^R./R.(R._R.{R.:R.<R.[R.}R.|R.1R.2R.3R.uO.4R.5R.6R.7R.vA.8R.vA.9R.0R.ez.gQ..L.aR.8z.cD.aD.bR.TP.|C.9O.cR.ML.bD.cR.dR.kD.uM.NA.uG.ML.kQ.eR.4R.fR.8C.aA rG.gR.7R.1R.hR.uO.fR.rG.iR.UA.qG.(C.oE._C.8C.qG.rG.6C.jR.8C.2H.kR.wF.wM.vM.cC.az.kD.dz._H._H.kD.cC.dz.cC.cC.dz.dz.kD.",
"lR.xG.{E )J.)J.$F $F [J GF.GF.[J GF.[J [J nI mR.nR.um.Lv Kw Mv Lv |x Mv Mv Lv Lv In.oR.pR.Mv Jn.1x hC.qR.rR.sR.tR.uR.vR.vR.wR.xR.yR.zR.AR.BR.CR.DR.ER.FR.GR.:M.`L.bc.HR.kc.IR.JR._L.KR.@N.LR.MR.NR.OR.(b.PR.QR.RR.SR.TR.UR.VR.WR.XR.YR.ZR.`R. S.1D.1D. S..S.+S.@S.#S.$S.$H.|F.%S.vp.vp.vp.&S.wp.@w.Cp.(y.(y.|E.*S. H.=S.-S.;S.>S.,S.'S.)S.!S.~S.NF.CB.|E.vB.{S.zB.]S.^S./S.(S._S.:S.<S.[S.}S.|S.0Q.1S.2S.3S.4S.5S.6S.7S.8S.9S.0S.aS.9S.bS.bS.cS.dS.eS.fS.{R.{R.gS.gS.hS.iS.jS.kS.3R.kS.lS.gS.fS.mS.nS.oS.pS.qS.rS.gS.mS.gS.mS.mS.gS.sS.tS.mS.uS.(R.vS.wS.xS.+R.yS.zS.AS.BS.CS.DS.ES.FS.GS.HS.IS.cR.JS.KS.TP.LS.MS.NS.OS.7R.8R.JS.PS.ML.TP.TP.QS.uG.VH.RS.hQ.dR.GS.gS.fS.gS.gS.gS.gS.gS.gS.SS.TS.2R.gS.gS.GS.7Q.5Q.1R.6R.US.VS.WS. P.XS.UA.YS.XS.uO.QS.uO.ZS.aA `S.`S.OP.OP.`S.hQ.cR. T.TP.9R..T.",
"lR.+T.7P.-K.@T.GF.GF.[J GF.[J [J GF.[J KH #T.$T.%T.&T.*T.=T.-T.;T.;T.>T.,T.'T.)T.!T.~T.{T.]T.^T./T.(T._T.:T.<T.[T.}T.|T.1T.2T.3T.4T.5T.6T.7T.8T.9T.0T.aT.bT.*Q.jP.1[.^6.1[.cT.dT.=F eT.fT.gT.hT.iT.jT.[C.kT.lT.mT.nT.oT.pT.qT.rT.sT.tT.uT.uT.vT.wT.xT.yT.zT.AT.BT.CT.DT.ET.FT.GT.HT.IT.JT.KT.IT.LT.MT.NT.OT.PT.QT.RT.ST.TT.UT.VT.WT.XT.YT.ZT.`T.^D. U..U.+U.@U.#U.$U.%U.&U.*U.&U.=U.-U.;U.@U.&U.&U.>U.>U.,U.'U.)U.!U.~U.{U.]U.&U.^U./U.(U._U.:U.<U.[U.}U.|U.1U.2U.3U.4U.5U.6U.7U.8U.7U.gS.gS.8U.gS.9U.0U.aU.5S.bU.cU.dU.eU.fU.gU.hU.iU.jU.kU.lU.mU.nU.oU.pU.qU.[U.rU.sU.tU.@U.uU.vU.[U.wU.xS.xU.eS.xS.yU.gU.xU.eS.gS.gS.gS.zU.mS.gS.AU.US.mS.gS.oS.BU.CU.oS.gS.gS.gS.DU.rS.gS.8U.gS.gS.gS.gS.fS.bU.8U.EU.FU.GU.HU.|U.IU.dS.JU.KU.LU.MU.NU.ES.OU.GS.SS.TS.eS. R.PU.+R.fS.SS.QU.RU.SU.TU.BS.UU.AS.",
"VU.WU.>L.FF.-K.[J $F [J [J [J [J GF.[J FF.XU.YU.ZU.`U. V..V.+V.@V.#V.$V.%V.&V.*V.=V.wV -V.;V.`U.>V.,V.'V.)V.!V.JE.~V.{V.]V.^V./V.(V._V.:V.<V.[V.oV }V.|V.1V.2V.3V.4V.5V.5V.6V.7V.xQ.8V.9V.0V.aV.(z.bV.cV.dV.eV.fV.fV.gV.hV.iV.jV.kV.lV.mV.nV.oV.pV.qV.rV.sV.tV.uV.vV.wV.xV.yV.zV.AV.BV.CV.DV.EV.FV.GV.HV.IV.JV.KV.LV.MV.NV.OV.PV.PV.QV.wV.RV.SV.TV.UV.VV.WV.XV.YV.ZV.]U.`V. W..W.+W.@W.#W.$W.%W.&W.&W.vV.*W.=W.-W.;W.>W.TV.,W.'W.)W.-W.!W.~W.{W.]W.^W. W./W.(W._W.:W.<W._W.[W.[W.}W.|W.1W.2W.}W.3W.4W.:U.5W.6W.7W.8W.@W.%W.9W.0W.^U.aW.&U.:U.@U.@U.bW.vV.vU.cW.@U.@U.rU.dW.@U.eW.fW.gW.hW.iW.jW.kW.:U.@U.@U.lW.mW.nW.oW.pW.qW.rW.sW.tW.uW.vW.dU.wW.xW.vW.yW.bU.8U.HU.4U.zW.AW.BW.GU.GU.CW.DW.EW.FW.GW.HW.IW.JW.KW.LW.MW.NW.IW.OW.PW.QW.RW.SW.TW.UW.VW.WW.XW.YW.ZW.`W. X..X.+X.@X.#X.$X.%X.&X.*X.",
"VU.=X.-X.$F ;X.FF.[J GF.$F [J GF.GF.yG.9N.>X.,X.'X.0X xV HY %` %` j+.'X.HY HY %` %` HY HY l(.$` j+.)X.!X.0N.~X.~X.!J.{X.~X.jN XF EF.]X.GF.^X.EF.{E wC /X.(X._X.:X.<X.[X.}X.|X.1X.2X.3X.4X.5X.6X.7X.8X.9X.0X.aX.bX.cX.dX.eX.fX.gX.hX.iX.jX.jX.fX.kX.lX.mX.nX.oX.pX.qX.rX.zV.sX.tX.uX.vX.wX.wX.xX.yX.zX.AX.BX.CX.DX.EX.FX.GX.HX.IX.JX.KX.LX.MX.NX.zV.OX.PX.QX.RX.SX.^W.TX.RX.RX.SX.UX.OX.RX.zV.VX.WX.XX.OX.YX.ZX.ZX.`X.`X. Y.OX..Y.+Y.mX.@Y.#Y.$Y.%Y.nV.&Y.*Y./M *Y.=Y.-Y.;Y.>Y.$W.,Y.'Y.)Y.!Y.~Y.{Y.]Y.^Y./Y.(Y.@Y._Y.:Y.pX.<Y.WX.[Y.}Y.9W.|Y.,W.1Y.!K.!K.%W.2Y.UV.3Y.4Y.5Y.6Y.7Y.8Y.9Y.%W.5W.0Y.aY.bY.cY.dY.eY.1Y.fY.,W.gY.hY.iY.jY.kY.lY.mY.nY.oY.pY.qY.rY.IW.sY.tY.uY.vY.wY.xY.qY.uY.bY.yY.zY.NW.AY.AY.BY.xY.CY.DY.EY.kY.FY.GY.HY.IY.JY.JY.KY.LY.MY.NY.OY.PY.QY.RY.SY.TY.UY.VY.WY.XY.YY.ZY.`Y.",
" Z.4H.>L..Z.'J.>L.$F $F FF.FF.FF.FF.FF.+Z.@Z.#Z.'X.0X 0X HY HY HY 0X 0X HY Q1.]>.Y-.Y-.l(.$Z.%Z.$` &Z.wC ~X.~X./B 0N.oA `B ]I.9P.,L.GF.GF.%F *Z.mI =Z.-Z.;Z.[b.>Z.:X.,Z.'Z.:X.:X.:X.)Z.!Z.~Z.{Z.]Z.^Z./Z.(Z._Z.:Z.:Z.<Z.[Z.}Z.|Z.1Z.2Z.3Z.4Z.uX.5Z.6Z.7Z.8Z.6Z.9Z.0Z.aZ.bZ.cZ.dZ.eZ.eX.fZ.vX.wX.wX.vX.gZ.hZ.aZ.GX.cX.iZ.jZ.hZ.kZ.vX.lZ.mZ.nZ.AX.oZ.pZ.qZ.rZ.ZX.sZ.tZ.uZ.vZ.wZ.xZ.yZ.YX.zZ.AZ.BZ.CZ.DZ.EZ.FZ.GZ.GZ.HZ.wX.IZ.JZ.IZ.|Z.2Z.|Z.KZ.LZ.MZ.NZ.HZ.OZ.PZ.IV.QZ.RZ.SZ.TZ.UZ.UZ.UZ.zV.UZ.!Y.ZX.VZ.WZ.XZ.WZ.YZ.ZZ.eZ.`Z. `..`.+`.@`.#`.$`.%`.&`.rZ.zV.rZ.LX.*`.=`.-`.;`.>`.,`.'`.)`.!`.~`.{`.]`.^`./`.(`._`.:`.<`.[`._`.}`.|`.1`.2`.3`.2`.4`.5`.6`.7`.8`.2`.9`.6`.0`.a`.b`.c`.d`.e`.f`.g`.h`.i`.j`.k`.l`.k`.k`.m`.l`.n`.o`.p`.q`.r`.s`.t`.u`.v`.w`.x`.y`.y`.z`.A`.A`.B`.C`.D`.E`.F`.G`.H`.s`.",
"I`.4H.*K.4H.4H.xG.$F $F FF.FF.FF.$F SL.xG.J`.K`.hU xV HY HY HY HY HY HY HY Z-.]>.Q1.Z-.HY Q1.$Z.L`.M`.N`./B ]E ZB <J  K ~X. C +Z.mI HF.KH yC <J /B /B O`.P`.Q`.R`.:X.:X.S`.1X.S`.:X.:X.T`.U`.V`.W`.X`.Y`.(Z.:Z.Z`.``.  +(Z.. ++ +@ +# +6Z.6Z.6Z.6Z.6Z.$ +% +& +* += +hZ.iZ.- +; +> +wX.wX.aZ.kZ.aZ., +wX.' +wX.) +! +fZ.~ +fZ.vX.NZ.wX.{ +] +^ +.`./ +( +_ +: +< +[ +} +| +1 +2 +3 +(Z.<Z.4 +wX.wX.wX.wX.wX.wX.wX.5 +6 +7 +8 +NZ.9 +aZ.0 +a +b +c +d +e +e +f +g +h +i +vX.j +kZ.k +l +m +n +9Z.o +p +cZ.q +r +s +t +u +v +w +x +y +z +A +B +C +D +E +F +G +H +I +J +,`.K +L +6Z.% +M +N +O +w`.w`.P +m`.k`.}`.Q +R +S +T +U +P +V +W +X +Y +Z +` + .+..++.+@.+#.+$.+%.++.+&.+x`.d`.&.+*.+=.+-.+;.+>.+,.+|`.m`.m`.n`.4`.'.+).+g`.!.+=.+~.+~.+{.+].+^.+'.+=.++.+y`.y`./.+(.+_.+:.+_.+<.+[.+}.+}.+",
"|.+1.+4H.4H.4H.*K.=K.FF.FF.9N.,J.>J.'J.4H.2.+3.+$` 'X.HY ^ .0X 4.+HY %` 0X HY HY HY 0X _].5.+5.+Z-.6.+}V.~X.7.+/B /B ~X.~X.XF <J &F  K /B /B /B /B <J O`.8.+9.+0.+:X.S`.S`.a.+b.+:X.c.+2X.d.+e.+f.+g.+h.+Y`.(Z.  +i.+j.+k.+l.+YX.YX.m.+n.+o.+p.+6Z.q.+r.+s.+t.+a +u.+v.+3Z.7 +w.+x.+wX.wX.wX.kZ.vX.wX.NZ.wX.wX.NZ.g +0 +y.+z.+A.+B.+B.+jX.C.+C.+D.+wX.E.+uX.F.+OZ.nV.SV.G.+RX.SZ.H.+> +I.+wX.aZ.aZ.J.+wX.|Z.K.+jX.2Z.E.+w.+L.+2Z.! +xX.e +M.+fZ.- +wX.; +N.+O.+; +7 +vX.fZ.d +P.+Q.+R.+S.+$ +S.+T.+U.+V.+W.+X.+Y.+Z.+`.+ ++.+++++@++#++$++%++&++*++=++-++;++;++;++I +>++,++ ++'++)++!++>++~++{++I +]++K +^++/++ZZ.(++_++:++<++[++}++|++1++2++3++4++.++5++(.+6++#.+@.+y`.7++'.+8++|`.9++0++a++g`.=.+g`.k`.b++c++d++O +e+++.+f++,.+g++|`.|`.h++i++m`.n`.8++j++j++k++l++I +m++n++o++p++p++q++r++s++",
"t++u++4H.4H.4H.4H.v++FF.FF.@T.4H.4H.9N.+Z.w++x++$` y++y++0X z++A++0X %Z.4.+HY HY Z-.0X y++D'.B++]!.C++D++/B /B /B /B ~X.{X./B /B ZB /B /B /B /B /B E++F++G++H++I++J++:X.:X.K++'Z.L++M++T`.N++IJ O++P++Q++R++  +S++T++(Z.U++V++T++W++(Z.Y`.X++Y++Z++`++ @+I.+.@++@+K.+@@+#@+$@+wX.wX.J.+wX.wX.wX.NZ.NZ.|Z.E.+%@+&@+*@+L.+JZ.L.+f +8 +|Z.kZ.=@+-@+p +gZ.vX.kZ.wX.wX.;@+:Y.VZ.>@+;@+,@+'@+J.+4Z.)@+gX.!@+~@+{@+{@+{@+{@+]@+#@+#@+^@+J.+/@+~ +kZ.(@+gZ._@+0 +:@+<@+[@+}@+e +iZ.fZ.s +|@+* +1@+1@+2@+1@+iV.6Z.T.+3@+4@+5@+6@+7@+8@+9@+0@+a@+b@+c@+d@+e@+f@+g@+o++h@+5++ ++& +& +i@+;++U +j@+k@+|`.1`.l@+m@+x`.n@+o@+p@+q@+r@+s@+t@+u@+v@+Z +8@+w@+i@+x@+y@+z@++.+A@+B@+#.+#.+#.+C@+|`.D@+E@+b++F@+@.+@.+l@+I +G@+oZ.H@+I@+F`.J@+K@+m`.L@+| +M@+|`.|`.P +}`.}`.N@+'.+O@+K +j@+P@+Q@+R@+F`.H`.S@+T@+U@+",
"V@+W@+4H.4H.4H.xG.*K.xG..Z.7P.4H.*K.X@+Y@+Z@+`@+'X.'X. #+HY Y-.]>.j+..#+j+. #+0X ]!.0X HY o=.+#+D'.@#+##+/B ]E mA ~X.$#+/B /B eD dD /B <J /B /B /B EF.%#+&#+*#+=#+:X.-#+I++,Z.;#+>#+,#+'#+)#+!#+~#+{#+]#+R++S++^#+/#+(#+_#+  +Y`.:#+Y`.<#+Y++%Y.&Y. @+.@+[#+}#+}#+|#+1#+2#+4Z.wX.wX.wX.3#+]@+w.+]@+4#+A.+IZ.gX.3#+JZ.5#+HZ.D.+D.+uX.wX.wX.wX.6#+7#+>@+wX.wX.3#+5 +wX.8#+D.+wX.wX.C.+C.+$@+JZ.9#+0#+!@+*@+a#+b#+{@+c#+d#+e#+)@+jX.@@+1Z.A.+2Z.]@+]@+3#+f#+g#+h#+i#+iX.j#+k#+l#+m#+n#+n++o#+p#+q#+M +;`.}`.~++4`.r#+K@+s#+8@+8@+8@+t#+u#+v#+w#+x#+y#+z#+A#+B#+u@+C#+o++D#+[++E#+h@+F#+p#+p#+I +p#+F#+G#+H#+I#+J#+K#+L#+M#+u +$ +N#+O#+P#+8@+Q#+R#+I +i@+K +S#+T#+U#+8@+V#+` +n`.|`.W#+iV.J +V +X#+$++p#+M +Y#+Z#+Z#+`#+P@+ $+v@+.$+L@++$++$+|`.m`.@$+i`.l`.#$+&.+$$+%$+w`.;++&$+*$+=$+-$+;$+>$+,$+",
"'$+)$+4H.4H.4H.*K..Z.4H.xG.xG.4H.'J.nI XP.!$+~$+{$+P1.D'.]>.^ .0X y++ #+j+.0X 0X ]>.$Z.$Z.+#++#+D'.]$+^$+7.+mA /B $#+~X./B /B ZB ZB /B <J /B /B <J fD /$+($+_$+:$+J++<$+-#+[$+}$+}$+|$+1$+2$+3$+4$+5$+6$+Y`.Y`.i.+i.+7$+(#+(Z.i.+Y`.Y`.Y`.+ +8$+9$+<#+$@+0$+a$+b$+4#+c$+d$+[Z.wX.e$+I.+C.+@@+{@+{@+)@+K.+f$+g$+h$+i$+2Z.j$+jX.k$+l$+m$+FZ.n$+D.+o$+kX.p$+|Z.3#+]@+|Z.K.+3#+wX.wX.jX.)@+B.+B.+i$+q$+a#+r$+g$+gX.{@+s$+t$+u$+v$+w$+K.+wX.jX.3#+wX.NZ.4Z._ +KZ.uX.2#+5 +FZ.x.+BZ.N +o#+T +L +x$+M +E +b++I +,++)++j++y$+z$+A$+B$+B$+C$+A$+D$+E$+x#+F$+G$+H$+I$+5@+J$+J$+7@+z#+w#+K$+g@+L$+M$+U +z`.u@+N$+.++%++O$+P$+YZ.o@+x +I +T +Q$+R$+S$+T$+U$+Q$+X +V$+C#+8@+W$+X$+Y$+Z$+`$+!`. %+.%+I +p#+;++m`.~++I@+Z#++%+Z#+!++j@+V#+V#+m`.@%+#%+$%+}`.l`.1`.m`.P +j++O@+%%+&%+D#+*%+u@+=%+-%+;%+>%+,%+'%+",
")%+!%+4H.xG.~%+7P..Z.)J.#T.#T.'J.~I.FF.{%+]%+^%+/%+(%+_%+^ .%` _].:%+%` %` HY HY D'.D'.B++Q1.]>.<%+[%+}%+~X./B /B /B /B /B /B ~X.~X./B /B /B $#+EM.FF.|%+1%+,#+2%+I++[$+[$+[$+[$+3%+I++4%+5%+6%+7%+8%+9%+0%+  +i.+Y`.(Z.X++a%+b%+Y`.Y`.Y`.c%+d%+e%+f%+e$+g%+h%+i%+4#+1Z.mV.j%+GZ.k%+l%+8#+m%+n%+o%+K.+p%+9#+b#+B.+q%+g +r%+5Z.s%+WX.3 +t%+lV.kX.lV.u%+v%+9Z.r.+vX.K.+w.+3#+wX.HZ.3#+]@+jX.w%+w%+a#+gX.*@+*@+{@+{@+x%+y%+z%+e#+A%+{@+3#+|Z.JZ.3#+3#+HZ.B%+C%+_#+m$+i.+Y`.D%+E%+,`.N +,`.J +x +G +qX.G +J +_`.w`.F%+G%+8@+t#+S$+S$+H%+7@+8@+I%+W$+X$+J%+K%+L%+I$+F$+M%+N%+M%+O%+P%+Q%+%++& +o#+q#+%++[++R%+S%+T%+U%+W.+$ +E +V%+n#+W%+X%+Y%+Z%+`%+ &+%++.&+2++6+++&+y$+6++z@+d++@&+#&+$&+J +%&+S#+` +C +I@+I@+A +@%+|`.n`.&&+4`.|`.*&+=&+-&+|`.P +b`.;&+4`.=.+` +>&+,&+'&+)&+!&+~&+{&+]&+GV.^&+/&+",
"(&+_&+:&+xG.-X.7P.SL.SL.#T.<&+~I.*K.[&+}&+]%+|&+1&+.#+%Z. #+_].:%+.#+2&+%` HY HY Y-.B++3&+Y-.Z-.+#+4&+5&+/B dD dD /B /B /B ~X.{X.!J./B /B ~X.{X.6&+FF.7&+8&+9&+0&+<X.[$+[$+}$+[$+a&+b&+c&+d&+e&+f&+g&+h&+i&+j&+k&+l&+m&+n&+o&+p&+q&+r&+s&+t&+u&+v&+Y++8$+w&+[Z.n%+x&+y&+z&+z&+A&+n%+C.+8#+IZ.C.+JZ.a$+|#+)@+B.+B.+wX.wX.wX.B&+C&+<#+D&+4 +wX.wX.4Z.C.+wX.P.+E&+_@+C.+3#+wX.vX.4Z.C.+|Z.{@+2Z.F&+g$+F&+G&+H&+]@+{@+)@+|#+I&+J&+K&+L&+|Z.3#+IZ.M&+|Z.C.+]@+D&+_#+N&+Y`.<#+O&+E%+I +P&+Q&+o#+% +b++;`.}`.|`.{++,++R&+@.+S&+7@+.&+p#+p#+`.+u@+T&+U&+V&+W&+u@+X&+Y&+Z&+L%+Y&+`&+ *+I$+.*++*+@*+#*+%&+$*+Z +C#+Z +2++.++KX.%*+v +&*+**+=*+-*+;*+>*+-*+;*+,*+'*+)*+!*+X$+!*+9@+~*+$ +w +zX.{*+sX. ++]*+^*+/*+C +(*+_*+|`.|`.:*+<*+[*+|`.k`.}*+|*+h`.e++C@+;&+7++).+1*+K@+2*+3*+4*+5*+6*+7*+8*+9*+0*+a*+",
"b*+c*+Z@+4H.4H.d*+>L.e*+.K >L.4H.f*+g*+h*+i*+j*+k*+l*+D'.]!..#+]!.%` j+.HY $Z.m*++#+Z-.B++]>.+#++#+n*+o*+~X.]E /B /B /B /B /B /B $#+!J./B /B /B &F FF.p*+q*+gT.[$++N }$+|$+r*+s*+[$+t*+u*+}$+}$+v*+w*+x*+y*+z*+A*+B*+C*+D*+E*+F*+G*+H*+I*+J*+K*+L*+M*+|#+N*+[#+[Z.O*+i%+P*+< +GZ.I.+I.+wX.$@+a$+Q*+[Z.I.+3#+jX.jX.@@+wX.wX.kX.R*+S*+Y`.``.[#+NZ.wX.lZ.T*+U*+vX.wX.K.+3#+wX.wX.uX.V*+W*+X*+Y*+Z*+`*+8 +b#+j$+ =+.=+p%+_Z.R+++=+@=+v$+{@+jX.jX.]@+]@+]@+{@+#=+B%+{@+$=+%=+&=+6Z.J +Q&+T +8++n`.*=+|`.==+;`.}`.-=+;=+y$+>=+ ++I@+'++[++D#+w@+,=+o++T$+S%+'=+'=+D#+)=+!=+C#+K%+~=+{=+]=+^=+/=+(=+_=+:=+>=+S&+Y$+<=+[=+}=+|=+hV.1=+2=+3=+;*+4=+5=+6=+7=+-*+8=+9=+0=+a=+N%+b=+c=+d=+oZ.e=+,%+f=+g=+h=+V&+i=+j=+k=+C +O +~++l=+m=+n=+:.+o=+F#+m@+j++p=+q=+r=+s=+t=+u=+}.+}.+}.+F$+-*+v=+v=+w=+x=+}.+}.+",
"y=+z=+A=+xG.7P.B=+CM.C=+D=+E=+F=+@T.-K..Z.G=+H=+/].Z-.I=+0X ^ .0X ^ .y++.#+]!.P1.m*+Z-.3&+HY Q1.+#+4&+J=+~X./B /B /B /B /B /B /B /B /B /B /B /B &F EF.|%+K=+L=+[$+u*+M=+N=+O=+}$+[$+[$+[$+[$+[$+P=+Q=+R=+S=+[$+[$+[$+T=+U=+[$+Ni.V=+wQ.W=+X=+Y=+Z=+`=+a$+ -+5 +.-++-+n%+@-+#-+e$+e$+[Z.$@+^@+k%+:Z.:Z.$-+wX.o%+jX.IZ.vX.wX.GZ.<#+%-+%-+&-+f%+> +wX.wX.wX.v%+C.+wX.C.+wX.wX.wX.wX.u%+QZ.( +*-+=-+--+]@+{@+{@+|Z.JZ.[Z.aX._Z.:Z._Z.}Z.{@+jX.{@+b#+*@+;-+)@+|#+wX.|Z.HZ.>-+fL ,-+'-+@*+y@+$.+8++)-+!-+J +}`.{++~-+{-+]-+T%+^-+ &+I@+I@+I@+x$+'=+Y$+w@+I@+/-+Q$+!=+(-+4*+!=+_-+:-+<-+-*+[-+}-+O%+|-+1-+H$+)&++&+:.+/.+^*+X.+n#+2-+3-+>*+4-+5-+6-+7-+8-+9-+0-+a-+b-+4-+b@+c-+d-+t +jZ.e-+f-+g-+h-+i-+j-+k-+l-+m-+_=+n-+!=+o-+[.+p-+T#+S&+8@+@.+y`.+.+q-+r-+s-+t-+u-+v-+w-+}.+x-+y-+z-+A-+B$+B-+C-+}.+",
"D-+E-+F-+)J.FF.=K.B=+G-+CF.H-+I-+J-+FF.<&+K-+L-+M-+0X  #+HY ]>.]!.Z-.D'.j+.2&+ #+Z-.]>.+#+D'.o=.+#+N-+pA mA /B /B ~X./B /B /B /B /B /B /B /B /B /B O-+/X.P-+Q-+R-+S-+|X.+N [$+T-+[$+[$+}$+[$+[$+[$+[$+U-+U-+[$+[$+[$+[$+[$+V-+Ni.W-+j0.X-+Y-+Z-+`-+ ;+l%+.;+I.+.-++;+@;+}Z.K&+.-+i%+}Z.k%+$@+.=+i%+)@+}Z.J.+wX.I.+wX.wX.I.+8#+#;+/ +$;+o$+vX.GZ.;@+8#+wX.wX.3#+NZ.|Z.4Z.L.+_@+wX.'@+AZ.iV.q +%;+&;+{@+x&+m%+|Z.C.+^@+*;+:Z..=+e$+e$+JZ.=;+-;+;;+*@+NZ.Q*+J.+vX.gZ.>;+,;+';+);+9-+!;+~;+.&++.+C@+r-+{;+];+];+^;+i++/;+(;+_;+:;+<;+I@+[;+};+'=+]-+|;+1;+w@+V&+**+(-+R$+2;+4-+M%+a=+3;+4;+3;+5;+b@+6;+7;+4@+c@+8;+:.+9;+I@+0;+2-+a;+a;+b;+c;+c;+d;+a;+e;+9-+-*+f;+v=+l-+a;+f;+g;+h;+i;+j;+k;+l;+m;+n;+o;+p;+q;+r;+a@+E$+t#+!*+s;+t;+u;+,=+V +)-+8++x`.P +F@+h=+v;+w;+x;+y;+z;+A;+B;+C;+**+D;+E;+U@+",
"F;+G;+C=+FF.FF.FF.<&++T.H;+]I.B=+DF.]I.I;+K-+`@+(%+^ .Z-.]>.3&+o=.Z-. #+%Z.0X j+.^ .Q1.o=.+#++#++#+J;+5&+mA /B /B $#+ C /B /B /B /B /B /B /B /B <J <J K;+L;+M;+}$+N;+,Z.U-+O;+P;+[$+}$+[$+Q;+R;+S;+T;+}$+U;+[$+[$+u*+[$+V;+U;+;#+Ni.W;+j0.X;+Y;+Z;+`;+ >+{@+Q*+.=+.>++>+}Z.@>+}Z.e$+wX.:Z.J.+]@+i$+{@+x&+k%+#>+$@+wX.wX.wX..`.6Z.9Z.ZZ.q +> +wX.p.+GZ.f%+kX.wX.[ +8#+a$+jX.g +E.+|Z.$>+c++#&+o@+%>++@+#@+|Z.|Z.wX.3#+E.+vX.wX.&>+7Z.d +u.+k +T.+R.+*>+=>+->+7;+;>+>>+M%+,>+,>+5;+'>+)>+!>+~>+ .+`$+W +;++D +D +=++I +{>+2@+]>+I@+I@+I@+^>+I@+,=+:=+B#+C#+w@+n-+/>+*%+&%+-*+[-+5;+7;+(>+_>+^=+:>+<>+<>+[>+9-+}>+|>+1>+2>+3>+4-+a;+4>++%+x$+5>+hV.a;+a;+-*+a;+4-+a;+a;+6>+;*+7>+5;+8>+9>+W$+8@+0>+a>+b>+c>+d>+e>+f>+g>+b@+h>+h@+C +;++C +>%+{*+-=+i>+K +x@+j>+k>+l>+m>+n>+o>+p>+q>+r>+;$+s>+t>+u>+",
"BM.4H.'J.FF.FF.7P.XP.<&+<&+<&+v>+]I.yG.I;+w>+x>+^ .l(.B++Z-.Z-.]>.]>.B++$Z.$Z.$Z.$Z.D'.o=.+#++#++#+y>+]I./B /B /B /B /B /B  C ~X./B /B /B /B /B &F {E 7&+z>+A>+Z-+B>+V=+Ni.Qi.[$+V-+[$+C>+D>+E>+[$+[$+U;+a&+F>+F>+G>+}$+4%+H>+I>+}$+J>+#Q.K>+Qd.L>+M>+N>+{@+O>+:Z.P>+:Z.:Z.[Z.J.+Q>+;@+h%+5 +]@+B.+{@+)@+p%+i%+wX.wX.wX.{ +&>+6Z.q +c +%@+-@+wX.^ +wX.lX.> +wX.#;+,@+p$+jX.1Z.A.+R>+S>++$+T>+K +U>+.`.|Z.a$+3#+wX.aZ.V>+W>+vX.T.+X>+Y>+%$+Z>+/=+`>+2>+u@+ ,+.,+X>++,+@,+3@+#,+r;+0=+$,+%,+2++&,+*,+=,+-,+-,+1=+;,+d=+>,+,,+i@+x@+p#+x$+I@+I@+',+!=+$*+),+S%+!=+V&+!,+~,+{,+}-+|-+],+^,+],+/,+(,+_,+_,+r;+/,+A-+J@+%.+W$+O%+0=+l-+:,+<,+O +o#+M$+[,+},+|,+1,+2,+3,+4,+5,+6,+b;+K$+7,+W$+t#+8@+8@+8@+B-+X$+8,+9,+J@+V&+0,+;,+i;+u +b++a,+b,+c,+:#+d,+e,+Q#+f,+(Z.:Z.g,+h,+i,+j,+a;+k,+l,+m,+n,+E;+",
"o,+4H.4H.>L.#T.#T.7P.#T.9N.yG.KH p,+KH >L.q,+r,+'X.y++B++o=.$Z.3&++#++#++#++#++#++#++#++#++#++#++#+s,+t,+ZB /B /B dD eD cD /B /B /B !J./B `B ~X.&F e*+p*+u,+v,+w,+C>+fK.zQ.X;+$f.x,+r*+y,+O=+z,+>#+U;+A,+=#+U;+B,+;#+[$+C,+C,+W-+Z-+Y;+Qd.Ni.D,+E,+F,+.-+G,+JZ.aX.x&+[Z.:Z.:Z.[Z.;@+S*+g%+J.+5 +3#+5 +H,+{@+I,+J,+K,+L,+4Z.M,+N,+O,+P,+Q,+/ +wX. `.]@+H.+6#+wX.GZ.o$+D.+E.+R,+a$+B%+S,+T,+U,+V,+W,+m.+wX.wX.wX.wX._@+X,+hZ.j +e +_=+!*++,+Y,+i=+/>+Z,+!;+`,+<++<++T%+.++E#+s#+8@+z#+ '+:=+S%+>=+.'+=%++'+@'+b;+[,+#'+$'+* +hZ.e +m#+.+++'+%'+&'+*'+='+Y&+1,+-'+K$+;'+;'+Q%+7;+^,+>'+_,+,'+C$+C$+C$+''+)'+!*+B-+:.+!'+],+~'+9=+[-+1@+@`.w +x +i@+#'+1=+n#+x$+I@+I@+I@+{'+]'+D +a,+R%+^'+/'+ $+t#+('+_'+:'+<'+$,+['+}'+dX.aZ.q +o +7 +L,+( +3 +(Z.|'+e@+nX.1'+:Z.:Z.:Z.2'+3'+4'+5'+6'+7'+r>+8'+9'+",
"0'+a'+4H.SL.4H.d*+.Z.xG.[&+'J.#T.XP.H;+b'+c'+d'+e'+m*+o=.B++3&+3&++#++#++#++#++#++#++#++#++#++#++#+f'+g'+`G {E h'+]E ZB eD /B /B /B `B nA `B  C >K.nI i'+j'+k'+l'+m'+n'+o'+p'+q'+r'+s'+t'+u'+v'+B,+u*+H>+w'+x'+Qd.y'+z'+C,+W-+A'+#f.$Q.B'+$f.C'+D'+E'+_Z.F'+5 +:Z.O>+[#+G'+:Z.H'+I.+4 +I'+wX.kX.PZ.FZ.Q*+J'+d%+A%+B.+jX.w.+gX.b#+2Z.+@+IZ.L&+n$+_#+|Z.$;+,@+wX.wX.kX.wX.wX.dZ.J'+2 +K'+L'+M'+tZ.<#+Y`.kX.vX.e$+[Z.vX.N'+iZ.y.+E&+-*+O'+Y&+<=+P'+.*+Q'+R'+U$+`*+S'+3=+H$+T'+U'+N%+V'+W'+.&+X'+K%+=%+T%+Y'+m++C-+$++_;+Z'+&*+d=+hV.m#+Z%+`'+ )+h;+.)+H$++)+l-+X%+@)+#)+Q'+@'+b=+$)+%)+a=+&)+&)+z#+)'+%%+*)+=)+-)+B@++&+;)+>)+o;+,)+i@+')+$ +T.+>;+))+hV./-+x$+I@+I@+I@+~++!)+_*+~)+{)+{.+])+^)+/)+~.+()+_)+:)+<)+2 +Y`.i.+k.+[)+[ +})+|)+i$++=+1)+yX.2)+3)+S++4)+5)+U++4)+6)+7)+8)+9)+h@+0)+a)+',+",
"b)+c)+d)+e)+f)+g)+h)+i)+j)+k)+l)+m)+n)+o)+p)+q)+r)+s)+t)+u)+v)+v)+v)+w)+x)+y)+z)+A)+B)+C)+B)+B)+D)+E)+F)+G)+H)+rV I)+o*+J)+J)+K)+L)+&F ^E ,L.;K.%F M)+N)+O)+P)+Q)+R)+S)+T)+U)+V)+W)+X)+Y)+Z)+`)+ !+.!++!+@!+#!+$!+%!+B,+JM.X-+&!+$Q.xQ.$f.%f.*!+=!+-!+;!+>!+NZ.e$+.-+,!+'!+)!+n%+wX.D&+>@+&-+3 +HV.: +[)+!!+,@+~!+NV. =++@+]@+jX.jX.C.+JZ.{!+$@+,@+a$+8#+kX.wX.wX.wX.wX.|Z.fX.R*+]!+^!+CY./!+Y`.R++(!+_!+[Z.) +/@+, +dX.P.+oX.:!+<!+:)+Y&+.,+[!+}!+|!+ ++q#+1!+hZ.i;+U$+3>+}-+2!+3!+4!+=*+[++.++& +0;+i@+5!+E +6!+7!+ )+8!+9!+0!+a!+b!+3,+;*+{,+c!+Q%+7>+.*+>*+1,+d!+e!+]=+W'+<=+U#+f!+g!+3*+%%+%%+f!+h!+K@+~>+m;+Z +B$+(,+i!+j!+k!+l!+KX.-++Q#+c;+;,+jZ.m!+n!+ &+I@+I@+;++o!+p!+q!+r!+/)+s!+t!+t!+s-+u!+v!+w!+tZ.Y`.Y`.i.+x!+U++W++y!+S>+Y`.Z++IX.G@+z!+S++S++A!+B!+C!+D!+E!+F!+G!+>=+H!+I!+E!+",
"J!+K!+L!+M!+N!+O!+P!+Q!+R!+S!+T!+U!+V!+W!+X!+Y!+Z!+`!+KY  ~+.~++~+@~+#~+$~+%~+&~+*~+=~+-~+;~+>~+,~+'~+)~+!~+~~+{~+]~+^~+/~+(~+(~+_~+:~+<~+[~+}~+|~+1~+2~+3~+4~+5~+6~+7~+8~+9~+0~+a~+b~+c~+d~+e~+f~+g~+h~+i~+j~+k~+l~+m~+n~+8J.V=+I>+o~+p~+n'+q~+r~+s~+t~+u~+E.+J.+:Z.v~+w~+x~+.=+D.+o.+y~+<#+z&+I.+z~+m%+l%+`+++Y.MV.o%+A~+B~+C~+K.+k$+m%+{@+L.+wX.p$+#@+3#+D~+E~+F.+F~+2M G~+H~+I~+!`.J~+K~+%-+L~+M~+)!+N~+O~+_@+hZ.gZ.iZ.P~+nX.Q~+R~+S~+T~+U~+V~+=>+W~+S#+V$+.++n#+=%+K%+X~+Y~+{,+1,+Z~+^-+3-+ )+M$+% +$ +`~+1@+2@+ {+.{++{+@{+t +#{+R#+= +${+@)+H$+%{+&{+*{+*{+6=+);+X.+={+-{+;{+s-+>{+-{+,{+'{+_'+){+s=+}.+!{+!*+C$+C$+f>+b@+X%+.&+~{+I@+%++D#+')+0;+{{+ )+1=+o#+(;+>++]{+^{+/{+&&+,{+,{+).+()+j++..+({+S>+Y`.Y`.Y`.(Z.i.+_{+:{+<{+[{+}{+PZ.|{+h%+1{+2{+<Z._Z.U++3{+4{+zX.]{+}.+y;+n,+5{+]&+",
"6{+7{+8{+9{+0{+a{+b{+c{+d{+e{+f{+g{+h{+i{+j{+k{+l{+<>.m{+~>.~>.~>.n{+o{+p{+p{+m{+~>.~>.~>.~>.~>.~>.o{+.~+q{+r{+: .s{+t{+u{+v{+w{+x{+y{+z{+A{+z{+B{+C{+D{+E{+F{+G{+H{+I{+J{+K{+L{+M{+N{+O{+P{+Q{+R{+S{+T{+U{+V{+W{+X{+Y{+Z{+Z{+`{+q~+ ]+G>+.]++]+@]+#]+$]+%]+k%+&]+*]+=]+y.+-]+;]+C%+f%+>]+,]+']+)]+!]+i%+[Z.;@+~]+X++[#+{@+n$+{]+&=+B&+N>+v$+]]+wX.wX.p%+]@+m$+^]+G~+/]+Y`.(]+_]+:]+<]+[]+$;+lX.x!+}]+L,+*>+gX.e +iZ.hZ.hZ.|]+1]+2]+3]+'++4]+4]+O +5]+n!+(*+|`.O +-++n!+6]+6]+-'+7]+T&+',+,$+C +I@+o#+`~+oZ.o#+M +K +/;+M +%&+$ +p#+c=+@'+8]+.*+1,+9]+j!+9-+b-+6;+;)+Q'+0]+[.+7++/)+[*+a]+n=+:'++.+-)+b]+ $+%%+c]+u#+C$+C$+d]+z#+e]+f]++++'++V +g]+h]+I +x@+1@+d,+W.+K#+i]+!-+j]+k]+l]+k]+u!+m]+u!+a`.n]+o]+p]+q]+Y`.Y`.i.+r]+s]+t]+u]+v]+w]+ %+x]+y]+z]+A]+B]+``.(Z.xZ.UZ.@%+C]+s`.D]+E]+F]+G]+",
"H]+I]+Z-+J]+K]+L]+M]+N]+O]+P]+Q]+R]+S]+T]+U]+V]+W]+X]+Y]+~>.~>.n{+3,.3,.~>.~>.~>.~>.8..Z]+`]+~>.~>.~>.n{+x{+: .n{+ ^+y{+.^++^+T~.#;.@^+#^+$^+%^+&^+*^+=^+y{+-^+@^+;^+<4.=^+=^+>^+*^+I{+z{+,^+y{+ ^+8..o{+#^+'^+)^+!^+c@.j0.j0.X-+~^+u'+S-+u'+{^+]^+^^+/^+(^+_^+:^+<^+[^+}^+a-+|^+l!+>,+1^+2^+3^+4^+.=+I.+J.+[Z.[Z.. +1'+_#+D%+/ +K.+wX.JZ.5^+2Z.NZ.9 +D.+5#+6^+7^+8^+9^+Y`.%-+0^+a^+o.+u%+R,+' +[Z.j +%{+b^+a#+c^+0 +hZ.hZ.1@+ ++.,+d^+w@+e^+}=+1=+-++j>+:!+_`._`.D +f^+g^+n++`.+h^+7]+H@+UZ.oZ.n#+2=+i^+j^+V>+cZ.l +K +N +k^+l^+X +m^+n^+o^+p^+-*+q^+r^+9-+s^+t^+L%+u^+3++C#+S~+n=+|`.n`.v^+w^+2`.x^+~.+y^+t#+v#+''+C$+)'+S&+W$+c]+z^+|!+0++R&+W +h]+A^+K +C`.Y +8++7++B^+C^+k]+D^+;.+;{+E^+F^+G^+H^+I^+J^+K^+L^+M^+N^+O^+P^+Q^+R^+S^+T^+U^+@&+V^+Q++W^+X^+Y^+Z^+:{+tZ.`^+ /+./++/+@/+}.+#/+$/+",
"%/+|m.T=+&/+*/+=/+-/+1H.:Y ;/+>/+,/+'/+)/+!/+~/+{/+~>.]/+`]+~>.n{+r{+ ^+$~+#~+#~+^/+%~+^/+//+.^+ ^+%~+(/+-^+@^+@^+o{+@^+_/+A{+:/+A{+y{+y{+z{+</+[/+=^+&^+&^+y{+}/+|/+1/+[/+[/+=^+2/+y{+z{+3/+3,.4/+%~+5/+6/+7/+8/+9/+0/+LR.j0.j0.a/+b/+u'+u'+gN.c/+d/+e/+f/+g/+h/+i/+j/+k/+r;+l/+G$+6;+h>+`&+m/+0Z.3#+#@+x&+:Z.h%+g%+V++Y`.Y`.[ +m%+|Z.]@+9 +{@+w.+A.+Y*+n/+o/+p/+q/+r/+S>+D%+&Y.s/+aZ.wX.vX.N'+N'+S'+t/+X,+b +d +NZ.iZ.hZ.*-+D`.u/+y`.P#+9;+X.+n!+U>+w +v/+VZ.w/+x/+y/+z/+A/+B/+C/+D/+)Y.E/+F/+tX.K%+b!+G/+[@+H/+I/+N.+9 +J/+K/+!-+2)+c=+L/+,*+{,+>*+]=+o^+0]+M/+N/+* +E#+1>+ /+O/+|`.;++h]+~++j@+s!+9,+s#+u#+t#+)'+u#+P/+('+s#+f!+Q/+a]+Q#+-$+ ++o#+ ++%++@.+7++=)+,{+){+R/+S/+k]+T/+2`.y$+}+++.+U/+V/+W/+X/+Y/+Z/+`/+ (+.(++(+@(+#(+$(+%(+&(+:#+S++*(+S++R++Y`.i.+@&+A/+=(+-(+;(+>(+}.+,(+;%+",
"'(+ec.)(+!(+~(+{(+yK.yK.](+N]+^(+/(+((+BK.zB._(+:(+-^+}/+ ^+n{+4/+-^+$~+@^+A{+;^+#^+y{+y{+@^+y{+2/+A{+;^+@^+A{+@^+<(+#^+&^+z{+#^+A{+y{+y{+z{+[/+[(+[/+[/+[/+[/+*^+[/+[/+[/+[/+=^+y{+}(+&^+|(+`]+~>.n{+{/+&^+1(+2(+-+.8L.3(+j0.j0.4(+5(+n'+6(+7(+8(+9(+0(+]]+a(+b(+c(+d(+e(+[-+f(+}-+4@+g(+i!+h(+5=+i(+*;+_^+j(+.-+e$+<Z.i.+&-+S*+JZ.]@+JZ.JZ.{@+]@+)@+k(+l(+n.+Y`.<#+tZ.Y`..Y. `.F.+NZ.g +wX.fZ.m(+n(+a(+a;+o(+v.+wX._@+W.+6Z.k++z@+(.+p(+n++q(+r(+];+s(+@W.t(+t(+u(+v(+A +w(+%`.,$+u(+G.+3Y.x(+8Z.))+y(+W.+0Z.c +{ +NZ.w.+z(+A(+!@+B(+9;+i=+H$+*%+`&+C(+D(+E(+F(+|^+&{+.)+s +i@+I +C +M +T +p#+O +G(+8,+S&+t#+8@+f!+H(+f!+8@+7@+I(+J(+K(+L(+5!+g^+C +o#+T~+M(+g]+N(+/'+b]+<*+V#+f++O(+=.+Y$+P(+6++@.+&++<]+~W.Q(+R(+S(+T(+U(+8%+V(+W(+X(+Y(++W.<#+Z(+*(+Y`.Y`.Y`.Y`.`(+ _+R%+!{+._++_+@_+U@+#_+",
"$_+`e.%_+&_+*_+XN.](+=_+-_+;_+QC.>_+,_+'_+)_+!_+~_+-^+y{+y{+-^+{_+r{+}/+@^+y{+(/+]_+^_+I{+&^+y{+A{+y{+I{+}(+}(+}(+&^+&^+[/+y{+y{+y{+y{+y{+</+<4./_+/_+[/+[/+[/+[/+[/+[/+[(+*^+&^+y{+y{+z{+|(+~>.~>.~>.(_+=^+__+:_+Cn _L.<_+j0.[_+}_+|_+pc.gN.1_+2_+3_+4_+1Z.5_+:^+6_+7_+#'+n++@{+.)+8_+b!+0]+&%+},+d;+9_+cX.0_+kZ.h%+  +a_+>@+'@+wX.I.+p%+3#+{@+w.+b_+5#+c_+d_+Z++p.+LX.e_+WZ.lV.3#+E.+f_+O.+iZ.t +g_+[,+a;+h_+hZ.y.+iZ.i_+W.+V%+N#+w@+& +1@+a^+j_+u(+k_+PV. @+XZ.rZ.l_+m_+n_+7)+o_+p_+u(+!K.q_+r_+n#+s_+O,+j +NZ.yX.UX.%-+pZ.eX.t_+n#+w@+D#+u_+/>+&%+f(+v_+w_+x_+y_+3-+{{+z_+,;++'+=%+ &+x$+I@+~++C]+A_+B_+C_+*)+=)+D_+u;+.&+};+-$+K(+` +E_+F_+f^+D +;++j>+l_+zV.B +Y$+G_+B#+S&+}+++.+'.+Q$+.&+.'+Z +H_+d++-=+==+I_+J_+K_+L_+M_+N_+~]+O_+P_+Q_+R_+S_+;!+q]+:{+:{+Y`.&Y.)`.g^+C#+T_+[;+Z'+U_+V_+",
"W_+d}.X_+Y_+Z_+`_+ :+.:++:+@:+-P.#:+$:+%:+&:+*:+y=.r{+y{+y{+y{+y{+y{+@^+(/+,^+=:+&^+-:+;:+I{+y{+}(+&^+[/+[/+<4.[/+[/+1/+*^+=^+z{+,^+y{+#^+[/+[/+[/+[/+[/+>:+[/+[/+[/+[/+[/+*^+}(+,:+}(+y{+}/+4/+~>.~>.A{+':+):+!:+~:+@N.j0.j0.j0.{:+X;+u'+gN.]:+^:+/:+(:+_:+::+<:+[:+ )+iZ.O,+k#+z_+t +['+}:+6]+s +|:+1:+<Z._ +iZ.[Z.h%+<#+GZ.HZ.3#+}Z.Q*++=+IZ.jX.k$+> +uX.`Z.7#+2:+K~+n.+$;+3:+5 +7 +j#+~ +a(+jZ.4:+iZ.hZ.5:+&*+iZ.iZ.#'+6:+/-+%++'=+F@+7:+5Z.8:+l%+YX.&(+9:+x/+zV.0:+a:+b:+c:+d:+,$+!K.!K.q_+yX.&*+e:+iZ.f:+) +n +/ +cZ.g:+m/+5++[=+Y,+!,+f@+5,+b!+-'+h:+^-+i:+&*+`'+2-+,,+3-++'+j:+^>+u_+k:+E!+l:+u!+){+u!+m:+._+n:+e++`$+%$+o++I@+>%+T~+n`.|`.a,+NX.UZ.o:+G.+p:+|`.q:+B`.~>+f^+z +r:+s:+w +a,+),+y`.R&+t:+R&+u:+v:+w:+x:+y:+S,+z:+A:+I.+B:+C:+1'+``.i.+:{+A]+D:+E:+VX.C +B#+F:+!K.u(+!K.,$+",
"G:+1[.H:+I:+J:+K:+L:+M:+N:+T]+-P.O:+P:+Q:+R:+S:+G{+{/+y{+y{+y{+y{+y{+@^+@^+}(+,^+*^+z{+A{+&^+A{+*^+=^+z{+*^+*^+</+[/+[/+[/+[/+*^+&^+@^+z{+[(+[/+[/+[/+[/+[/+[/+[/+[/+[/+[/+=^+}(+T:+y{+*^+&^+U:+V:+3,.^_+r{+W:+X:+Y:+7J.Z{+Z:+`:+ <+z'+.<++<+@<+#<+$<+%<+&]+&<+-]+*<+=<+-<+YZ.f:+['+Z*+c(+;<+><+8]+r^+<^+MV.,<+'<+V+++=+m%+K.+{@+{@+]@+4 +H'+JZ.3#+C.+t%+lV.fX.C.+@ +n.+@Y.)<+f-+R,+;,+5_+h_+M$+!<+f-+hZ.x_+GX.n!+hZ.gZ.))+ )+~<+I@+'=+V +U +E +_ +x.+tZ.{<+zV.LX.zV.zV.Z#+9!+zV.u(+]<+OV.$`.gY.G@+^<+jZ.1=+R,+/<+j +dZ.v%+o +YZ.,;+Q%+M%+I$+P%+(<+_<+6:+:<+<<+c;+ )+))+h_+m!+x_+[<+}<+=%+I@+|<+1<+2<+3<+4<+4<+5<+-)+Y$+J@+6<+7<+Z +8<+q:+g]+`#+NX.LX./Y.9<+`~+0<+;`.}`.Z$+a<+j@+OX.<#+Y`.a_+b<+~!+i>+z@+m@+f++c<+d<+e<+l@+V#+(.+V$+x@+o@+}]+f<+R++:Z._Z.(Z.g<+~]+FZ.h<+i<+T%+j<+ {+k<+k<+l<+l<+",
"m<++3.n<+o<+p<+{Z.^U.q<+r<+s<+t<+MC.u<+v<+w<+x<+y<+{/+y{+y{+z{+y{+y{+}(+y{+y{+}(+&^+y{+A{+z{+y{+z{+y{+y{+,^+z{+*^+*^+=^+&^+[/+[/+z{+z{+z{+*^+[/+[/+[/+[/+[/+[/+[/+[(+[/+[/+=^+@^+]/+y{+|/+&^+]_+l=.: .r{+o{+z<+A<+B<+*Q.C<+P;+D<+u*+u'+u'++<+u'+E<+cG.F<+G<+H<+I<+S'+U~+c(+hZ.J<+8]+6:+9Z.K<+0Z.-<+L<+[<+VX.8Z.8Z.C&+M<+N<+3#+O<+2Z.B.+P<+8#+5 +k%+[Z.wX.f_+- +aZ.lV.lV.6#+-@+m/+Q<+hZ.c +R<+G +)<+UZ.S<+T<+U<+6:+hZ.j +V<+c(+W<+& +I@+-$+X<+$&+;%+mZ. Y.1 +zV.zV.Y<++%+ {+EX.@`.l<+)Y.RX.wV.Z<+-++<<+1=+n++`<+ [+8 +(@+.[+BZ.U%++[+}-+@[+#[+$[+8>+a@+%[+&[+*[++{+DX.c;+=[+y_+-[+1@+b;+{&+;[+{&+>[+,[+>{+-{+^)+t-+9,+r!+,&+'[+B#+:.+n:+_)+C]+f=+l_+9<+(Y.YX.#Y.`#+,`.p#+K +)[+![+R++Y`.M^+~[+i.+<#+`~+& +.&++&+ /+)-+O@+S#+#$+O(+()+B^+{[+(]+][+^[+:Z./[+([+S++HV.IX.{{+-*+ *+i:+a;+:,+_[+:[+:[+",
"<[+[[+[X.}[+|[+1[+2[+3[+4[+5[+6[+@J 7[+8[+9[+0[+a[+r{+}(+y{+z{+}(+z{+}(+&^+y{+y{+y{+y{+#^+%^+#^+y{+y{+}(+y{+=^+[/+[/+[(+*^+[/+*^+&^+&^+z{+[/+[/+[/+[/+[/+[/+[/+[/+[(+[/+b[+c[+y{+d[+z{+&^+y{+^_+|(+e[+@^+n{+f[+g[+h[+i[+j[+k[+ <+l[+u*+pc.m[+n[+o[+p[+q[+`++3:+4#+r[+s[+t[+u[+l!+--+R,+p +v[+{Y.w[+x[+}'+:Y.l(+H.+9<+e%+s:+y[+n>+) +3#+B.+4Z.E.+L.+JZ.wX.f_+aZ.aZ.5Z.9Z./ +v%+z[+hZ.<<+A[+B[+~!+C[+D[+x[+s.+h<+'<+iZ.iZ.iZ.hZ.['+& +p#+E[+==+F[+>%+PX.oX.pX.G[+EX.H[+ {+Y<+I[++%+l<+u(+J[+t(+Z<+K[+`'+M$+R.+u +L[+T.+l +2@+hZ.8]+M[+|-+0=+_,+A-+C$+g>++'+ {+N[+O[+@{+P[+zX.[,+[,+-++Q[+R[+R[+S[+T[+>(+U[++/+}.+}.+^)+()+()+m;+{.+_'+V[+s=+u`.xV.9:+ @+/Y.:Y.=`.W[+({+({+=++X[+2 +&-+_#+i.+  +(Y.Y[+OV.o#+_.+%,+q:+:.+6++Z +Z[+`[+ }+p#+L +.}++}+  +S++U++(Z.U++b<+j%+&*+*'+Y%+`'+b;+0)+@}+#}+,$+",
"$}+%}+&}+*}+=}+-}+;}+>}+tL.,}+'}+)}+!}+~}+{}+]}+^}+y{+z{+y{+y{+y{+}(+y{+=:+z{+y{+&^+A{+#^+y{+}(+z{+y{+&^+}(+y{+,^+,^+z{+&^+[(+&^+[/+*^+I{+[/+[(+[/+[/+[/+[/+[/+[/+[(+/}+(}+}(+}(+y{+&^+}(+@^++^+@^+r{+r{+%~+n_._}+:}+(L.U-+Ni.fT.Ni.[$+<}+o~+[}+}}+|}+1}+2}+3}+4}+5}+uU.6}+7}+8}+9}+0}+a}+^U.b}+c}+d}+e}+l.+<#+o.+n +f}+zV..{+m!+h_+x_+|]+J<+g}+h}+8]+i}+j}+u.+f:+aZ.k}+uX.lZ.gZ.iZ.7!+U*+l<+E:+l}+<!+h<+P.+!<+I[+m}+hV.z_+hZ.i_+YZ.i_+KX.')+n}+o}+zV.rX.n}+p}+q}+r}+U<+s}+t}+u}+0:+OV.BV.o:+v}+w}+z_+x$+$ +x}+}:+y}+z}+A}+s +);+,>+B}+v#+C$+z#+u#+$)+*%+Z#+C}+D}+E}+&>+6Z.<!+n>+I[+u}+R[+I@+F}+k:+G}+H}+[,+',+}.+v-+t-+s=+s=+s=+_'+s=+s=+I}+J}+@&+ZX.^W.K}+L}+r_+f]+4`.I +M}+LV.N}+p}+k>+pX.`~+G +d++'=++&+6+++&+H_+O}+P(+:.+a]+P}+Q}+.`.$]+R}+:Z.S}+:Z.c$+T}+U}+V}+W}+X}+Y}+Z}+0<+`X.D[+n}+`}+",
" |+.|+[[++|+@|+#|+.k.$|+%|+&|+*|+=|+-|+;|+>|+,|+'|+y{+z{+}(+z{+&^+}(+=^+y{+z{+}(+y{+y{+&^+&^+&^+=^+=^+&^+&^+y{+&^+&^+&^+[/+[/+*^+&^+&^+[/+[(+[(+[/+1/+[/+[/+[/+[(+<4.=^+y{+y{+y{+y{+}(+}(+y{+)|+U:+3,.(_+!|+4/+~|+{|++N.]|+^|+/|+(|+G>+_|+.]+:|+<|++Q.[|+}|+||+1|+2|+3|+4|+fO zF.5|+iQ.yE.6|+-!+j{+7|+8|+I.+wX._@+, +fZ.9|+m!+h_+i:+iZ.0|+a|+~'+b|+c>+c|+d|+e|+f|+L[+_@+{ +g|+g:+x_+8!+jV.h|+{'+V>+hZ.hZ.lZ.aZ.' +iZ.gZ.bZ.hZ.hZ.hZ.hZ.i;+n!+i|+I[+EX.T<+j|+6)+k|+[,+h_+e:+l|+9|+A[+zV.zV.zV.m|+@`.E +iV.K#+n|+8]+}:+d,+o|+#{+4@+p|+q|+b@+g>+2*+H(+(;+B/+G.+r|+s|+s.+T +t|+_Y.u[+@`.o#+u|+^-+v|+s;+o>+w|++'+'<+]<+x|+y|+y|+z|+t-+-.+u!+7++A|+B|+C|+`V.D|+E|+F|+G|+O(++.+J +H|+5 +J.+[Z.' +#'+M$+q#+R%+0;+S%+.&+$.+m++D#+I|+J|+o|+I@+#*+4Z.K|+L|+M|+  +:Z.:Z.N|+O|+P|+8!+0;+Q<+ [+r.+s:+PX.Q|+$&+",
" |+R|+S|+T|+}[.|[.cc.d}.1[.U|+qh.kc.V|+7n.W|+X|+Y|+Z|+z{+z{+&^+}(+}(+}(+y{+z{+&^+`|+`|+A{+y{+z{+[/+[/+=^+&^+*^+&^+y{+z{+*^+[/+[(+</+*^+[/+[/+[/+<4.[/+[/+[/+[/+<4.&^+y{+-^+y{+y{+r{+y{+@^+|(+{_+3/+(_+^/+4/+ 1+.1++1+@1+#1+$1+%1+u'+G>+&1+*1+u'+#<+=1+-1+-1+u'+aK.o~+;1+>#+u*+>#+u'+u'+@<+>1+,1+'1+)1+h%+aX.) +iZ.' +H}+y_+h_+s +t +d;+!1+#[+~1+>)+{1+]1+^1+^1+/1+(1+hZ.fZ.iZ._1+jZ.P.+d=+]>+v.+:1+T.+q.+eZ.kZ.wX.6 +gZ.i_+%&+i_+<1+['+[1+i:+U%+^<+m!+Y<+9|+aX.}1+y_+i:+h_+|1+d=+s.+11+VX.Z#+21+MX. ++%*+|=+31+%{+41+8]+41+6=+d!+^=+6;+51+B$+61+[;+zV.OV.vZ.71+81+c,+91+01+] +{ +s.+@{+))+hZ.+'+E(+a1+4,+d;+b1+c1+QV.d1+e1+f1+:'+g1+h`.h1+i1+j1+k1+V/+oY.I^+l1+m1+G^+a`.n1+9Z.w +sX.q.+s%+J +I +%&+-++><+p#+p#+B#+N$+!,+S%+f@+ *+j-+Y.+o1+j#+p1+q1+:Z._Z.r1+O|+:Z.s1+kZ.t1+t@+Q&+_Y.zZ.WX.#W.u1+",
"v1+ec.ec.w1+}[.r|.h}.@3.@3.Ld.x1+y1+Ze.z1+A1+B1+C1+>:+y{+y{+@^+}(+[/+}(+=^+&^+z{+[(+[/+&^+=^+[/+[/+[/+*^+&^+}(+&^+&^+&^+[/+[/+1/+[(+[(+[/+[/+[/+[(+[/+[/+[/+[(+[(+3/+]/+D1+E1+y{+@^+r{+{/++~+Z]+//+^/+^/+`]+F1+G1+H1+bc.I1+p~+m[+T:.J1+K1+L1++<+u'+M1+u'+t'+!Z.S-+u*+[$+[$+N1+<}+F>+t'+s'+O1+P1+Q1+Y++c$+.=+R1+O,+f_+S1+a;+v.+%{+T1+U1+V1+W1+X1+Y1+Z1+`1+ 2+.2++2+],+a!+r +t +k#+t/+n(+8 +gZ.0Z.%*+@2+#2+$2+#=+jX.B.+w.+%2+O,+Z*+a#+&2+[@+*2+=2+-2+[<+S<+8!+aX.aX.'!+iZ.;2+>2+,2+c +e +jV.'2+d-+)2+i]+y}+^=+!2+g;+#)+k!+h}+q^+[-+*{+}-+|-+c@+~2+@}+{2+vZ.]2+^2+XX.9<+> +I.+JZ.w.+gZ.iZ.e +iZ.e-+b;+b;+%'+/2+(2+9X._2+:2+0;+<2+g]+O ++$+k`.[2+j]+}2+*.+-.+s-+|2+E^+12+22+32+|`.42+52+62+k`.K +7:+M +A +Y#+!-+T +,=+'=+$*+m++.'+72+b|+''+82+hV.o +F.+92+Q>+n$+6#+02+a2+b2+c2+d2+e2+D%+f2+g2+h2+i2+",
"h}..3.j2+{b.}[.ec.{b.|[.k2+l2+m2+n2+o2+p2+q2+r2+s2+t2+&^+}(+&^+y{+&^+y{+[/+u2+y{+}(+z{+y{+}(+*^+*^+*^+*^+*^+[/+*^+=^+*^+[/+[/+[/+<4.[/+[/+[/+[/+[/+[/+I{+u2+=^+,^+v2+~>.~>.~>.@~+y{+@^+%~+n{+~>.`]+`]+#~++~+w2+x2+y2+_L.z2+wQ.A2+9&+M1+B2+C2+D2+u'+M1+u'+M1+E2+B2+M1+A_.F2+u*+u*+r*+r*+G2+H2+I2+J2+W++g%+|#+j$+r$+a#+N.+c +K2+L2+&<+G/+M2+N2+O2+P2+Q2+^1+R2+<>+],+],+0-+S2+],+41+['+>,+T2+}:+U2+sH V2+F.+J +^ +lV.kZ.<1+#)+c +-<+,2+b(+1^+W2+X2+V<+Y2+Z2+`2+)!+ 3+/@+_^+! +E.+{ +BZ.uX.gZ.a!+-*+4-+'2+.3+j!+->++[+);+-'+[-+1,+-'+ *+3>+ *+.)++3+f +%Y.@3+XZ.G@+zX.x +m +f +-<+#3+$3+%3+g_+R1+_@+c;+a;+a;+&3+*3+=3+-3+;3+>3+,3+J.+'3+)3+)<+s%+lV.P.+j-+b=+!3+~3+{3+]3+^3+G(+,.+/3+(3+w`.P +U +M}+Y*+V%+DX.n#+n#+ &+^*+2>+_3+m^+=*+Y~+#,+Q}+;`.}`.}`.b++:3+<3+[3+}3+|3+13+23+33+43+<#+>@+(!+=Y.53+",
"h}.S|+63+r|.r|.|[.73+83+93+!b.03+a3+b3+c3+d3+e3+f3+(}+*^+*^+z{+&^+}(+y{+*^+=^+y{+&^+&^+z{+y{+y{+}(+z{+}(+z{+[/+[/+[/+[/+[(+[/+[/+[(+[/+/_+1/+[/+[/+[/+&^+@^+r{+g3+h3+i3+j=.j3+j=.=:+@^+x{+~>.~>.~>.~>.~>.D1+k3+l3+m3+n3+o3+p3+q3+r3+G>+B2+s3+u'+M1+t3+O=+E2+u3+v3+w3+w3+x3+y3+z3+G>++<+A3+B3+C3+D3+0$+I&+@@+9 +w%+E3+F3+G3+L2+H3+I3+J3+K3+L3+M3+N3+O3+],+],+9-+P3+Q3+->+^=+],+%{+R3+S3+T3+*2+U3+S3+R3+K2+V3+R3+W3+X3+Y3+Z3+`3+ 4+q$+-]+&<+.4++4+@4+7!+#4+$4+%4+&4+*4+_^+j +=4+aZ.BX.AX.cZ.0]+4@+-4+;4+L%+I$+>4+ *++[+[-+.)+0-+,4+#,+'4+!1+)4+!4+|]+i|+k#+b +k#+a +%2+~4+{4+]4+^4+/4+(4+_4+:4+N.+<4+[4+}4+7!+|4+14+24+34+44+54+&3+64+74+p}+rZ.aZ.84+s^+<>+_>+94+_>+],+h>+1-+`&+04+R&+~>+:*+h]+O +oX.-,+p#+O +;++a4+b4+T~+c4+d4+U~+e4+f4+|`.g4+h4+i4+j4+k4+l4+m4+n4+o4+p4+q4+r4+s4+t4+u4+v4+w4+<Y.",
"{b.x4+y4+k}.{b.h}.z4+A4+B4+C4+ec.`e.D4+E4+F4+G4+^}+H4+u2+=^+,^+z{+y{+y{+,^+I{+*^+[/+[/+*^+[/+&^+}(+[/+[/+[/+*^+/}+[/+/}+c[+t2+y{+z{+[/+1/+[(+1/+[/+z{+@^+ ^+I4+X]+J4+K4+m{+U-.U-.L4+}/+4/+~>.~>.K4+M4+J4+N4+O4+P4+Q4+LR.R4+S4+T4+U4+V4+W4+X4+E2+aK.p~+V4+Y4+Z4+`4+ 5+.5++5+@5+#5+$5+OM.%5+&5+*5+=5+-5+;5+d#+J,+>5+,5+.4+T1+'5+)5+e|+!5+~5+{5+]5+^5+/5+],+(5+c>+^1+_5+],+],+],+:5+J3+X3+S3+<5+[5+}5+|5+15+25+35+&<+I3+45+55+65+75+85+95+05+/1+],+_5+a5+b5+hZ.iZ._^+5 +r%+q$+;]+c5+1 +Y#+n++)2+;4+j!+);+0-+}-+X%+d5+e5+f5+Y~+g5+_=+f@+C(+h5+i5+g#+j5+a;+b^+7_+k5+X2+l5+m5+n5+o5+p5+q5+r5+s5+m5+t5+{4+u5+v5+w5+&<+X3+x5+:@+y5+z5+A5+B5+44+C5+D5+E5+s}+F5+G5+Q3+],+->+],+(<+9@+!*+9@+I$+1,+H5+I5+*'+J5+,,+`'++'+Y}+e1+U@+d]+K5+6;+d>+L5+M5+N5+O5+P5+Q5+R>+R5+S5+T5+U5+V5+W5+X5+Y5+Z5+`5+s&+ 6+.6+b%+",
"+6+<g.2[.0L.}[.ec.@6+)l.#6+V|+`L.$6+%6+th.&6+*6+=6+-6+=^+u2+;6+}(+z{+}(+y{+z{+u2+&^+[/+*^+[/+*^+=^+&^+&^+&^+y{+&^+&^+>6+%~+$~+@~+%~+d[+,^+[/+[/+&^+@^+.~++~+,6+M4+J4+'6+'6+)6+!6+3/+L4+~6+]/+~>.U-.<>.<>.{6+]6+^6+/6+(6+_6+:M._b.:6+4X.<6+[6+}6+G>+O=+|6+16+26+36+46+56+66+76+u'+86+96+06+a6+b6+c6+d6+{@+e6+h$+>5+f6+g6+U1+h6+i6+<>+d|+j6+k6+l6+m6+n6+o6+.B k6+c|+<>+9-+p6+p6+q6+q6+.3+ *++[+r6+s6+]4+<:+g#+45+I3+&<+f6+q$+t6+u6+v6+w6+^1+x6+r;+y6+C$+g>+,4+jZ.hZ.wX.*]+z6+i%+dX.0:+~-+g]+ /+m^+,*+T'+I$+A6+N%+I%+c]+B$+S&+%%+)&+R%+-++B6+T2+S'+P.+a;+i;+*<+f6+C6+D6+E6+F6+G6+H6+I6+J6+K6+L6+M6+N6+O6+P6+`3+Q6+R6+S6+T6+U6+2'+V6+W6+X6+Y6+W6+Z6+`6+1,+6@+b=+);+6=+~'+e5+a=+v#+u#+O%+ 7+.7+-*+g>+w#++7+@7+#7+$7+%7+&7+*7+=7+-7+;7+>7+&{+RZ.%-+,7+'7+)7+!7+~7+~#+{7+]7+^7+~#+/7+{#+(7+_7+:7+<7+/7+",
"[7+}7+|7+17+p|.d}.27+37+47+57+@3.k}.67+w,+77+87+97+07+[/+[/+[/+[/+[(+[(+[/+a7+`|+[/+[(+[(+[/+*^+`|+`|+&^+y{+y{+b7+n{+}/+-^+=:+}/+@^+L4+3/+*^+[/+A{+y{+e[+l=.^/+-:+}/+c7+#~+$~+d7+#^+$^+A{+ ^+m{+)6+c!.<>.U-.e7+f7+g7+h7+i7+j7+k7+l7+m7+n7+o7+r3+r3+uh.p7+G>+q7+r7+s7+t7+u7+v7+w7+Ry x7+y7+z7+A7+B7+a%+:1+y}+C7+;;+D7+E7+F7+G7+G7+H7+<>+Q3+I7+J7+C$+p6+],+c>+K7+L7+M7+>>+N7+6;+4@+_=+T'++)+L%+V&+2!+O7+i6+P7+Q7+R7+S7+T7+{{+;4+|-+U7+>>+x6+V7+a@+m6+W7+O%+m-+D#+H@+X7+FV.Y7+U}+]2+Z7+`7+x;+ 8+ 8+.8++8+@8+-)+#8+-.+T/+$8+%8+&8+*8+=8+-8+;8+>8+,8+C +0;+>,+'8+)8+C6+!8+=2+~8+{8+]8+{8+>2+^8+/8+(8+_8+:8+<8+[8+}8+|8+18+28+28+38+48+58+68+78+88+98+08+X~+-4+ }+2!+l/+B-+%)+w#+z#+H(+a8+)=+X&+[.+A_+9,+T/+b8+c8+d8+e8+f8+g8+h8+i8+$++j8+V*+k8+l8+m8+n8+o8+p8+q8+r8+s8+t8+u8+v8+w8+x8+y8+z8+A8+B8+C8+"};
