/* XPM */
static char * south_xpm[] = {
"128 128 8266 2",
"  	c #161919",
". 	c #131717",
"+ 	c #121616",
"@ 	c #111515",
"# 	c #0F1413",
"$ 	c #111615",
"% 	c #121615",
"& 	c #141717",
"* 	c #141818",
"= 	c #151919",
"- 	c #161A1A",
"; 	c #141819",
"> 	c #131718",
", 	c #121617",
"' 	c #121717",
") 	c #131818",
"! 	c #191C1C",
"~ 	c #1B1E1D",
"{ 	c #1D1F1E",
"] 	c #1A1D1D",
"^ 	c #1A1C1D",
"/ 	c #181C1C",
"( 	c #191D1C",
"_ 	c #1C1E1D",
": 	c #1C1F1D",
"< 	c #171A1B",
"[ 	c #171B1B",
"} 	c #1A1C1C",
"| 	c #1A1D1C",
"1 	c #191C1B",
"2 	c #181B1B",
"3 	c #151917",
"4 	c #151A18",
"5 	c #171B1A",
"6 	c #161B19",
"7 	c #161B1A",
"8 	c #151918",
"9 	c #151818",
"0 	c #151819",
"a 	c #181B1A",
"b 	c #161A19",
"c 	c #171A19",
"d 	c #171B19",
"e 	c #171B1C",
"f 	c #141817",
"g 	c #141816",
"h 	c #151817",
"i 	c #161A18",
"j 	c #161918",
"k 	c #151A19",
"l 	c #181C1B",
"m 	c #1C1E1E",
"n 	c #16191A",
"o 	c #0F1312",
"p 	c #0F1313",
"q 	c #0E1312",
"r 	c #0D1211",
"s 	c #0D1111",
"t 	c #111516",
"u 	c #111616",
"v 	c #141919",
"w 	c #131817",
"x 	c #101515",
"y 	c #101414",
"z 	c #131616",
"A 	c #131716",
"B 	c #141917",
"C 	c #141918",
"D 	c #131617",
"E 	c #191C1A",
"F 	c #1A1C1B",
"G 	c #1B1D1D",
"H 	c #0E1212",
"I 	c #131615",
"J 	c #131816",
"K 	c #121716",
"L 	c #111514",
"M 	c #101514",
"N 	c #121515",
"O 	c #121715",
"P 	c #181C1A",
"Q 	c #191B1A",
"R 	c #101413",
"S 	c #0E1313",
"T 	c #171A1A",
"U 	c #121516",
"V 	c #101312",
"W 	c #121514",
"X 	c #1E1F1E",
"Y 	c #111413",
"Z 	c #141718",
"` 	c #21221E",
" .	c #191D1D",
"..	c #0F1414",
"+.	c #181A19",
"@.	c #20211E",
"#.	c #252421",
"$.	c #232320",
"%.	c #1E201D",
"&.	c #1B1E1C",
"*.	c #1A1D1B",
"=.	c #1A1C1A",
"-.	c #181B18",
";.	c #161916",
">.	c #1F211F",
",.	c #181B1C",
"'.	c #262522",
").	c #453D36",
"!.	c #5D5148",
"~.	c #5D5048",
"{.	c #4E433A",
"].	c #36322B",
"^.	c #2A2926",
"/.	c #252522",
"(.	c #262521",
"_.	c #272522",
":.	c #2E2C28",
"<.	c #322F2B",
"[.	c #322E2A",
"}.	c #1B1D1B",
"|.	c #181A18",
"1.	c #131715",
"2.	c #2F2C26",
"3.	c #5D4F41",
"4.	c #917763",
"5.	c #A0856E",
"6.	c #A3876F",
"7.	c #A1856C",
"8.	c #947C67",
"9.	c #846D5C",
"0.	c #6E5D4E",
"a.	c #5C5048",
"b.	c #6F6256",
"c.	c #79695C",
"d.	c #806E5E",
"e.	c #7E6C5B",
"f.	c #5F5145",
"g.	c #35302B",
"h.	c #22221F",
"i.	c #151816",
"j.	c #111414",
"k.	c #101513",
"l.	c #1B1D1C",
"m.	c #282724",
"n.	c #302E2A",
"o.	c #332E29",
"p.	c #342F29",
"q.	c #423B36",
"r.	c #594E43",
"s.	c #86705A",
"t.	c #A88A6C",
"u.	c #C09976",
"v.	c #C59E7B",
"w.	c #C69E78",
"x.	c #C69F78",
"y.	c #C39B75",
"z.	c #C29872",
"A.	c #BB9878",
"B.	c #AE9075",
"C.	c #B19376",
"D.	c #BA9A7C",
"E.	c #BF9A79",
"F.	c #BA936E",
"G.	c #A28064",
"H.	c #6A594B",
"I.	c #493F33",
"J.	c #433A30",
"K.	c #322B24",
"L.	c #21201A",
"M.	c #1B1C18",
"N.	c #191D1B",
"O.	c #141715",
"P.	c #1D1D19",
"Q.	c #2A2823",
"R.	c #433C34",
"S.	c #65584E",
"T.	c #79685B",
"U.	c #887566",
"V.	c #8E7A65",
"W.	c #9A836D",
"X.	c #B59376",
"Y.	c #BD987A",
"Z.	c #BB9572",
"`.	c #C29B76",
" +	c #C7A380",
".+	c #CCA885",
"++	c #C8A17C",
"@+	c #C29A75",
"#+	c #C29973",
"$+	c #C59D77",
"%+	c #C29D7A",
"&+	c #C8A27E",
"*+	c #CBA785",
"=+	c #CAA582",
"-+	c #C79D75",
";+	c #C1976F",
">+	c #AA8562",
",+	c #A08163",
"'+	c #A5866A",
")+	c #9B7D63",
"!+	c #78634F",
"~+	c #4F4335",
"{+	c #2B2923",
"]+	c #121413",
"^+	c #131614",
"/+	c #121513",
"(+	c #0E1311",
"_+	c #181B19",
":+	c #23211D",
"<+	c #3C332C",
"[+	c #685A4D",
"}+	c #A18975",
"|+	c #BDA086",
"1+	c #C3A386",
"2+	c #C2A388",
"3+	c #C6A488",
"4+	c #CBAA8E",
"5+	c #CDA886",
"6+	c #C8A486",
"7+	c #C5A284",
"8+	c #C8A482",
"9+	c #CEAB8A",
"0+	c #D2B194",
"a+	c #CFAF94",
"b+	c #CBAB90",
"c+	c #C9A483",
"d+	c #C8A27D",
"e+	c #D0AB88",
"f+	c #D4AF8C",
"g+	c #CCA682",
"h+	c #C49D77",
"i+	c #C59D74",
"j+	c #C19870",
"k+	c #C8A078",
"l+	c #C9A079",
"m+	c #C29A73",
"n+	c #B89069",
"o+	c #9D7858",
"p+	c #795C43",
"q+	c #42362A",
"r+	c #1C1D1B",
"s+	c #161715",
"t+	c #151614",
"u+	c #101412",
"v+	c #0F1412",
"w+	c #121614",
"x+	c #191B19",
"y+	c #201F1C",
"z+	c #312C27",
"A+	c #51463D",
"B+	c #7D6B5E",
"C+	c #B49983",
"D+	c #C9A98E",
"E+	c #CCAC91",
"F+	c #CDAE94",
"G+	c #CDAE95",
"H+	c #D2B195",
"I+	c #D7B696",
"J+	c #D4B394",
"K+	c #D5B394",
"L+	c #D5B497",
"M+	c #D7B495",
"N+	c #D6B496",
"O+	c #D9B99D",
"P+	c #DCBEA3",
"Q+	c #E0BFA4",
"R+	c #D4B191",
"S+	c #CBA47F",
"T+	c #D6B18F",
"U+	c #D9B593",
"V+	c #D7B28D",
"W+	c #CAA27D",
"X+	c #C0976F",
"Y+	c #BD946C",
"Z+	c #CAA179",
"`+	c #CCA37B",
" @	c #C4986E",
".@	c #C09368",
"+@	c #B98F65",
"@@	c #B4875E",
"#@	c #A5754D",
"$@	c #7B5A3F",
"%@	c #3D3124",
"&@	c #191A17",
"*@	c #101415",
"=@	c #21201B",
"-@	c #3B342C",
";@	c #584B41",
">@	c #827063",
",@	c #AA9381",
"'@	c #C8AD9C",
")@	c #D0B29A",
"!@	c #CEAE93",
"~@	c #CCAC92",
"{@	c #D0B097",
"]@	c #D3B498",
"^@	c #D6B699",
"/@	c #D6B596",
"(@	c #D4B292",
"_@	c #DAB797",
":@	c #E2BFA0",
"<@	c #DEBA99",
"[@	c #DAB897",
"}@	c #D9B899",
"|@	c #DEBC9B",
"1@	c #DBB693",
"2@	c #CFA781",
"3@	c #C69C74",
"4@	c #D3AB85",
"5@	c #DDB895",
"6@	c #DAB795",
"7@	c #DBB794",
"8@	c #D5AD88",
"9@	c #BE946C",
"0@	c #C59C74",
"a@	c #C69B73",
"b@	c #C4966C",
"c@	c #B88B62",
"d@	c #B18258",
"e@	c #AC7950",
"f@	c #8A6142",
"g@	c #4E3E2C",
"h@	c #22211E",
"i@	c #1F201D",
"j@	c #463C33",
"k@	c #7F6D5E",
"l@	c #A68F7C",
"m@	c #BFA590",
"n@	c #CFB29C",
"o@	c #D7B9A0",
"p@	c #D4B59B",
"q@	c #D1B194",
"r@	c #D1B195",
"s@	c #CCAD93",
"t@	c #BD9F87",
"u@	c #BC9E84",
"v@	c #CAA98A",
"w@	c #D2B193",
"x@	c #D1AF90",
"y@	c #D9B697",
"z@	c #D5B08C",
"A@	c #D5AF8C",
"B@	c #D5B290",
"C@	c #C69C73",
"D@	c #C69A70",
"E@	c #C49A71",
"F@	c #C69E77",
"G@	c #DCB692",
"H@	c #DFBB9B",
"I@	c #E2BE9C",
"J@	c #DDB693",
"K@	c #CEA67F",
"L@	c #CAA37D",
"M@	c #D0A983",
"N@	c #C79B73",
"O@	c #B98C62",
"P@	c #AD7F56",
"Q@	c #AC7B50",
"R@	c #8E603B",
"S@	c #695035",
"T@	c #534434",
"U@	c #352E25",
"V@	c #0E1211",
"W@	c #1C1E1C",
"X@	c #262421",
"Y@	c #685A4F",
"Z@	c #B79C87",
"`@	c #D0B198",
" #	c #DABCA4",
".#	c #DABDA5",
"+#	c #DCBEA6",
"@#	c #DFC0A6",
"##	c #DDBEA2",
"$#	c #E0C1A7",
"%#	c #DFC0A7",
"&#	c #C9A78A",
"*#	c #C2A182",
"=#	c #CEAC8D",
"-#	c #DBBB9E",
";#	c #DDBC9F",
">#	c #C7A17E",
",#	c #C39A72",
"'#	c #CDA67F",
")#	c #C69F7A",
"!#	c #BB9269",
"~#	c #BC936B",
"{#	c #BE956D",
"]#	c #C9A37E",
"^#	c #DEBA98",
"/#	c #E1BFA1",
"(#	c #E0BE9D",
"_#	c #D4B08D",
":#	c #D7B18B",
"<#	c #D8B490",
"[#	c #D9B694",
"}#	c #D2AD88",
"|#	c #B68960",
"1#	c #AD7B52",
"2#	c #98633C",
"3#	c #93613C",
"4#	c #966A47",
"5#	c #785E43",
"6#	c #504333",
"7#	c #2C2A23",
"8#	c #1B1C1A",
"9#	c #0E1210",
"0#	c #0D1110",
"a#	c #0E120F",
"b#	c #0F1311",
"c#	c #0D1210",
"d#	c #0F1211",
"e#	c #282624",
"f#	c #38332E",
"g#	c #917C6C",
"h#	c #D0B094",
"i#	c #D9B89B",
"j#	c #D9B99B",
"k#	c #DDBFA7",
"l#	c #E6C7AF",
"m#	c #E7C6AB",
"n#	c #E7C6AA",
"o#	c #E7C6AC",
"p#	c #E8C8B0",
"q#	c #E6C7AE",
"r#	c #D7BAA0",
"s#	c #BFA088",
"t#	c #CCAA8C",
"u#	c #DABA9D",
"v#	c #DFC2A8",
"w#	c #CBA88A",
"x#	c #B1865D",
"y#	c #C0966D",
"z#	c #C0976E",
"A#	c #C29A74",
"B#	c #CAA583",
"C#	c #D1B092",
"D#	c #E4C3A5",
"E#	c #DEBEA0",
"F#	c #D2AE8B",
"G#	c #D0AA86",
"H#	c #D9B28C",
"I#	c #D8B28C",
"J#	c #D5B18D",
"K#	c #D6B390",
"L#	c #D8B593",
"M#	c #CFA67F",
"N#	c #C0946C",
"O#	c #A17049",
"P#	c #A2714A",
"Q#	c #A26F48",
"R#	c #996C46",
"S#	c #8B684B",
"T#	c #5E4F40",
"U#	c #2E2922",
"V#	c #151715",
"W#	c #101411",
"X#	c #312F2C",
"Y#	c #453F3A",
"Z#	c #AB9178",
"`#	c #D5B292",
" $	c #D5B190",
".$	c #E3C3A7",
"+$	c #E6C5A8",
"@$	c #E4C2A3",
"#$	c #E6C3A5",
"$$	c #E5C2A3",
"%$	c #E4C2A2",
"&$	c #E5C5A8",
"*$	c #DBBEA3",
"=$	c #C2A286",
"-$	c #CCAB8E",
";$	c #D6B89E",
">$	c #DABDA3",
",$	c #D9BCA4",
"'$	c #B7916F",
")$	c #B0855C",
"!$	c #BC926A",
"~$	c #CFA882",
"{$	c #DCBC9F",
"]$	c #DFC1A6",
"^$	c #E0C1A6",
"/$	c #D3B397",
"($	c #C59B74",
"_$	c #C39970",
":$	c #C79E77",
"<$	c #C9A27A",
"[$	c #C09872",
"}$	c #CCA782",
"|$	c #D6AE87",
"1$	c #D2A880",
"2$	c #D0A67E",
"3$	c #C49A73",
"4$	c #B78B62",
"5$	c #AC7E54",
"6$	c #AE7F55",
"7$	c #A77952",
"8$	c #87674D",
"9$	c #4D4235",
"0$	c #282520",
"a$	c #111513",
"b$	c #0D110F",
"c$	c #0F1210",
"d$	c #2D2A27",
"e$	c #52463C",
"f$	c #897666",
"g$	c #B09885",
"h$	c #C1A287",
"i$	c #D1AC8A",
"j$	c #D3AB86",
"k$	c #C8A17D",
"l$	c #D8B491",
"m$	c #DCB894",
"n$	c #D9B18B",
"o$	c #D1AB83",
"p$	c #DAB693",
"q$	c #DCB998",
"r$	c #C7A382",
"s$	c #D2AF8D",
"t$	c #D9B99C",
"u$	c #D7B89E",
"v$	c #D7BAA3",
"w$	c #D1AE90",
"x$	c #C59D76",
"y$	c #CAA47F",
"z$	c #CEA985",
"A$	c #D1AC88",
"B$	c #D1B091",
"C$	c #D3B296",
"D$	c #D3B398",
"E$	c #D4B295",
"F$	c #BD9168",
"G$	c #B78B61",
"H$	c #B98E66",
"I$	c #BB9067",
"J$	c #C59B71",
"K$	c #CFA67D",
"L$	c #D4AE88",
"M$	c #B7885F",
"N$	c #C29970",
"O$	c #D3AB84",
"P$	c #BA8D63",
"Q$	c #B6865B",
"R$	c #AC7A51",
"S$	c #9A7150",
"T$	c #6F5A46",
"U$	c #463D31",
"V$	c #1B1C19",
"W$	c #1E1F1D",
"X$	c #36322E",
"Y$	c #766457",
"Z$	c #C2A893",
"`$	c #D7BBA3",
" %	c #D5B69A",
".%	c #D2B090",
"+%	c #D0AB89",
"@%	c #D4AF8B",
"#%	c #DAB490",
"$%	c #BA926B",
"%%	c #BF9871",
"&%	c #D4AE83",
"*%	c #D3AB83",
"=%	c #CDA680",
"-%	c #D6B492",
";%	c #CFAD8F",
">%	c #D7B697",
",%	c #C69D74",
"'%	c #CDA47B",
")%	c #D0AA87",
"!%	c #D1AA85",
"~%	c #CFA884",
"{%	c #CEA885",
"]%	c #C8A380",
"^%	c #C09974",
"/%	c #BB8F66",
"(%	c #B3885E",
"_%	c #B68B61",
":%	c #CEA47A",
"<%	c #D3A57B",
"[%	c #CEA277",
"}%	c #C2966C",
"|%	c #AC7C53",
"1%	c #A06E47",
"2%	c #AE835D",
"3%	c #BF9670",
"4%	c #D3AA82",
"5%	c #C79A6F",
"6%	c #BB8B61",
"7%	c #AF7D53",
"8%	c #A8754D",
"9%	c #8A6446",
"0%	c #604E3B",
"a%	c #2B2821",
"b%	c #171917",
"c%	c #111412",
"d%	c #141716",
"e%	c #242320",
"f%	c #453D38",
"g%	c #9D8674",
"h%	c #D8BCA6",
"i%	c #E5C9B2",
"j%	c #E0C2A7",
"k%	c #DEBD9D",
"l%	c #E1BFA0",
"m%	c #E1C2A5",
"n%	c #DCBEA2",
"o%	c #CEAA87",
"p%	c #C7A17B",
"q%	c #C19A75",
"r%	c #D0AA82",
"s%	c #CDA57E",
"t%	c #C7A079",
"u%	c #C19A73",
"v%	c #CCAA8A",
"w%	c #C9A480",
"x%	c #D5AF89",
"y%	c #CCA57F",
"z%	c #B3865C",
"A%	c #AC7E56",
"B%	c #AA7E56",
"C%	c #B2855C",
"D%	c #C2966D",
"E%	c #BC9268",
"F%	c #B88D64",
"G%	c #D1A87F",
"H%	c #D2A67C",
"I%	c #C89D72",
"J%	c #CC9F75",
"K%	c #C1946A",
"L%	c #A4764F",
"M%	c #B38961",
"N%	c #C69B72",
"O%	c #D2A77D",
"P%	c #CA9C72",
"Q%	c #B5875F",
"R%	c #AB7B52",
"S%	c #A57249",
"T%	c #97633D",
"U%	c #765639",
"V%	c #4D4134",
"W%	c #27231F",
"X%	c #1C1D1C",
"Y%	c #312D2A",
"Z%	c #786859",
"`%	c #B99D83",
" &	c #DFC3AA",
".&	c #E6CAB4",
"+&	c #E2C6AD",
"@&	c #E9CCB3",
"#&	c #E5C3A5",
"$&	c #DBB896",
"%&	c #E2C0A2",
"&&	c #DDBC9E",
"*&	c #D2B091",
"=&	c #C9A37F",
"-&	c #D3AF8C",
";&	c #DBB895",
">&	c #D6AF8A",
",&	c #BD926A",
"'&	c #AE845B",
")&	c #B58B63",
"!&	c #BD956D",
"~&	c #BF9874",
"{&	c #D7B38F",
"]&	c #E0BD98",
"^&	c #DCB893",
"/&	c #A5744C",
"(&	c #9E6C45",
"_&	c #B6875D",
":&	c #D0A279",
"<&	c #D3A77F",
"[&	c #CCA37A",
"}&	c #D1A982",
"|&	c #BA8F67",
"1&	c #C4976C",
"2&	c #AC7F57",
"3&	c #CCA279",
"4&	c #D1A57B",
"5&	c #CFA277",
"6&	c #C3956B",
"7&	c #A8774E",
"8&	c #A47149",
"9&	c #A67249",
"0&	c #9E6A42",
"a&	c #885835",
"b&	c #66513A",
"c&	c #453A2E",
"d&	c #1D1B17",
"e&	c #131513",
"f&	c #0F1212",
"g&	c #383430",
"h&	c #88786C",
"i&	c #B39A83",
"j&	c #B79576",
"k&	c #E7C7AE",
"l&	c #E2C1A3",
"m&	c #E0BB9B",
"n&	c #D9B490",
"o&	c #D7B18C",
"p&	c #D6AF8B",
"q&	c #DDB793",
"r&	c #D5AB82",
"s&	c #D1A87E",
"t&	c #DCB58D",
"u&	c #DFBC98",
"v&	c #E5C4A5",
"w&	c #E6C5AA",
"x&	c #DFBC9B",
"y&	c #C3966C",
"z&	c #AC7D55",
"A&	c #A97D57",
"B&	c #AC8059",
"C&	c #B88F69",
"D&	c #BE9772",
"E&	c #CEA782",
"F&	c #D9B38F",
"G&	c #CEA37A",
"H&	c #AF7F55",
"I&	c #A26E46",
"J&	c #B38358",
"K&	c #CB9B70",
"L&	c #D4A87F",
"M&	c #D8B086",
"N&	c #DAB28B",
"O&	c #AF835C",
"P&	c #BC8F65",
"Q&	c #C5976D",
"R&	c #B2855B",
"S&	c #C79A71",
"T&	c #D4A67B",
"U&	c #CA9D73",
"V&	c #BE9065",
"W&	c #B88A61",
"X&	c #AF825A",
"Y&	c #945E37",
"Z&	c #875430",
"`&	c #705334",
" *	c #534634",
".*	c #2A2620",
"+*	c #292723",
"@*	c #776759",
"#*	c #CEB49D",
"$*	c #D8BCA1",
"%*	c #BC9570",
"&*	c #C39C77",
"**	c #E1BD98",
"=*	c #DBB48E",
"-*	c #C89D75",
";*	c #D3AA84",
">*	c #D8B28D",
",*	c #D6AB83",
"'*	c #C5966A",
")*	c #D1A77B",
"!*	c #DFB78E",
"~*	c #E3BE99",
"{*	c #E4C09D",
"]*	c #E1BD9D",
"^*	c #D5AB83",
"/*	c #AB794F",
"(*	c #A2744E",
"_*	c #AB7F58",
":*	c #B88F68",
"<*	c #C8A27C",
"[*	c #CDA783",
"}*	c #C49B72",
"|*	c #D2A980",
"1*	c #CA9D74",
"2*	c #B48358",
"3*	c #A16C44",
"4*	c #BA895E",
"5*	c #C6996E",
"6*	c #C7996E",
"7*	c #CCA176",
"8*	c #CA9F76",
"9*	c #B68A60",
"0*	c #B18459",
"a*	c #AA7A51",
"b*	c #AE7C52",
"c*	c #B6865D",
"d*	c #AA7950",
"e*	c #B07F53",
"f*	c #C5986C",
"g*	c #C1966E",
"h*	c #A6754B",
"i*	c #8F5933",
"j*	c #835230",
"k*	c #744C2C",
"l*	c #5C462E",
"m*	c #302A23",
"n*	c #141614",
"o*	c #0F120F",
"p*	c #363129",
"q*	c #90765D",
"r*	c #D7B99C",
"s*	c #C59F7D",
"t*	c #B48961",
"u*	c #CAA27A",
"v*	c #C9A179",
"w*	c #C1966D",
"x*	c #D1A77F",
"y*	c #D8B08B",
"z*	c #E3BC98",
"A*	c #DDB58D",
"B*	c #CEA378",
"C*	c #CA9E71",
"D*	c #CFA77E",
"E*	c #CBA076",
"F*	c #C4976D",
"G*	c #C59768",
"H*	c #D1A273",
"I*	c #BA8C62",
"J*	c #9C6E49",
"K*	c #AD835C",
"L*	c #C39B74",
"M*	c #DFBB97",
"N*	c #D4AD85",
"O*	c #CBA077",
"P*	c #BF9166",
"Q*	c #AE7E54",
"R*	c #A27049",
"S*	c #9D6C44",
"T*	c #A7744C",
"U*	c #B28257",
"V*	c #B18157",
"W*	c #AD7F55",
"X*	c #B48657",
"Y*	c #AA794F",
"Z*	c #9B6740",
"`*	c #98653F",
" =	c #9D6B44",
".=	c #9D6B43",
"+=	c #99653D",
"@=	c #AA764A",
"#=	c #B98B5F",
"$=	c #BA8F66",
"%=	c #B28256",
"&=	c #A06C41",
"*=	c #814E2B",
"==	c #754A2A",
"-=	c #62452D",
";=	c #342C24",
">=	c #474037",
",=	c #A38267",
"'=	c #D2B092",
")=	c #D5B598",
"!=	c #D2AE8D",
"~=	c #C59B73",
"{=	c #CBA37D",
"]=	c #C49B73",
"^=	c #D0A882",
"/=	c #E5C09C",
"(=	c #E4BF9A",
"_=	c #D9B28B",
":=	c #CBA075",
"<=	c #BD8F61",
"[=	c #BE9267",
"}=	c #B68A5F",
"|=	c #AB7A4F",
"1=	c #AB7B50",
"2=	c #B98A5E",
"3=	c #C79A70",
"4=	c #A77A52",
"5=	c #AF825B",
"6=	c #D3AA7F",
"7=	c #D9B085",
"8=	c #CDA279",
"9=	c #BB8F65",
"0=	c #B38359",
"a=	c #A9784E",
"b=	c #A97B54",
"c=	c #9D704B",
"d=	c #986B48",
"e=	c #9C6A43",
"f=	c #9E6941",
"g=	c #A7754B",
"h=	c #AA774D",
"i=	c #9E6A43",
"j=	c #95633C",
"k=	c #8C5A36",
"l=	c #885934",
"m=	c #8D5A35",
"n=	c #95613A",
"o=	c #9C673F",
"p=	c #A6774E",
"q=	c #A5764E",
"r=	c #BB8C61",
"s=	c #AA784D",
"t=	c #8C5834",
"u=	c #75512F",
"v=	c #684D30",
"w=	c #322B22",
"x=	c #222220",
"y=	c #4F443A",
"z=	c #AB8768",
"A=	c #D0A883",
"B=	c #D9BA9E",
"C=	c #E0BE9E",
"D=	c #D3AB82",
"E=	c #D5B08E",
"F=	c #D5B191",
"G=	c #CBA683",
"H=	c #C99F79",
"I=	c #CFA680",
"J=	c #E0BC9B",
"K=	c #DAB694",
"L=	c #D5AE85",
"M=	c #CEA777",
"N=	c #D2A97D",
"O=	c #CEA37B",
"P=	c #AE7D54",
"Q=	c #B2835A",
"R=	c #AA784E",
"S=	c #B0855B",
"T=	c #AB7F57",
"U=	c #AD7F58",
"V=	c #C0956C",
"W=	c #CDA176",
"X=	c #B7885D",
"Y=	c #B18158",
"Z=	c #AD7C52",
"`=	c #AD8059",
" -	c #B9936D",
".-	c #AD845F",
"+-	c #9A6E4A",
"@-	c #996843",
"#-	c #915D37",
"$-	c #8E5934",
"%-	c #915C36",
"&-	c #905C36",
"*-	c #905C37",
"=-	c #94653F",
"--	c #895C38",
";-	c #7B512F",
">-	c #804D2C",
",-	c #935F39",
"'-	c #9F6F49",
")-	c #B5885E",
"!-	c #A37048",
"~-	c #92603A",
"{-	c #815B3A",
"]-	c #5C472E",
"^-	c #2B271E",
"/-	c #161917",
"(-	c #101311",
"_-	c #252521",
":-	c #605347",
"<-	c #C09A77",
"[-	c #CEA279",
"}-	c #DFBFA3",
"|-	c #E5C3A6",
"1-	c #D8B189",
"2-	c #CDA781",
"3-	c #C19B78",
"4-	c #D1AB86",
"5-	c #D7AF88",
"6-	c #D6AC83",
"7-	c #D7B290",
"8-	c #E1BC9C",
"9-	c #E3BFA0",
"0-	c #D7B08A",
"a-	c #CCA277",
"b-	c #D8AE85",
"c-	c #D9B289",
"d-	c #CDA57D",
"e-	c #D3AA80",
"f-	c #C6966B",
"g-	c #B4875C",
"h-	c #B08459",
"i-	c #B0875D",
"j-	c #BC9168",
"k-	c #BF9168",
"l-	c #AD7C53",
"m-	c #AE8057",
"n-	c #BF956D",
"o-	c #D4AE8A",
"p-	c #C69E7B",
"q-	c #AD835D",
"r-	c #9D714E",
"s-	c #956642",
"t-	c #885532",
"u-	c #87522F",
"v-	c #895632",
"w-	c #8B5936",
"x-	c #9B6E49",
"y-	c #986E4B",
"z-	c #8C603B",
"A-	c #804F2E",
"B-	c #845432",
"C-	c #8B5A36",
"D-	c #8E5E39",
"E-	c #976841",
"F-	c #A0724C",
"G-	c #9A673F",
"H-	c #A6764E",
"I-	c #90684A",
"J-	c #503F2D",
"K-	c #22221C",
"L-	c #141815",
"M-	c #101310",
"N-	c #171A18",
"O-	c #2C2A26",
"P-	c #796758",
"Q-	c #CFAE8F",
"R-	c #E0BC9A",
"S-	c #DCBB9D",
"T-	c #DFBD9E",
"U-	c #CDA884",
"V-	c #B48A62",
"W-	c #BC946C",
"X-	c #D8B18B",
"Y-	c #D5AB84",
"Z-	c #C3976E",
"`-	c #D4AF8D",
" ;	c #DEB998",
".;	c #DEB791",
"+;	c #CCA075",
"@;	c #D5AB7E",
"#;	c #D7AF84",
"$;	c #C2966A",
"%;	c #CD9C6F",
"&;	c #C59467",
"*;	c #B7895E",
"=;	c #BE956C",
"-;	c #B58861",
";;	c #AF7F56",
">;	c #A9774D",
",;	c #B88A60",
"';	c #CFA47B",
");	c #E2BA94",
"!;	c #DCB492",
"~;	c #B2875F",
"{;	c #A2744D",
"];	c #956540",
"^;	c #8A5A34",
"/;	c #895835",
"(;	c #A2734B",
"_;	c #AA7D55",
":;	c #986D45",
"<;	c #855933",
"[;	c #79492A",
"};	c #805331",
"|;	c #825532",
"1;	c #895A36",
"2;	c #885A36",
"3;	c #8F5C37",
"4;	c #A9784F",
"5;	c #926849",
"6;	c #443829",
"7;	c #1C1D19",
"8;	c #111411",
"9;	c #322F29",
"0;	c #87705D",
"a;	c #D8B495",
"b;	c #E3C4A6",
"c;	c #C29971",
"d;	c #E1BA92",
"e;	c #D5AA82",
"f;	c #B88C63",
"g;	c #CDA47F",
"h;	c #D5AE8A",
"i;	c #DCB693",
"j;	c #E3BD97",
"k;	c #B9895A",
"l;	c #C28E5F",
"m;	c #B78659",
"n;	c #BB8A5D",
"o;	c #BA885C",
"p;	c #B4865D",
"q;	c #BD9671",
"r;	c #B48D68",
"s;	c #AB7F59",
"t;	c #A8774F",
"u;	c #AC7D54",
"v;	c #C19368",
"w;	c #DAAD84",
"x;	c #E5BD98",
"y;	c #E6BE9C",
"z;	c #DCB48F",
"A;	c #CDA47D",
"B;	c #B98D64",
"C;	c #A3734B",
"D;	c #956742",
"E;	c #8D6038",
"F;	c #935F38",
"G;	c #A27048",
"H;	c #B4865B",
"I;	c #93653D",
"J;	c #7D4E2D",
"K;	c #764729",
"L;	c #764829",
"M;	c #76492A",
"N;	c #7C4D2D",
"O;	c #8E5A35",
"P;	c #A26D46",
"Q;	c #906745",
"R;	c #4F3F2B",
"S;	c #1C1C18",
"T;	c #101313",
"U;	c #1D1E1C",
"V;	c #4D433C",
"W;	c #A28164",
"X;	c #D6B293",
"Y;	c #E3C4A9",
"Z;	c #E0BC98",
"`;	c #C89F76",
" >	c #DEB891",
".>	c #E0B890",
"+>	c #C19369",
"@>	c #BE9066",
"#>	c #CFA278",
"$>	c #CE9F75",
"%>	c #D2A983",
"&>	c #D4AD8B",
"*>	c #B48659",
"=>	c #AA764C",
"->	c #B27E52",
";>	c #B28054",
">>	c #B58B65",
",>	c #C6A07E",
"'>	c #C29D7B",
")>	c #BE936B",
"!>	c #B98A61",
"~>	c #B18259",
"{>	c #B5855A",
"]>	c #CD9E73",
"^>	c #DDB28A",
"/>	c #E8C19F",
"(>	c #E7C1A0",
"_>	c #E3BB98",
":>	c #DEB58F",
"<>	c #D0A67D",
"[>	c #B88C64",
"}>	c #9B6C46",
"|>	c #9C6841",
"1>	c #A6764D",
"2>	c #BB8D61",
"3>	c #B6875C",
"4>	c #A17048",
"5>	c #734628",
"6>	c #714528",
"7>	c #714628",
"8>	c #7B4E2D",
"9>	c #986540",
"0>	c #8E6445",
"a>	c #50412F",
"b>	c #1E1D1A",
"c>	c #2E2C25",
"d>	c #69594B",
"e>	c #B9916C",
"f>	c #DEBFA3",
"g>	c #D0A781",
"h>	c #C0936A",
"i>	c #D1AA81",
"j>	c #D0A87F",
"k>	c #D0A981",
"l>	c #DFB890",
"m>	c #CDA077",
"n>	c #BD8D62",
"o>	c #BA895D",
"p>	c #C39266",
"q>	c #CD9C71",
"r>	c #CF9F74",
"s>	c #C59368",
"t>	c #AD784F",
"u>	c #9D673F",
"v>	c #A06C44",
"w>	c #AA7C55",
"x>	c #C49D7A",
"y>	c #DBB99B",
"z>	c #D8B597",
"A>	c #CDA37D",
"B>	c #CE9C71",
"C>	c #C49268",
"D>	c #C69469",
"E>	c #D4A57C",
"F>	c #E0BB98",
"G>	c #E7C5A7",
"H>	c #E5C1A0",
"I>	c #E2BB96",
"J>	c #E0B68F",
"K>	c #CFA47D",
"L>	c #AB7D56",
"M>	c #A47751",
"N>	c #B08258",
"O>	c #C59367",
"P>	c #C79568",
"Q>	c #B9865C",
"R>	c #9F6C45",
"S>	c #764628",
"T>	c #724427",
"U>	c #795330",
"V>	c #835835",
"W>	c #835C3D",
"X>	c #43392A",
"Y>	c #1C1B17",
"Z>	c #191A18",
"`>	c #363229",
" ,	c #72604F",
".,	c #B18863",
"+,	c #B78B63",
"@,	c #C89E79",
"#,	c #D1A882",
"$,	c #AD7D54",
"%,	c #AC7E55",
"&,	c #B78C63",
"*,	c #B58459",
"=,	c #AE794E",
"-,	c #BC8658",
";,	c #C68E5D",
">,	c #C58D5D",
",,	c #B78257",
"',	c #A36D45",
"),	c #99643D",
"!,	c #A2724B",
"~,	c #D8B493",
"{,	c #E6C6AD",
"],	c #DEBEA1",
"^,	c #D6AE88",
"/,	c #D6A579",
"(,	c #D5A478",
"_,	c #D4A57B",
":,	c #DFB58E",
"<,	c #E8C6A8",
"[,	c #ECCDB3",
"},	c #E8C7AB",
"|,	c #E4BD9A",
"1,	c #E2BA95",
"2,	c #E3BB94",
"3,	c #E2B791",
"4,	c #D0A37A",
"5,	c #C09269",
"6,	c #B7895F",
"7,	c #C29064",
"8,	c #D19D6E",
"9,	c #D29D70",
"0,	c #C8966B",
"a,	c #B4845A",
"b,	c #855433",
"c,	c #76482A",
"d,	c #754C2C",
"e,	c #74502E",
"f,	c #825733",
"g,	c #734F2F",
"h,	c #3F3426",
"i,	c #181916",
"j,	c #0F1310",
"k,	c #6F5D4F",
"l,	c #A27E5E",
"m,	c #AF7C51",
"n,	c #C08D62",
"o,	c #A46E45",
"p,	c #A36F47",
"q,	c #C39E7D",
"r,	c #CBA27B",
"s,	c #B28157",
"t,	c #B78457",
"u,	c #AE774B",
"v,	c #A0683F",
"w,	c #A97449",
"x,	c #AE7A4D",
"y,	c #AE794D",
"z,	c #AA7448",
"A,	c #A46D42",
"B,	c #A57149",
"C,	c #CCA37C",
"D,	c #E0BEA0",
"E,	c #E6C9B4",
"F,	c #E5C7AF",
"G,	c #E0B794",
"H,	c #E2B994",
"I,	c #E1BB99",
"J,	c #E4C0A0",
"K,	c #E9C7AA",
"L,	c #EBCAB0",
"M,	c #E9C7AB",
"N,	c #E3BD9D",
"O,	c #E0B791",
"P,	c #E0B58E",
"Q,	c #E1B48C",
"R,	c #DEAE84",
"S,	c #D5A579",
"T,	c #D4A174",
"U,	c #D4A071",
"V,	c #D4A275",
"W,	c #D29F73",
"X,	c #C6956A",
"Y,	c #9A6B45",
"Z,	c #734729",
"`,	c #724628",
" '	c #74492A",
".'	c #634229",
"+'	c #332B20",
"@'	c #181715",
"#'	c #2F2C28",
"$'	c #675649",
"%'	c #987555",
"&'	c #A56E44",
"*'	c #A56D44",
"='	c #A26E47",
"-'	c #D5B08D",
";'	c #DBB28C",
">'	c #C09066",
",'	c #BA875C",
"''	c #A87248",
")'	c #B07A4E",
"!'	c #AD784B",
"~'	c #A46E43",
"{'	c #A36A3F",
"]'	c #A66F46",
"^'	c #A77248",
"/'	c #AC764A",
"('	c #BD8F66",
"_'	c #DBB189",
":'	c #E3C3A6",
"<'	c #E9CCB7",
"['	c #E8CCB7",
"}'	c #E8CBB6",
"|'	c #E7C8B1",
"1'	c #EBCBB3",
"2'	c #EAC8AC",
"3'	c #EBC9AC",
"4'	c #EAC9AD",
"5'	c #EDC8A9",
"6'	c #E8C0A1",
"7'	c #DFB48D",
"8'	c #DAAA7F",
"9'	c #D8A77B",
"0'	c #DAA97E",
"a'	c #D8A87D",
"b'	c #D5A172",
"c'	c #D4A073",
"d'	c #D3A074",
"e'	c #D39F74",
"f'	c #CE9D71",
"g'	c #AF7F57",
"h'	c #794B2D",
"i'	c #6D4427",
"j'	c #6D4327",
"k'	c #714427",
"l'	c #563925",
"m'	c #26231C",
"n'	c #181917",
"o'	c #0E1111",
"p'	c #2A2925",
"q'	c #5F5042",
"r'	c #987455",
"s'	c #C29369",
"t'	c #A46F46",
"u'	c #9D6840",
"v'	c #A37652",
"w'	c #AE7F59",
"x'	c #DCB38B",
"y'	c #E0B58F",
"z'	c #C9996E",
"A'	c #C28C5F",
"B'	c #AB7347",
"C'	c #B07C50",
"D'	c #A67047",
"E'	c #A46D44",
"F'	c #A87146",
"G'	c #A86F44",
"H'	c #A56C41",
"I'	c #A06A42",
"J'	c #A97951",
"K'	c #CDA076",
"L'	c #E2BC98",
"M'	c #E8CAB1",
"N'	c #EAD0BA",
"O'	c #EBD0BB",
"P'	c #ECD1BD",
"Q'	c #EBCDB9",
"R'	c #EBCBB4",
"S'	c #EBC9AE",
"T'	c #EAC6A5",
"U'	c #E9C3A1",
"V'	c #E8C19E",
"W'	c #E9C09C",
"X'	c #E8BD9A",
"Y'	c #E0B28A",
"Z'	c #D7A679",
"`'	c #D7A475",
" )	c #D5A273",
".)	c #D1A075",
"+)	c #D3A477",
"@)	c #D4A173",
"#)	c #BC8C62",
"$)	c #815433",
"%)	c #693E24",
"&)	c #683D23",
"*)	c #6D3F24",
"=)	c #6C4327",
"-)	c #483422",
";)	c #23221B",
">)	c #181A17",
",)	c #463E32",
"')	c #89684C",
"))	c #BD8D65",
"!)	c #B3845B",
"~)	c #B08866",
"{)	c #CBA685",
"])	c #C39975",
"^)	c #D5A87E",
"/)	c #D7AA80",
"()	c #C79261",
"_)	c #B77F50",
":)	c #B37E51",
"<)	c #A26B41",
"[)	c #955D37",
"})	c #915933",
"|)	c #955E37",
"1)	c #9C653D",
"2)	c #9F6941",
"3)	c #BC9066",
"4)	c #E6C5A7",
"5)	c #E8CCB6",
"6)	c #EACFB9",
"7)	c #EACEB7",
"8)	c #EBCDB4",
"9)	c #E9C7AC",
"0)	c #E2BC9A",
"a)	c #DEB38D",
"b)	c #DBAC83",
"c)	c #D3A279",
"d)	c #CC9B72",
"e)	c #CC9D74",
"f)	c #DAAC85",
"g)	c #DDAE85",
"h)	c #D7A578",
"i)	c #D4A075",
"j)	c #D19E72",
"k)	c #D19D71",
"l)	c #CE9C70",
"m)	c #CC9A6D",
"n)	c #C69366",
"o)	c #B6855B",
"p)	c #8C5F3D",
"q)	c #6A4025",
"r)	c #6B3F24",
"s)	c #71492A",
"t)	c #4B3824",
"u)	c #21211D",
"v)	c #1F1F1C",
"w)	c #5A4937",
"x)	c #9D785B",
"y)	c #B28C6D",
"z)	c #C5A58A",
"A)	c #CEA988",
"B)	c #C79B71",
"C)	c #B48155",
"D)	c #BC8859",
"E)	c #C28D5E",
"F)	c #B88356",
"G)	c #AB7449",
"H)	c #A16A42",
"I)	c #99633D",
"J)	c #935C36",
"K)	c #945D37",
"L)	c #9F6C44",
"M)	c #B08058",
"N)	c #CEA47B",
"O)	c #E3BD96",
"P)	c #E7C4A6",
"Q)	c #E7C7AC",
"R)	c #E7C1A3",
"S)	c #E2BB98",
"T)	c #DDB18A",
"U)	c #D8A77C",
"V)	c #C39065",
"W)	c #B48257",
"X)	c #A6734B",
"Y)	c #A5734C",
"Z)	c #AE7F57",
"`)	c #CB9A6E",
" !	c #CD9A6E",
".!	c #D7A579",
"+!	c #D7A77A",
"@!	c #CD9A6F",
"#!	c #CB996D",
"$!	c #CD9B70",
"%!	c #BF8D62",
"&!	c #B27F55",
"*!	c #A26E45",
"=!	c #94623D",
"-!	c #895935",
";!	c #734428",
">!	c #704327",
",!	c #72492A",
"'!	c #523D29",
")!	c #25221D",
"!!	c #161817",
"~!	c #332F27",
"{!	c #7E6A58",
"]!	c #B09177",
"^!	c #CFAD8E",
"/!	c #CCA581",
"(!	c #D0A47B",
"_!	c #B1845A",
":!	c #BE8C61",
"<!	c #B47F54",
"[!	c #B38155",
"}!	c #C08C60",
"|!	c #B78154",
"1!	c #A77147",
"2!	c #9B6741",
"3!	c #945F39",
"4!	c #945E39",
"5!	c #BC8F67",
"6!	c #DBB38E",
"7!	c #E6C09B",
"8!	c #E7C3A2",
"9!	c #E6C09C",
"0!	c #E4BB95",
"a!	c #E0B18A",
"b!	c #DEAD85",
"c!	c #D7A77C",
"d!	c #CB9D76",
"e!	c #CBA079",
"f!	c #BB8C64",
"g!	c #986641",
"h!	c #996640",
"i!	c #D2A075",
"j!	c #DDAB82",
"k!	c #D9A87C",
"l!	c #C9976B",
"m!	c #BA895F",
"n!	c #A5744D",
"o!	c #9B6840",
"p!	c #8C5731",
"q!	c #814D2B",
"r!	c #84502D",
"s!	c #7C4F2E",
"t!	c #6F4528",
"u!	c #744829",
"v!	c #6F4729",
"w!	c #563F2A",
"x!	c #28241F",
"y!	c #0C100F",
"z!	c #3B352E",
"A!	c #7A6553",
"B!	c #B19278",
"C!	c #D0AC8B",
"D!	c #CFA379",
"E!	c #B3845A",
"F!	c #AD7B50",
"G!	c #B37F53",
"H!	c #A67046",
"I!	c #A97247",
"J!	c #A26A40",
"K!	c #98613B",
"L!	c #9E6942",
"M!	c #B6865C",
"N!	c #D2A57E",
"O!	c #E3BA97",
"P!	c #E5C19A",
"Q!	c #E4BE9B",
"R!	c #E4BA95",
"S!	c #DEB088",
"T!	c #D2A076",
"U!	c #CC9F77",
"V!	c #E4C0A3",
"W!	c #D7A87F",
"X!	c #B18058",
"Y!	c #8E5C37",
"Z!	c #C9976C",
"`!	c #DBAA7E",
" ~	c #D9A87D",
".~	c #BD8C62",
"+~	c #99663F",
"@~	c #84512F",
"#~	c #834D2B",
"$~	c #8C5631",
"%~	c #8D5733",
"&~	c #804C2A",
"*~	c #78482A",
"=~	c #6D4126",
"-~	c #6A4125",
";~	c #6C4528",
">~	c #6B4427",
",~	c #583C27",
"'~	c #27241F",
")~	c #1D1F1D",
"!~	c #413B32",
"~~	c #826853",
"{~	c #AF8F73",
"]~	c #CDA683",
"^~	c #B5855C",
"/~	c #9F6D47",
"(~	c #9A6842",
"_~	c #99653F",
":~	c #9E673F",
"<~	c #B27B4D",
"[~	c #B17849",
"}~	c #A3693D",
"|~	c #9D653D",
"1~	c #AD784E",
"2~	c #D2A177",
"3~	c #E3B68F",
"4~	c #E5BE98",
"5~	c #E6C19A",
"6~	c #DEB289",
"7~	c #DBAB80",
"8~	c #D5A47A",
"9~	c #DBB18A",
"0~	c #DDB48D",
"a~	c #D4A67C",
"b~	c #C9986E",
"c~	c #BA875E",
"d~	c #96613B",
"e~	c #A06F49",
"f~	c #CB986D",
"g~	c #E0B086",
"h~	c #AD7C54",
"i~	c #84502E",
"j~	c #7F4B2B",
"k~	c #8A532F",
"l~	c #97603A",
"m~	c #AB774E",
"n~	c #905D3A",
"o~	c #663C22",
"p~	c #643C21",
"q~	c #643E23",
"r~	c #22201A",
"s~	c #1A1C19",
"t~	c #3B362E",
"u~	c #84674F",
"v~	c #AF8966",
"w~	c #B08056",
"x~	c #A6744B",
"y~	c #9D6A43",
"z~	c #96633D",
"A~	c #8C5B37",
"B~	c #824E2C",
"C~	c #925B34",
"D~	c #B17B4F",
"E~	c #C28B5C",
"F~	c #B57A4A",
"G~	c #A56D43",
"H~	c #B78156",
"I~	c #DBAC82",
"J~	c #E8C29D",
"K~	c #E7C29C",
"L~	c #E4BB96",
"M~	c #E1B38B",
"N~	c #DEAC83",
"O~	c #D9A87E",
"P~	c #DBAE85",
"Q~	c #DDAF87",
"R~	c #CE9D73",
"S~	c #C9976E",
"T~	c #9A6741",
"U~	c #95613B",
"V~	c #AA784F",
"W~	c #CD9B71",
"X~	c #E1B690",
"Y~	c #E0B78F",
"Z~	c #D7A778",
"`~	c #A87851",
" {	c #814E2C",
".{	c #88522E",
"+{	c #8D542D",
"@{	c #8A522D",
"#{	c #7E4C2B",
"${	c #683B22",
"%{	c #643B22",
"&{	c #4A3625",
"*{	c #2D261E",
"={	c #171816",
"-{	c #0C1110",
";{	c #2A2825",
">{	c #6C5745",
",{	c #9F7754",
"'{	c #BC9169",
"){	c #BA8A5F",
"!{	c #A46F47",
"~{	c #9A6742",
"{{	c #97623C",
"]{	c #9A6843",
"^{	c #8E5C38",
"/{	c #925D37",
"({	c #A77247",
"_{	c #B88558",
":{	c #B47B4D",
"<{	c #A66C3F",
"[{	c #B67F53",
"}{	c #DCAB82",
"|{	c #E5BD97",
"1{	c #EAC6A6",
"2{	c #EAC5A3",
"3{	c #E9C09E",
"4{	c #E5B994",
"5{	c #E3B58E",
"6{	c #E2B48C",
"7{	c #E0B48D",
"8{	c #E3B58F",
"9{	c #E7BB96",
"0{	c #E1B58F",
"a{	c #D3A67D",
"b{	c #B4855C",
"c{	c #A6754F",
"d{	c #C08F66",
"e{	c #D5A77E",
"f{	c #DEB58E",
"g{	c #E9C2A0",
"h{	c #DDAD82",
"i{	c #A97953",
"j{	c #8C5732",
"k{	c #8D5732",
"l{	c #9E6840",
"m{	c #A77249",
"n{	c #945E38",
"o{	c #7F512F",
"p{	c #623A21",
"q{	c #613A23",
"r{	c #533825",
"s{	c #2E271F",
"t{	c #1B1916",
"u{	c #121412",
"v{	c #0C0F0F",
"w{	c #453C2F",
"x{	c #765A3E",
"y{	c #9F7149",
"z{	c #B4855D",
"A{	c #8A5632",
"B{	c #8D5833",
"C{	c #98623C",
"D{	c #996641",
"E{	c #9B6841",
"F{	c #B17F54",
"G{	c #AB764B",
"H{	c #B47D50",
"I{	c #DAA981",
"J{	c #E8BF99",
"K{	c #EAC6A7",
"L{	c #EBC7A9",
"M{	c #EAC4A5",
"N{	c #E9C3A2",
"O{	c #E8BF9A",
"P{	c #E8BD98",
"Q{	c #E7BD96",
"R{	c #E6B993",
"S{	c #E2B58E",
"T{	c #D7AD85",
"U{	c #D1A77E",
"V{	c #CA9E75",
"W{	c #CB9C72",
"X{	c #D2A67E",
"Y{	c #DEB28A",
"Z{	c #D8AC84",
"`{	c #D7AE87",
" ]	c #E5C1A3",
".]	c #BA8B65",
"+]	c #915A33",
"@]	c #A2683E",
"#]	c #AE774A",
"$]	c #B07D52",
"%]	c #9F6D46",
"&]	c #7A4E2F",
"*]	c #624129",
"=]	c #4C392A",
"-]	c #423429",
";]	c #2B251D",
">]	c #181815",
",]	c #131613",
"']	c #0C100E",
")]	c #161816",
"!]	c #1F201E",
"~]	c #4C3F2E",
"{]	c #825D3D",
"]]	c #9E6D46",
"^]	c #A06D46",
"/]	c #A06B44",
"(]	c #8A5733",
"_]	c #825130",
":]	c #895733",
"<]	c #8E5A36",
"[]	c #A16E46",
"}]	c #B18055",
"|]	c #C59265",
"1]	c #C08A59",
"2]	c #D6A47A",
"3]	c #E7BC97",
"4]	c #E9C4A4",
"5]	c #E9C6A8",
"6]	c #EAC7A9",
"7]	c #EBC6A7",
"8]	c #EBC4A2",
"9]	c #E9C19A",
"0]	c #E7BC95",
"a]	c #E0B38B",
"b]	c #D9AA80",
"c]	c #D09F74",
"d]	c #CC9C72",
"e]	c #C9996F",
"f]	c #E5BC97",
"g]	c #E4B991",
"h]	c #D9AA7E",
"i]	c #DAAA80",
"j]	c #DDB692",
"k]	c #E9C5A7",
"l]	c #D8AA83",
"m]	c #B17C4D",
"n]	c #AE7446",
"o]	c #A46A3D",
"p]	c #9C663D",
"q]	c #8B5732",
"r]	c #754A2B",
"s]	c #513E29",
"t]	c #332D23",
"u]	c #25221C",
"v]	c #1A1A16",
"w]	c #0D100F",
"x]	c #0D1010",
"y]	c #0E1110",
"z]	c #4A3C2A",
"A]	c #7B583B",
"B]	c #97643F",
"C]	c #94603B",
"D]	c #8F5A36",
"E]	c #85522F",
"F]	c #774729",
"G]	c #754729",
"H]	c #81512F",
"I]	c #8E5833",
"J]	c #9B6640",
"K]	c #AD7A50",
"L]	c #C89970",
"M]	c #D3A379",
"N]	c #D7A67C",
"O]	c #E4B893",
"P]	c #E6C1A0",
"Q]	c #E8C5A7",
"R]	c #E8C5A9",
"S]	c #E9C6A9",
"T]	c #EBC7A8",
"U]	c #EBC5A5",
"V]	c #EBC4A0",
"W]	c #E7BF99",
"X]	c #E1B68E",
"Y]	c #D7A97F",
"Z]	c #CCA077",
"`]	c #D0A47C",
" ^	c #E1B790",
".^	c #E6C09A",
"+^	c #E4B68E",
"@^	c #DCA97A",
"#^	c #D8A87B",
"$^	c #DCB289",
"%^	c #E7C1A2",
"&^	c #E6BA95",
"*^	c #C49163",
"=^	c #C58F63",
"-^	c #B27C4E",
";^	c #9D663D",
">^	c #855A37",
",^	c #4D3B27",
"'^	c #25231C",
")^	c #0B0F0F",
"!^	c #20211D",
"~^	c #463A2E",
"{^	c #6B5139",
"]^	c #855734",
"^^	c #8B5835",
"/^	c #79482A",
"(^	c #6D4226",
"_^	c #784C2C",
":^	c #8A5732",
"<^	c #97623B",
"[^	c #BC8B62",
"}^	c #CFA077",
"|^	c #D8AC85",
"1^	c #DDB38C",
"2^	c #E3BA95",
"3^	c #E5BE9C",
"4^	c #E6C3A4",
"5^	c #E8C4A4",
"6^	c #EAC5A7",
"7^	c #EAC8AA",
"8^	c #E9C39E",
"9^	c #E6C199",
"0^	c #E0B991",
"a^	c #E1B891",
"b^	c #EAC19B",
"c^	c #E8C09A",
"d^	c #E4B387",
"e^	c #DCA877",
"f^	c #D9A97D",
"g^	c #DCAF86",
"h^	c #E6BC98",
"i^	c #E9BD97",
"j^	c #C8976B",
"k^	c #D09E72",
"l^	c #C99569",
"m^	c #B88459",
"n^	c #8C6240",
"o^	c #4B3927",
"p^	c #1F1F1A",
"q^	c #0E1310",
"r^	c #20201B",
"s^	c #362D23",
"t^	c #513C27",
"u^	c #855937",
"v^	c #955F39",
"w^	c #84512E",
"x^	c #6E4125",
"y^	c #BB8C63",
"z^	c #DEB28C",
"A^	c #E4BC9A",
"B^	c #E1BA98",
"C^	c #DCB794",
"D^	c #E3BE9E",
"E^	c #E8C4A5",
"F^	c #E9C4A5",
"G^	c #E9C3A0",
"H^	c #E8C39D",
"I^	c #E8C29C",
"J^	c #E8C29E",
"K^	c #E7C09D",
"L^	c #E9C09A",
"M^	c #EAC39F",
"N^	c #EAC29B",
"O^	c #E5BB95",
"P^	c #E2B081",
"Q^	c #DAA87A",
"R^	c #E0B288",
"S^	c #E0B38C",
"T^	c #E3B690",
"U^	c #E7BA95",
"V^	c #CF9E72",
"W^	c #CE9B6F",
"X^	c #D19E73",
"Y^	c #88603D",
"Z^	c #453627",
"`^	c #1E1E19",
" /	c #111512",
"./	c #131514",
"+/	c #0C1010",
"@/	c #2A2722",
"#/	c #6F5239",
"$/	c #915A34",
"%/	c #7F4D2B",
"&/	c #784A2A",
"*/	c #935F3A",
"=/	c #945D36",
"-/	c #AF7B51",
";/	c #D4AB84",
">/	c #DBB48F",
",/	c #D8B390",
"'/	c #DBB897",
")/	c #E1BB9A",
"!/	c #E3BD9C",
"~/	c #E3BE9A",
"{/	c #E5C09D",
"]/	c #E5BE9A",
"^/	c #E4BD98",
"//	c #E6BF9A",
"(/	c #E8C19D",
"_/	c #EBC39D",
":/	c #EBC39C",
"</	c #E5BD96",
"[/	c #DFB288",
"}/	c #DAA877",
"|/	c #DDAC7F",
"1/	c #E8BC93",
"2/	c #E6BB95",
"3/	c #E2B792",
"4/	c #E9BF9B",
"5/	c #D4A47A",
"6/	c #C18F64",
"7/	c #C99C72",
"8/	c #C2956B",
"9/	c #AB7E58",
"0/	c #7F603E",
"a/	c #3D3325",
"b/	c #1D1B16",
"c/	c #151714",
"d/	c #2D2C21",
"e/	c #343421",
"f/	c #33331F",
"g/	c #333420",
"h/	c #2E2F1E",
"i/	c #5B482F",
"j/	c #93623C",
"k/	c #945C36",
"l/	c #8A5631",
"m/	c #8F5B36",
"n/	c #95623C",
"o/	c #BD8F67",
"p/	c #CEA27A",
"q/	c #CCA178",
"r/	c #CEA882",
"s/	c #D3AC89",
"t/	c #DEB690",
"u/	c #E2B991",
"v/	c #E2B891",
"w/	c #E4BC95",
"x/	c #E7C19B",
"y/	c #EAC39D",
"z/	c #E7BE95",
"A/	c #DDAF86",
"B/	c #D9A779",
"C/	c #E1B085",
"D/	c #EABF99",
"E/	c #EDC4A2",
"F/	c #EAC3A3",
"G/	c #D6AA81",
"H/	c #B8865C",
"I/	c #C2956C",
"J/	c #B88E66",
"K/	c #A27853",
"L/	c #775A3B",
"M/	c #382E23",
"N/	c #171713",
"O/	c #1B1C16",
"P/	c #A5A15C",
"Q/	c #D5D471",
"R/	c #D3D26A",
"S/	c #D3D368",
"T/	c #C1C163",
"U/	c #33331D",
"V/	c #4F412F",
"W/	c #8F613D",
"X/	c #9E643A",
"Y/	c #9F6439",
"Z/	c #905B35",
"`/	c #8D5B36",
" (	c #8F5D38",
".(	c #A5764F",
"+(	c #C99D75",
"@(	c #DEB48C",
"#(	c #DFB793",
"$(	c #DEB591",
"%(	c #DCB48D",
"&(	c #DEB68F",
"*(	c #DFB68F",
"=(	c #DBB28A",
"-(	c #DBB38A",
";(	c #DEB48D",
">(	c #E4BC94",
",(	c #EAC39C",
"'(	c #E9C29C",
")(	c #E6BD94",
"!(	c #E0B287",
"~(	c #D5A880",
"{(	c #D9A87B",
"](	c #E4B588",
"^(	c #EAC29F",
"/(	c #EAC29E",
"((	c #EAC29C",
"_(	c #D1A57C",
":(	c #AF7E55",
"<(	c #B48962",
"[(	c #9B704E",
"}(	c #6D5132",
"|(	c #312A21",
"1(	c #151613",
"2(	c #1C1E16",
"3(	c #B2B158",
"4(	c #EAE969",
"5(	c #EAE965",
"6(	c #EAE966",
"7(	c #D6D661",
"8(	c #38391E",
"9(	c #1F201C",
"0(	c #564431",
"a(	c #8F5E3A",
"b(	c #976039",
"c(	c #9A6C45",
"d(	c #BA885D",
"e(	c #C7986E",
"f(	c #D9AE87",
"g(	c #E1B892",
"h(	c #E2BA93",
"i(	c #E0B891",
"j(	c #DFB68E",
"k(	c #E3B78D",
"l(	c #DDB38B",
"m(	c #DBB38B",
"n(	c #E7C098",
"o(	c #E8C29B",
"p(	c #E4BE96",
"q(	c #DDB087",
"r(	c #D1A579",
"s(	c #D3A880",
"t(	c #CA9E77",
"u(	c #CE996A",
"v(	c #D39D69",
"w(	c #D49D6A",
"x(	c #D9A573",
"y(	c #DDAC7E",
"z(	c #C19167",
"A(	c #A4734C",
"B(	c #B1845C",
"C(	c #AA7E58",
"D(	c #926847",
"E(	c #674D30",
"F(	c #30281F",
"G(	c #141512",
"H(	c #B1B053",
"I(	c #E9E867",
"J(	c #E9E864",
"K(	c #DAD450",
"L(	c #B9B438",
"M(	c #36351D",
"N(	c #161A17",
"O(	c #20201D",
"P(	c #5E4934",
"Q(	c #905E3C",
"R(	c #986039",
"S(	c #96633C",
"T(	c #A37047",
"U(	c #BC895F",
"V(	c #D8A980",
"W(	c #E1B791",
"X(	c #E2B995",
"Y(	c #E5BD95",
"Z(	c #E3B88E",
"`(	c #E0B58B",
" _	c #E1B48B",
"._	c #E0B48A",
"+_	c #DDB48C",
"@_	c #E2B992",
"#_	c #E5BD94",
"$_	c #D9B087",
"%_	c #D3A479",
"&_	c #CC9C71",
"*_	c #D8AC86",
"=_	c #C79C74",
"-_	c #B38459",
";_	c #A8764E",
">_	c #AC7A50",
",_	c #BC8A5F",
"'_	c #AB7950",
")_	c #AB7C55",
"!_	c #9B6D49",
"~_	c #845B38",
"{_	c #654C31",
"]_	c #2F281E",
"^_	c #1A1C17",
"/_	c #ACAA52",
"(_	c #DDD959",
"__	c #D6D24D",
":_	c #BFBB2B",
"<_	c #B8B037",
"[_	c #3D391F",
"}_	c #232419",
"|_	c #272717",
"1_	c #2B2B1B",
"2_	c #2D2C1F",
"3_	c #23221A",
"4_	c #1E1D17",
"5_	c #1B1B16",
"6_	c #191A15",
"7_	c #1C1E1A",
"8_	c #57442C",
"9_	c #8B5935",
"0_	c #935B35",
"a_	c #955E39",
"b_	c #965F39",
"c_	c #AC774C",
"d_	c #B9885B",
"e_	c #C6966C",
"f_	c #D8AE87",
"g_	c #E0B790",
"h_	c #E5BA90",
"i_	c #E1B387",
"j_	c #E1B388",
"k_	c #E0B489",
"l_	c #D4A87E",
"m_	c #D1A67B",
"n_	c #D6AC85",
"o_	c #E7C3A6",
"p_	c #DFB997",
"q_	c #915D39",
"r_	c #A16F48",
"s_	c #A7754C",
"t_	c #AC7C54",
"u_	c #7E5230",
"v_	c #62492D",
"w_	c #2D271F",
"x_	c #161716",
"y_	c #181A16",
"z_	c #8C882C",
"A_	c #BBB826",
"B_	c #BAB724",
"C_	c #BAB723",
"D_	c #BBB42E",
"E_	c #7F691C",
"F_	c #7A5D1D",
"G_	c #7B5D1E",
"H_	c #72581D",
"I_	c #37321F",
"J_	c #202119",
"K_	c #8A852C",
"L_	c #AAA434",
"M_	c #C6C05D",
"N_	c #CCC96D",
"O_	c #979459",
"P_	c #141713",
"Q_	c #5E5937",
"R_	c #B29A38",
"S_	c #B19420",
"T_	c #B19522",
"U_	c #9F8D31",
"V_	c #2A291B",
"W_	c #56462F",
"X_	c #8F5F3A",
"Y_	c #975F38",
"Z_	c #935D37",
"`_	c #98633B",
" :	c #CC9B70",
".:	c #C5956B",
"+:	c #D1A984",
"@:	c #D9AF89",
"#:	c #E9C197",
"$:	c #E6BA8D",
"%:	c #E3B389",
"&:	c #DEB388",
"*:	c #DBB389",
"=:	c #DBB38C",
"-:	c #DBB490",
";:	c #E2BE9B",
">:	c #DBB692",
",:	c #B18057",
"':	c #8B5834",
"):	c #95603A",
"!:	c #B7865C",
"~:	c #B28055",
"{:	c #94613C",
"]:	c #7A4B2B",
"^:	c #5C4229",
"/:	c #322B23",
"(:	c #1A1A17",
"_:	c #878325",
"::	c #BAB624",
"<:	c #B9B521",
"[:	c #C0AE20",
"}:	c #CD9109",
"|:	c #CD8F07",
"1:	c #CE9008",
"2:	c #C98F0D",
"3:	c #5A4A1A",
"4:	c #222219",
"5:	c #9B9524",
"6:	c #BBB725",
"7:	c #D0CB46",
"8:	c #E8E970",
"9:	c #ADAD5E",
"0:	c #161714",
"a:	c #756E30",
"b:	c #EEC92B",
"c:	c #F2C916",
"d:	c #F2C917",
"e:	c #DCBE30",
"f:	c #39341B",
"g:	c #634F3C",
"h:	c #93633D",
"i:	c #955C35",
"j:	c #9B653E",
"k:	c #9C663E",
"l:	c #AA774E",
"m:	c #D5A378",
"n:	c #D8AD85",
"o:	c #D5AE88",
"p:	c #D6AF8C",
"q:	c #E1B895",
"r:	c #E5B991",
"s:	c #E5B88D",
"t:	c #DBB188",
"u:	c #D8AB81",
"v:	c #D6AA82",
"w:	c #DDB58F",
"x:	c #E5C2A4",
"y:	c #E7CBB3",
"z:	c #E4C4A7",
"A:	c #E1BA94",
"B:	c #DCB38C",
"C:	c #B5865F",
"D:	c #8C5B38",
"E:	c #AE7E55",
"F:	c #B8875C",
"G:	c #915D36",
"H:	c #774C2B",
"I:	c #624329",
"J:	c #3B3025",
"K:	c #201F19",
"L:	c #181B17",
"M:	c #868321",
"N:	c #BAB623",
"O:	c #BAB622",
"P:	c #C2AA1D",
"Q:	c #CE9107",
"R:	c #D09105",
"S:	c #D39304",
"T:	c #C98F09",
"U:	c #534316",
"V:	c #191B18",
"W:	c #232418",
"X:	c #9C9523",
"Y:	c #C1B727",
"Z:	c #CEC43D",
"`:	c #E7E668",
" <	c #A19F52",
".<	c #171A17",
"+<	c #151713",
"@<	c #6F662F",
"#<	c #F3CA15",
"$<	c #F2C914",
"%<	c #E0BF30",
"&<	c #3D381D",
"*<	c #37332F",
"=<	c #6D553E",
"-<	c #996943",
";<	c #A06B43",
"><	c #BB8A5F",
",<	c #D19F73",
"'<	c #D1A379",
")<	c #CDA27A",
"!<	c #DAB089",
"~<	c #E2B68C",
"{<	c #E0B68C",
"]<	c #DBB084",
"^<	c #DEB287",
"/<	c #DBAC7C",
"(<	c #D8A679",
"_<	c #D7A678",
":<	c #D9AB81",
"<<	c #E5BF9B",
"[<	c #E4BF9E",
"}<	c #E3C0A0",
"|<	c #DAB38D",
"1<	c #DDB48F",
"2<	c #DBB187",
"3<	c #C79D76",
"4<	c #996A46",
"5<	c #7B4B2B",
"6<	c #9D6F48",
"7<	c #C29367",
"8<	c #834F2C",
"9<	c #775134",
"0<	c #65482D",
"a<	c #46372A",
"b<	c #1F1E1A",
"c<	c #0E110F",
"d<	c #817C27",
"e<	c #B9B623",
"f<	c #B7B320",
"g<	c #B8B421",
"h<	c #BEAE20",
"i<	c #CF9207",
"j<	c #D19205",
"k<	c #D69405",
"l<	c #CD9007",
"m<	c #564318",
"n<	c #262519",
"o<	c #979323",
"p<	c #BCB826",
"q<	c #D1C947",
"r<	c #9B9848",
"s<	c #161613",
"t<	c #645C24",
"u<	c #EDC82A",
"v<	c #F4CA16",
"w<	c #F3CA14",
"x<	c #E1BD2D",
"y<	c #40391E",
"z<	c #20201C",
"A<	c #21211B",
"B<	c #1A1D1A",
"C<	c #10130F",
"D<	c #2C2926",
"E<	c #5C4D41",
"F<	c #81654B",
"G<	c #9E704A",
"H<	c #A47249",
"I<	c #9D6842",
"J<	c #A46E46",
"K<	c #AE7B52",
"L<	c #C2976F",
"M<	c #D2A67D",
"N<	c #CB9D73",
"O<	c #DAAB80",
"P<	c #E1B78C",
"Q<	c #D7AC81",
"R<	c #DEB389",
"S<	c #DAAA78",
"T<	c #DBA771",
"U<	c #D69F6A",
"V<	c #DAAB7F",
"W<	c #E5BF9A",
"X<	c #CDA37B",
"Y<	c #B98B64",
"Z<	c #BF946C",
"`<	c #B2865D",
" [	c #BB9069",
".[	c #9D6E49",
"+[	c #895834",
"@[	c #9D6C45",
"#[	c #81502F",
"$[	c #825D3F",
"%[	c #67472C",
"&[	c #443628",
"*[	c #21201D",
"=[	c #27281C",
"-[	c #2A2A1D",
";[	c #2C2C1E",
">[	c #2D2D1E",
",[	c #27281B",
"'[	c #0D120F",
")[	c #7F7B27",
"![	c #B9B624",
"~[	c #B9B522",
"{[	c #BEAF21",
"][	c #D19306",
"^[	c #D59304",
"/[	c #714518",
"([	c #5F2C18",
"_[	c #562C19",
":[	c #58321B",
"<[	c #60481E",
"[[	c #634E16",
"}[	c #745A18",
"|[	c #80661A",
"1[	c #A89D20",
"2[	c #BAB625",
"3[	c #908C33",
"4[	c #171915",
"5[	c #151815",
"6[	c #665529",
"7[	c #EEC82E",
"8[	c #F3C814",
"9[	c #EAC72A",
"0[	c #A09D4D",
"a[	c #959450",
"b[	c #969650",
"c[	c #929251",
"d[	c #645F3F",
"e[	c #2E2B26",
"f[	c #635242",
"g[	c #8C6B4F",
"h[	c #8E6441",
"i[	c #976844",
"j[	c #A8784F",
"k[	c #9E6B43",
"l[	c #9B653D",
"m[	c #9F6A42",
"n[	c #A6754D",
"o[	c #A57752",
"p[	c #A87950",
"q[	c #BA8C63",
"r[	c #CEA075",
"s[	c #E0B186",
"t[	c #E0B68E",
"u[	c #E3B98E",
"v[	c #D7AD84",
"w[	c #D6A97B",
"x[	c #D6A577",
"y[	c #DCB58F",
"z[	c #8B5A37",
"A[	c #8E5D3A",
"B[	c #8F5F3D",
"C[	c #92623F",
"D[	c #8B5734",
"E[	c #8A5835",
"F[	c #885735",
"G[	c #8A5834",
"H[	c #8C5833",
"I[	c #805030",
"J[	c #825C3B",
"K[	c #583E2B",
"L[	c #3B3227",
"M[	c #1F1F1D",
"N[	c #151716",
"O[	c #655E47",
"P[	c #C1BE6C",
"Q[	c #C5C566",
"R[	c #CAC96C",
"S[	c #CAC866",
"T[	c #A29D4C",
"U[	c #7E7A25",
"V[	c #BBB624",
"W[	c #C2AF21",
"X[	c #D29306",
"Y[	c #D49303",
"Z[	c #D49304",
"`[	c #D28E08",
" }	c #C44C0D",
".}	c #C2420E",
"+}	c #C0410D",
"@}	c #C95D12",
"#}	c #D3920E",
"$}	c #D29207",
"%}	c #D29205",
"&}	c #D49407",
"*}	c #C4A91B",
"=}	c #BCB524",
"-}	c #B8B522",
";}	c #838021",
">}	c #141514",
",}	c #50431B",
"'}	c #E9C325",
")}	c #F3C913",
"!}	c #F1CB24",
"~}	c #E9E668",
"{}	c #E7E973",
"]}	c #E7E974",
"^}	c #E7E76E",
"/}	c #A8A659",
"(}	c #1D1F1B",
"_}	c #2A2824",
":}	c #5C4B3B",
"<}	c #8C6A4D",
"[}	c #8C6C4D",
"}}	c #896744",
"|}	c #905F3B",
"1}	c #96643E",
"2}	c #AC7B53",
"3}	c #AF7E54",
"4}	c #AD7D53",
"5}	c #A06D45",
"6}	c #9E683F",
"7}	c #AA7B54",
"8}	c #CEA076",
"9}	c #E8BE96",
"0}	c #E7BD97",
"a}	c #E3B991",
"b}	c #D1A67C",
"c}	c #C99E75",
"d}	c #DAAE83",
"e}	c #E3B68B",
"f}	c #A1714B",
"g}	c #905D38",
"h}	c #8E5B37",
"i}	c #7B4B2C",
"j}	c #774829",
"k}	c #724527",
"l}	c #6D4225",
"m}	c #754628",
"n}	c #7C4A2A",
"o}	c #92603B",
"p}	c #805937",
"q}	c #543D2D",
"r}	c #33302C",
"s}	c #777546",
"t}	c #E5E776",
"u}	c #E8EA75",
"v}	c #E8E973",
"w}	c #D8D251",
"x}	c #A7A02F",
"y}	c #252617",
"z}	c #767322",
"A}	c #B8B422",
"B}	c #BBAE1F",
"C}	c #D59404",
"D}	c #D59305",
"E}	c #CF8E06",
"F}	c #CE4B0E",
"G}	c #C8400E",
"H}	c #C63F0C",
"I}	c #CE5E0E",
"J}	c #D79306",
"K}	c #D59303",
"L}	c #D69506",
"M}	c #C5A718",
"N}	c #BBB724",
"O}	c #7D7B22",
"P}	c #1A1C18",
"Q}	c #4A3D1C",
"R}	c #E8C028",
"S}	c #F2C612",
"T}	c #F3C914",
"U}	c #F1CB23",
"V}	c #EAE661",
"W}	c #E9E96E",
"X}	c #E8EA73",
"Y}	c #E9E86A",
"Z}	c #ABAC56",
"`}	c #1E211B",
" |	c #26241F",
".|	c #50443B",
"+|	c #82644D",
"@|	c #946B49",
"#|	c #916947",
"$|	c #936741",
"%|	c #8F5E39",
"&|	c #9C6D48",
"*|	c #AC8057",
"=|	c #AD7E55",
"-|	c #AB7A51",
";|	c #A57147",
">|	c #965F37",
",|	c #915831",
"'|	c #A16B42",
")|	c #B48459",
"!|	c #CA9C73",
"~|	c #E0B38A",
"{|	c #DCB18B",
"]|	c #D9B18A",
"^|	c #DBB089",
"/|	c #CD9E72",
"(|	c #CE9F74",
"_|	c #9C6C47",
":|	c #B68459",
"<|	c #A5734A",
"[|	c #7E4F2E",
"}|	c #744527",
"||	c #6D4125",
"1|	c #704427",
"2|	c #6F4126",
"3|	c #7E4B2B",
"4|	c #915F3B",
"5|	c #73512F",
"6|	c #513E2D",
"7|	c #2D2B27",
"8|	c #1E1E1B",
"9|	c #1E1F1C",
"0|	c #7A7941",
"a|	c #E6E771",
"b|	c #E8EA74",
"c|	c #E0DD62",
"d|	c #C1BB2C",
"e|	c #A8A22C",
"f|	c #272917",
"g|	c #6C6A1D",
"h|	c #B7B422",
"i|	c #BEAE1F",
"j|	c #D08F06",
"k|	c #CE4F11",
"l|	c #C8420F",
"m|	c #C8420C",
"n|	c #CC5D0E",
"o|	c #D79505",
"p|	c #C6A517",
"q|	c #B7B31F",
"r|	c #B7B321",
"s|	c #777620",
"t|	c #141615",
"u|	c #4B3F1C",
"v|	c #EAC428",
"w|	c #F2C813",
"x|	c #F2CC22",
"y|	c #EAE662",
"z|	c #E9E96C",
"A|	c #E8EA71",
"B|	c #ADAC53",
"C|	c #21231C",
"D|	c #1C1E1B",
"E|	c #121512",
"F|	c #1F1F1B",
"G|	c #4F4237",
"H|	c #765A3F",
"I|	c #956744",
"J|	c #996741",
"K|	c #8C5A37",
"L|	c #9F704A",
"M|	c #B08257",
"N|	c #B08053",
"O|	c #B27E53",
"P|	c #9C643C",
"Q|	c #935932",
"R|	c #945A33",
"S|	c #966039",
"T|	c #BF946B",
"U|	c #C5986E",
"V|	c #D6A87F",
"W|	c #D9A980",
"X|	c #BF8F64",
"Y|	c #A4734B",
"Z|	c #93603A",
"`|	c #966540",
" 1	c #AE7D55",
".1	c #C99669",
"+1	c #AF7B50",
"@1	c #98643D",
"#1	c #865431",
"$1	c #7B4A2B",
"%1	c #754528",
"&1	c #794728",
"*1	c #7A4728",
"=1	c #7F502F",
"-1	c #774B2B",
";1	c #745136",
">1	c #3F3628",
",1	c #29271D",
"'1	c #25251C",
")1	c #20201A",
"!1	c #22211A",
"~1	c #24231D",
"{1	c #26261E",
"]1	c #8B8649",
"^1	c #E7E873",
"/1	c #E5E56C",
"(1	c #CBC13D",
"_1	c #ABA22B",
":1	c #282918",
"<1	c #6E6A20",
"[1	c #BFB022",
"}1	c #D19307",
"|1	c #CE4D0E",
"11	c #CF440E",
"21	c #CD430D",
"31	c #CB5A0C",
"41	c #D49204",
"51	c #D69505",
"61	c #CAA81B",
"71	c #BCB625",
"81	c #B9B424",
"91	c #7B7826",
"01	c #453C1B",
"a1	c #E6C32B",
"b1	c #F3CB22",
"c1	c #EBE661",
"d1	c #E9E970",
"e1	c #E9E96F",
"f1	c #EBE863",
"g1	c #B0AE52",
"h1	c #373525",
"i1	c #393728",
"j1	c #3B3A26",
"k1	c #171815",
"l1	c #171614",
"m1	c #4F463C",
"n1	c #8B6E58",
"o1	c #B1855E",
"p1	c #AA7A52",
"q1	c #B48559",
"r1	c #B28254",
"s1	c #B98659",
"t1	c #BB8658",
"u1	c #A66F44",
"v1	c #9A633B",
"w1	c #9F663B",
"x1	c #975E36",
"y1	c #B9875C",
"z1	c #B5855B",
"A1	c #B88A5F",
"B1	c #CD9F74",
"C1	c #C99C71",
"D1	c #C89B70",
"E1	c #CD9F75",
"F1	c #CA9B71",
"G1	c #B4845B",
"H1	c #CE9E73",
"I1	c #D4A476",
"J1	c #CD9A6B",
"K1	c #BD8A5D",
"L1	c #A57148",
"M1	c #96623C",
"N1	c #734227",
"O1	c #7F4C2B",
"P1	c #844F2D",
"Q1	c #713C22",
"R1	c #6E3E22",
"S1	c #73482A",
"T1	c #794829",
"U1	c #9E7A48",
"V1	c #9D8641",
"W1	c #A5A252",
"X1	c #A1A055",
"Y1	c #A49C4A",
"Z1	c #A78E25",
"`1	c #A98F24",
" 2	c #9F8821",
".2	c #C3B342",
"+2	c #EDE86B",
"@2	c #DAD456",
"#2	c #C3B82A",
"$2	c #BFB726",
"%2	c #A89F29",
"&2	c #262717",
"*2	c #645F26",
"=2	c #9E9C2A",
"-2	c #999626",
";2	c #9A9724",
">2	c #AF9F28",
",2	c #D09309",
"'2	c #D29204",
")2	c #D09005",
"!2	c #D0740A",
"~2	c #CF720D",
"{2	c #CF6E0C",
"]2	c #D27A0D",
"^2	c #D79405",
"/2	c #D79507",
"(2	c #B39420",
"_2	c #8B8729",
":2	c #8A8628",
"<2	c #918C2D",
"[2	c #626124",
"}2	c #3F381C",
"|2	c #E3C130",
"12	c #F2C814",
"22	c #F4CB16",
"32	c #F3C81A",
"42	c #F0BC46",
"52	c #F2BF4E",
"62	c #F1BF4D",
"72	c #F3BD4D",
"82	c #DFC560",
"92	c #C9C776",
"02	c #CFCC73",
"a2	c #D4D168",
"b2	c #23201A",
"c2	c #26221B",
"d2	c #27221D",
"e2	c #2A2621",
"f2	c #35312B",
"g2	c #4A423C",
"h2	c #826F5F",
"i2	c #C19E7D",
"j2	c #CAA078",
"k2	c #B98D65",
"l2	c #AC7C52",
"m2	c #B8885E",
"n2	c #A87A54",
"o2	c #BB9169",
"p2	c #C69A72",
"q2	c #C69468",
"r2	c #C48F61",
"s2	c #B38156",
"t2	c #9E643B",
"u2	c #AC784E",
"v2	c #A8754B",
"w2	c #D1A278",
"x2	c #BB8B60",
"y2	c #C09267",
"z2	c #D4A378",
"A2	c #DBAB81",
"B2	c #DAAA81",
"C2	c #D1A37A",
"D2	c #CEA077",
"E2	c #DCAF84",
"F2	c #DCAE82",
"G2	c #D8A97E",
"H2	c #BB895F",
"I2	c #885533",
"J2	c #7F4C2C",
"K2	c #9D6740",
"L2	c #6F4125",
"M2	c #7C4A29",
"N2	c #8A532C",
"O2	c #A26B38",
"P2	c #BB8C43",
"Q2	c #D4B85A",
"R2	c #E5DD83",
"S2	c #EBDF7D",
"T2	c #F3CB20",
"U2	c #F4CA17",
"V2	c #F3CA17",
"W2	c #F1D43E",
"X2	c #F0E96A",
"Y2	c #D2CB46",
"Z2	c #BDB725",
"`2	c #A59D2A",
" 3	c #27291A",
".3	c #1E1F1A",
"+3	c #252619",
"@3	c #24261A",
"#3	c #24251A",
"$3	c #5F4B1B",
"%3	c #CF9007",
"&3	c #D19105",
"*3	c #D59405",
"=3	c #D69406",
"-3	c #906814",
";3	c #232018",
">3	c #1C1D18",
",3	c #1F211B",
"'3	c #1D1E1B",
")3	c #3E381C",
"!3	c #E3C232",
"~3	c #F4CA15",
"{3	c #F2C415",
"]3	c #F48621",
"^3	c #F78325",
"/3	c #F78425",
"(3	c #F78125",
"_3	c #EFBE5B",
":3	c #EAE98A",
"<3	c #E9EA80",
"[3	c #E8EA72",
"}3	c #171918",
"|3	c #1E1D18",
"13	c #1D1C17",
"23	c #1C1A16",
"33	c #221F19",
"43	c #2D261D",
"53	c #332B21",
"63	c #372D23",
"73	c #312A20",
"83	c #3C3328",
"93	c #4D4238",
"03	c #534A43",
"a3	c #685B53",
"b3	c #B79D87",
"c3	c #C49870",
"d3	c #AC7B4F",
"e3	c #B1865F",
"f3	c #C7A07D",
"g3	c #CFAA88",
"h3	c #CFA177",
"i3	c #C49065",
"j3	c #A5744B",
"k3	c #96603A",
"l3	c #985F36",
"m3	c #A66D41",
"n3	c #D19E71",
"o3	c #DEAE83",
"p3	c #CD9C72",
"q3	c #E4B78E",
"r3	c #E8BF96",
"s3	c #E2B890",
"t3	c #E1B993",
"u3	c #DFB78F",
"v3	c #E1B78E",
"w3	c #C28E60",
"x3	c #B58256",
"y3	c #98643E",
"z3	c #875431",
"A3	c #815130",
"B3	c #6A3A1E",
"C3	c #85502C",
"D3	c #945B34",
"E3	c #A1673A",
"F3	c #A66A39",
"G3	c #AA6D38",
"H3	c #B98453",
"I3	c #E1C084",
"J3	c #F4CB28",
"K3	c #F5CB17",
"L3	c #F1D43B",
"M3	c #EBE764",
"N3	c #C9C239",
"O3	c #BCB724",
"P3	c #A39C2C",
"Q3	c #27291C",
"R3	c #543F17",
"S3	c #CE9006",
"T3	c #8E6614",
"U3	c #3D361C",
"V3	c #E1C136",
"W3	c #F3C516",
"X3	c #F88225",
"Y3	c #F88123",
"Z3	c #F87E22",
"`3	c #F1B850",
" 4	c #EAE888",
".4	c #E9EA7E",
"+4	c #171916",
"@4	c #1A1B1A",
"#4	c #1B1B19",
"$4	c #201D19",
"%4	c #25231B",
"&4	c #2B2620",
"*4	c #332B22",
"=4	c #4E4134",
"-4	c #594B3D",
";4	c #524439",
">4	c #4D4033",
",4	c #534537",
"'4	c #6C5A4D",
")4	c #816E5F",
"!4	c #857162",
"~4	c #A48E7C",
"{4	c #D2B399",
"]4	c #DFB995",
"^4	c #D9AE86",
"/4	c #DBA97F",
"(4	c #A57854",
"_4	c #BD9470",
":4	c #D3AE8B",
"<4	c #DEB896",
"[4	c #DCAF87",
"}4	c #BD8E62",
"|4	c #AC8056",
"14	c #9C6B44",
"24	c #935D36",
"34	c #A06940",
"44	c #A97040",
"54	c #AA764B",
"64	c #C08D61",
"74	c #C28F62",
"84	c #DCAB80",
"94	c #E5B98E",
"04	c #E2B58D",
"a4	c #E5BF9C",
"b4	c #E9C19E",
"c4	c #E4BC97",
"d4	c #E2B892",
"e4	c #D5A479",
"f4	c #C79466",
"g4	c #C89669",
"h4	c #AA764D",
"i4	c #754728",
"j4	c #64391D",
"k4	c #84502B",
"l4	c #925A33",
"m4	c #9E653A",
"n4	c #AA6D3C",
"o4	c #AE703A",
"p4	c #AE6E34",
"q4	c #C79141",
"r4	c #F2C71F",
"s4	c #F6CB18",
"t4	c #F5CB16",
"u4	c #F1D43A",
"v4	c #E5DF5C",
"w4	c #C1BA2B",
"x4	c #9D972A",
"y4	c #28281D",
"z4	c #503C18",
"A4	c #D39204",
"B4	c #D39303",
"C4	c #CF9006",
"D4	c #CF9105",
"E4	c #D39305",
"F4	c #896515",
"G4	c #1B1C17",
"H4	c #3A321D",
"I4	c #DCB93B",
"J4	c #F3C619",
"K4	c #F58220",
"L4	c #F87D23",
"M4	c #F87D21",
"N4	c #F97B1F",
"O4	c #F1B54C",
"P4	c #EAE885",
"Q4	c #E9EA7F",
"R4	c #E9E87B",
"S4	c #1C1D1A",
"T4	c #21201C",
"U4	c #24221B",
"V4	c #27251B",
"W4	c #29251E",
"X4	c #29261E",
"Y4	c #40342A",
"Z4	c #56483B",
"`4	c #816C5C",
" 5	c #8A7768",
".5	c #756459",
"+5	c #7E6A5D",
"@5	c #AC907B",
"#5	c #CCAE96",
"$5	c #D2B196",
"%5	c #DDB99E",
"&5	c #DFBA9A",
"*5	c #E3B996",
"=5	c #CDA37C",
"-5	c #C39972",
";5	c #DFB791",
">5	c #DAAA7A",
",5	c #AC794F",
"'5	c #AE825D",
")5	c #CDA580",
"!5	c #DDB795",
"~5	c #E5BEA0",
"{5	c #E2B895",
"]5	c #D2A374",
"^5	c #C39569",
"/5	c #B3875C",
"(5	c #A3724A",
"_5	c #96613C",
":5	c #9D673E",
"<5	c #A36C40",
"[5	c #B27E51",
"}5	c #AD7A4F",
"|5	c #D9A97E",
"15	c #D9AB7E",
"25	c #E0B184",
"35	c #D9AA81",
"45	c #E6BC96",
"55	c #E7C1A1",
"65	c #DFB996",
"75	c #E6BF9C",
"85	c #E2BC97",
"95	c #CC9D72",
"05	c #C9966A",
"a5	c #CC996D",
"b5	c #C39064",
"c5	c #A87249",
"d5	c #905E3B",
"e5	c #6A3B1F",
"f5	c #68381C",
"g5	c #754325",
"h5	c #915932",
"i5	c #A2683C",
"j5	c #B0713A",
"k5	c #B2733B",
"l5	c #B6753B",
"m5	c #BB8138",
"n5	c #ECBF21",
"o5	c #F1D238",
"p5	c #E2DC5F",
"q5	c #BCB42E",
"r5	c #B8B228",
"s5	c #BBB329",
"t5	c #9C942C",
"u5	c #29291F",
"v5	c #52411D",
"w5	c #664D17",
"x5	c #644916",
"y5	c #604614",
"z5	c #775319",
"A5	c #C8830F",
"B5	c #CC8009",
"C5	c #CD8609",
"D5	c #CE8C0E",
"E5	c #CC8E1A",
"F5	c #CC8F13",
"G5	c #CA8F0B",
"H5	c #D29417",
"I5	c #D6910B",
"J5	c #D8920A",
"K5	c #D7920B",
"L5	c #D59011",
"M5	c #A37730",
"N5	c #6A2619",
"O5	c #65271B",
"P5	c #632218",
"Q5	c #54251A",
"R5	c #1E1D19",
"S5	c #30291B",
"T5	c #B19329",
"U5	c #CAA926",
"V5	c #C3A51F",
"W5	c #C2A029",
"X5	c #F27C23",
"Y5	c #F9761F",
"Z5	c #F9761C",
"`5	c #F87A1F",
" 6	c #F0AA46",
".6	c #E9CD6E",
"+6	c #E5C96E",
"@6	c #E5C86F",
"#6	c #1B1D1A",
"$6	c #24231E",
"%6	c #27251D",
"&6	c #28261D",
"*6	c #2F2A20",
"=6	c #3B3026",
"-6	c #40352A",
";6	c #4D4034",
">6	c #5A4C41",
",6	c #8E7A6A",
"'6	c #D0AE91",
")6	c #DDB897",
"!6	c #D4B195",
"~6	c #B89B84",
"{6	c #B79A81",
"]6	c #DEBB9B",
"^6	c #E9C5A8",
"/6	c #EAC8AB",
"(6	c #E6BFA3",
"_6	c #E4BC9D",
":6	c #CEA47D",
"<6	c #D1A67F",
"[6	c #DFAB79",
"}6	c #AD7B51",
"|6	c #C29B78",
"16	c #E4C0A1",
"26	c #E6BF9E",
"36	c #D7A979",
"46	c #CB9869",
"56	c #BF8F63",
"66	c #A97950",
"76	c #9D643A",
"86	c #A97347",
"96	c #DBAC80",
"06	c #EAC2A0",
"a6	c #E9BF99",
"b6	c #DEB189",
"c6	c #E4BA96",
"d6	c #E6BF9B",
"e6	c #E4BE9C",
"f6	c #E4BFA0",
"g6	c #D8B28F",
"h6	c #BD895D",
"i6	c #B78256",
"j6	c #B78359",
"k6	c #B07A50",
"l6	c #A57049",
"m6	c #885634",
"n6	c #6B3A1F",
"o6	c #6D3E21",
"p6	c #6E3E21",
"q6	c #8B5531",
"r6	c #A4683B",
"s6	c #AF7038",
"t6	c #B1723A",
"u6	c #B77943",
"v6	c #BB7B3E",
"w6	c #E7B63D",
"x6	c #F6CB17",
"y6	c #E2BD28",
"z6	c #757037",
"A6	c #595526",
"B6	c #5F5A25",
"C6	c #5B5823",
"D6	c #4C4A21",
"E6	c #1F211E",
"F6	c #1D1E19",
"G6	c #7A5612",
"H6	c #996706",
"I6	c #A26907",
"J6	c #BD4D0C",
"K6	c #C6430C",
"L6	c #C6440C",
"M6	c #BD4812",
"N6	c #532F17",
"O6	c #3D2E17",
"P6	c #413216",
"Q6	c #664722",
"R6	c #CC5518",
"S6	c #D55113",
"T6	c #D74E12",
"U6	c #D64E14",
"V6	c #C9421C",
"W6	c #B82718",
"X6	c #B62617",
"Y6	c #A02A19",
"Z6	c #2A1E1B",
"`6	c #1C1F1C",
" 7	c #1D201D",
".7	c #28251B",
"+7	c #2C281C",
"@7	c #29291C",
"#7	c #4D2E1B",
"$7	c #EC7027",
"%7	c #FA7520",
"&7	c #F46D26",
"*7	c #EE5127",
"=7	c #EC4A2A",
"-7	c #EC472A",
";7	c #27251C",
">7	c #322B21",
",7	c #453A2B",
"'7	c #5D4D38",
")7	c #6D5A47",
"!7	c #736151",
"~7	c #7B6A5D",
"{7	c #9A8677",
"]7	c #CAB09D",
"^7	c #EDCAB0",
"/7	c #EEC7A7",
"(7	c #E8BE9E",
"_7	c #E3BB9A",
":7	c #E2BE9D",
"<7	c #E8C6A7",
"[7	c #EAC9AE",
"}7	c #E5BEA2",
"|7	c #E7C0A4",
"17	c #D2A47B",
"27	c #D8AE86",
"37	c #E5BF99",
"47	c #DAA673",
"57	c #BA8B61",
"67	c #D7B08D",
"77	c #E7C29F",
"87	c #C39367",
"97	c #B1835A",
"07	c #A1704A",
"a7	c #925E37",
"b7	c #A0683E",
"c7	c #B47748",
"d7	c #B4794B",
"e7	c #C18C5E",
"f7	c #C6986D",
"g7	c #DCB084",
"h7	c #E5BB93",
"i7	c #DEAF85",
"j7	c #D3A071",
"k7	c #D6A882",
"l7	c #BB8E69",
"m7	c #B1825C",
"n7	c #B17E54",
"o7	c #A36C41",
"p7	c #98613A",
"q7	c #9B643C",
"r7	c #905932",
"s7	c #955E38",
"t7	c #7A4729",
"u7	c #704124",
"v7	c #734325",
"w7	c #6C3A1D",
"x7	c #895430",
"y7	c #A4693A",
"z7	c #AD6F3D",
"A7	c #AF6F36",
"B7	c #B87A42",
"C7	c #B9793F",
"D7	c #DDA94A",
"E7	c #F4CA1A",
"F7	c #DEBB29",
"G7	c #3E371D",
"H7	c #25241F",
"I7	c #21221F",
"J7	c #1D1F1C",
"K7	c #775511",
"L7	c #9A6705",
"M7	c #A16806",
"N7	c #BF490C",
"O7	c #C53E0C",
"P7	c #C53F0E",
"Q7	c #BE4115",
"R7	c #472417",
"S7	c #191B17",
"T7	c #3A1E15",
"U7	c #C54112",
"V7	c #D34511",
"W7	c #D14013",
"X7	c #D04013",
"Y7	c #C73616",
"Z7	c #B82617",
"`7	c #A72919",
" 8	c #2D1D1A",
".8	c #43271A",
"+8	c #E97126",
"@8	c #F9761E",
"#8	c #F56822",
"$8	c #EC3E24",
"%8	c #EA3C25",
"&8	c #E93E24",
"*8	c #1D1D1A",
"=8	c #1B1D18",
"-8	c #26251F",
";8	c #3C3427",
">8	c #60503E",
",8	c #816B57",
"'8	c #A28972",
")8	c #BDA088",
"!8	c #CAAC97",
"~8	c #C7AD9A",
"{8	c #CDB3A1",
"]8	c #E7C9B4",
"^8	c #ECCDB7",
"/8	c #E9C4A7",
"(8	c #E6BC9D",
"_8	c #E5BB98",
":8	c #E9C4A6",
"<8	c #E8C6A9",
"[8	c #E4BDA0",
"}8	c #EAC9B1",
"|8	c #D8AB83",
"18	c #DCB28C",
"28	c #E4BE97",
"38	c #D49C69",
"48	c #CC996E",
"58	c #E0B895",
"68	c #E8C6AA",
"78	c #E7C4A5",
"88	c #CFA176",
"98	c #C69568",
"08	c #B98C63",
"a8	c #925F39",
"b8	c #A26D44",
"c8	c #B37649",
"d8	c #AD7143",
"e8	c #AC764B",
"f8	c #BD8F65",
"g8	c #D5A477",
"h8	c #DCA975",
"i8	c #DAA573",
"j8	c #D8A67A",
"k8	c #B27D52",
"l8	c #9B633A",
"m8	c #A2673A",
"n8	c #A76A3C",
"o8	c #985E36",
"p8	c #834C28",
"q8	c #814B28",
"r8	c #8A522C",
"s8	c #854E2B",
"t8	c #784527",
"u8	c #774627",
"v8	c #774325",
"w8	c #754323",
"x8	c #8C5630",
"y8	c #B1753F",
"z8	c #B17136",
"A8	c #B4773D",
"B8	c #BB7E45",
"C8	c #D49B4F",
"D8	c #F3C823",
"E8	c #E1BD2A",
"F8	c #42391E",
"G8	c #222421",
"H8	c #1B1E1B",
"I8	c #755312",
"J8	c #A26A06",
"K8	c #9E6905",
"L8	c #9C6805",
"M8	c #A46A06",
"N8	c #BC4D0C",
"O8	c #BE4114",
"P8	c #452218",
"Q8	c #331E18",
"R8	c #BF3E16",
"S8	c #D94713",
"T8	c #DA4813",
"U8	c #D44412",
"V8	c #CE391A",
"W8	c #A9301B",
"X8	c #301E19",
"Y8	c #1B1C1B",
"Z8	c #3B2317",
"`8	c #DF6A25",
" 9	c #FA7522",
".9	c #F9761D",
"+9	c #F9791E",
"@9	c #F4691F",
"#9	c #EC3D25",
"$9	c #EA3C27",
"%9	c #EC4129",
"&9	c #24221F",
"*9	c #20211B",
"=9	c #372F27",
"-9	c #705E4E",
";9	c #A28C78",
">9	c #C2A792",
",9	c #DEC1AB",
"'9	c #EACBB5",
")9	c #EACBB2",
"!9	c #EBCCB5",
"~9	c #ECCCB7",
"{9	c #EDCAB2",
"]9	c #ECC3A6",
"^9	c #E7C1A5",
"/9	c #E7C5A9",
"(9	c #E6C4AA",
"_9	c #E6BEA0",
":9	c #ECCDB8",
"<9	c #E7BF9E",
"[9	c #DCAF88",
"}9	c #DEB691",
"|9	c #E4BF9C",
"19	c #D39C6A",
"29	c #DBAA82",
"39	c #E6BD9C",
"49	c #E8C2A3",
"59	c #E5BC9D",
"69	c #C6976B",
"79	c #B5885D",
"89	c #94603A",
"99	c #AF7548",
"09	c #A1673D",
"a9	c #996139",
"b9	c #A16A40",
"c9	c #AB784D",
"d9	c #C69262",
"e9	c #D09C6B",
"f9	c #CC9869",
"g9	c #D29D6E",
"h9	c #C48E5D",
"i9	c #CB9665",
"j9	c #C89362",
"k9	c #B4784A",
"l9	c #AB7043",
"m9	c #A97145",
"n9	c #A87247",
"o9	c #AB7549",
"p9	c #794528",
"q9	c #814D2C",
"r9	c #8C5733",
"s9	c #7B4727",
"t9	c #844F2B",
"u9	c #89542E",
"v9	c #B27842",
"w9	c #B9854A",
"x9	c #B3753B",
"y9	c #B17239",
"z9	c #BD8349",
"A9	c #D09556",
"B9	c #EEC238",
"C9	c #F4CA1B",
"D9	c #E2BC20",
"E9	c #44391C",
"F9	c #272723",
"G9	c #212220",
"H9	c #1B1B18",
"I9	c #231F17",
"J9	c #7D5412",
"K9	c #AA6C06",
"L9	c #A66B06",
"M9	c #A36A06",
"N9	c #A96B06",
"O9	c #BC4F0E",
"P9	c #BE4014",
"Q9	c #462118",
"R9	c #331E16",
"S9	c #C24116",
"T9	c #DC4913",
"U9	c #DB4813",
"V9	c #D24212",
"W9	c #C83716",
"X9	c #B13D25",
"Y9	c #56261C",
"Z9	c #472019",
"`9	c #452619",
" 0	c #492C1E",
".0	c #2B221A",
"+0	c #352119",
"@0	c #D56225",
"#0	c #F47325",
"$0	c #F57427",
"%0	c #F57424",
"&0	c #F06621",
"*0	c #EC4024",
"=0	c #EB3D28",
"-0	c #ED3F29",
";0	c #262420",
">0	c #352C22",
",0	c #665545",
"'0	c #AA917D",
")0	c #D6BBA6",
"!0	c #E9CDB9",
"~0	c #ECCFBC",
"{0	c #ECCBB0",
"]0	c #EDC9AB",
"^0	c #EEC9AA",
"/0	c #EDCCB4",
"(0	c #EDCCB5",
"_0	c #EECBB4",
":0	c #E7C0A3",
"<0	c #E5BD9F",
"[0	c #E8C5AA",
"}0	c #E9C9B3",
"|0	c #ECCEBD",
"10	c #E8C4A7",
"20	c #E3BF9F",
"30	c #D59E6D",
"40	c #DEAF87",
"50	c #E6BE9F",
"60	c #E9C7A9",
"70	c #EAC7A8",
"80	c #E8C3A1",
"90	c #CFA37A",
"00	c #C99769",
"a0	c #C49164",
"b0	c #B27F53",
"c0	c #A56F46",
"d0	c #A1683E",
"e0	c #9D6338",
"f0	c #9B643A",
"g0	c #B47C4E",
"h0	c #B68250",
"i0	c #CF9967",
"j0	c #AD784C",
"k0	c #AD794E",
"l0	c #C38D5B",
"m0	c #CA955F",
"n0	c #D3A172",
"o0	c #DAA779",
"p0	c #BC865A",
"q0	c #C89060",
"r0	c #B77D4F",
"s0	c #9B653F",
"t0	c #784328",
"u0	c #834D2A",
"v0	c #975F36",
"w0	c #8F572C",
"x0	c #BE844C",
"y0	c #CC9055",
"z0	c #B97D41",
"A0	c #B27238",
"B0	c #C08649",
"C0	c #CD9157",
"D0	c #CA9346",
"E0	c #E0B52A",
"F0	c #EDC527",
"G0	c #835122",
"H0	c #65291F",
"I0	c #42221B",
"J0	c #40211C",
"K0	c #42231C",
"L0	c #45211B",
"M0	c #482218",
"N0	c #4E281C",
"O0	c #69441C",
"P0	c #765313",
"Q0	c #7E5716",
"R0	c #7D5713",
"S0	c #996615",
"T0	c #B75C0C",
"U0	c #BB580E",
"V0	c #BA590B",
"W0	c #BB540B",
"X0	c #C14710",
"Y0	c #C43E0C",
"Z0	c #C13C0D",
"`0	c #BD3F11",
" a	c #803519",
".a	c #6C2F1A",
"+a	c #6A2A18",
"@a	c #74301A",
"#a	c #B33A18",
"$a	c #BF3811",
"%a	c #C33A12",
"&a	c #C13612",
"*a	c #BD2E16",
"=a	c #C73721",
"-a	c #E03D28",
";a	c #DB3A25",
">a	c #E56527",
",a	c #E46D2F",
"'a	c #764329",
")a	c #221F1B",
"!a	c #5D3220",
"~a	c #65361F",
"{a	c #673E24",
"]a	c #6D3C26",
"^a	c #B74327",
"/a	c #ED4129",
"(a	c #EC3F28",
"_a	c #1B1915",
":a	c #2B261D",
"<a	c #9A8370",
"[a	c #D4B8A4",
"}a	c #EBCCBA",
"|a	c #ECCFBB",
"1a	c #ECD0BD",
"2a	c #ECCEBB",
"3a	c #ECCCB5",
"4a	c #ECCBB1",
"5a	c #EDCAAC",
"6a	c #EDCCB3",
"7a	c #EECDB6",
"8a	c #EECEBB",
"9a	c #EBCCB9",
"0a	c #E6C0A0",
"aa	c #ECCFBF",
"ba	c #E8C9B4",
"ca	c #E4C1A5",
"da	c #EED0BF",
"ea	c #ECCAB2",
"fa	c #E5BE99",
"ga	c #E4C1A3",
"ha	c #D6A06E",
"ia	c #DFB28D",
"ja	c #E7C3A5",
"ka	c #E8C2A2",
"la	c #E5BE9E",
"ma	c #E4BC9C",
"na	c #DAAC83",
"oa	c #CC996C",
"pa	c #BB8759",
"qa	c #96613A",
"ra	c #9F673D",
"sa	c #A3683B",
"ta	c #A56B3F",
"ua	c #C68F60",
"va	c #D4A06F",
"wa	c #C49063",
"xa	c #9B663E",
"ya	c #895330",
"za	c #A06A40",
"Aa	c #A26B40",
"Ba	c #A16A41",
"Ca	c #A57047",
"Da	c #8F5730",
"Ea	c #AF7649",
"Fa	c #B1794C",
"Ga	c #86512F",
"Ha	c #723E25",
"Ia	c #774628",
"Ja	c #8F552C",
"Ka	c #9B6034",
"La	c #9A5D2E",
"Ma	c #BB814B",
"Na	c #D39658",
"Oa	c #C28348",
"Pa	c #B6773B",
"Qa	c #C5884B",
"Ra	c #CD9155",
"Sa	c #C58A52",
"Ta	c #C89344",
"Ua	c #EFC224",
"Va	c #D55722",
"Wa	c #AD281C",
"Xa	c #611A12",
"Ya	c #621A12",
"Za	c #641A12",
"`a	c #631A12",
" b	c #661A12",
".b	c #681D13",
"+b	c #8A5310",
"@b	c #9B6705",
"#b	c #A46307",
"$b	c #C5450C",
"%b	c #C7420E",
"&b	c #C64210",
"*b	c #C6400D",
"=b	c #C54010",
"-b	c #C43E0D",
";b	c #C03E0E",
">b	c #B73D10",
",b	c #BC3C0F",
"'b	c #B94010",
")b	c #B23116",
"!b	c #B52717",
"~b	c #C42C1C",
"{b	c #EF3E29",
"]b	c #ED4825",
"^b	c #F97125",
"/b	c #F67326",
"(b	c #85462A",
"_b	c #1C1C19",
":b	c #28241E",
"<b	c #9F3326",
"[b	c #E93926",
"}b	c #EE452B",
"|b	c #211E18",
"1b	c #42372A",
"2b	c #826F5C",
"3b	c #BBA28D",
"4b	c #E7C8B4",
"5b	c #EDCDB9",
"6b	c #E9C9B4",
"7b	c #ECCFBD",
"8b	c #ECCCB6",
"9b	c #EECDB5",
"0b	c #EFCDB8",
"ab	c #EDD2C1",
"bb	c #EDD3C5",
"cb	c #EBCDB8",
"db	c #E9C1A0",
"eb	c #ECCAB3",
"fb	c #EED2C4",
"gb	c #EACAB2",
"hb	c #EDCDB8",
"ib	c #E7C19D",
"jb	c #EAC6A8",
"kb	c #E6C3A8",
"lb	c #D7A272",
"mb	c #E2B896",
"nb	c #EAC9B3",
"ob	c #E8C5A8",
"pb	c #E7C2A4",
"qb	c #E6BFA1",
"rb	c #E6BDA0",
"sb	c #E5BB9B",
"tb	c #E4B996",
"ub	c #DAAB82",
"vb	c #C28E61",
"wb	c #97643D",
"xb	c #A3683C",
"yb	c #A1663A",
"zb	c #AE7548",
"Ab	c #CB9566",
"Bb	c #AF794B",
"Cb	c #B07B50",
"Db	c #B27B4E",
"Eb	c #AC7448",
"Fb	c #A76F44",
"Gb	c #864E2A",
"Hb	c #A0683D",
"Ib	c #87502D",
"Jb	c #864F2B",
"Kb	c #734427",
"Lb	c #6F3F23",
"Mb	c #8E5731",
"Nb	c #93582E",
"Ob	c #9A5F32",
"Pb	c #A56837",
"Qb	c #B47942",
"Rb	c #D09558",
"Sb	c #C48649",
"Tb	c #B6763B",
"Ub	c #C78B4E",
"Vb	c #CD9255",
"Wb	c #C58A50",
"Xb	c #CB9155",
"Yb	c #E3B830",
"Zb	c #CF5B1F",
"`b	c #AA261B",
" c	c #591911",
".c	c #5A1911",
"+c	c #5C1911",
"@c	c #671A12",
"#c	c #6B1B12",
"$c	c #945212",
"%c	c #A16905",
"&c	c #A26A05",
"*c	c #A66506",
"=c	c #C7460C",
"-c	c #C74210",
";c	c #C64111",
">c	c #C53F0D",
",c	c #C6400F",
"'c	c #C64010",
")c	c #C43E0E",
"!c	c #C34211",
"~c	c #BE400F",
"{c	c #BB3E10",
"]c	c #BB400F",
"^c	c #C5420F",
"/c	c #BC3015",
"(c	c #B62717",
"_c	c #CA2F1D",
":c	c #E83F25",
"<c	c #F25E23",
"[c	c #FA7424",
"}c	c #F87424",
"|c	c #9D5E28",
"1c	c #574D22",
"2c	c #584E25",
"3c	c #574C26",
"4c	c #554B24",
"5c	c #574B23",
"6c	c #564A25",
"7c	c #574924",
"8c	c #9E4220",
"9c	c #EC4726",
"0c	c #EB3D27",
"ac	c #ED432A",
"bc	c #322C24",
"cc	c #695A4E",
"dc	c #AC9480",
"ec	c #D8BAA3",
"fc	c #EAC9B0",
"gc	c #E9C5AD",
"hc	c #DCAE87",
"ic	c #E0B594",
"jc	c #ECD0BC",
"kc	c #EDCEB7",
"lc	c #EDD6C8",
"mc	c #EDD4C5",
"nc	c #ECCAB1",
"oc	c #ECC5A4",
"pc	c #EECFBC",
"qc	c #EDD0C0",
"rc	c #EAC9B2",
"sc	c #ECD0BF",
"tc	c #EBC7AB",
"uc	c #ECC8AB",
"vc	c #E9C4A8",
"wc	c #DBA87B",
"xc	c #E3B997",
"yc	c #E8C6AE",
"zc	c #E6BEA3",
"Ac	c #E6BC9B",
"Bc	c #E5BB9A",
"Cc	c #E5BA98",
"Dc	c #B37F52",
"Ec	c #9C653E",
"Fc	c #A4693C",
"Gc	c #985F37",
"Hc	c #9C6239",
"Ic	c #9F663D",
"Jc	c #BD875A",
"Kc	c #B17A4E",
"Lc	c #9C663F",
"Mc	c #86512D",
"Nc	c #8A512A",
"Oc	c #9C6136",
"Pc	c #8C542E",
"Qc	c #814A29",
"Rc	c #885431",
"Sc	c #774629",
"Tc	c #6E3D21",
"Uc	c #9C5D2C",
"Vc	c #AE703B",
"Wc	c #A76B35",
"Xc	c #CC9053",
"Yc	c #C98C4F",
"Zc	c #B37338",
"`c	c #CA8C4D",
" d	c #D09356",
".d	c #CD935A",
"+d	c #CC925D",
"@d	c #D3A142",
"#d	c #D15C2F",
"$d	c #BC2A1F",
"%d	c #711B13",
"&d	c #691A12",
"*d	c #945312",
"=d	c #A66806",
"-d	c #C5460C",
";d	c #C6420E",
">d	c #C54110",
",d	c #C44110",
"'d	c #BC3E10",
")d	c #BE4210",
"!d	c #C04111",
"~d	c #BF4110",
"{d	c #C34111",
"]d	c #BB3214",
"^d	c #B72617",
"/d	c #C42D1C",
"(d	c #E54527",
"_d	c #F56821",
":d	c #F87320",
"<d	c #F97520",
"[d	c #F87523",
"}d	c #A15E24",
"|d	c #796B27",
"1d	c #7E6D29",
"2d	c #7C6E28",
"3d	c #786B25",
"4d	c #7A6A25",
"5d	c #7F6D29",
"6d	c #7D6E2B",
"7d	c #A45F2E",
"8d	c #ED492C",
"9d	c #EF432B",
"0d	c #EE442B",
"ad	c #2D291E",
"bd	c #332D24",
"cd	c #534437",
"dd	c #967F6E",
"ed	c #B99F8B",
"fd	c #DBB9A2",
"gd	c #DAB596",
"hd	c #D7AF8F",
"id	c #DAA980",
"jd	c #D59E70",
"kd	c #E1B595",
"ld	c #EECBB5",
"md	c #EECEBA",
"nd	c #EDCEB8",
"od	c #EDD2C4",
"pd	c #EDD3C4",
"qd	c #EDD5C6",
"rd	c #EBD8C8",
"sd	c #EDD2BF",
"td	c #EDCBAF",
"ud	c #EFCDB7",
"vd	c #ECD2C3",
"wd	c #EACCB9",
"xd	c #ECCCB8",
"yd	c #EECDB8",
"zd	c #EBC9AD",
"Ad	c #E7C3A4",
"Bd	c #DEAE86",
"Cd	c #E4B894",
"Dd	c #E5C3A9",
"Ed	c #E9C9B1",
"Fd	c #E8C5AB",
"Gd	c #E6BEA2",
"Hd	c #E5BC9A",
"Id	c #E6BA99",
"Jd	c #E6BB99",
"Kd	c #E5BB99",
"Ld	c #E5B995",
"Md	c #DCAC83",
"Nd	c #C49061",
"Od	c #965F38",
"Pd	c #9E653B",
"Qd	c #A0673C",
"Rd	c #9B6238",
"Sd	c #945B33",
"Td	c #935D38",
"Ud	c #885331",
"Vd	c #7F4A2A",
"Wd	c #88512D",
"Xd	c #905730",
"Yd	c #925931",
"Zd	c #8E542D",
"`d	c #8F5731",
" e	c #784729",
".e	c #804F2F",
"+e	c #7E4B2A",
"@e	c #723E21",
"#e	c #824C29",
"$e	c #975A30",
"%e	c #9E5D2C",
"&e	c #B77941",
"*e	c #A46532",
"=e	c #C3874A",
"-e	c #CD8F50",
";e	c #B6773D",
">e	c #C58648",
",e	c #CF9254",
"'e	c #CD9259",
")e	c #D09660",
"!e	c #CC8D5A",
"~e	c #D55A3D",
"{e	c #D02E24",
"]e	c #97241D",
"^e	c #6B1A12",
"/e	c #812E13",
"(e	c #8F3710",
"_e	c #8D3812",
":e	c #7E3913",
"<e	c #A25D12",
"[e	c #A86A06",
"}e	c #A56906",
"|e	c #A66A06",
"1e	c #AA6907",
"2e	c #C14810",
"3e	c #C43E10",
"4e	c #C13D0E",
"5e	c #BF3D0E",
"6e	c #BD3D10",
"7e	c #BA3C11",
"8e	c #B93E10",
"9e	c #B83A11",
"0e	c #B83D11",
"ae	c #BC410F",
"be	c #C13E0E",
"ce	c #BA3414",
"de	c #B92617",
"ee	c #BA2518",
"fe	c #D73724",
"ge	c #E84628",
"he	c #F36026",
"ie	c #F56725",
"je	c #F66A26",
"ke	c #F3742C",
"le	c #9D5F28",
"me	c #7B6C26",
"ne	c #807129",
"oe	c #7E7227",
"pe	c #7B6E25",
"qe	c #7C6D27",
"re	c #80702C",
"se	c #776B2B",
"te	c #A26F3B",
"ue	c #F06631",
"ve	c #F35C2B",
"we	c #433829",
"xe	c #624F3C",
"ye	c #886751",
"ze	c #9E7A5F",
"Ae	c #B0927A",
"Be	c #D9B9A2",
"Ce	c #E5C4AE",
"De	c #E9C7AF",
"Ee	c #EAC5A9",
"Fe	c #E2B897",
"Ge	c #D59F6F",
"He	c #DFAD85",
"Ie	c #EAC7AF",
"Je	c #EED1BD",
"Ke	c #ECD0C0",
"Le	c #ECD1C1",
"Me	c #ECD4C5",
"Ne	c #ECD6C7",
"Oe	c #EDD4C4",
"Pe	c #EECEB6",
"Qe	c #EDCBB0",
"Re	c #EED1C1",
"Se	c #EBC5A6",
"Te	c #DFB38D",
"Ue	c #E3BEA0",
"Ve	c #E8C8AF",
"We	c #E7C9B3",
"Xe	c #E9C8AD",
"Ye	c #E7BB98",
"Ze	c #E7BC99",
"`e	c #E5BD9C",
" f	c #E4BC9B",
".f	c #E2B793",
"+f	c #BD8A5B",
"@f	c #9E693F",
"#f	c #97613A",
"$f	c #945C35",
"%f	c #A36C44",
"&f	c #A77349",
"*f	c #8F5833",
"=f	c #83502E",
"-f	c #814C2B",
";f	c #7C4929",
">f	c #88512E",
",f	c #8F562F",
"'f	c #703D24",
")f	c #845332",
"!f	c #89502B",
"~f	c #A26638",
"{f	c #9F5C2C",
"]f	c #B97A44",
"^f	c #A76632",
"/f	c #BE8244",
"(f	c #C88A4C",
"_f	c #B4753B",
":f	c #C18447",
"<f	c #D09458",
"[f	c #CD935C",
"}f	c #CC8F5D",
"|f	c #D2543C",
"1f	c #D53229",
"2f	c #BF2C22",
"3f	c #781E13",
"4f	c #9D5712",
"5f	c #AE6E06",
"6f	c #AE6D07",
"7f	c #AD6D07",
"8f	c #B0640A",
"9f	c #B6490E",
"0f	c #B5440F",
"af	c #B54210",
"bf	c #BA450F",
"cf	c #BF3914",
"df	c #C12B19",
"ef	c #B92B16",
"ff	c #B72C15",
"gf	c #B82916",
"hf	c #B82A17",
"if	c #B92917",
"jf	c #B82A16",
"kf	c #B93512",
"lf	c #C23F0E",
"mf	c #C64110",
"nf	c #C84211",
"of	c #BF3515",
"pf	c #BA2517",
"qf	c #A22316",
"rf	c #982014",
"sf	c #B82518",
"tf	c #CE2E20",
"uf	c #EF4A2E",
"vf	c #F14D2F",
"wf	c #F04E2F",
"xf	c #AC5C26",
"yf	c #7F7029",
"zf	c #7F7129",
"Af	c #7C6E27",
"Bf	c #726525",
"Cf	c #695E24",
"Df	c #5B5224",
"Ef	c #504721",
"Ff	c #8E5526",
"Gf	c #F77425",
"Hf	c #765843",
"If	c #8F6C57",
"Jf	c #9D7C66",
"Kf	c #B2947E",
"Lf	c #D9BBAC",
"Mf	c #EACDBF",
"Nf	c #ECCEC0",
"Of	c #ECCBB4",
"Pf	c #ECCAB0",
"Qf	c #D9A372",
"Rf	c #DAAB85",
"Sf	c #E9C5B1",
"Tf	c #ECD3C4",
"Uf	c #ECD1C0",
"Vf	c #EDD0BD",
"Wf	c #EECFB9",
"Xf	c #EDCCB1",
"Yf	c #EDCDBA",
"Zf	c #ECCDBA",
"`f	c #ECCDBB",
" g	c #EDCFBA",
".g	c #E5BFA0",
"+g	c #E2BC9D",
"@g	c #E4C0A4",
"#g	c #E7C5AA",
"$g	c #E9CAB3",
"%g	c #E9C9B0",
"&g	c #E7C0A1",
"*g	c #E9C19F",
"=g	c #E9C29F",
"-g	c #E6BE9B",
";g	c #CE9967",
">g	c #AE7748",
",g	c #985F38",
"'g	c #8D5630",
")g	c #935E38",
"!g	c #B27647",
"~g	c #AD713F",
"{g	c #7E4A2B",
"]g	c #764428",
"^g	c #88532E",
"/g	c #7E4929",
"(g	c #774426",
"_g	c #704226",
":g	c #6E3F25",
"<g	c #8F5B35",
"[g	c #A66C3C",
"}g	c #A36132",
"|g	c #A06332",
"1g	c #A96C39",
"2g	c #A16030",
"3g	c #B97940",
"4g	c #AE6E37",
"5g	c #BA7B41",
"6g	c #C5884C",
"7g	c #B5783D",
"8g	c #C5874C",
"9g	c #D3995E",
"0g	c #CD9359",
"ag	c #CF955C",
"bg	c #CB915E",
"cg	c #D07450",
"dg	c #D9392E",
"eg	c #D83328",
"fg	c #B93024",
"gg	c #B26522",
"hg	c #B17208",
"ig	c #AF6F06",
"jg	c #B06608",
"kg	c #B63C10",
"lg	c #B73911",
"mg	c #B93A10",
"ng	c #C13E11",
"og	c #BE3214",
"pg	c #BE2719",
"qg	c #BC2718",
"rg	c #BE3812",
"sg	c #C7420F",
"tg	c #C84212",
"ug	c #C13416",
"vg	c #BA2617",
"wg	c #BB2618",
"xg	c #9F2114",
"yg	c #901B11",
"zg	c #B02016",
"Ag	c #CD2D1F",
"Bg	c #EF482D",
"Cg	c #F14C2F",
"Dg	c #F04C2F",
"Eg	c #AF572C",
"Fg	c #665D28",
"Gg	c #564E24",
"Hg	c #4F4622",
"Ig	c #433E1F",
"Jg	c #3E3A20",
"Kg	c #423D21",
"Lg	c #413923",
"Mg	c #8B4F28",
"Ng	c #F77423",
"Og	c #FA7523",
"Pg	c #977059",
"Qg	c #A0806F",
"Rg	c #C3A797",
"Sg	c #E0C3B3",
"Tg	c #EBCDC1",
"Ug	c #ECCFC2",
"Vg	c #ECCFC1",
"Wg	c #EDCBB2",
"Xg	c #DAA576",
"Yg	c #D9AE8B",
"Zg	c #E7CAB7",
"`g	c #EED3C4",
" h	c #EED3C5",
".h	c #ECD2C1",
"+h	c #ECD3C3",
"@h	c #ECD2C2",
"#h	c #EECCB3",
"$h	c #EECBB1",
"%h	c #EACAB0",
"&h	c #E8C7AD",
"*h	c #E6C3A6",
"=h	c #E7C4AB",
"-h	c #E9CAB1",
";h	c #E8C9B0",
">h	c #E8C4A8",
",h	c #E7BFA0",
"'h	c #E9C19D",
")h	c #EAC29D",
"!h	c #EAC3A2",
"~h	c #E7BFA1",
"{h	c #E4B791",
"]h	c #DAA574",
"^h	c #C78F5C",
"/h	c #AC7144",
"(h	c #AD764A",
"_h	c #B87C49",
":h	c #C3874D",
"<h	c #A26A3D",
"[h	c #764327",
"}h	c #6F3D24",
"|h	c #6D3C22",
"1h	c #734324",
"2h	c #6C3D23",
"3h	c #683C23",
"4h	c #693C22",
"5h	c #704126",
"6h	c #A87043",
"7h	c #C1884F",
"8h	c #BA7C44",
"9h	c #B67840",
"0h	c #B77C42",
"ah	c #A76330",
"bh	c #B6753C",
"ch	c #B6753D",
"dh	c #B7763C",
"eh	c #C78A4D",
"fh	c #BB7E43",
"gh	c #C98E53",
"hh	c #D69D63",
"ih	c #CE945A",
"jh	c #D59C64",
"kh	c #C68B56",
"lh	c #CE7F54",
"mh	c #DC493A",
"nh	c #E03B29",
"oh	c #D9402E",
"ph	c #D7B358",
"qh	c #BE8B27",
"rh	c #B06708",
"sh	c #C33F0D",
"th	c #C54012",
"uh	c #C33017",
"vh	c #C1281A",
"wh	c #C5291B",
"xh	c #BF2719",
"yh	c #BD3513",
"zh	c #C5400F",
"Ah	c #C13F18",
"Bh	c #9D2115",
"Ch	c #8F1B11",
"Dh	c #AE2016",
"Eh	c #CE2D20",
"Fh	c #EE482D",
"Gh	c #A84628",
"Hh	c #3C361C",
"Ih	c #38351D",
"Jh	c #383522",
"Kh	c #393623",
"Lh	c #3A3622",
"Mh	c #3A371F",
"Nh	c #413C23",
"Oh	c #8E5227",
"Ph	c #F77421",
"Qh	c #B99E8F",
"Rh	c #CFB2A5",
"Sh	c #E5C6B4",
"Th	c #ECCEBF",
"Uh	c #EDD0BF",
"Vh	c #EDCDB6",
"Wh	c #DAAD86",
"Xh	c #EFD4C5",
"Yh	c #EED4C6",
"Zh	c #EDD2C2",
"`h	c #EED0BC",
" i	c #EECBAE",
".i	c #EFCBAE",
"+i	c #EECBB0",
"@i	c #ECCEB7",
"#i	c #EDD0C1",
"$i	c #EBCBB7",
"%i	c #E8C8AE",
"&i	c #E6C1A4",
"*i	c #E8C6AB",
"=i	c #E8C29F",
"-i	c #EAC4A2",
";i	c #EAC4A3",
">i	c #E8C1A1",
",i	c #E4B995",
"'i	c #D49D64",
")i	c #BC8450",
"!i	c #AD7043",
"~i	c #A2683D",
"{i	c #8F5831",
"]i	c #885430",
"^i	c #996740",
"/i	c #AF774B",
"(i	c #B47D4F",
"_i	c #794729",
":i	c #6D3F25",
"<i	c #683C22",
"[i	c #693D24",
"}i	c #6A3F24",
"|i	c #804B2B",
"1i	c #B67D4B",
"2i	c #D49A64",
"3i	c #C4884F",
"4i	c #C08246",
"5i	c #C4874D",
"6i	c #AD6A35",
"7i	c #B16E36",
"8i	c #BC7D41",
"9i	c #B7773C",
"0i	c #CB8C4C",
"ai	c #C38547",
"bi	c #CF9458",
"ci	c #D69C60",
"di	c #D1965B",
"ei	c #D9A167",
"fi	c #C58A54",
"gi	c #CB8C5B",
"hi	c #D36645",
"ii	c #EB5836",
"ji	c #DE6243",
"ki	c #E5BF5F",
"li	c #C6912D",
"mi	c #AF6D07",
"ni	c #B5640A",
"oi	c #C1420E",
"pi	c #BF3F11",
"qi	c #C23F12",
"ri	c #CB4113",
"si	c #C93219",
"ti	c #C02819",
"ui	c #BC3214",
"vi	c #BE3B12",
"wi	c #C23D18",
"xi	c #BF3C10",
"yi	c #BD3417",
"zi	c #B22517",
"Ai	c #B02417",
"Bi	c #AD2416",
"Ci	c #AA2416",
"Di	c #971F13",
"Ei	c #AD2015",
"Fi	c #CF2D1F",
"Gi	c #EE472C",
"Hi	c #A64126",
"Ii	c #3C371F",
"Ji	c #39371E",
"Ki	c #45361E",
"Li	c #8C3521",
"Mi	c #953723",
"Ni	c #983F27",
"Oi	c #98422A",
"Pi	c #BC6139",
"Qi	c #ED6622",
"Ri	c #EE6621",
"Si	c #F26426",
"Ti	c #D7B8A9",
"Ui	c #E8C5B2",
"Vi	c #ECCEBC",
"Wi	c #ECCDBD",
"Xi	c #ECCDBC",
"Yi	c #ECD0C1",
"Zi	c #EDCDBB",
"`i	c #EDCFBD",
" j	c #E6C4AB",
".j	c #D9AA82",
"+j	c #E8C8B1",
"@j	c #ECD3C2",
"#j	c #ECD0BA",
"$j	c #F0CAAD",
"%j	c #F0C8A8",
"&j	c #EECAAD",
"*j	c #EECCB4",
"=j	c #ECCBB3",
"-j	c #EDCDB5",
";j	c #EBCFBF",
">j	c #E8C4AB",
",j	c #E8C3A3",
"'j	c #E5C3A4",
")j	c #E5C1A1",
"!j	c #E9C3A3",
"~j	c #E7C09F",
"{j	c #E7BD9A",
"]j	c #E4B68F",
"^j	c #CA925E",
"/j	c #B77D4C",
"(j	c #AD7045",
"_j	c #996038",
":j	c #784E2E",
"<j	c #8A5936",
"[j	c #905E39",
"}j	c #744428",
"|j	c #6C4126",
"1j	c #6A4126",
"2j	c #6C4025",
"3j	c #966038",
"4j	c #C48B56",
"5j	c #D79F67",
"6j	c #CC925A",
"7j	c #BE8247",
"8j	c #C68A4F",
"9j	c #B16C38",
"0j	c #B16F36",
"aj	c #C28246",
"bj	c #BA7A3E",
"cj	c #CD8E4D",
"dj	c #C98B4C",
"ej	c #D3975B",
"fj	c #D5995C",
"gj	c #D5995D",
"hj	c #D79E63",
"ij	c #C38750",
"jj	c #C68B58",
"kj	c #E07641",
"lj	c #F3681F",
"mj	c #EF6424",
"nj	c #EE6B28",
"oj	c #E0591C",
"pj	c #CD5114",
"qj	c #C75010",
"rj	c #C64C12",
"sj	c #CA3518",
"tj	c #CA3318",
"uj	c #CB3518",
"vj	c #CC3618",
"wj	c #C82D1A",
"xj	c #C0281A",
"yj	c #BD2719",
"zj	c #B92717",
"Aj	c #B92817",
"Bj	c #BA2718",
"Cj	c #BD2918",
"Dj	c #A82515",
"Ej	c #901C11",
"Fj	c #8E1B11",
"Gj	c #8D1B11",
"Hj	c #B22216",
"Ij	c #D32D1F",
"Jj	c #EF472C",
"Kj	c #A04124",
"Lj	c #39361E",
"Mj	c #383621",
"Nj	c #56381C",
"Oj	c #C22D21",
"Pj	c #D63027",
"Qj	c #D83127",
"Rj	c #DA3026",
"Sj	c #DF3325",
"Tj	c #D93326",
"Uj	c #DE3526",
"Vj	c #E7C5B1",
"Wj	c #EDD1C3",
"Xj	c #EDD1C4",
"Yj	c #ECD0C3",
"Zj	c #ECD1C3",
"`j	c #DBAC86",
" k	c #E6C5AD",
".k	c #EED5C6",
"+k	c #EACDBA",
"@k	c #ECD1BC",
"#k	c #EECAAB",
"$k	c #F0C9A9",
"%k	c #F1C9A9",
"&k	c #ECCFC0",
"*k	c #E8C4A9",
"=k	c #E9C5A9",
"-k	c #E8C4A6",
";k	c #E5C0A3",
">k	c #E6C0A3",
",k	c #E6BE9E",
"'k	c #E4BB97",
")k	c #E5BC9B",
"!k	c #E1B48E",
"~k	c #BF8A58",
"{k	c #B27A4D",
"]k	c #895530",
"^k	c #7B4C2C",
"/k	c #77492A",
"(k	c #73492A",
"_k	c #75482A",
":k	c #6E4527",
"<k	c #6B4126",
"[k	c #6B4025",
"}k	c #9A633A",
"|k	c #C8915A",
"1k	c #D8A068",
"2k	c #D1975F",
"3k	c #BF8248",
"4k	c #C08349",
"5k	c #B37039",
"6k	c #B27038",
"7k	c #C4864A",
"8k	c #BE7F43",
"9k	c #D19454",
"0k	c #CF904F",
"ak	c #D4985C",
"bk	c #CF955B",
"ck	c #D2985D",
"dk	c #D89F63",
"ek	c #C58B52",
"fk	c #BD804D",
"gk	c #DB703E",
"hk	c #F36916",
"ik	c #F26416",
"jk	c #F26217",
"kk	c #E24D16",
"lk	c #D34411",
"mk	c #D34510",
"nk	c #CE3C16",
"ok	c #C62A1B",
"pk	c #C4291B",
"qk	c #C4291A",
"rk	c #BF2819",
"sk	c #A82315",
"tk	c #821B11",
"uk	c #841B11",
"vk	c #911B11",
"wk	c #B92317",
"xk	c #CF2B21",
"yk	c #EF472D",
"zk	c #EF4C2F",
"Ak	c #9D4123",
"Bk	c #3D3417",
"Ck	c #51441D",
"Dk	c #715623",
"Ek	c #C43523",
"Fk	c #DB2F26",
"Gk	c #DB3026",
"Hk	c #D93026",
"Ik	c #D73026",
"Jk	c #DA3127",
"Kk	c #E7C6B0",
"Lk	c #EDD4C6",
"Mk	c #EBD0BD",
"Nk	c #ECD3C5",
"Ok	c #ECD0C2",
"Pk	c #ECCFBE",
"Qk	c #E6C3AA",
"Rk	c #EBD1BF",
"Sk	c #EFCAAC",
"Tk	c #F0C8A7",
"Uk	c #F1C8A8",
"Vk	c #F1C9A8",
"Wk	c #EECBAF",
"Xk	c #EAC6AD",
"Yk	c #E8BFA0",
"Zk	c #E9C3A4",
"`k	c #E7C1A4",
" l	c #E6C2A5",
".l	c #E4C0A2",
"+l	c #E5BE9D",
"@l	c #E3BA96",
"#l	c #E0B189",
"$l	c #CA976A",
"%l	c #744628",
"&l	c #7E502E",
"*l	c #875532",
"=l	c #A06B42",
"-l	c #CE9660",
";l	c #DBA46E",
">l	c #D39A63",
",l	c #C2864B",
"'l	c #C08348",
")l	c #B8763D",
"!l	c #B6743B",
"~l	c #CA8E51",
"{l	c #C18346",
"]l	c #D69C5F",
"^l	c #D39556",
"/l	c #D19659",
"(l	c #CD9257",
"_l	c #D2965A",
":l	c #D8A064",
"<l	c #CB9054",
"[l	c #C0854E",
"}l	c #CE8A52",
"|l	c #D77C22",
"1l	c #D26F1F",
"2l	c #D36A28",
"3l	c #BB4A1A",
"4l	c #B84515",
"5l	c #BA4213",
"6l	c #BA4017",
"7l	c #B3361A",
"8l	c #B43419",
"9l	c #B73219",
"0l	c #B8301B",
"al	c #BC321E",
"bl	c #BA2C1B",
"cl	c #BA2D1A",
"dl	c #B72B1B",
"el	c #B72C1B",
"fl	c #B72D1C",
"gl	c #B52C1A",
"hl	c #AF2B19",
"il	c #B52B19",
"jl	c #B42818",
"kl	c #A72517",
"ll	c #922114",
"ml	c #8B2014",
"nl	c #7B2114",
"ol	c #852214",
"pl	c #8F2214",
"ql	c #912313",
"rl	c #AF2919",
"sl	c #C52E1E",
"tl	c #DF4227",
"ul	c #E7492B",
"vl	c #EB4B2D",
"wl	c #E94D2C",
"xl	c #9C4A20",
"yl	c #6C5820",
"zl	c #7C6B23",
"Al	c #7D6524",
"Bl	c #B24524",
"Cl	c #C73A22",
"Dl	c #C63923",
"El	c #C33A23",
"Fl	c #C43522",
"Gl	c #C83322",
"Hl	c #CA3421",
"Il	c #CC3521",
"Jl	c #E5C4AD",
"Kl	c #ECD7C8",
"Ll	c #ECD5C6",
"Ml	c #EBD6C6",
"Nl	c #EBD7C8",
"Ol	c #ECD1BF",
"Pl	c #E2B693",
"Ql	c #D7A577",
"Rl	c #E2BB9E",
"Sl	c #EBCEBB",
"Tl	c #EACCBA",
"Ul	c #EACDBB",
"Vl	c #EECDB3",
"Wl	c #F0C8A6",
"Xl	c #F2C9A9",
"Yl	c #EDD0BB",
"Zl	c #EBC7AE",
"`l	c #E9C0A0",
" m	c #E7C0A2",
".m	c #E6C2A3",
"+m	c #E3BC99",
"@m	c #E4BC98",
"#m	c #E3BB96",
"$m	c #E6BB97",
"%m	c #C18E5F",
"&m	c #B48055",
"*m	c #B0794E",
"=m	c #A26C43",
"-m	c #824F2D",
";m	c #7C4B2B",
">m	c #7E4D2D",
",m	c #8C5935",
"'m	c #9A653E",
")m	c #A2693F",
"!m	c #A16941",
"~m	c #A36C43",
"{m	c #D09863",
"]m	c #DEA975",
"^m	c #C98C50",
"/m	c #BF8147",
"(m	c #B7783E",
"_m	c #BA7A3F",
":m	c #D2975A",
"<m	c #C5874A",
"[m	c #DAA166",
"}m	c #D89E61",
"|m	c #D09355",
"1m	c #CA8F55",
"2m	c #D4985B",
"3m	c #D9A065",
"4m	c #CF9459",
"5m	c #C6894F",
"6m	c #CA915B",
"7m	c #89712E",
"8m	c #5C5020",
"9m	c #4A3E1D",
"0m	c #493C1E",
"am	c #48381B",
"bm	c #46381B",
"cm	c #45371D",
"dm	c #433720",
"em	c #46381F",
"fm	c #49371D",
"gm	c #4A371B",
"hm	c #4C381D",
"im	c #4C361C",
"jm	c #4D361B",
"km	c #4B351B",
"lm	c #4D361C",
"mm	c #503820",
"nm	c #553921",
"om	c #54381F",
"pm	c #55391D",
"qm	c #56391F",
"rm	c #5B381E",
"sm	c #5D361C",
"tm	c #613A1B",
"um	c #674320",
"vm	c #65421E",
"wm	c #60441B",
"xm	c #694C1D",
"ym	c #76531E",
"zm	c #7F5D1F",
"Am	c #866122",
"Bm	c #89601F",
"Cm	c #8D5F1E",
"Dm	c #8E5F1F",
"Em	c #915623",
"Fm	c #94541F",
"Gm	c #895E1D",
"Hm	c #806A1F",
"Im	c #816D22",
"Jm	c #7B6921",
"Km	c #7B6622",
"Lm	c #7E6522",
"Mm	c #7E6422",
"Nm	c #7E6223",
"Om	c #7D631F",
"Pm	c #816122",
"Qm	c #836123",
"Rm	c #84611F",
"Sm	c #E7CAB5",
"Tm	c #EBD8C9",
"Um	c #EBD5C6",
"Vm	c #EBD2C2",
"Wm	c #EBD6C7",
"Xm	c #ECD5C7",
"Ym	c #EBCDBA",
"Zm	c #E3BA9A",
"`m	c #DBA470",
" n	c #DDAE86",
".n	c #E7C5AE",
"+n	c #E9CEBB",
"@n	c #EDD3C1",
"#n	c #EFD0B8",
"$n	c #EFCEB6",
"%n	c #F0CEB7",
"&n	c #EECFB8",
"*n	c #EFD1B8",
"=n	c #EFD1BB",
"-n	c #ECC7AB",
";n	c #F0CAAF",
">n	c #E9C4AA",
",n	c #E8BF9E",
"'n	c #E8C3A2",
")n	c #E3BC97",
"!n	c #E2BA96",
"~n	c #E4BC99",
"{n	c #E6BB98",
"]n	c #D8AA80",
"^n	c #BD8A5E",
"/n	c #BA8659",
"(n	c #B7804D",
"_n	c #B27B47",
":n	c #A86F42",
"<n	c #9E663D",
"[n	c #A36D44",
"}n	c #A97147",
"|n	c #AA6F44",
"1n	c #A46B3F",
"2n	c #A46C41",
"3n	c #AE764A",
"4n	c #D29B66",
"5n	c #E0AE7D",
"6n	c #D1975D",
"7n	c #CB8D4F",
"8n	c #C18348",
"9n	c #BF8044",
"0n	c #D59A5D",
"an	c #C98C4E",
"bn	c #E0AA71",
"cn	c #DBA266",
"dn	c #D19455",
"en	c #CB8F54",
"fn	c #D3975A",
"gn	c #DAA167",
"hn	c #D69D62",
"in	c #C58D59",
"jn	c #775B3B",
"kn	c #38351C",
"ln	c #38361E",
"mn	c #383721",
"nn	c #383720",
"on	c #38361D",
"pn	c #383620",
"qn	c #383723",
"rn	c #36341C",
"sn	c #37351E",
"tn	c #38361C",
"un	c #38371F",
"vn	c #3B381F",
"wn	c #3C391D",
"xn	c #3F3C1E",
"yn	c #464220",
"zn	c #4F4921",
"An	c #5E511E",
"Bn	c #665820",
"Cn	c #6F6120",
"Dn	c #7D6C1E",
"En	c #837020",
"Fn	c #877322",
"Gn	c #857121",
"Hn	c #836F20",
"In	c #836E21",
"Jn	c #847024",
"Kn	c #826E24",
"Ln	c #7C6920",
"Mn	c #7D691E",
"Nn	c #826C21",
"On	c #7F6C23",
"Pn	c #7D6C22",
"Qn	c #79691F",
"Rn	c #78681E",
"Sn	c #78681D",
"Tn	c #78681F",
"Un	c #786820",
"Vn	c #786721",
"Wn	c #786821",
"Xn	c #E8CCB8",
"Yn	c #EBD0BC",
"Zn	c #EBD9C9",
"`n	c #ECD6C8",
" o	c #E8BE9D",
".o	c #DEAA74",
"+o	c #E5C6AF",
"@o	c #EED3C3",
"#o	c #EFD3C1",
"$o	c #EED2BE",
"%o	c #EED2BC",
"&o	c #EDD1BC",
"*o	c #E7C3AC",
"=o	c #E7BC9A",
"-o	c #EDC6A6",
";o	c #EDCCB6",
">o	c #EBCBB6",
",o	c #E7BF9F",
"'o	c #E6BC9A",
")o	c #E7BF9C",
"!o	c #E6BF99",
"~o	c #E8BE9B",
"{o	c #E5BA95",
"]o	c #D4A175",
"^o	c #C8905D",
"/o	c #C38A55",
"(o	c #B8804F",
"_o	c #B17848",
":o	c #AC7549",
"<o	c #B47D4D",
"[o	c #B47E4F",
"}o	c #B37C4C",
"|o	c #B37D4D",
"1o	c #BD8452",
"2o	c #D79F6A",
"3o	c #E2AE7F",
"4o	c #D69B61",
"5o	c #C4874C",
"6o	c #BA7B40",
"7o	c #D69B5E",
"8o	c #E5B580",
"9o	c #DCA56A",
"0o	c #D39454",
"ao	c #D0955A",
"bo	c #D39960",
"co	c #D79D63",
"do	c #CD9154",
"eo	c #BC8553",
"fo	c #795F3F",
"go	c #36341D",
"ho	c #373221",
"io	c #38361F",
"jo	c #383722",
"ko	c #383623",
"lo	c #383521",
"mo	c #383622",
"no	c #393720",
"oo	c #433E20",
"po	c #4A441E",
"qo	c #51471E",
"ro	c #5D501E",
"so	c #6C5C1F",
"to	c #7B6823",
"uo	c #837022",
"vo	c #877325",
"wo	c #857320",
"xo	c #85731F",
"yo	c #84711F",
"zo	c #83701F",
"Ao	c #826E1F",
"Bo	c #826F21",
"Co	c #7E6B20",
"Do	c #7F6C22",
"Eo	c #7E6C23",
"Fo	c #7A6A21",
"Go	c #79691E",
"Ho	c #7E6C24",
"Io	c #7C6C24",
"Jo	c #7A6A22",
"Ko	c #7A6A20",
"Lo	c #7C6A21",
"Mo	c #7E6B21",
"No	c #7C6B21",
"Oo	c #7B6A22",
"Po	c #796922",
"Qo	c #7A6921",
"Ro	c #786720",
"So	c #E5CBB4",
"To	c #ECD3BD",
"Uo	c #ECD6B6",
"Vo	c #ECD9B4",
"Wo	c #EBD9BF",
"Xo	c #EBDBC4",
"Yo	c #EBDDC7",
"Zo	c #EBDCC8",
"`o	c #E9C4A9",
" p	c #DBA570",
".p	c #E4C6B0",
"+p	c #EDD1BA",
"@p	c #EDCFB8",
"#p	c #EDCCB2",
"$p	c #DEB697",
"%p	c #DEB69A",
"&p	c #EAC3A1",
"*p	c #ECCBB7",
"=p	c #E6BD9A",
"-p	c #E0B995",
";p	c #E1B893",
">p	c #E4BA94",
",p	c #E3B890",
"'p	c #DEB087",
")p	c #D8A87E",
"!p	c #CE9A6D",
"~p	c #C38D5E",
"{p	c #BB8553",
"]p	c #B7814E",
"^p	c #BD8852",
"/p	c #C48C57",
"(p	c #C58F5A",
"_p	c #C38C56",
":p	c #B98650",
"<p	c #C18851",
"[p	c #DCA674",
"}p	c #E2AD80",
"|p	c #D79E66",
"1p	c #D4985E",
"2p	c #CE9258",
"3p	c #CA8C4F",
"4p	c #DAA065",
"5p	c #D49A5E",
"6p	c #E5B581",
"7p	c #DCA86B",
"8p	c #CD8F4F",
"9p	c #D19456",
"0p	c #D69B63",
"ap	c #CC9156",
"bp	c #C0854F",
"cp	c #936F4B",
"dp	c #363120",
"ep	c #322F20",
"fp	c #363123",
"gp	c #383520",
"hp	c #39391F",
"ip	c #3A391D",
"jp	c #3C3D1D",
"kp	c #40401F",
"lp	c #484421",
"mp	c #49431F",
"np	c #4F451D",
"op	c #5E511F",
"pp	c #73621E",
"qp	c #857321",
"rp	c #897626",
"sp	c #867323",
"tp	c #84701F",
"up	c #7F6C1D",
"vp	c #7F6C1E",
"wp	c #826C1D",
"xp	c #826C1E",
"yp	c #816C1F",
"zp	c #7C6B20",
"Ap	c #7B6A1F",
"Bp	c #796921",
"Cp	c #786823",
"Dp	c #796923",
"Ep	c #7A6A23",
"Fp	c #7B6A23",
"Gp	c #7D6B22",
"Hp	c #7A6922",
"Ip	c #776720",
"Jp	c #E9DE99",
"Kp	c #E9E484",
"Lp	c #EAE66B",
"Mp	c #EBE667",
"Np	c #EAE773",
"Op	c #E9E679",
"Pp	c #E9E68C",
"Qp	c #E9DDAD",
"Rp	c #EBDBC8",
"Sp	c #ECD2C4",
"Tp	c #E4B78C",
"Up	c #D6A26F",
"Vp	c #CC9B71",
"Wp	c #D5A881",
"Xp	c #E0B591",
"Yp	c #DFB592",
"Zp	c #D5AC87",
"`p	c #E1B896",
" q	c #DCB38D",
".q	c #D9A36F",
"+q	c #E3B78E",
"@q	c #ECC9AD",
"#q	c #ECC9B1",
"$q	c #EBCAB2",
"%q	c #EDCDB7",
"&q	c #EBC8AE",
"*q	c #E8C3A4",
"=q	c #E6C09F",
"-q	c #E4BB98",
";q	c #DEB48E",
">q	c #DEB38C",
",q	c #E0B48C",
"'q	c #DCB28A",
")q	c #DBAF86",
"!q	c #DDAE84",
"~q	c #D5A376",
"{q	c #CE9866",
"]q	c #C7905D",
"^q	c #C48E59",
"/q	c #CA9461",
"(q	c #D09762",
"_q	c #D29964",
":q	c #CA935B",
"<q	c #C18A4F",
"[q	c #CB9259",
"}q	c #E0AF80",
"|q	c #DEAD82",
"1q	c #D69D67",
"2q	c #D59960",
"3q	c #D29557",
"4q	c #CD8F51",
"5q	c #D09253",
"6q	c #D79C60",
"7q	c #E4B17B",
"8q	c #DAA266",
"9q	c #D2975B",
"0q	c #D3995F",
"aq	c #C98D51",
"bq	c #BD8149",
"cq	c #906C48",
"dq	c #312E1E",
"eq	c #2B291E",
"fq	c #38371E",
"gq	c #3A391F",
"hq	c #3B3B1F",
"iq	c #39381F",
"jq	c #3D3C1D",
"kq	c #48431D",
"lq	c #564B1D",
"mq	c #67591B",
"nq	c #72651E",
"oq	c #77681D",
"pq	c #7B691F",
"qq	c #85731E",
"rq	c #867322",
"sq	c #857322",
"tq	c #837023",
"uq	c #847125",
"vq	c #836F24",
"wq	c #816D23",
"xq	c #7E6C22",
"yq	c #816D21",
"zq	c #826D21",
"Aq	c #826E21",
"Bq	c #7B6A1E",
"Cq	c #776722",
"Dq	c #786724",
"Eq	c #786723",
"Fq	c #786722",
"Gq	c #796924",
"Hq	c #7D6C25",
"Iq	c #7E6C25",
"Jq	c #7F6C24",
"Kq	c #806D24",
"Lq	c #7D6C24",
"Mq	c #7C6A22",
"Nq	c #7C6C22",
"Oq	c #E9E36A",
"Pq	c #EAE660",
"Qq	c #EBE75D",
"Rq	c #ECE65B",
"Sq	c #ECE65C",
"Tq	c #EAE867",
"Uq	c #E9E0A0",
"Vq	c #EBDDC8",
"Wq	c #EBDAC9",
"Xq	c #EDCFBE",
"Yq	c #E3B286",
"Zq	c #D9A77C",
"`q	c #D19967",
" r	c #D7A67A",
".r	c #CF9D70",
"+r	c #D6A378",
"@r	c #E8C2A7",
"#r	c #ECC5A7",
"$r	c #E6B786",
"%r	c #E6B98E",
"&r	c #ECD0B8",
"*r	c #EDCDB4",
"=r	c #ECCCB1",
"-r	c #ECCCB3",
";r	c #ECCEB6",
">r	c #E5BD9B",
",r	c #DFB38B",
"'r	c #DBAD84",
")r	c #DCAF85",
"!r	c #DEAE85",
"~r	c #DAA97D",
"{r	c #D7A474",
"]r	c #D19C6C",
"^r	c #D39E6C",
"/r	c #D9A572",
"(r	c #DCA873",
"_r	c #DFA970",
":r	c #D9A169",
"<r	c #CE945B",
"[r	c #D69E66",
"}r	c #DFB084",
"|r	c #E3B48A",
"1r	c #DAA26D",
"2r	c #D69C61",
"3r	c #D29556",
"4r	c #CE9153",
"5r	c #CF9153",
"6r	c #D69B60",
"7r	c #E3AC75",
"8r	c #DCA165",
"9r	c #CE8F4F",
"0r	c #D59A5C",
"ar	c #D2975D",
"br	c #D3985E",
"cr	c #CD9055",
"dr	c #BD824E",
"er	c #8C6946",
"fr	c #332E20",
"gr	c #2A271D",
"hr	c #29271E",
"ir	c #36331D",
"jr	c #3A381D",
"kr	c #3B3920",
"lr	c #46401C",
"mr	c #514B1D",
"nr	c #60551F",
"or	c #6F621F",
"pr	c #7B6A21",
"qr	c #7E6D21",
"rr	c #7D6C1F",
"sr	c #826F22",
"tr	c #847223",
"ur	c #847224",
"vr	c #847225",
"wr	c #837026",
"xr	c #806E25",
"yr	c #7E6D25",
"zr	c #7F6D25",
"Ar	c #826D25",
"Br	c #826D23",
"Cr	c #816C22",
"Dr	c #7D6B20",
"Er	c #7B6A20",
"Fr	c #796A22",
"Gr	c #796824",
"Hr	c #796925",
"Ir	c #796A25",
"Jr	c #7D6C27",
"Kr	c #7E6D26",
"Lr	c #7B6B23",
"Mr	c #E9E363",
"Nr	c #EAE863",
"Or	c #EAE964",
"Pr	c #EAE862",
"Qr	c #EBE861",
"Rr	c #EBE75F",
"Sr	c #EBE862",
"Tr	c #E9E29C",
"Ur	c #EBDEC9",
"Vr	c #EBC9B0",
"Wr	c #E3B489",
"Xr	c #DFB596",
"Yr	c #D6A780",
"Zr	c #DAA87D",
"`r	c #D9A471",
" s	c #E7C0A0",
".s	c #EFCDB1",
"+s	c #EBC19D",
"@s	c #E7BE9B",
"#s	c #ECCBAF",
"$s	c #ECCAAE",
"%s	c #EDCEB3",
"&s	c #EBC9AB",
"*s	c #EAC5A4",
"=s	c #EAC39E",
"-s	c #E4BB94",
";s	c #E0AF84",
">s	c #DFAF82",
",s	c #DEAD7C",
"'s	c #E0AE7C",
")s	c #E1AD78",
"!s	c #DEAB73",
"~s	c #DDAA71",
"{s	c #D79E67",
"]s	c #D9A269",
"^s	c #E0B182",
"/s	c #E8BC8E",
"(s	c #DEA670",
"_s	c #D89E63",
":s	c #D5995B",
"<s	c #D79C5F",
"[s	c #D5985A",
"}s	c #D59859",
"|s	c #D29558",
"1s	c #DFA66C",
"2s	c #D99D5D",
"3s	c #D09151",
"4s	c #DA9B5B",
"5s	c #D0965B",
"6s	c #D69B62",
"7s	c #D1965F",
"8s	c #C5905E",
"9s	c #866B50",
"0s	c #2E2A22",
"as	c #2B2922",
"bs	c #312D21",
"cs	c #3F391F",
"ds	c #453C20",
"es	c #524422",
"fs	c #63551F",
"gs	c #716122",
"hs	c #796820",
"is	c #796822",
"js	c #7C6B22",
"ks	c #7D6C23",
"ls	c #827026",
"ms	c #837024",
"ns	c #857427",
"os	c #847325",
"ps	c #847327",
"qs	c #837127",
"rs	c #847229",
"ss	c #826E26",
"ts	c #7F6C21",
"us	c #7F6B1F",
"vs	c #796920",
"ws	c #796821",
"xs	c #796A23",
"ys	c #7B6B25",
"zs	c #7B6C28",
"As	c #7E6D2A",
"Bs	c #7E6D28",
"Cs	c #7B6A26",
"Ds	c #796825",
"Es	c #776724",
"Fs	c #E9E461",
"Gs	c #E9E866",
"Hs	c #ECE75F",
"Is	c #E9E199",
"Js	c #EBDBC9",
"Ks	c #ECD1C2",
"Ls	c #EAC8AE",
"Ms	c #E2B68E",
"Ns	c #DCAD84",
"Os	c #E3BD9A",
"Ps	c #DAAB7E",
"Qs	c #EACBB0",
"Rs	c #EDCFB7",
"Ss	c #E3B586",
"Ts	c #EBC4A3",
"Us	c #ECCAAF",
"Vs	c #ECCDB6",
"Ws	c #EBCAAE",
"Xs	c #EBC8AA",
"Ys	c #ECC9AA",
"Zs	c #EBC8A9",
"`s	c #ECC6A5",
" t	c #EAC39B",
".t	c #E9C39B",
"+t	c #E8C19A",
"@t	c #E3BB93",
"#t	c #E4BA8E",
"$t	c #E4B98D",
"%t	c #E5BC90",
"&t	c #E4B98F",
"*t	c #DEB489",
"=t	c #E1B589",
"-t	c #E1B386",
";t	c #DFAE7C",
">t	c #DFAD78",
",t	c #D59F6A",
"'t	c #D8A66C",
")t	c #E2B687",
"!t	c #EAC196",
"~t	c #DFAA75",
"{t	c #D9A168",
"]t	c #D9A064",
"^t	c #D99F61",
"/t	c #DBA164",
"(t	c #D4985A",
"_t	c #DBA267",
":t	c #D79959",
"<t	c #D99956",
"[t	c #DFA162",
"}t	c #D39A61",
"|t	c #D89F69",
"1t	c #D29A63",
"2t	c #DFAF7C",
"3t	c #AD8C6A",
"4t	c #574929",
"5t	c #5F4F28",
"6t	c #6B5A25",
"7t	c #726125",
"8t	c #80662D",
"9t	c #7E6B26",
"0t	c #836F26",
"at	c #816D24",
"bt	c #7F6D23",
"ct	c #7E6D24",
"dt	c #7B6C24",
"et	c #7D6D25",
"ft	c #7F6E27",
"gt	c #816F29",
"ht	c #826F29",
"it	c #836E27",
"jt	c #836F28",
"kt	c #826E25",
"lt	c #826D22",
"mt	c #806C22",
"nt	c #7A691E",
"ot	c #7D6B26",
"pt	c #816D2A",
"qt	c #826F2A",
"rt	c #83702B",
"st	c #83712C",
"tt	c #83722C",
"ut	c #80712B",
"vt	c #7D6F2C",
"wt	c #E9E262",
"xt	c #E9E868",
"yt	c #ECE75D",
"zt	c #EAE491",
"At	c #ECDEC8",
"Bt	c #ECD5C5",
"Ct	c #ECD4C4",
"Dt	c #ECD8C8",
"Et	c #EDD5C7",
"Ft	c #EED4C5",
"Gt	c #D9B790",
"Ht	c #C19F6D",
"It	c #B4925A",
"Jt	c #AC8C4B",
"Kt	c #AB8A49",
"Lt	c #AF8B58",
"Mt	c #B29356",
"Nt	c #B8985E",
"Ot	c #BB9B6B",
"Pt	c #C3A377",
"Qt	c #C3A375",
"Rt	c #C0A06C",
"St	c #C2A072",
"Tt	c #C2A174",
"Ut	c #C3A275",
"Vt	c #C5A67B",
"Wt	c #C5A67D",
"Xt	c #C7A883",
"Yt	c #CBAB86",
"Zt	c #CCA882",
"`t	c #CFAA80",
" u	c #D0AB82",
".u	c #D5B185",
"+u	c #D7B288",
"@u	c #D8B288",
"#u	c #D6B185",
"$u	c #D0AD82",
"%u	c #D2AD80",
"&u	c #D5B082",
"*u	c #DEB78C",
"=u	c #DDB78B",
"-u	c #DBB58D",
";u	c #DAB48B",
">u	c #D6AF83",
",u	c #D9B48A",
"'u	c #D6B187",
")u	c #D7B185",
"!u	c #D1AC80",
"~u	c #D2AC7E",
"{u	c #D1A97B",
"]u	c #D1A776",
"^u	c #C89760",
"/u	c #CF9F63",
"(u	c #D3A874",
"_u	c #D6AC79",
":u	c #D0A46D",
"<u	c #CDA36C",
"[u	c #CCA168",
"}u	c #CA9B61",
"|u	c #CB9D64",
"1u	c #CB9B5F",
"2u	c #C89656",
"3u	c #CC9A5B",
"4u	c #C39150",
"5u	c #C39454",
"6u	c #C19453",
"7u	c #BA8D4E",
"8u	c #B18849",
"9u	c #B98F51",
"0u	c #B38C4E",
"au	c #AE8E53",
"bu	c #957C3E",
"cu	c #8A762F",
"du	c #85722D",
"eu	c #816C2A",
"fu	c #836F27",
"gu	c #847028",
"hu	c #847124",
"iu	c #877222",
"ju	c #857222",
"ku	c #816C20",
"lu	c #7D6B1F",
"mu	c #7D6D26",
"nu	c #7D6D24",
"ou	c #806D25",
"pu	c #816F26",
"qu	c #836F29",
"ru	c #826E28",
"su	c #837028",
"tu	c #837029",
"uu	c #7F6D27",
"vu	c #82712B",
"wu	c #82702B",
"xu	c #7A6926",
"yu	c #E9E565",
"zu	c #ECE75E",
"Au	c #E9E587",
"Bu	c #ECDFC7",
"Cu	c #ECD8C6",
"Du	c #EBD4BE",
"Eu	c #EED3C2",
"Fu	c #EACBB1",
"Gu	c #CBAA7B",
"Hu	c #A98C4C",
"Iu	c #A48846",
"Ju	c #A48844",
"Ku	c #A28745",
"Lu	c #9B8245",
"Mu	c #9C8443",
"Nu	c #9D8543",
"Ou	c #A08644",
"Pu	c #9F8641",
"Qu	c #A38845",
"Ru	c #A08645",
"Su	c #9F8544",
"Tu	c #9C8442",
"Uu	c #9E8543",
"Vu	c #9D8443",
"Wu	c #9D8444",
"Xu	c #A08546",
"Yu	c #A18446",
"Zu	c #9E8544",
"`u	c #9D8542",
" v	c #9F8645",
".v	c #A08646",
"+v	c #A18747",
"@v	c #A28747",
"#v	c #A18746",
"$v	c #A48848",
"%v	c #A7894B",
"&v	c #A8894A",
"*v	c #A6894A",
"=v	c #A58948",
"-v	c #A28846",
";v	c #9F8744",
">v	c #9D8540",
",v	c #9B833E",
"'v	c #9B823D",
")v	c #9A833D",
"!v	c #97803B",
"~v	c #977E38",
"{v	c #947C32",
"]v	c #967D31",
"^v	c #977D33",
"/v	c #987F37",
"(v	c #997F37",
"_v	c #967E33",
":v	c #947B2F",
"<v	c #937B2E",
"[v	c #957B2F",
"}v	c #957C30",
"|v	c #947B2E",
"1v	c #917A2D",
"2v	c #8E792B",
"3v	c #8F7A2D",
"4v	c #937A2C",
"5v	c #937A2D",
"6v	c #937B2F",
"7v	c #917B2F",
"8v	c #8D782B",
"9v	c #877429",
"0v	c #857129",
"av	c #857125",
"bv	c #836F21",
"cv	c #836E20",
"dv	c #836E1E",
"ev	c #81701E",
"fv	c #7F6D1E",
"gv	c #7E6C1D",
"hv	c #806E20",
"iv	c #816F20",
"jv	c #816F22",
"kv	c #817023",
"lv	c #827123",
"mv	c #83711F",
"nv	c #857425",
"ov	c #857325",
"pv	c #837124",
"qv	c #836F25",
"rv	c #816E23",
"sv	c #7B6C23",
"tv	c #7B6C25",
"uv	c #7E6D27",
"vv	c #E8E567",
"wv	c #E8E971",
"xv	c #E9E96D",
"yv	c #E9E67F",
"zv	c #EBDFC5",
"Av	c #ECE0CA",
"Bv	c #E4C9AA",
"Cv	c #BFA170",
"Dv	c #A38945",
"Ev	c #A38745",
"Fv	c #9E8442",
"Gv	c #9B8342",
"Hv	c #9C8343",
"Iv	c #9E8245",
"Jv	c #9D8442",
"Kv	c #9B843F",
"Lv	c #9B8440",
"Mv	c #9B8340",
"Nv	c #99803C",
"Ov	c #967F38",
"Pv	c #968038",
"Qv	c #977F3C",
"Rv	c #99823C",
"Sv	c #97813B",
"Tv	c #98813D",
"Uv	c #99823D",
"Vv	c #968139",
"Wv	c #968039",
"Xv	c #967F39",
"Yv	c #98813A",
"Zv	c #98823D",
"`v	c #9A823F",
" w	c #9C8440",
".w	c #9A843C",
"+w	c #9C853F",
"@w	c #9B843E",
"#w	c #9A843D",
"$w	c #957D37",
"%w	c #957D38",
"&w	c #967D39",
"*w	c #927C33",
"=w	c #917B30",
"-w	c #947C30",
";w	c #947C2F",
">w	c #968032",
",w	c #957F30",
"'w	c #947C2D",
")w	c #947D30",
"!w	c #937D30",
"~w	c #937D2F",
"{w	c #917A2C",
"]w	c #89782A",
"^w	c #846F28",
"/w	c #836D29",
"(w	c #826D26",
"_w	c #816E22",
":w	c #836F22",
"<w	c #85721E",
"[w	c #85731D",
"}w	c #84721E",
"|w	c #84711E",
"1w	c #847120",
"2w	c #847121",
"3w	c #837122",
"4w	c #827022",
"5w	c #857324",
"6w	c #806E22",
"7w	c #827025",
"8w	c #7F6D24",
"9w	c #7A6B23",
"0w	c #7A6B24",
"aw	c #7A6C24",
"bw	c #7A6C25",
"cw	c #7A6C23",
"dw	c #7A6C26",
"ew	c #7B6D27",
"fw	c #7B6D29",
"gw	c #7B6D28",
"hw	c #E8E46A",
"iw	c #E9E96B",
"jw	c #EAE963",
"kw	c #EBE75E",
"lw	c #E9E776",
"mw	c #EADDBB",
"nw	c #EBDCC3",
"ow	c #ECDCC7",
"pw	c #ECD7C5",
"qw	c #EBD9C3",
"rw	c #DFC7A5",
"sw	c #BCA16C",
"tw	c #A48947",
"uw	c #A18745",
"vw	c #957D39",
"ww	c #947B3D",
"xw	c #977E3F",
"yw	c #977E40",
"zw	c #99803D",
"Aw	c #977F3A",
"Bw	c #97803A",
"Cw	c #967F3A",
"Dw	c #937E36",
"Ew	c #917D35",
"Fw	c #907C35",
"Gw	c #917C35",
"Hw	c #927D36",
"Iw	c #947D36",
"Jw	c #937D36",
"Kw	c #927D35",
"Lw	c #907B35",
"Mw	c #8F7B35",
"Nw	c #8D7B33",
"Ow	c #907C32",
"Pw	c #937D34",
"Qw	c #947E35",
"Rw	c #957F36",
"Sw	c #957F37",
"Tw	c #958136",
"Uw	c #968137",
"Vw	c #978139",
"Ww	c #947D35",
"Xw	c #917C33",
"Yw	c #8F7C30",
"Zw	c #907A2D",
"`w	c #907B2E",
" x	c #907C2F",
".x	c #937E30",
"+x	c #937D31",
"@x	c #927C2F",
"#x	c #907A2C",
"$x	c #927C2E",
"%x	c #947E2F",
"&x	c #947F30",
"*x	c #947E31",
"=x	c #937C2F",
"-x	c #937E2D",
";x	c #917C2D",
">x	c #917C2E",
",x	c #8E7A2E",
"'x	c #8D792C",
")x	c #8C792A",
"!x	c #8B792C",
"~x	c #877729",
"{x	c #806F26",
"]x	c #7D6C21",
"^x	c #7F6D20",
"/x	c #7C6B1F",
"(x	c #7C6C21",
"_x	c #7B6B20",
":x	c #7D6E1E",
"<x	c #80711F",
"[x	c #807121",
"}x	c #7F7120",
"|x	c #7E6F21",
"1x	c #7C7020",
"2x	c #7A6F20",
"3x	c #7C6F22",
"4x	c #827124",
"5x	c #827225",
"6x	c #817224",
"7x	c #7F7125",
"8x	c #7E7226",
"9x	c #7F7225",
"0x	c #7E7126",
"ax	c #7D7026",
"bx	c #7E7125",
"cx	c #7E7026",
"dx	c #807025",
"ex	c #7E6E25",
"fx	c #7C6D24",
"gx	c #7B6D25",
"hx	c #7A6D25",
"ix	c #7A6D24",
"jx	c #7A6E28",
"kx	c #786D28",
"lx	c #766C27",
"mx	c #756B27",
"nx	c #766D28",
"ox	c #7C7129",
"px	c #7B6E2A",
"qx	c #796D2A",
"rx	c #796E29",
"sx	c #796D29",
"tx	c #E8E469",
"ux	c #E9E968",
"vx	c #EAE777",
"wx	c #E7DBA9",
"xx	c #E8DAB0",
"yx	c #EBDFC3",
"zx	c #EBDFC4",
"Ax	c #EAD9B8",
"Bx	c #DDC99B",
"Cx	c #B5A551",
"Dx	c #A5953C",
"Ex	c #9B853A",
"Fx	c #99833A",
"Gx	c #9A843F",
"Hx	c #9C8441",
"Ix	c #98823B",
"Jx	c #97813A",
"Kx	c #98813B",
"Lx	c #957F3B",
"Mx	c #947D38",
"Nx	c #947C38",
"Ox	c #927C35",
"Px	c #907B34",
"Qx	c #8E7A34",
"Rx	c #8B7934",
"Sx	c #8E7B35",
"Tx	c #8D7A34",
"Ux	c #8C7A34",
"Vx	c #8B7932",
"Wx	c #887831",
"Xx	c #877731",
"Yx	c #867731",
"Zx	c #85762F",
"`x	c #877730",
" y	c #8A7831",
".y	c #8B7A31",
"+y	c #8C7933",
"@y	c #887730",
"#y	c #88772F",
"$y	c #8C7931",
"%y	c #907C34",
"&y	c #8D7A31",
"*y	c #8A792D",
"=y	c #88782C",
"-y	c #85752B",
";y	c #84752C",
">y	c #84752D",
",y	c #86762C",
"'y	c #8B792F",
")y	c #88772C",
"!y	c #88772B",
"~y	c #8B782D",
"{y	c #8A782D",
"]y	c #8C792C",
"^y	c #8D7A2D",
"/y	c #8D7A2E",
"(y	c #8F7B2F",
"_y	c #8D792B",
":y	c #8C792D",
"<y	c #8F7C31",
"[y	c #8D7B2F",
"}y	c #88782A",
"|y	c #89782B",
"1y	c #837327",
"2y	c #7A6E20",
"3y	c #7B6F21",
"4y	c #7D6E22",
"5y	c #7C6E22",
"6y	c #7A6E21",
"7y	c #7B7022",
"8y	c #7A7021",
"9y	c #796F20",
"0y	c #7A6F22",
"ay	c #7A6D21",
"by	c #7A6D20",
"cy	c #786B1F",
"dy	c #786B20",
"ey	c #786C23",
"fy	c #786C25",
"gy	c #796E24",
"hy	c #7B6F25",
"iy	c #7B6F26",
"jy	c #7C7027",
"ky	c #7D7228",
"ly	c #7E722B",
"my	c #7D722B",
"ny	c #7C6F26",
"oy	c #766C21",
"py	c #766B22",
"qy	c #796B23",
"ry	c #7A6B22",
"sy	c #7B6D26",
"ty	c #7A6D28",
"uy	c #776D29",
"vy	c #776E29",
"wy	c #786F2A",
"xy	c #7A6F2A",
"yy	c #7B712B",
"zy	c #7B6F2B",
"Ay	c #7B712C",
"By	c #79702D",
"Cy	c #766C2A",
"Dy	c #716A27",
"Ey	c #706927",
"Fy	c #6E6827",
"Gy	c #E9D34B",
"Hy	c #EDD84E",
"Iy	c #EDD951",
"Jy	c #EDD94E",
"Ky	c #EDD848",
"Ly	c #EED847",
"My	c #EED846",
"Ny	c #EBE165",
"Oy	c #E9E389",
"Py	c #E8E191",
"Qy	c #E8E291",
"Ry	c #E8E292",
"Sy	c #E8E391",
"Ty	c #E9E883",
"Uy	c #E4E168",
"Vy	c #E1DE61",
"Wy	c #DFD661",
"Xy	c #9C8936",
"Yy	c #978237",
"Zy	c #99843B",
"`y	c #978239",
" z	c #958137",
".z	c #927E35",
"+z	c #937D32",
"@z	c #937B31",
"#z	c #917A2F",
"$z	c #8F792E",
"%z	c #8D7931",
"&z	c #85752F",
"*z	c #83732D",
"=z	c #83742F",
"-z	c #807331",
";z	c #7D7232",
">z	c #7D7231",
",z	c #7D7130",
"'z	c #80722F",
")z	c #84752E",
"!z	c #85752E",
"~z	c #83752F",
"{z	c #84742E",
"]z	c #83732E",
"^z	c #867630",
"/z	c #897832",
"(z	c #887832",
"_z	c #86762F",
":z	c #83752E",
"<z	c #86762D",
"[z	c #88782B",
"}z	c #87772D",
"|z	c #89782C",
"1z	c #89782D",
"2z	c #8B792E",
"3z	c #8C7A2E",
"4z	c #8A792B",
"5z	c #8A7A2C",
"6z	c #8E7B2E",
"7z	c #8A782C",
"8z	c #817225",
"9z	c #7B6E21",
"0z	c #7B6E20",
"az	c #7D6F22",
"bz	c #7C7123",
"cz	c #7B7023",
"dz	c #7B6F23",
"ez	c #7B6E22",
"fz	c #7B6F24",
"gz	c #7A6E25",
"hz	c #7B6E26",
"iz	c #7B7027",
"jz	c #7A6E27",
"kz	c #7B6F28",
"lz	c #7B7029",
"mz	c #7C702A",
"nz	c #7B6F2A",
"oz	c #7A6D27",
"pz	c #776B24",
"qz	c #796C24",
"rz	c #7C6D25",
"sz	c #7D7029",
"tz	c #7D712A",
"uz	c #7D732D",
"vz	c #7A702B",
"wz	c #7A6F2B",
"xz	c #796F2B",
"yz	c #776D2B",
"zz	c #776D2C",
"Az	c #716A29",
"Bz	c #6E6828",
"Cz	c #6A6726",
"Dz	c #EEC214",
"Ez	c #F1C514",
"Fz	c #F1C513",
"Gz	c #F2C413",
"Hz	c #F2C511",
"Iz	c #EED23B",
"Jz	c #E9E966",
"Kz	c #EAE967",
"Lz	c #E7E164",
"Mz	c #AB9839",
"Nz	c #978136",
"Oz	c #978338",
"Pz	c #978337",
"Qz	c #927D31",
"Rz	c #917C30",
"Sz	c #937E33",
"Tz	c #8C7A2D",
"Uz	c #907B2F",
"Vz	c #927B2C",
"Wz	c #8B772B",
"Xz	c #87762B",
"Yz	c #83712A",
"Zz	c #84732B",
"`z	c #83742C",
" A	c #81732C",
".A	c #80722C",
"+A	c #81732E",
"@A	c #83742D",
"#A	c #857631",
"$A	c #8A7833",
"%A	c #84742D",
"&A	c #82732E",
"*A	c #83742E",
"=A	c #82732D",
"-A	c #82742D",
";A	c #83752D",
">A	c #86762E",
",A	c #86772F",
"'A	c #89792E",
")A	c #89782E",
"!A	c #8B7A2F",
"~A	c #8B7A2E",
"{A	c #8D7A2F",
"]A	c #89792C",
"^A	c #8A792C",
"/A	c #86762B",
"(A	c #857629",
"_A	c #7F7227",
":A	c #776B22",
"<A	c #786B22",
"[A	c #776B21",
"}A	c #786C20",
"|A	c #776C22",
"1A	c #786D22",
"2A	c #786B23",
"3A	c #786A21",
"4A	c #766A21",
"5A	c #766A23",
"6A	c #756A22",
"7A	c #766B23",
"8A	c #756B24",
"9A	c #746B24",
"0A	c #746A24",
"aA	c #756C27",
"bA	c #766C28",
"cA	c #776B28",
"dA	c #766B26",
"eA	c #776C27",
"fA	c #796C27",
"gA	c #766B25",
"hA	c #776C24",
"iA	c #7A6D26",
"jA	c #7D702A",
"kA	c #7E712C",
"lA	c #7A702A",
"mA	c #7C722A",
"nA	c #796F29",
"oA	c #756C29",
"pA	c #706928",
"qA	c #6B6727",
"rA	c #EEBE12",
"sA	c #F2C412",
"tA	c #F2C411",
"uA	c #F2C311",
"vA	c #EED23A",
"wA	c #E9E466",
"xA	c #AD9C39",
"yA	c #988233",
"zA	c #978236",
"AA	c #957E33",
"BA	c #927B2F",
"CA	c #8D7830",
"DA	c #85742F",
"EA	c #7C6B2A",
"FA	c #79672A",
"GA	c #786728",
"HA	c #786729",
"IA	c #796927",
"JA	c #796A26",
"KA	c #806F28",
"LA	c #84732C",
"MA	c #85742D",
"NA	c #86772D",
"OA	c #87762C",
"PA	c #86752E",
"QA	c #7F712B",
"RA	c #796D2B",
"SA	c #786B2A",
"TA	c #726427",
"UA	c #716628",
"VA	c #73672C",
"WA	c #7C6F2D",
"XA	c #827430",
"YA	c #80712D",
"ZA	c #82732C",
"`A	c #7F6D2A",
" B	c #7C6F2A",
".B	c #7E712B",
"+B	c #80732C",
"@B	c #81742D",
"#B	c #81742B",
"$B	c #82742C",
"%B	c #85762C",
"&B	c #85762D",
"*B	c #83752C",
"=B	c #85762A",
"-B	c #847529",
";B	c #81732B",
">B	c #7A6F27",
",B	c #786C24",
"'B	c #776A22",
")B	c #766A22",
"!B	c #756B23",
"~B	c #766B24",
"{B	c #776E22",
"]B	c #786E20",
"^B	c #796B22",
"/B	c #776821",
"(B	c #756822",
"_B	c #736824",
":B	c #756724",
"<B	c #736825",
"[B	c #746A25",
"}B	c #726926",
"|B	c #756924",
"1B	c #736A26",
"2B	c #736B26",
"3B	c #746B28",
"4B	c #756A26",
"5B	c #756925",
"6B	c #766925",
"7B	c #776A25",
"8B	c #786E27",
"9B	c #7A6E29",
"0B	c #7A6E2B",
"aB	c #786C28",
"bB	c #766C29",
"cB	c #776D2A",
"dB	c #796F2A",
"eB	c #756B29",
"fB	c #6F6928",
"gB	c #EBB813",
"hB	c #F1C211",
"iB	c #F0C111",
"jB	c #EFD33A",
"kB	c #E8E666",
"lB	c #B2A439",
"mB	c #95832C",
"nB	c #927D32",
"oB	c #87722D",
"pB	c #6D5F25",
"qB	c #5F5223",
"rB	c #4B421C",
"sB	c #433B1A",
"tB	c #413B1D",
"uB	c #4E461F",
"vB	c #5F5522",
"wB	c #716328",
"xB	c #786A2B",
"yB	c #80722E",
"zB	c #897731",
"AB	c #8D7A32",
"BB	c #796B2D",
"CB	c #675B27",
"DB	c #5C5221",
"EB	c #51491E",
"FB	c #49431D",
"GB	c #45411D",
"HB	c #4A451D",
"IB	c #5F5220",
"JB	c #6D5D22",
"KB	c #7A6824",
"LB	c #837128",
"MB	c #7E6E29",
"NB	c #7C6E2A",
"OB	c #7E702A",
"PB	c #7D6E2A",
"QB	c #7E6F2A",
"RB	c #82722B",
"SB	c #81712C",
"TB	c #82722C",
"UB	c #826F2B",
"VB	c #7D712B",
"WB	c #80722B",
"XB	c #7F732C",
"YB	c #7E712A",
"ZB	c #80732B",
"`B	c #81742C",
" C	c #776D28",
".C	c #726925",
"+C	c #736B25",
"@C	c #756B26",
"#C	c #756B25",
"$C	c #756C21",
"%C	c #766B20",
"&C	c #746922",
"*C	c #756A21",
"=C	c #776A23",
"-C	c #776A24",
";C	c #766A24",
">C	c #766824",
",C	c #756824",
"'C	c #736925",
")C	c #786D27",
"!C	c #776C26",
"~C	c #796D28",
"{C	c #796D27",
"]C	c #796E28",
"^C	c #7A6F29",
"/C	c #7A6D2A",
"(C	c #786D29",
"_C	c #786C29",
":C	c #776C29",
"<C	c #766D29",
"[C	c #766B27",
"}C	c #786B29",
"|C	c #726927",
"1C	c #EDBC13",
"2C	c #EEBC11",
"3C	c #F0C011",
"4C	c #F1C312",
"5C	c #F2C513",
"6C	c #EAE864",
"7C	c #E5E472",
"8C	c #8B8137",
"9C	c #645721",
"0C	c #4F4620",
"aC	c #403A1B",
"bC	c #3E391B",
"cC	c #47401E",
"dC	c #554F23",
"eC	c #605723",
"fC	c #6D5F28",
"gC	c #796A2F",
"hC	c #887830",
"iC	c #917E31",
"jC	c #927E2F",
"kC	c #89762D",
"lC	c #816F2D",
"mC	c #726428",
"nC	c #615522",
"oC	c #4E461E",
"pC	c #3C371D",
"qC	c #3A361A",
"rC	c #3D381B",
"sC	c #3F3919",
"tC	c #4C4621",
"uC	c #625725",
"vC	c #746623",
"wC	c #7E6E22",
"xC	c #817125",
"yC	c #847228",
"zC	c #827029",
"AC	c #806E27",
"BC	c #7E6F29",
"CC	c #807029",
"DC	c #7C6D28",
"EC	c #7D6F2A",
"FC	c #7E6F2B",
"GC	c #80732D",
"HC	c #7D702B",
"IC	c #7E702B",
"JC	c #7C6F2B",
"KC	c #7B6F29",
"LC	c #7C7029",
"MC	c #7E722C",
"NC	c #7C712C",
"OC	c #7A702D",
"PC	c #7A702F",
"QC	c #7B702E",
"RC	c #796F2C",
"SC	c #766D2D",
"TC	c #746C2B",
"UC	c #6B6726",
"VC	c #6C6727",
"WC	c #6D6727",
"XC	c #736A25",
"YC	c #746A23",
"ZC	c #726823",
"`C	c #766922",
" D	c #786B24",
".D	c #776C25",
"+D	c #766C25",
"@D	c #776D26",
"#D	c #776B25",
"$D	c #786D26",
"%D	c #7D7129",
"&D	c #7C712A",
"*D	c #7B7028",
"=D	c #796C28",
"-D	c #7B6D2A",
";D	c #776B29",
">D	c #726A29",
",D	c #EBB816",
"'D	c #F2C713",
")D	c #EFD139",
"!D	c #E4E479",
"~D	c #6A632D",
"{D	c #4C421E",
"]D	c #534A21",
"^D	c #645926",
"/D	c #76682B",
"(D	c #83722B",
"_D	c #8C7C2D",
":D	c #84722D",
"<D	c #7E732F",
"[D	c #71632B",
"}D	c #5F5425",
"|D	c #49411D",
"1D	c #433B1B",
"2D	c #3B371A",
"3D	c #39361A",
"4D	c #3C3719",
"5D	c #473E1C",
"6D	c #524721",
"7D	c #5E5723",
"8D	c #6C6225",
"9D	c #756926",
"0D	c #827027",
"aD	c #847328",
"bD	c #806F27",
"cD	c #7D6E29",
"dD	c #7D6E27",
"eD	c #81712B",
"fD	c #85732E",
"gD	c #877732",
"hD	c #877832",
"iD	c #81722D",
"jD	c #81722C",
"kD	c #7F722D",
"lD	c #7E712D",
"mD	c #7C712F",
"nD	c #82742E",
"oD	c #84762F",
"pD	c #7F732B",
"qD	c #7F712C",
"rD	c #7C722D",
"sD	c #79702B",
"tD	c #756E27",
"uD	c #736B28",
"vD	c #716928",
"wD	c #716A28",
"xD	c #6D6827",
"yD	c #716927",
"zD	c #746B26",
"AD	c #766A25",
"BD	c #746B25",
"CD	c #7C712B",
"DD	c #7C7028",
"ED	c #7C702B",
"FD	c #786C2A",
"GD	c #766A27",
"HD	c #776A28",
"ID	c #786D2A",
"JD	c #736B2A",
"KD	c #ECBA15",
"LD	c #EFBE11",
"MD	c #EFCD32",
"ND	c #E6E56E",
"OD	c #9B8F33",
"PD	c #897B2B",
"QD	c #8D7B2E",
"RD	c #88762C",
"SD	c #806E29",
"TD	c #786929",
"UD	c #706127",
"VD	c #5B4F22",
"WD	c #463F1C",
"XD	c #3F3A1B",
"YD	c #3B381C",
"ZD	c #39361B",
"`D	c #38361B",
" E	c #38341A",
".E	c #3A3519",
"+E	c #4F461E",
"@E	c #5F561F",
"#E	c #726924",
"$E	c #7C6F28",
"%E	c #7C6F25",
"&E	c #88772A",
"*E	c #867529",
"=E	c #857428",
"-E	c #857227",
";E	c #827126",
">E	c #7F6F27",
",E	c #87762F",
"'E	c #85742C",
")E	c #8A782F",
"!E	c #82732B",
"~E	c #85762E",
"{E	c #85752C",
"]E	c #84752B",
"^E	c #84762C",
"/E	c #7F742B",
"(E	c #7E732C",
"_E	c #79712B",
":E	c #786E2A",
"<E	c #6F6826",
"[E	c #726A25",
"}E	c #756A23",
"|E	c #756923",
"1E	c #746925",
"2E	c #746923",
"3E	c #786B26",
"4E	c #786C26",
"5E	c #786C27",
"6E	c #796E27",
"7E	c #7B6E28",
"8E	c #7B6E29",
"9E	c #796C29",
"0E	c #766D2B",
"aE	c #756C2B",
"bE	c #706929",
"cE	c #EBBA17",
"dE	c #F0C112",
"eE	c #F2C613",
"fE	c #EECD38",
"gE	c #EAE865",
"hE	c #E7E567",
"iE	c #A19236",
"jE	c #6C5F20",
"kE	c #5D501D",
"lE	c #4F461B",
"mE	c #48401B",
"nE	c #443C1A",
"oE	c #473F1A",
"pE	c #453C1A",
"qE	c #41391A",
"rE	c #3E381A",
"sE	c #38351A",
"tE	c #3E391C",
"uE	c #5A5120",
"vE	c #5D5620",
"wE	c #695B24",
"xE	c #827324",
"yE	c #827427",
"zE	c #847429",
"AE	c #85742A",
"BE	c #867528",
"CE	c #887829",
"DE	c #867628",
"EE	c #857628",
"FE	c #86762A",
"GE	c #84742A",
"HE	c #84742B",
"IE	c #84742C",
"JE	c #87772C",
"KE	c #8B7A2D",
"LE	c #88782D",
"ME	c #89792B",
"NE	c #8E7C2E",
"OE	c #8E7B2D",
"PE	c #8F7D2F",
"QE	c #8D7C2E",
"RE	c #88792B",
"SE	c #84762E",
"TE	c #87772F",
"UE	c #88782F",
"VE	c #87792E",
"WE	c #86782F",
"XE	c #85772B",
"YE	c #85792B",
"ZE	c #83772A",
"`E	c #80752B",
" F	c #7F732A",
".F	c #7E742B",
"+F	c #7D732B",
"@F	c #7F762A",
"#F	c #7D722A",
"$F	c #7A7029",
"%F	c #796F27",
"&F	c #776D25",
"*F	c #776E25",
"=F	c #7A6F24",
"-F	c #7A6E24",
";F	c #766D27",
">F	c #776E2B",
",F	c #786E2B",
"'F	c #796E2A",
")F	c #796E2B",
"!F	c #776C2A",
"~F	c #766C2B",
"{F	c #736B29",
"]F	c #EAB91A",
"^F	c #F2C313",
"/F	c #F2C312",
"(F	c #F2C510",
"_F	c #EFCD37",
":F	c #EAE665",
"<F	c #EAE866",
"[F	c #EBE864",
"}F	c #E7E569",
"|F	c #9B8D38",
"1F	c #5E531A",
"2F	c #594F1C",
"3F	c #554D1D",
"4F	c #554E20",
"5F	c #564E1F",
"6F	c #584F1E",
"7F	c #544C1D",
"8F	c #51481C",
"9F	c #403A1C",
"0F	c #38351B",
"aF	c #3C381B",
"bF	c #3D371B",
"cF	c #463D1B",
"dF	c #494120",
"eF	c #453F1A",
"fF	c #564F1E",
"gF	c #726824",
"hF	c #847C28",
"iF	c #837827",
"jF	c #7F7324",
"kF	c #807326",
"lF	c #837527",
"mF	c #857829",
"nF	c #86792A",
"oF	c #857728",
"pF	c #867629",
"qF	c #877728",
"rF	c #887729",
"sF	c #907F30",
"tF	c #928030",
"uF	c #927E30",
"vF	c #8C7B2D",
"wF	c #8B7C2D",
"xF	c #8A7B2B",
"yF	c #887A2A",
"zF	c #8A7D2C",
"AF	c #897D2C",
"BF	c #857C2B",
"CF	c #81792B",
"DF	c #81792A",
"EF	c #80782A",
"FF	c #827829",
"GF	c #837A29",
"HF	c #857929",
"IF	c #847929",
"JF	c #817829",
"KF	c #807729",
"LF	c #807828",
"MF	c #83792B",
"NF	c #82792B",
"OF	c #81782B",
"PF	c #7C7529",
"QF	c #7A7427",
"RF	c #7B7529",
"SF	c #7D7629",
"TF	c #7D7727",
"UF	c #7D7728",
"VF	c #797326",
"WF	c #7B7528",
"XF	c #7C7426",
"YF	c #7E7728",
"ZF	c #7E7427",
"`F	c #7B7426",
" G	c #7E7426",
".G	c #7E7526",
"+G	c #7B7226",
"@G	c #796F24",
"#G	c #796F25",
"$G	c #786E24",
"%G	c #797025",
"&G	c #776F25",
"*G	c #776D24",
"=G	c #766E25",
"-G	c #746C28",
";G	c #766D25",
">G	c #797127",
",G	c #7B7428",
"'G	c #7A7527",
")G	c #7E7528",
"!G	c #7B7527",
"~G	c #7C7429",
"{G	c #7C7328",
"]G	c #7B7328",
"^G	c #7D7328",
"/G	c #7D732A",
"(G	c #7B7128",
"_G	c #797027",
":G	c #776F27",
"<G	c #776E26",
"[G	c #F1C212",
"}G	c #F1C310",
"|G	c #ECB724",
"1G	c #F1AC43",
"2G	c #F3B549",
"3G	c #F0B84A",
"4G	c #EFB84A",
"5G	c #F2B349",
"6G	c #F2A842",
"7G	c #F2A747",
"8G	c #F2B046",
"9G	c #EDB749",
"0G	c #DEC136",
"aG	c #CCAF28",
"bG	c #CCAD32",
"cG	c #CDB02C",
"dG	c #CFB02A",
"eG	c #D0B83A",
"fG	c #D5BB3B",
"gG	c #D4B730",
"hG	c #BBA83B",
"iG	c #544C28",
"jG	c #423D20",
"kG	c #413D1E",
"lG	c #47401D",
"mG	c #4E4622",
"nG	c #5B541F",
"oG	c #746822",
"pG	c #897F26",
"qG	c #948A28",
"rG	c #968D28",
"sG	c #958F27",
"tG	c #959027",
"uG	c #958D2B",
"vG	c #8F8729",
"wG	c #8C8628",
"xG	c #8D8529",
"yG	c #8B8327",
"zG	c #8F8527",
"AG	c #928927",
"BG	c #958C29",
"CG	c #948B29",
"DG	c #948B2A",
"EG	c #918929",
"FG	c #968C2D",
"GG	c #978C2B",
"HG	c #958C2C",
"IG	c #958B2C",
"JG	c #92892A",
"KG	c #92872A",
"LG	c #92852A",
"MG	c #8E842A",
"NG	c #8C852A",
"OG	c #8C8729",
"PG	c #8B882B",
"QG	c #8C8A2B",
"RG	c #8E8B2B",
"SG	c #8D892A",
"TG	c #8E8A29",
"UG	c #8F8A2A",
"VG	c #8C8829",
"WG	c #8C882A",
"XG	c #8B882A",
"YG	c #8C8929",
"ZG	c #8D8A2A",
"`G	c #908C2B",
" H	c #8F892B",
".H	c #8A872A",
"+H	c #89882C",
"@H	c #84832A",
"#H	c #838428",
"$H	c #828127",
"%H	c #828027",
"&H	c #828028",
"*H	c #817E27",
"=H	c #837F26",
"-H	c #878429",
";H	c #888427",
">H	c #898428",
",H	c #868229",
"'H	c #848129",
")H	c #858227",
"!H	c #8A8428",
"~H	c #8B8528",
"{H	c #898327",
"]H	c #898627",
"^H	c #888426",
"/H	c #898228",
"(H	c #847E27",
"_H	c #837E27",
":H	c #858027",
"<H	c #837D25",
"[H	c #7E7A26",
"}H	c #7E7B26",
"|H	c #7F7B25",
"1H	c #7C7926",
"2H	c #7B7927",
"3H	c #7C7A26",
"4H	c #7D7C26",
"5H	c #7C7B26",
"6H	c #7D7B26",
"7H	c #7F7F26",
"8H	c #838126",
"9H	c #828224",
"0H	c #838227",
"aH	c #858125",
"bH	c #878224",
"cH	c #868025",
"dH	c #837E24",
"eH	c #837D24",
"fH	c #837924",
"gH	c #837925",
"hH	c #827825",
"iH	c #807725",
"jH	c #807525",
"kH	c #7F7423",
"lH	c #EAB717",
"mH	c #F2C410",
"nH	c #F1C413",
"oH	c #F2A41B",
"pH	c #F97620",
"qH	c #FA7622",
"rH	c #F97621",
"sH	c #F97424",
"tH	c #FA7423",
"uH	c #F97323",
"vH	c #F5831D",
"wH	c #F2C616",
"xH	c #F2C915",
"yH	c #F1C817",
"zH	c #F1C816",
"AH	c #F1C614",
"BH	c #F1C615",
"CH	c #F2C716",
"DH	c #D0B32E",
"EH	c #5B512B",
"FH	c #51492C",
"GH	c #544B2E",
"HH	c #5B4D2B",
"IH	c #79722C",
"JH	c #938833",
"KH	c #9D9234",
"LH	c #A49935",
"MH	c #A49A34",
"NH	c #A49C33",
"OH	c #A6A034",
"PH	c #A39E33",
"QH	c #9F9A2F",
"RH	c #9D982D",
"SH	c #9D982B",
"TH	c #9F982D",
"UH	c #9F982C",
"VH	c #A09A2E",
"WH	c #A29B30",
"XH	c #A29B31",
"YH	c #A0992F",
"ZH	c #A0992D",
"`H	c #A1992D",
" I	c #A2992E",
".I	c #A29A2D",
"+I	c #A19A2F",
"@I	c #9F982E",
"#I	c #9C962C",
"$I	c #9B952B",
"%I	c #9A932A",
"&I	c #9A912B",
"*I	c #98922F",
"=I	c #99902B",
"-I	c #9B932E",
";I	c #9C942D",
">I	c #9D972D",
",I	c #9E9730",
"'I	c #9F9730",
")I	c #9E972F",
"!I	c #A09A31",
"~I	c #A09A32",
"{I	c #A19B32",
"]I	c #9F992F",
"^I	c #A09931",
"/I	c #9D9730",
"(I	c #9C9630",
"_I	c #9A952F",
":I	c #99942D",
"<I	c #97922A",
"[I	c #999229",
"}I	c #98922A",
"|I	c #99942C",
"1I	c #9A942C",
"2I	c #9D972E",
"3I	c #9A932C",
"4I	c #968F29",
"5I	c #948E28",
"6I	c #968E28",
"7I	c #988F29",
"8I	c #969127",
"9I	c #949125",
"0I	c #938F27",
"aI	c #8F8B25",
"bI	c #8D8B23",
"cI	c #8F8C25",
"dI	c #928E26",
"eI	c #918E26",
"fI	c #928F26",
"gI	c #928F22",
"hI	c #918F20",
"iI	c #908E20",
"jI	c #8E8D1F",
"kI	c #8E8C20",
"lI	c #8C8B1F",
"mI	c #8C8B20",
"nI	c #8D8C1F",
"oI	c #8E8D21",
"pI	c #8D8C22",
"qI	c #8D8C23",
"rI	c #908F25",
"sI	c #939124",
"tI	c #929024",
"uI	c #908E22",
"vI	c #8D8B1E",
"wI	c #8E8B1E",
"xI	c #928F1F",
"yI	c #92901F",
"zI	c #959020",
"AI	c #938D21",
"BI	c #938C21",
"CI	c #8F871C",
"DI	c #E8B61E",
"EI	c #EEBD11",
"FI	c #F1A419",
"GI	c #F97325",
"HI	c #F97423",
"II	c #F97225",
"JI	c #F4821F",
"KI	c #F2C717",
"LI	c #F3C915",
"MI	c #C9AD24",
"NI	c #584F27",
"OI	c #544C30",
"PI	c #524B2E",
"QI	c #544B30",
"RI	c #564C2D",
"SI	c #7B772E",
"TI	c #989335",
"UI	c #9D9735",
"VI	c #A19836",
"WI	c #A09936",
"XI	c #A09834",
"YI	c #9E9830",
"ZI	c #9D992F",
"`I	c #9D9A2D",
" J	c #9D9A2C",
".J	c #A29C2C",
"+J	c #A59D2E",
"@J	c #A59D31",
"#J	c #A49D32",
"$J	c #A39C33",
"%J	c #A39C31",
"&J	c #A39C32",
"*J	c #A49C32",
"=J	c #A59D32",
"-J	c #A69F34",
";J	c #A59E34",
">J	c #A19C31",
",J	c #A09B30",
"'J	c #A19B30",
")J	c #A09930",
"!J	c #9B942E",
"~J	c #9A922A",
"{J	c #9D982F",
"]J	c #A29A33",
"^J	c #A49D34",
"/J	c #A59F35",
"(J	c #A49D30",
"_J	c #A59E2F",
":J	c #A49D31",
"<J	c #A69E31",
"[J	c #A69F33",
"}J	c #A59E33",
"|J	c #A39C30",
"1J	c #A29B2D",
"2J	c #9F992B",
"3J	c #9E992B",
"4J	c #9F9A2C",
"5J	c #A39C29",
"6J	c #A09A28",
"7J	c #9B9627",
"8J	c #9B9626",
"9J	c #9A9424",
"0J	c #999424",
"aJ	c #9A9426",
"bJ	c #9C9628",
"cJ	c #999526",
"dJ	c #999627",
"eJ	c #9A9627",
"fJ	c #9A9727",
"gJ	c #989526",
"hJ	c #979324",
"iJ	c #979524",
"jJ	c #989525",
"kJ	c #9C9929",
"lJ	c #9C9A28",
"mJ	c #9A9726",
"nJ	c #989421",
"oJ	c #989520",
"pJ	c #99951F",
"qJ	c #999522",
"rJ	c #96931E",
"sJ	c #94931B",
"tJ	c #95931C",
"uJ	c #92921B",
"vJ	c #94931F",
"wJ	c #959421",
"xJ	c #92921D",
"yJ	c #908F1B",
"zJ	c #959323",
"AJ	c #979424",
"BJ	c #959321",
"CJ	c #92911B",
"DJ	c #939020",
"EJ	c #93911F",
"FJ	c #92911E",
"GJ	c #93921F",
"HJ	c #93921D",
"IJ	c #95941E",
"JJ	c #989521",
"KJ	c #999421",
"LJ	c #989420",
"MJ	c #97921E",
"NJ	c #948D1A",
"OJ	c #E8B723",
"PJ	c #F0BF11",
"QJ	c #EFBD11",
"RJ	c #F0A618",
"SJ	c #F97522",
"TJ	c #F97422",
"UJ	c #F97521",
"VJ	c #F87027",
"WJ	c #F47F20",
"XJ	c #F3C717",
"YJ	c #C8AB23",
"ZJ	c #574E2B",
"`J	c #534B2F",
" K	c #50492C",
".K	c #504928",
"+K	c #544C2B",
"@K	c #7A782E",
"#K	c #918F34",
"$K	c #9C9735",
"%K	c #A19A37",
"&K	c #A39C38",
"*K	c #A09935",
"=K	c #9E9834",
"-K	c #9D9734",
";K	c #9D9731",
">K	c #A19A33",
",K	c #A49E36",
"'K	c #A59F36",
")K	c #A49D35",
"!K	c #A49C34",
"~K	c #A6A035",
"{K	c #A7A034",
"]K	c #A59F34",
"^K	c #A49E34",
"/K	c #A39D32",
"(K	c #A39D33",
"_K	c #A19B31",
":K	c #A09A30",
"<K	c #A09932",
"[K	c #A29C33",
"}K	c #A39C34",
"|K	c #A7A036",
"1K	c #AAA335",
"2K	c #A9A336",
"3K	c #A8A338",
"4K	c #A9A43A",
"5K	c #A8A239",
"6K	c #A69F36",
"7K	c #A69E34",
"8K	c #AAA233",
"9K	c #ACA334",
"0K	c #A79E32",
"aK	c #A49C2D",
"bK	c #A29B29",
"cK	c #9E9828",
"dK	c #9C9728",
"eK	c #9B9728",
"fK	c #9D9823",
"gK	c #9E981F",
"hK	c #9B951B",
"iK	c #9E981D",
"jK	c #A1991D",
"kK	c #9F981E",
"lK	c #9E9720",
"mK	c #9D9621",
"nK	c #9C9622",
"oK	c #9B9624",
"pK	c #989424",
"qK	c #999623",
"rK	c #9F9B2A",
"sK	c #A49E2E",
"tK	c #9F9A2A",
"uK	c #99941F",
"vK	c #99951B",
"wK	c #9D9725",
"xK	c #9B9726",
"yK	c #979421",
"zK	c #95931A",
"AK	c #94931D",
"BK	c #959324",
"CK	c #9A9728",
"DK	c #979422",
"EK	c #9A9527",
"FK	c #9B9528",
"GK	c #999323",
"HK	c #95931B",
"IK	c #949123",
"JK	c #969026",
"KK	c #959322",
"LK	c #96941E",
"MK	c #999524",
"NK	c #9A9423",
"OK	c #999222",
"PK	c #979020",
"QK	c #978F21",
"RK	c #EAC12D",
"SK	c #EEBD12",
"TK	c #EFBF11",
"UK	c #EFBF12",
"VK	c #EFA516",
"WK	c #F87420",
"XK	c #F97324",
"YK	c #FA7521",
"ZK	c #F87028",
"`K	c #F47F21",
" L	c #F2C617",
".L	c #F2CA14",
"+L	c #F2C714",
"@L	c #D5B838",
"#L	c #57502C",
"$L	c #4F492B",
"%L	c #4B4726",
"&L	c #4B4625",
"*L	c #504A29",
"=L	c #75722E",
"-L	c #928F39",
";L	c #999436",
">L	c #9E9735",
",L	c #9E9835",
"'L	c #9B9634",
")L	c #9C9734",
"!L	c #A29B35",
"~L	c #9E9832",
"{L	c #A49C36",
"]L	c #A59E37",
"^L	c #A69F37",
"/L	c #A39B35",
"(L	c #A6A037",
"_L	c #A7A137",
":L	c #A8A137",
"<L	c #AAA336",
"[L	c #A7A035",
"}L	c #A49E33",
"|L	c #9F9A33",
"1L	c #A29B32",
"2L	c #A29C31",
"3L	c #A6A036",
"4L	c #A9A236",
"5L	c #ABA335",
"6L	c #A8A337",
"7L	c #AEA840",
"8L	c #ADA73E",
"9L	c #A9A339",
"0L	c #A09B34",
"aL	c #A09934",
"bL	c #9A9828",
"cL	c #9A9628",
"dL	c #959320",
"eL	c #9E971B",
"fL	c #9E971D",
"gL	c #A0981D",
"hL	c #9E971E",
"iL	c #A09822",
"jL	c #9F9820",
"kL	c #A1991E",
"lL	c #A29A24",
"mL	c #9C9726",
"nL	c #9A9625",
"oL	c #9B9522",
"pL	c #9B9523",
"qL	c #9F9927",
"rL	c #9F9A2B",
"sL	c #9C9624",
"tL	c #9E9721",
"uL	c #A19826",
"vL	c #999520",
"wL	c #9A951B",
"xL	c #98941B",
"yL	c #979522",
"zL	c #989327",
"AL	c #999527",
"BL	c #979322",
"CL	c #9B9425",
"DL	c #969322",
"EL	c #94931C",
"FL	c #959223",
"GL	c #918F24",
"HL	c #959423",
"IL	c #93921E",
"JL	c #97941C",
"KL	c #9C9620",
"LL	c #9C9521",
"ML	c #9E9425",
"NL	c #9A9225",
"OL	c #918C1F",
"PL	c #E8C93D",
"QL	c #EFBF13",
"RL	c #F0C312",
"SL	c #EFA315",
"TL	c #F97226",
"UL	c #F87127",
"VL	c #F38023",
"WL	c #F1C914",
"XL	c #F2C614",
"YL	c #D6B737",
"ZL	c #554E27",
"`L	c #4D4728",
" M	c #4C4726",
".M	c #4F4826",
"+M	c #575226",
"@M	c #6D672E",
"#M	c #777134",
"$M	c #797330",
"%M	c #77722D",
"&M	c #767031",
"*M	c #7A772D",
"=M	c #837F2E",
"-M	c #8A8432",
";M	c #979131",
">M	c #A8A139",
",M	c #A59D36",
"'M	c #A9A038",
")M	c #A19933",
"!M	c #A49E35",
"~M	c #A59D35",
"{M	c #A7A237",
"]M	c #9F9934",
"^M	c #A29A2F",
"/M	c #A59E35",
"(M	c #A29C32",
"_M	c #A49F34",
":M	c #A6A032",
"<M	c #A8A133",
"[M	c #A8A236",
"}M	c #A69E37",
"|M	c #A69F39",
"1M	c #ABA43C",
"2M	c #A6A136",
"3M	c #A5A036",
"4M	c #A19C35",
"5M	c #9F9A34",
"6M	c #9E9A2F",
"7M	c #9C9829",
"8M	c #979425",
"9M	c #98941C",
"0M	c #9A9522",
"aM	c #9A9524",
"bM	c #9D9622",
"cM	c #9C9522",
"dM	c #9D9720",
"eM	c #A19824",
"fM	c #A39B26",
"gM	c #A39D28",
"hM	c #A09927",
"iM	c #9A951E",
"jM	c #99951C",
"kM	c #9A9521",
"lM	c #9E9928",
"mM	c #9F9728",
"nM	c #9F9724",
"oM	c #A59A27",
"pM	c #A59C27",
"qM	c #A49A26",
"rM	c #A19921",
"sM	c #9F981D",
"tM	c #9D9826",
"uM	c #9C9629",
"vM	c #999426",
"wM	c #95911E",
"xM	c #9A9425",
"yM	c #959221",
"zM	c #95921D",
"AM	c #91911D",
"BM	c #8F9018",
"CM	c #939019",
"DM	c #96901A",
"EM	c #9F9722",
"FM	c #A29726",
"GM	c #9E9423",
"HM	c #938C1B",
"IM	c #E8CA40",
"JM	c #EFC014",
"KM	c #F0C313",
"LM	c #EEC213",
"MM	c #EFC317",
"NM	c #F97420",
"OM	c #F87225",
"PM	c #F87126",
"QM	c #F28023",
"RM	c #CFB131",
"SM	c #534C25",
"TM	c #504828",
"UM	c #4E4727",
"VM	c #4A4525",
"WM	c #4A4625",
"XM	c #484524",
"YM	c #4B4725",
"ZM	c #4B4521",
"`M	c #4A421D",
" N	c #504922",
".N	c #80792B",
"+N	c #A59C36",
"@N	c #A9A13A",
"#N	c #A9A13B",
"$N	c #A59C37",
"%N	c #A69D37",
"&N	c #A49C35",
"*N	c #A29B33",
"=N	c #9D9831",
"-N	c #A49D33",
";N	c #9E992C",
">N	c #A09B2B",
",N	c #A6A033",
"'N	c #A59B37",
")N	c #A8A237",
"!N	c #AAA337",
"~N	c #A8A136",
"{N	c #A29B2E",
"]N	c #A39D2A",
"^N	c #9A9621",
"/N	c #969423",
"(N	c #969324",
"_N	c #959121",
":N	c #9B9424",
"<N	c #9A9421",
"[N	c #9C9520",
"}N	c #9D961F",
"|N	c #A39924",
"1N	c #A39A22",
"2N	c #A49C25",
"3N	c #A39B21",
"4N	c #A39C24",
"5N	c #99951D",
"6N	c #A09827",
"7N	c #A49827",
"8N	c #A49928",
"9N	c #A59A29",
"0N	c #A69C28",
"aN	c #A69C26",
"bN	c #A49924",
"cN	c #A49A29",
"dN	c #A39A29",
"eN	c #9C9525",
"fN	c #94911C",
"gN	c #A39B24",
"hN	c #A89E26",
"iN	c #A29A22",
"jN	c #9C961D",
"kN	c #98931C",
"lN	c #98941D",
"mN	c #98941F",
"nN	c #94921F",
"oN	c #91901C",
"pN	c #948F1B",
"qN	c #948E1C",
"rN	c #96901B",
"sN	c #9C941D",
"tN	c #9B9320",
"uN	c #958E1E",
"vN	c #E9BD22",
"wN	c #F0C212",
"xN	c #F0C213",
"yN	c #F0C414",
"zN	c #EFC515",
"AN	c #F0C514",
"BN	c #F0A91A",
"CN	c #F76E29",
"DN	c #F18223",
"EN	c #F3C815",
"FN	c #CEB02E",
"GN	c #554E26",
"HN	c #4D4727",
"IN	c #474223",
"JN	c #484125",
"KN	c #494425",
"LN	c #4D4726",
"MN	c #4E4726",
"NN	c #4D4725",
"ON	c #4C4625",
"PN	c #4C4624",
"QN	c #48401D",
"RN	c #4A4521",
"SN	c #7E772D",
"TN	c #A6A038",
"UN	c #A9A03A",
"VN	c #A79D38",
"WN	c #A49B35",
"XN	c #A69E36",
"YN	c #A39D2F",
"ZN	c #A09B31",
"`N	c #A19A32",
" O	c #A29C34",
".O	c #9A952B",
"+O	c #9A9528",
"@O	c #A09B2E",
"#O	c #A39B31",
"$O	c #A29C2B",
"%O	c #A19B2A",
"&O	c #A29B2A",
"*O	c #A29A27",
"=O	c #A29B27",
"-O	c #A09A23",
";O	c #A29B21",
">O	c #9B971F",
",O	c #969321",
"'O	c #9A9526",
")O	c #9E9728",
"!O	c #9F9929",
"~O	c #9F9828",
"{O	c #9B9526",
"]O	c #9B9423",
"^O	c #9A951F",
"/O	c #9A9520",
"(O	c #9E9622",
"_O	c #9E9722",
":O	c #A39A25",
"<O	c #A69E25",
"[O	c #A8A027",
"}O	c #A89F25",
"|O	c #A9A126",
"1O	c #A69E24",
"2O	c #9B971E",
"3O	c #9C9720",
"4O	c #A39A23",
"5O	c #A39827",
"6O	c #9B9427",
"7O	c #A39926",
"8O	c #A39826",
"9O	c #A29825",
"0O	c #A29826",
"aO	c #A39B23",
"bO	c #A0981E",
"cO	c #99941A",
"dO	c #9A941B",
"eO	c #A09A21",
"fO	c #9B971D",
"gO	c #A09821",
"hO	c #A19927",
"iO	c #9C9827",
"jO	c #9B9628",
"kO	c #A09731",
"lO	c #A3932F",
"mO	c #A19329",
"nO	c #A29724",
"oO	c #9B9222",
"pO	c #968E21",
"qO	c #EAB81B",
"rO	c #EFC012",
"sO	c #F0C314",
"tO	c #F0C317",
"uO	c #F0C41A",
"vO	c #EFA91D",
"wO	c #F77324",
"xO	c #F76F28",
"yO	c #F86F28",
"zO	c #F76D29",
"AO	c #EC8728",
"BO	c #F3C81B",
"CO	c #F1C915",
"DO	c #F1C814",
"EO	c #D2B32B",
"FO	c #5F5923",
"GO	c #4D4521",
"HO	c #4C4520",
"IO	c #4F4723",
"JO	c #524928",
"KO	c #534927",
"LO	c #4E4825",
"MO	c #4F4726",
"NO	c #4C4623",
"OO	c #494321",
"PO	c #49421F",
"QO	c #49441F",
"RO	c #4B4522",
"SO	c #7B722E",
"TO	c #A59A36",
"UO	c #A39B34",
"VO	c #A29A34",
"WO	c #A39B33",
"XO	c #A59F33",
"YO	c #A5A034",
"ZO	c #A39E34",
"`O	c #9F9A31",
" P	c #A19C32",
".P	c #969226",
"+P	c #97912A",
"@P	c #9C9732",
"#P	c #A39B2F",
"$P	c #A39C2E",
"%P	c #A29A29",
"&P	c #9E9820",
"*P	c #A19A26",
"=P	c #A19A29",
"-P	c #9F9825",
";P	c #9B9520",
">P	c #9B9421",
",P	c #9E9725",
"'P	c #9E9525",
")P	c #9F9628",
"!P	c #A1992A",
"~P	c #A29A2A",
"{P	c #A09727",
"]P	c #A29927",
"^P	c #A09823",
"/P	c #A69E28",
"(P	c #A49C26",
"_P	c #A49B20",
":P	c #A1991C",
"<P	c #A0981C",
"[P	c #95921A",
"}P	c #A19B22",
"|P	c #A9A026",
"1P	c #A19A27",
"2P	c #9E9929",
"3P	c #A19929",
"4P	c #9D9626",
"5P	c #979225",
"6P	c #969123",
"7P	c #949119",
"8P	c #929118",
"9P	c #98951D",
"0P	c #A39D31",
"aP	c #A19A35",
"bP	c #A09832",
"cP	c #A59937",
"dP	c #A59736",
"eP	c #A4952E",
"fP	c #A19723",
"gP	c #9F9624",
"hP	c #9A9123",
"iP	c #C6A145",
"jP	c #CEAD27",
"kP	c #D4BA42",
"lP	c #D5B327",
"mP	c #D7BA3B",
"nP	c #D8C14A",
"oP	c #D5C04E",
"pP	c #DBA242",
"qP	c #F1592A",
"rP	c #F05424",
"sP	c #EE4E24",
"tP	c #F04F26",
"uP	c #F04E27",
"vP	c #F04F28",
"wP	c #F05226",
"xP	c #F15126",
"yP	c #E66829",
"zP	c #E89D1F",
"AP	c #EAA21C",
"BP	c #EBA61F",
"CP	c #EDA71D",
"DP	c #EDA71C",
"EP	c #ECA719",
"FP	c #E9A921",
"GP	c #E7AF2C",
"HP	c #DAA64E",
"IP	c #9C6132",
"JP	c #92542B",
"KP	c #884B23",
"LP	c #7E4920",
"MP	c #7A451E",
"NP	c #7F4D26",
"OP	c #81512C",
"PP	c #784A27",
"QP	c #613D1C",
"RP	c #4D4320",
"SP	c #473E1D",
"TP	c #49431E",
"UP	c #4D4621",
"VP	c #74682B",
"WP	c #A69C36",
"XP	c #A69C33",
"YP	c #9E9932",
"ZP	c #A29B34",
"`P	c #9F9831",
" Q	c #A7A138",
".Q	c #A39D34",
"+Q	c #A29D33",
"@Q	c #9E9A30",
"#Q	c #979428",
"$Q	c #9A9530",
"%Q	c #9E9634",
"&Q	c #A49B33",
"*Q	c #A59C32",
"=Q	c #9C9724",
"-Q	c #9F9A27",
";Q	c #9C9725",
">Q	c #9E9827",
",Q	c #A19923",
"'Q	c #A09723",
")Q	c #9D9625",
"!Q	c #9E9727",
"~Q	c #9D9629",
"{Q	c #A09729",
"]Q	c #9E9529",
"^Q	c #A19828",
"/Q	c #A39A27",
"(Q	c #A59C28",
"_Q	c #A49B27",
":Q	c #A69D28",
"<Q	c #A49B26",
"[Q	c #A79F29",
"}Q	c #9C9623",
"|Q	c #93911A",
"1Q	c #959218",
"2Q	c #94911A",
"3Q	c #9E971C",
"4Q	c #A59C21",
"5Q	c #A49C24",
"6Q	c #9B9625",
"7Q	c #9F9727",
"8Q	c #A19829",
"9Q	c #9B9525",
"0Q	c #969222",
"aQ	c #909019",
"bQ	c #8E8E18",
"cQ	c #8F8F19",
"dQ	c #91901D",
"eQ	c #9A952E",
"fQ	c #9F9734",
"gQ	c #9F9735",
"hQ	c #9C9535",
"iQ	c #9F9834",
"jQ	c #9F9830",
"kQ	c #A39936",
"lQ	c #A19432",
"mQ	c #9C9229",
"nQ	c #97901B",
"oQ	c #98911F",
"pQ	c #988F23",
"qQ	c #554C2A",
"rQ	c #605B25",
"sQ	c #8D8438",
"tQ	c #8C8430",
"uQ	c #89822F",
"vQ	c #888032",
"wQ	c #8E8335",
"xQ	c #B47432",
"yQ	c #F13E29",
"zQ	c #F03C28",
"AQ	c #ED3A27",
"BQ	c #F03E29",
"CQ	c #F13D28",
"DQ	c #EF3C27",
"EQ	c #F03C27",
"FQ	c #EB3B25",
"GQ	c #EA3B25",
"HQ	c #EA3B24",
"IQ	c #EB3C24",
"JQ	c #EC3E25",
"KQ	c #E83822",
"LQ	c #E73822",
"MQ	c #E53A23",
"NQ	c #E63C28",
"OQ	c #E63725",
"PQ	c #E43322",
"QQ	c #E03122",
"RQ	c #DE3122",
"SQ	c #DF331F",
"TQ	c #E13722",
"UQ	c #E53F27",
"VQ	c #E33B27",
"WQ	c #C03725",
"XQ	c #543316",
"YQ	c #453A1A",
"ZQ	c #48401F",
"`Q	c #534925",
" R	c #514823",
".R	c #6D632C",
"+R	c #A39C39",
"@R	c #A89E34",
"#R	c #A89F34",
"$R	c #A99F2F",
"%R	c #A79F30",
"&R	c #A69D38",
"*R	c #A29A35",
"=R	c #AAA339",
"-R	c #9F9D34",
";R	c #9C9831",
">R	c #9B9631",
",R	c #9A952C",
"'R	c #9E992F",
")R	c #A19A31",
"!R	c #A39A33",
"~R	c #A69E2E",
"{R	c #A79F31",
"]R	c #A49C2E",
"^R	c #A29B2C",
"/R	c #9A9525",
"(R	c #9D9727",
"_R	c #9B9527",
":R	c #9F9725",
"<R	c #9A9327",
"[R	c #9C9626",
"}R	c #9F982A",
"|R	c #9E982A",
"1R	c #9B9729",
"2R	c #A69D29",
"3R	c #A39A26",
"4R	c #A9A129",
"5R	c #9C9721",
"6R	c #93911C",
"7R	c #94911D",
"8R	c #93911B",
"9R	c #959219",
"0R	c #9D961B",
"aR	c #989523",
"bR	c #999525",
"cR	c #999624",
"dR	c #8B8A19",
"eR	c #8B8B18",
"fR	c #8A8C19",
"gR	c #8A8C1A",
"hR	c #8E8C24",
"iR	c #999134",
"jR	c #9B9535",
"kR	c #9C9639",
"lR	c #9D943D",
"mR	c #9A9044",
"nR	c #9B9433",
"oR	c #9B9534",
"pR	c #9D9538",
"qR	c #9C9338",
"rR	c #9D9633",
"sR	c #989225",
"tR	c #948F1C",
"uR	c #958E1C",
"vR	c #968D22",
"wR	c #45402A",
"xR	c #4E4A21",
"yR	c #847B33",
"zR	c #81752E",
"AR	c #817630",
"BR	c #7F7430",
"CR	c #817530",
"DR	c #AB732E",
"ER	c #E93B26",
"FR	c #ED3926",
"GR	c #EF3B27",
"HR	c #EB3625",
"IR	c #EB3624",
"JR	c #EA3524",
"KR	c #EB3525",
"LR	c #E93323",
"MR	c #E93423",
"NR	c #E83222",
"OR	c #E93223",
"PR	c #E63021",
"QR	c #E52F21",
"RR	c #E62F22",
"SR	c #E73122",
"TR	c #E52E21",
"UR	c #E73022",
"VR	c #E83123",
"WR	c #EC3826",
"XR	c #EE3B27",
"YR	c #E83524",
"ZR	c #CE3522",
"`R	c #5B3419",
" S	c #44391A",
".S	c #473D1D",
"+S	c #6B612A",
"@S	c #A19737",
"#S	c #A99F31",
"$S	c #AAA12E",
"%S	c #A79D29",
"&S	c #A19922",
"*S	c #A59D26",
"=S	c #A39C27",
"-S	c #A49A36",
";S	c #A7A136",
">S	c #9F9B2F",
",S	c #9B9731",
"'S	c #999430",
")S	c #9C9631",
"!S	c #9E982F",
"~S	c #A59C2E",
"{S	c #A69B2C",
"]S	c #A59D2F",
"^S	c #9A9427",
"/S	c #96912A",
"(S	c #999225",
"_S	c #999126",
":S	c #999028",
"<S	c #948E27",
"[S	c #9F9829",
"}S	c #A59C2D",
"|S	c #A79E30",
"1S	c #A69E32",
"2S	c #A7A135",
"3S	c #A59F31",
"4S	c #A09926",
"5S	c #9F9823",
"6S	c #A19924",
"7S	c #A29A28",
"8S	c #A69D2A",
"9S	c #A09925",
"0S	c #94911F",
"aS	c #969419",
"bS	c #9B961A",
"cS	c #9B951A",
"dS	c #98941A",
"eS	c #99941B",
"fS	c #95911C",
"gS	c #9A9624",
"hS	c #95921F",
"iS	c #92901A",
"jS	c #919019",
"kS	c #96931C",
"lS	c #94921C",
"mS	c #949126",
"nS	c #96912F",
"oS	c #8E8531",
"pS	c #8F8736",
"qS	c #97913E",
"rS	c #9D9341",
"sS	c #968F2F",
"tS	c #9E9734",
"uS	c #9E9736",
"vS	c #9B942F",
"wS	c #989223",
"xS	c #938F1A",
"yS	c #948E1A",
"zS	c #978F20",
"AS	c #403C23",
"BS	c #4B4822",
"CS	c #817931",
"DS	c #857C2E",
"ES	c #8A8031",
"FS	c #857731",
"GS	c #877A34",
"HS	c #AF7732",
"IS	c #E73B25",
"JS	c #E93424",
"KS	c #E83323",
"LS	c #E83122",
"MS	c #E63022",
"NS	c #E62F21",
"OS	c #E83223",
"PS	c #E52F20",
"QS	c #ED3826",
"RS	c #D43C27",
"SS	c #5A381B",
"TS	c #443A1A",
"US	c #483E1D",
"VS	c #4D4622",
"WS	c #524821",
"XS	c #6D602D",
"YS	c #9F9435",
"ZS	c #ABA231",
"`S	c #A99F30",
" T	c #A29A2C",
".T	c #A39A2A",
"+T	c #A49C2A",
"@T	c #A39B28",
"#T	c #A69C2A",
"$T	c #A69C32",
"%T	c #A39B30",
"&T	c #9F9933",
"*T	c #A09C30",
"=T	c #9D982E",
"-T	c #9C9730",
";T	c #A69E33",
">T	c #A59D30",
",T	c #A39A2C",
"'T	c #A49A2B",
")T	c #A2992C",
"!T	c #A39B2E",
"~T	c #A19A2B",
"{T	c #9B942C",
"]T	c #9B932A",
"^T	c #9C9227",
"/T	c #988E27",
"(T	c #928A27",
"_T	c #A49C31",
":T	c #9E982E",
"<T	c #A09A2B",
"[T	c #9D9624",
"}T	c #9E9623",
"|T	c #A09824",
"1T	c #9D9522",
"2T	c #A29829",
"3T	c #A29929",
"4T	c #A09728",
"5T	c #9A9323",
"6T	c #909018",
"7T	c #929018",
"8T	c #9A9523",
"9T	c #989320",
"0T	c #979321",
"aT	c #989425",
"bT	c #999128",
"cT	c #979223",
"dT	c #97931E",
"eT	c #979420",
"fT	c #969323",
"gT	c #8F8A25",
"hT	c #8F8827",
"iT	c #98912F",
"jT	c #9F9636",
"kT	c #9E9635",
"lT	c #9D9635",
"mT	c #9C9530",
"nT	c #99931F",
"oT	c #988F26",
"pT	c #978D26",
"qT	c #3F3B23",
"rT	c #4A4622",
"sT	c #837D34",
"tT	c #88822C",
"uT	c #8B8331",
"vT	c #877A32",
"wT	c #897C34",
"xT	c #AE732F",
"yT	c #E63824",
"zT	c #EC3926",
"AT	c #EA3725",
"BT	c #D23A25",
"CT	c #533618",
"DT	c #463D21",
"ET	c #494123",
"FT	c #514825",
"GT	c #564A26",
"HT	c #6C5F29",
"IT	c #9B9330",
"JT	c #B0A534",
"KT	c #A59D2D",
"LT	c #A69E2D",
"MT	c #A39C2D",
"NT	c #A19B2C",
"OT	c #A9A02E",
"PT	c #A39A2E",
"QT	c #9F992C",
"RT	c #A19A34",
"ST	c #A59E36",
"TT	c #9F9A30",
"UT	c #9E992E",
"VT	c #A0992C",
"WT	c #A49B2C",
"XT	c #9D962A",
"YT	c #A0982B",
"ZT	c #A29A2B",
"`T	c #9F9928",
" U	c #999423",
".U	c #989325",
"+U	c #9E972E",
"@U	c #9D962E",
"#U	c #9C942B",
"$U	c #9C942A",
"%U	c #9A9129",
"&U	c #999129",
"*U	c #958D28",
"=U	c #9F9729",
"-U	c #A09829",
";U	c #A29C2F",
">U	c #A19B2E",
",U	c #A49B22",
"'U	c #A19629",
")U	c #A3982A",
"!U	c #A2992B",
"~U	c #A09626",
"{U	c #9D9425",
"]U	c #968E1F",
"^U	c #8D8D17",
"/U	c #8F8F17",
"(U	c #939119",
"_U	c #99941C",
":U	c #979222",
"<U	c #9B942A",
"[U	c #9C952E",
"}U	c #9B9529",
"|U	c #9A962C",
"1U	c #9C9733",
"2U	c #9E9733",
"3U	c #9B962C",
"4U	c #96921C",
"5U	c #95931E",
"6U	c #94921D",
"7U	c #A19837",
"8U	c #A0982E",
"9U	c #A09725",
"0U	c #A09627",
"aU	c #978D27",
"bU	c #443F2A",
"cU	c #4E4826",
"dU	c #6F6A2C",
"eU	c #79752F",
"fU	c #857B32",
"gU	c #847E32",
"hU	c #7F7731",
"iU	c #A56A2D",
"jU	c #E63724",
"kU	c #E73023",
"lU	c #E93324",
"mU	c #E93624",
"nU	c #EC3825",
"oU	c #D43B25",
"pU	c #52361A",
"qU	c #494224",
"rU	c #4A4424",
"sU	c #4C4724",
"tU	c #615825",
"uU	c #938B2F",
"vU	c #999130",
"wU	c #948C2C",
"xU	c #95902C",
"yU	c #98932B",
"zU	c #97912C",
"AU	c #928C2C",
"BU	c #978F2E",
"CU	c #9E962B",
"DU	c #A3992C",
"EU	c #A59E31",
"FU	c #A69E30",
"GU	c #A69F31",
"HU	c #A19B2F",
"IU	c #A1982B",
"JU	c #9A9329",
"KU	c #A0982C",
"LU	c #A1992B",
"MU	c #A39B2C",
"NU	c #9D9829",
"OU	c #9D9429",
"PU	c #9D962B",
"QU	c #A0962C",
"RU	c #A2982C",
"SU	c #A1972B",
"TU	c #9B9229",
"UU	c #999029",
"VU	c #978E28",
"WU	c #A39B2B",
"XU	c #A39B20",
"YU	c #A29A1E",
"ZU	c #9D9526",
"`U	c #9E932D",
" V	c #9B9324",
".V	c #978F1F",
"+V	c #9A9221",
"@V	c #968F1C",
"#V	c #908F18",
"$V	c #8F9017",
"%V	c #8E8F17",
"&V	c #938F23",
"*V	c #98922D",
"=V	c #999329",
"-V	c #9E9630",
";V	c #9D962F",
">V	c #9A9429",
",V	c #99951E",
"'V	c #9C9637",
")V	c #A29936",
"!V	c #A29834",
"~V	c #9F972D",
"{V	c #9C9328",
"]V	c #9B9128",
"^V	c #413D27",
"/V	c #3E3B21",
"(V	c #3F3D21",
"_V	c #3D3B20",
":V	c #484321",
"<V	c #4C4824",
"[V	c #4A4520",
"}V	c #873D22",
"|V	c #E23224",
"1V	c #E52E20",
"2V	c #EA3625",
"3V	c #D23523",
"4V	c #55371B",
"5V	c #4F4724",
"6V	c #524925",
"7V	c #554A26",
"8V	c #574B26",
"9V	c #584C22",
"0V	c #635B27",
"aV	c #685D2A",
"bV	c #655E28",
"cV	c #655F27",
"dV	c #685F2A",
"eV	c #6A602A",
"fV	c #756A2C",
"gV	c #968C32",
"hV	c #A39A35",
"iV	c #A39A2F",
"jV	c #A49B2B",
"kV	c #A59B2A",
"lV	c #ADA428",
"mV	c #B2A92D",
"nV	c #AEA52C",
"oV	c #A49D2E",
"pV	c #A0982A",
"qV	c #9D9628",
"rV	c #A19B2D",
"sV	c #A19A2C",
"tV	c #A2992A",
"uV	c #A2982A",
"vV	c #A0962B",
"wV	c #A49931",
"xV	c #A4992A",
"yV	c #A4992B",
"zV	c #A0972A",
"AV	c #9C952B",
"BV	c #9C9428",
"CV	c #9C9528",
"DV	c #9D9929",
"EV	c #A59E2A",
"FV	c #A59D2B",
"GV	c #A49C28",
"HV	c #A69E27",
"IV	c #9E961D",
"JV	c #A09530",
"KV	c #9C972B",
"LV	c #9C982C",
"MV	c #9F972C",
"NV	c #9F9627",
"OV	c #9C9422",
"PV	c #A19726",
"QV	c #A0942E",
"RV	c #979022",
"SV	c #94901A",
"TV	c #8F8E20",
"UV	c #8D8C24",
"VV	c #8C8A23",
"WV	c #888921",
"XV	c #8E8E1B",
"YV	c #9B9829",
"ZV	c #9D9828",
"`V	c #9C9727",
" W	c #999521",
".W	c #A09924",
"+W	c #A19A25",
"@W	c #A39D2C",
"#W	c #A49B37",
"$W	c #A49A37",
"%W	c #A59936",
"&W	c #A39A30",
"*W	c #9B952D",
"=W	c #3B3924",
"-W	c #393721",
";W	c #3C3921",
">W	c #3B3921",
",W	c #3A3620",
"'W	c #7D3420",
")W	c #E13023",
"!W	c #E63122",
"~W	c #EE3927",
"{W	c #EF3A27",
"]W	c #EB3524",
"^W	c #EA3624",
"/W	c #EE3A27",
"(W	c #ED3A26",
"_W	c #D03824",
":W	c #56371E",
"<W	c #48411E",
"[W	c #554926",
"}W	c #5C4D29",
"|W	c #554A27",
"1W	c #554A28",
"2W	c #504826",
"3W	c #4F4825",
"4W	c #544A28",
"5W	c #62552A",
"6W	c #948C30",
"7W	c #A79F33",
"8W	c #A89F32",
"9W	c #A69D2D",
"0W	c #ADA330",
"aW	c #ABA12D",
"bW	c #AEA529",
"cW	c #B1A727",
"dW	c #B2A92C",
"eW	c #AFA62B",
"fW	c #A79F28",
"gW	c #A69F2A",
"hW	c #A59D2C",
"iW	c #A19D2F",
"jW	c #A19C30",
"kW	c #A59F32",
"lW	c #A79F2F",
"mW	c #A8A031",
"nW	c #A9A031",
"oW	c #A09629",
"pW	c #A49A35",
"qW	c #A49A31",
"rW	c #A69D31",
"sW	c #A39C2F",
"tW	c #A19A2E",
"uW	c #A29928",
"vW	c #A69F28",
"wW	c #A59D27",
"xW	c #A39B25",
"yW	c #A39927",
"zW	c #9E952D",
"AW	c #9D952C",
"BW	c #9F992D",
"CW	c #A59C2F",
"DW	c #A39A2D",
"EW	c #A39828",
"FW	c #A4962B",
"GW	c #9B8935",
"HW	c #9E9232",
"IW	c #9F942C",
"JW	c #989427",
"KW	c #98951F",
"LW	c #95931F",
"MW	c #91901B",
"NW	c #939123",
"OW	c #9C9729",
"PW	c #9C9627",
"QW	c #9F9821",
"RW	c #9F9922",
"SW	c #9B992C",
"TW	c #9C9D2E",
"UW	c #9D9C30",
"VW	c #9D9932",
"WW	c #9D9833",
"XW	c #96912D",
"YW	c #393821",
"ZW	c #3C3A23",
"`W	c #3A3721",
" X	c #3B3622",
".X	c #7E341F",
"+X	c #E43324",
"@X	c #E62E21",
"#X	c #EE3F29",
"$X	c #F1422A",
"%X	c #F1402A",
"&X	c #EC3725",
"*X	c #F13C28",
"=X	c #F13F29",
"-X	c #EF3F29",
";X	c #CA3221",
">X	c #5F3B1E",
",X	c #453B1A",
"'X	c #4A421E",
")X	c #574A28",
"!X	c #534926",
"~X	c #61502B",
"{X	c #6A552E",
"]X	c #67522D",
"^X	c #594D28",
"/X	c #5E5128",
"(X	c #645929",
"_X	c #989035",
":X	c #A7A239",
"<X	c #ACA437",
"[X	c #AFA637",
"}X	c #ADA430",
"|X	c #B1A731",
"1X	c #B0A72E",
"2X	c #B0A829",
"3X	c #AFA724",
"4X	c #AAA228",
"5X	c #ACA329",
"6X	c #ABA229",
"7X	c #AAA229",
"8X	c #ACA32D",
"9X	c #ABA330",
"0X	c #ACA32F",
"aX	c #AFA533",
"bX	c #B0A633",
"cX	c #B7A73B",
"dX	c #BDA940",
"eX	c #B7AA35",
"fX	c #A89E29",
"gX	c #A39930",
"hX	c #A49B34",
"iX	c #AAA134",
"jX	c #A29B2F",
"kX	c #A39B27",
"lX	c #A29B24",
"mX	c #A29923",
"nX	c #A59B28",
"oX	c #ACA232",
"pX	c #A89F2E",
"qX	c #AEA431",
"rX	c #B4A834",
"sX	c #B1A630",
"tX	c #B0A531",
"uX	c #AFA434",
"vX	c #ABA131",
"wX	c #AA9F2F",
"xX	c #A99E31",
"yX	c #AB9E33",
"zX	c #A69831",
"AX	c #A79A33",
"BX	c #A39730",
"CX	c #A29830",
"DX	c #ADA42A",
"EX	c #A59D25",
"FX	c #999220",
"GX	c #99921E",
"HX	c #A39D26",
"IX	c #99972E",
"JX	c #95952D",
"KX	c #9B9A2F",
"LX	c #95972B",
"MX	c #96972E",
"NX	c #989732",
"OX	c #989632",
"PX	c #999533",
"QX	c #999431",
"RX	c #35321D",
"SX	c #3C3B21",
"TX	c #7E4F2F",
"UX	c #DF3728",
"VX	c #E73021",
"WX	c #EC3625",
"XX	c #EA3424",
"YX	c #EB3825",
"ZX	c #ED3C27",
"`X	c #EB3725",
" Y	c #EF3B28",
".Y	c #F1452C",
"+Y	c #F0462C",
"@Y	c #C94931",
"#Y	c #684E32",
"$Y	c #443C1F",
"%Y	c #524623",
"&Y	c #564725",
"*Y	c #4F4522",
"=Y	c #594A27",
"-Y	c #67512B",
";Y	c #65532B",
">Y	c #5F5228",
",Y	c #63512B",
"'Y	c #66562B",
")Y	c #6B5A2C",
"!Y	c #958E34",
"~Y	c #A8A235",
"{Y	c #ADA435",
"]Y	c #A8A02E",
"^Y	c #ABA22C",
"/Y	c #ADA42B",
"(Y	c #AEA62B",
"_Y	c #ACA328",
":Y	c #A9A125",
"<Y	c #ADA529",
"[Y	c #A8A026",
"}Y	c #A79F25",
"|Y	c #A9A029",
"1Y	c #A49C27",
"2Y	c #ACA22E",
"3Y	c #AFA531",
"4Y	c #AAA02F",
"5Y	c #ABA12F",
"6Y	c #B0A52E",
"7Y	c #AFA528",
"8Y	c #A59D21",
"9Y	c #A69E22",
"0Y	c #9E962E",
"aY	c #A0962D",
"bY	c #979122",
"cY	c #999320",
"dY	c #9E9521",
"eY	c #9B951E",
"fY	c #969219",
"gY	c #95901D",
"hY	c #A79E2F",
"iY	c #B1A636",
"jY	c #B1A535",
"kY	c #B4A537",
"lY	c #B0A42E",
"mY	c #AFA52E",
"nY	c #B4A632",
"oY	c #AFA332",
"pY	c #ACA231",
"qY	c #A99D31",
"rY	c #A39331",
"sY	c #A38E33",
"tY	c #A38E32",
"uY	c #9E8D2C",
"vY	c #A3912F",
"wY	c #A19920",
"xY	c #9D961C",
"yY	c #9C961E",
"zY	c #97931B",
"AY	c #98911D",
"BY	c #998E1B",
"CY	c #99891A",
"DY	c #9D8E1C",
"EY	c #928F2F",
"FY	c #92932E",
"GY	c #919032",
"HY	c #8E8E35",
"IY	c #929139",
"JY	c #898A32",
"KY	c #8F8E38",
"LY	c #95923A",
"MY	c #898732",
"  . + @ # @ $ + @ % & & & * = - = ; . > . , > > > . . ' ) . = ! ~ { ] ^ / ( _ : ( < [ / ! } | | 1 | ! 2 2 [ 3 4 5 [ 5 6 6 7 - 8 8 8 9 = 8 8 = = 0 = = - < 2 / / 2 [ a [ b c c d / e - 7 b b 8 8 8 f g g h h f f 9 = 7 4 9 = = 8 i d i 8 b c a b j 8 k l m | 1 c ",
"n + # # o p q r r s p @ t u , . > > , > > > > > , ' > * v * > > . f w . , x @ y @ + . > . z . , + + , > . A A w f f f * f f * B 8 C * > g . . > > > . . + . w ) ; v = 3 f g f . f * * f g g % D . z D + A g g * ) w . > > > > . . A A . * 8 = b B * C 8 c E F 1 ",
"G . y q o q H r q x , > > ' , , + . > , > ' > > > > > ) * ' . . f . f . , + @ x u , . ) ) + . . . . + + + I A . D + > > > . f g f = * * f . f J . f f g A w * 8 8 * * A A z A . + ' K z A A g A . . > . . g f . . f g . > * f * * g f 8 C 8 k k c d 5 d b b b 5 ",
"_ f . @ L # q q # M @ > > , > x + + , + + , + $ , + @ . . * , + w > > > + . . > > > > . . > > , , + L N @ M % A A A A A A f C C ) * C f B C f f + . & . A O . . f . K A . + % z + > > . . . . f . > > D . g f * g * f f v f f f C f C B i b c b 5 P a d b k b Q ",
"/ 8 . + N R S q , K * . , > , + + y @ @ x R M @ . ' , , $ . + ' y u ' . + A $ + . . . + + + z % @ $ + y # @ D + A + % # y w * > * = > w C B f f A . . A . A . . . A > . @ N % + > > . A . A . . . . . . . g . . g . f f * * ) f 3 f 8 3 3 b k T a b a 5 a 5 k 5 ",
"k C . M y @ x y @ D . , y @ @ @ u @ t u % A + > > . > ' . . . ) . f A . . , @ + % + , . y + z z + . + + + , . + A @ M # # + $ ' * = w . . z A + + + A . + z D + . . > > . A z D , . z z D + z . L D A g g g g g g g g f f f B 8 B g f f C 4 4 4 8 b c 5 a k 8 5 ",
"= ) . @ + + , $ + y x + + t x + @ ' , ' + + ' . % ' . ' ' , % + K + + @ @ + % . z + U + + + , z + + . + + + . . . z y # q @ @ + > > ' K . . D + L A + + + z . U M + . . . + . > z D . . . . z . A A . > g w f g g g f A f f f 8 8 * > > 8 8 8 8 B 3 c a a k 4 P ",
"v ) ) . . . . , > ' + + . , , u + x + x # # @ u $ u , u + ' . > . . > + $ . z + z @ V L @ L + @ N % D + N @ , A z @ p y q p M , D + @ $ + . A # # # @ + . + y p # . > . > z + . > . D + + D . > . g f . w w f g g f . . . g g g . B > > * * C 8 8 4 i b b k 8 c ",
"k v ) > * = * ' . > ' + , , > ' > > > , + + @ @ t t , + A + . > + ' , , + . . z % L W N N L @ L N z . z N % . D + N x # + t @ > . A $ M z + @ @ y q M M % . M q M + . f . . f . @ % N @ % . f . . f f A . > . % f g z > . . f g A f . A & * C * f * b 8 b c T X ",
"k = * C ) > > > > > ' > + u x @ . * > % A , @ @ . . ' , + + % $ + + @ + > . . % L q o Y N N z . * * * * > . f . Z > A % L + + . % @ + % @ @ M x # q y y N + + M + @ + z % + + + + L N N . A . . . . + A . . f z . + N > g f f f g g A z z A A . . . ) 8 8 b a ` ",
" .k * > * ' > , > > ' . ' , , + % + u M y , ..@ x @ u , @ @ + t + + L + . . . . K + @ + * +.@.#.$.%.&.*.Q +.Q =.-.d ;.I I z . . A A . N N N N L q @ + # # @ @ R # # y L % @ M R + D . @ A A . > > A . . . . . . A . . . f A f f w f f g g A A . . . . g f f * >.",
",.* > . , t x , , = . , u . , + . . + . u + $ @ @ L # t , + + % N A f f f > f 8 8 B f 8 F '.).!.~.{.].^./.(._.:.<.[./.}.|.f z . A A > + N N W R o y D . @ y o # q # + @ x @ + z + N A + . . . > > f . . . z . > > z . z z , . f f . . f f . . + . A A A . f f E ",
"- v > + u x + + ' . + , + D @ @ + , @ y ..o q M % + z z A 1.% z % A w f g k a Q =.Q d X 2.3.4.5.6.7.8.9.0.a.b.c.d.e.f.g.h.E j ;.i.% D + W j.R j.q # % . A % y # # q # y @ + k.L @ # . , A . . . D % @ L u + . f g . . + + . f . A . % + . f g + A f f J w . f 5 ",
"- * , + ' , ) ) ' + x x u + # x t , + t ..# x z * f h * f f . . . A K f j l.m.n.o.p.q.r.s.t.u.v.w.x.y.z.A.B.C.D.E.F.G.H.I.J.K.L.M.h . R y o q R @ M L @ D D @ # ..q q q # # q q q Y N L % > K z N R y y # @ + % A + @ @ A . . % + . z A . f A . D . f f f . f N.",
"5 > @ . > > * > $ M x + x ..M u t y y @ + > > ) f 8 * v f f * f . z O.P.Q.R.S.T.U.V.W.X.Y.Z.`. +.+++@+#+$+%+&+*+=+-+;+>+,+'+)+!+~+{+|.I ]+^+/+L @ @ @ x o Y R q # q (+q # + R # W W L # R % A @ # q x y @ L R N + M % @ $ y @ @ @ @ % + . g A % % @ , . g A + b ",
"* u > ' ) ) ) D @ u , M t + , > , + t @ + > * > f T   = f j b b 5 _+:+<+[+}+|+1+2+3+4+5+6+7+8+9+0+a+b+c+d+e+f+g+h+i+-+j+k+l+m+n+o+p+q+r+s+t++ N @ L Y V u+Y Y R # q q q # % + . W L R v+L N @ # q y M N N @ @ + + o @ @ % @ @ q N N D . . . & @ z A @ w+% @ @ 8 ",
"* . ' > * D z U ' u , , + . D D + + # # . > C = T T b * 8 5 _+x+y+z+A+B+C+D+E+F+G+H+I+J+K+L+M+N+O+P+Q+R+S+T+U+V+W+X+Y+Z+`+ @.@+@@@#@$@%@&@;.f + @ L /+/+L Y Y R q q q q q # % z N L # # N N y q q *@y # L + + L M q y % z , M # y L + . . . f @ W y @ R L R L Z ",
"* * , > , D + + u . + % + % + @ + + y @ % . = b - 5 T j 4 b =@-@;@>@,@'@)@!@~@{@]@^@/@(@_@:@<@[@}@|@1@2@3@4@5@6@7@8@j+9@0@a@b@c@d@e@f@g@h@_+_+8 z N W N L p v+R q q q q q q y D > @ # # @ N p q q ..y q p @ N N o # @ N D . D + @ L % + $ @ J + M q R R @ @ p % ",
". + , > u % . + @ + t @ y M x @ j.y p y @ + > C 8 4 k a E i@j@k@l@m@n@o@p@q@r@s@t@u@v@w@x@y@z@A@B@z@C@D@E@F@G@H@I@J@K@L@M@K@N@O@P@Q@R@S@T@U@` _+O.W Y L Y q q q q q o q q q # $ ' M q # q q q r q q q # o # o o V@q y L @ . . U u+o R y % L $ N # @ @ @ ..u D * ",
"- * > ' + L x @ L @ q # # u + $ @ y y u @ + f f 8 b _+}.W@X@Y@Z@`@ #.#+#@###$#%#]@&#*#=#-#;#>#,#'#)#!#~#{#]#^#/#(#_#:#<#[#[#}#9@|#1#2#3#4#5#6#7#8#W W # q q q # p # R R q q q y @ y q q q q q o 9#r 0#a#b#o o o c#V@# R q d#I x q o R R + N @ @ x M y # y D f c ",
"v > > . . $ x @ N @ @ @ % y y u @ ..+ t . Z * f B 8 5 }.e#f#g#h#i#j#k#l#m#n#o#p#q#r#s#t#u#v#w#x#y#z#A#B#C#;#D#E#F#G#H#I#J#K#L#2@M#N#O#P#Q#R#S#T#U#V#W W#V@o R R R L W L o q q q q q q q p q q o (+9#9#9#/+L R V@c#V@V@b#u+V # y q q q S q # S # L R q # # I f c ",
"[ * > ) A + > + z + , N N @ x M , + @ @ A . f 8 8 k *.X#Y#S.Z#`# $L#.$+$@$#$$$%$&$*$=$-$;$>$,$'$)$!$~$[#{$]$^$/$($_$:$<$[$}$[#|$1$2$3$4$5$6$7$8$9$0$V#/+Y L Y R o L a$L u+o q (+V@q p o R R q q V@b$c$V@Y R q V@V@V@V@9#b#u+o q q (+(+o M Y q q o j.(+p v+W g i ",
"- * ) . % % z % + @ x @ , y y M L N . . . > > * i a d$e$f$g$h$i$j$w.k$l$m$n$K@o$p$q$r$s$t$u$v$w$x$y$z$A$B$C$D$E$F$G$H$I$J$K$L$a@M$N$O$Z+P$Q$R$S$T$U$V$^+/+Y a#b$o w+v+q b## q V@q q # o Y Y q # V@0#p q L q q q V@o V@q (+o q q 9#0#c#@ N W # q o + # L ^+O.f b ",
"b C > + + @ N L t # # L + % @ > D D . z D . f * c W$X$Y$Z$`$ %.%+%S+@%s$l$#%L@$%%%&%*%=%-%;%/$>%,%'%)%!%~%{%]%^%/%(%_%:%<%[%}%|%1%2%3%4%5%6%7%8%9%0%a%b%I W Y Y N N q q q M y p q Y c%b#q o q ..R q R @ + M q q q q (+b$b$0#q q q q q + R q # y L W N + A d%f f ",
"2 ) w K ' N W W @ y , . , u t , + + D N N z g _+E e%f%g%h%i%%###j%k%l%m%n%u#o%p%q%r%|$s%t%u%(@v%w%x%y%z#z%A%B%C%D%E%F%G%H%I%J%K%L%M%N%O%P%Q%R%S%T%U%V%W%t+/+W N z R q q q # y q q o V (+q q q q R q # , . . L R R p b$c#r 0#V@(+q q v+y V@q # v+W N @ W + > w 8 ",
"( . + + + N N D D @ , ' , > + N % + D . D A 3 F X%Y%Z%`% &.&v#+&@&#&$&%&&&*&=&z$-&;&>&,&'&)&!&~&{&]&^&L$!$/&(&_&:&<&[&}&2$|&1&D@2&3&4&5&6&7&8&9&0&a&b&c&d&e&W j.y q o q f&L L x # R L o q q (+R L q M + D A A I + L o (+q (+V@q q q o L N u # q L z . + % . f b ",
"[ . . + @ + I U @ @ u > , . + N + + + A + . b }.g&h&i&j&j#k&l&m&n&o&p&q&r&s&t&u&v&w&x&y&z&A&B&C&D&$+E&F&G&H&I&J&K&L&M&N&4@O&P&Q&R&S&T&U&V&W&X&0&Y&Z&`& *.*W N R o b#u+Y W W W R # L W V v+# o j.Y o R @ L L + L L v+u+q q V@V@q q q p + > . @ R N % D @ A g 8 i ",
"b + + x M N L M ..R y > . N Y + y % + . > > b +*@*#*$*%*&***=*a@-*;*>*,*'*)*!*~*{*]*<@^*/*(*_*:*<*[*}*|*1*2*3*e@4*5*6*7*8*9*0*a*1%b*c*d*e*f*g*h*i*j*k*l*m*n*W W W Y Y R j.W c%R R R Y o*c%L q q o Y o (+q R N N I L q q q V@c#q q ..q y @ y N @ R L % @ + g f 8 ",
"b z % @ L L y M o q p + + + W W L @ + + . f d p*q*r*]$s*t*u*v*w*x*y*z*A*B*.@C*D*E*F*G*H*I*J*K*L*o&M*N*O*P*Q*R*S*T*b*U*V*W*X*Y*Z*`* =.=+=@=#=$=%=&=*===-=;=V#W L Y R L o R W W o q q R V@u+W u+L R o # R q q R @ L L # R L b#(+q q q q q o R # R L N W + z z f j ",
"* D + % N x L # p (+q M . . % % z . + % . f | >=,='=)=!=~={=]=I$S&^=/=(=_=:=<=[=}=|=1=2=3=4=5=}*6=7=8=9=0=a=b=c=d=e=f=I&g=h=i=j=k=l=m=n=o=p=q=r=s=t=u=v=w=i.Y V Y v+q q L W Y o V@V@# # Y W Y c%c%j.R Y p r q # Y W R Y o Y 9#9#q # # R V V@o o R L W L L M + j ",
"* + L L L # # L q y q # % . . z f . z A . f x=y=z=A=B=C=D=E=F=G=H=I=J=K=F&L=M=N=O=P=Q=R=S=T=U=V=W=5%X=Y=Z=`= -.-+-@-#-$-%-&-*-=---;->-*-,-=-'-)-!-~-{-]-^-/-Y c%W R o R % W c%b#V@b#L # Y a$W W c%L c%(-V@V@(+V@q R V V Y u+9#V@y M Y W W o q q q p L @ , M % j ",
"  + R N N N % y q q y u > . . z + D N @ z d%_-:-<-[-}-|-1-2-3-4-5-6-7-8-9-0-a-b-c-d-e-f-g-h-i-j-k-g-P@l-m-n-o-p-q-r-s-t-u-v-w-x-y-z-A-B-C-D-E-F-G-H-I-J-K-L-c%c%R o V q b#M-Y W Y L % L Y Y W W L W c%u+q V@(+o q L W q q v+R R y p y W Y u+q R # y M # L W z j ",
"* N p q L j.# y q q # N + . . . , M N + z N-O-P-Q-R-S-T-U-V-W-X-Y-Z-`- ;#$.;F*+;@;#;$;%;&;*;=;-;;;>;Y*|%,;';);!;&*~;{;];^;/;w-(;_;:;<;[;};|;1;2;3;4;5;6;7;O./+u+V@o b#r c#o 8;c%j.Y W u+q p # q o Y L L Y q q q q N @ @ L L p # # q M R @ L M p o v+R u+W#W z i ",
"* + R # y # # + @ ..$ N D . + A . + + A z +.9;0;a;b;.%C=l$O&c;d;e;f;g;h;i;j;2@g-k;l;m;n;o;p;q;r;s;t;d*u;v;w;x;y;z;A;B;C;D;E;F;G;H;q=I;J;K;L;M;N;O;P;Q;R;S;^+W Y 9#b#d#V@V W Y V V Y Y o R L q q q R Y T;R q q q q R + % W a$p y M # # + + + @ y y o y # R N . i ",
"* y y # M N y y y x L % . . z % N y y N I U;V;W;X;Y;e+Z;(#E&`; >.>+>@>#>$>%>&>*>=>->;>Q@a=>>,>'>)>!>~>{>]>^>/>(>_>:><>[>4=}>|>1>2>3>4>C-5>6>7>8>/;9>0>a>b>c%M-c$o Y L o (+u+u+b#R V V # R R q q q v+Y V (+c#V@q q p R Y /+W % y @ R L W U N # # q q L M D N . 4 ",
"* x o R L W L # # , % % N . . N + # L N /-c>d>e>*&f>g>h>i>j>~=k>l>m>n>o>p>q>r>s>t>u>i=v>w>x>y>z>A>B>C>D>E>F>G>H>I>);J>K>f;L>M>N>O>P>Q>R>S>T>5>M;U>V>W>X>Y>W c%u+L Y L o (+(-(-o R R R o o # q q (+(+o R (+b$9#o R R N a$R M p # q # Y W L o (+q # R # R L R % C ",
"  y j.W W W W , x x N N N . + + > y N D Z>`> ,.,+,@,#,$,%,V-t*&,j-P$*,h==,-,;,>,,,',),!,>>~,{,],^,/,(,_,:,<,[,},|,1,2,3,4,5,6,7,8,9,0,a,b,K;c,d,e,f,g,h,i,W /+u+R Y L Y j,c$u+q o q q o # # q q q (+d#o b#b#9#o R Y Y R q q q q q q q o q 9#V@q L W R p q q @ 8 ",
"* L W j.L @ u + @ x N N N + # y y R W z E p.k,l,u;m,n,o,p,q,r,X=s,R=t,u,v,w,x,y,z,A,B,X&C,D,E,F,E#G,H,I,J,K,L,M,N,O,P,Q,R,S,T,8,U,V,W,X,Y,Z,`, 'M;d,.'+'@'W Y b#T;V o q q q o R o # R o o # q # S Y L V L c$9#o q o q q q q V@q q V@c#0#(+q q # o o o q q q L N-",
". W L o j.# N N y # Y W N + R # k.L L @ c #'$'%'Y=&'*'v,='-';'>',''')'!'~'{']'^'/'''9&('_':'<'['}'|'p#1'2'3'4'5'6'7'8'9'0'a'b'c'd'e'd'f'g'h'i'j'k'6>l'm'n'W W W L V (+V@o'(+a#b#o R R R R (+o L L W W Y R (+(+q q T;q q (+o R u+q c#0#9#(+o q q V@9#o R (+q L c ",
"f W L Y R o Y N M q L % + L # @ L a$L Y I p'q'r's't'u'v'w'x'y'z'A'B'C'^'D'E'F'G'H'I'J'K'L'M'N'O'P'Q'R'S'T'U'V'W'X'Y'Z'`'Z'Z' )T,e'.)+)@)#)$)%)&)*)=)-);)+.W W W Y o p q V@9#a#(+R R R o V@(+v+R j.o R q V@# q V@V@V@(+(+q # Y R 9#9#V@q q # # q V@9#o o c#V@V 9 ",
"8 L L R q q q # # q L N + j.# % L o R Y W >),)')))!)~){)])^)/)7,()_):)<)[)})|)1)2)P#3)^>4)5)6)7)8)9)0)a)b)c)d)e)f)g)h)i)h)9'j)d'k)l)m)n)o)p)q)r)6>s)t)u)j W /+Y # q o (+(+c#V@q q o R q q o R R o o o (+R R q q o u+R v+(+q q V@q q q R q ..S q q # q r (+o Y f ",
". L y o # # q o q p @ @ p y R N W W Y j.R W v)w)x)y)z)A)B)@>B>C)D)E)F)G)H)I)J)K)L)M)N)O)P)Q)2'R)S)T)U)W,V)W)X)Y)Z)s'`) !.!+!@!#!$!%!&!*!=!-!;!>!K;,!'!)!!!W Y q V@o o V@V@V@q V@V@o V@V@q L R (+0#V@o (+R q q (+q (+d#R q q q (+(+(+q q q o q q q q o q q V@W = ",
"Z N N j.L # # # q # U L # R a$W W R o o W R A ~!{!]!^!/!(!_!:!<!w,[!}!|!1!2!3!4!t;5!6!7!8!9!0!a!b!c!r>d!e!f!g!,-h!J'>'i!j!k!l!m!n!o!p!q!r!s!Z,t!u!v!w!x!j /+Y Y (+o V@V@y!0#V@(+Y Y R o q o b#V@c#V@(+q Y R q # V@(+V@V@V@V@V@V@V@V@q q Y a$q q q o Y o q # R j ",
"A W W W W R q q # # L W y Y Y Y Y R R o q L F z!A!B!C!~=D!E!F!G!t'2)H!I!J!K![)L!M!N!O!P!Q!R!S!b)T!U!y@V!G,W!X!Y!k='-Z!`!j! ~.~+~@~#~$~%~&~*~=~-~;~>~,~'~3 R Y V (+o R o'0#(+V@V@o Y R Y o o V@0#0#(+# # L R R q V@c#b$0#c#V@V@V@V@9#V@o Y R o p o R W # # R Y c ",
". L Y W W R q R y # L W W Y o R Y L Y Y Y + )~!~~~{~]~@@!>^~/~(~_~I):~<~[~}~|~1~2~3~4~5~0!6~7~/,8~9~0~a~b~c~X)d~k=e~f~g~g)Z'h~i~j~k~l~m~n~K;%)o~p~q~-)r~I W V o (+V@0#9#o q p u+Y L Y j.y!b$y!y!y!9#j.+ $ y # V@(+c#c#V@o q q (+V@V@V@R L Y q q R W N q S R W c ",
"> y q Y N # q W Y # L W W Y b$(+R Y j.V Y W s~t~u~v~3$w~x~G;y~z~A~B~C~D~E~F~G~H~I~0!J~K~L~M~N~O~P~w;Y'Q~R~S~X!T~U~V~W~X~Y~Z~`~ {&~.{+{@{#{>!${${%{&{*{={/+M-c$o V@o V o o q q o V@b#d#o -{0#V@R R R # q R W W (+q (+V@9#9#V@q q q V@(+V@o V q q R Y o q # M . P ",
") y R R L L L o o R L W Y W V L W R R o R N 3 ;{>{,{'{){!{~{{{T%]{^{/{({_{:{<{[{}{|{1{2{3{4{5{6{7{8{9{0{a{D@Z-b{c{d{e{f{g{h{i{j{k{l{m{n{o{q)p{q{r{s{t{u{(-j,V@V@b$V@V@o V q p # V@0#0#d#V b#q R R R # q u+V R q q o 9#0#v{b$q V@q q q V@V@c#V@q p o V y M L z b ",
"> L R R L Y o q q H o # R u+Y # # Y Y T;W % . *.w{x{y{z{7&h!A{B{C{D{d~E{a=F{G{H{I{J{K{L{M{N{O{P{Q{R{S{T)T{U{V{W{X{Y{Z{`{ ]y;.]+]@]#]$]%]&]*]=]-];]>],]c%o*b$b$b$r c#c#(+V@V@# M q q b#V@V@V@q o (+V@q V@9#y!V@o q o R y!']0#0#b$0#o o V@(+(+V@V@o V@q q q R W )]",
". L # V V@V@p # o q q q r V@R R R L W W N L A 3 !]~]{]]]^]/](]#{_]_]:]<][]}]|]1]2]3]4]5]5]6]7]8]9]0]a]b]c]d]e]r&f]g]h]i]j]k]l]m]n]o]p]q]r]s]t]u]v]e&e&9#9#b$b$c#c#V@V@b#R q (+q (+# R V@q q q # q q (+V@b#w]0#q q o W w]y!0#b$w]x]V@V@o o V@y]V@d#q V@V@c#b$b#1.",
". L R R o H L R q q q H V@V@V@R W W W Y Y N I z * h@z]A]B]C]D]E]F]G]H]I]J]K]L]M]N]O]P]Q]R]S]T]U]V]W]X]Y]#>Z]`] ^.^+^@^#^$^%^&^*^=^-^;^I]>^,^'^-.V#Y c%c$o*j,V@(+V@q R Y o q q (+V@L % # q q q q r c#V@V@p V@c#V@V@0#V@y!)^w]b$b$V@u+V Y d#V@0#9#9#V@c#c#0#9#(+A ",
"z Y V@q R R R q 9#(+o u+M-o R Y W W j.q q L c%W W d%!^~^{^]^^^$-/^(^_^:^<^[^}^|^1^2^3^4^5^6^7^T]7]8^9^0^1^9~a^b^c^d^e^f^g^h^i^j^k^l^m^*!n^o^p^9 /+c%W W W (-o*q^q q L R R + + % N + z L q q q q V@9#V@V@q V@0#0#0#V@0#y!v{y!b$b$0#V@V@j.o R q (+V@V@V@q q p Y A ",
"W Y R Y R Y o H o V@o V@b#Y W L L Y o q R L W W W W h r^s^t^u^v^w^x^t!A{C~y^z^A^B^C^D^ ]$$5^E^F^G^H^I^J^K^L^M^N^O^P^Q^R^S^T^U^V^W^X^O>;;Y^Z^`^g  /8;W W R o V@V Y # q o % + . D N . * d%^+./+ R c#b$0#V@o V@V@V@b$y]y!b$b$0#0#b$x]w]+/)^0#R q q R Y Y # q R W A ",
"o q q R R # o b#(+V@o u+# R R Y R q o R Y W W Y W W W & F @/#/n{$/%/&/*/=/-/Q&;/>/,/'/)/!/~/{/]/j;^///(/M^_/:/</[/}/|/1/2/3/4/5/6/7/8/9/0/a/b/c/u{o*u+V # q u+a$W L q j.@ # @ W W i.d/e/f/g/h//-R T;V b#o q q o R q V@R u+M-V@V@b#R d#0#o q M j.@ N @ + % A + f ",
"Y o r V@V@q V@(-q (+o Y # q R V o q o R Y u+o u+W N W % C h.i/j/k/$/l/m/n/o/p/q/r/s/,/7@5@j]t/O,u/v/w/x/y/:/z/A/Y]B/C/D/E/F/U]G/H/I/J/K/L/M/N/e&^+V Y o o p R Y j.L y v+y q p R c$O/P/Q/R/S/T/U/z N j.o R M M R R @ R W N o o # N z N R o q R W L L # M , + % * ",
"Y p q V@Y R o o q q R W R V u+q p R (+V@V o V o L + W z 3 ` V/W/X/Y/Z/`/ (.(+(@(#($(H#%(&(*(P,=(-(;(>(,('()(!(c!~({(](1/^(/(((_(:(&,<([(}(|(1(/+u+o o V@o V V@V@p M # # M q q q 9#2(3(4(5(6(7(8(f % @ y y R q ..R > . W W q q y . z + # q # R W % + % @ @ W W f ",
"R V # o V@c#r q q q R W Y Y R u+b#o q o u+o Y Y Y N N W & 9(0(a(v,{'b(~-c(d(e(f(O,g(h(i(Y~j(k(l(m(i(n(o(p(q(r(s(t(u(v(w(x(y(h)z(A(B(C(D(E(F(G(W c$c#c#0#r p o u+W R # q Y V@o R V@2(H(I(J(K(L(M(N(O.W N ..R q M + > . z % o M y R W W W W W W % + f f * % L W O.",
"q V@q q o o s r q q o W N d#9#u+W L Y Y L u+y!0#o Y c%W i.O(P(Q(b(R(|)S(T(U(V(W(X(3,W]Y(Z(`( _._+_@_#_w/$_%_&_*_=_-_/*;_>_,_o>'_/~)_!_~_{_]_e&W (-o b$V@V@(+V@V a$b#j,b#Y 0#y!o 9#^_/_(___:_<_[__+h V#d%k.R Y W R + O.}_|_1_2_3_W N . c 4_5_6_>)b%4 8 . + R M i ",
"R b#o # V V@V@s q q V W N L Y R a$W L W c%b#y!b$9#c$b#W A 7_8_9_0_0_a_b_c_d_e_f{H,f_g_Y(h_i_j_k_l(7{O,m(l_m_n_o_p_g*e@v>q_B]r_s_/*t_D{u_v_w_x_W (-(-V@o V@b$c#b#c#0#9#b#W d#0#9#y]y_z_A_B_C_D_E_F_G_H_I_R o R W N z J_K_L_M_N_O_P_z d%Q_R_S_T_U_V_a 8 & z + . c ",
"R R Y p R R W u+q (+Y % N N W W W W R R j,a#9#9#8;j,c%w+3 )~W_X_Y_Z_T~`_>_ :.:3$+:@:N&i(#:$:%:&:*:l(=:`{n_-:&$M,;:>:O=,:T~':):!:~:p,{:]:^:/:(:I Y c%o @ (+b$9#o o 9#(+o y r 0#b$9#>)_:::<:<:[:}:|:1:2:3:c%9#V@W z A 4:5:6:7:8:9:y_./0:a:b:c:d:e:f:E _+b 8 C 8 a ",
"R o L N L W W V j.Y Y L W N o W W W V b$V@b#R c%/+W W 1.>)^.g:h:i:j:!{k:l:l)m:n:=:o:p:q:r:s:k_P~t:u:v:n_w:x:y:z: >A:B:(!C:D:H]E:F:G:v-H:I:J:K:I Y c%(+@ q o R V Y V q q q (+V@0#9#L:M:N:O:<:P:Q:R:S:T:U:g c%Y & Q V:W:X:Y:Z:`: <.<e&+<@<b:#<$<%<&<*.a c b 4 C a ",
"W j.N R o V R W W W R a$Y j.o u+L W L V 9#b#M-c%W ./I d%s~*<=<-<b(/]t;0&;<><,<'<)<4%#,!<~<{<]<^</<(<_<:<<<[<}<|<U{1<G%2<3<4<5<6<7<F;8<9<0<a<b<W (-v+R @ + + N V b#(+q o V b#c<b$b$O.d<e<f<g<h<i<j<k<l<m<)]./A j |.=.n<o<O:p<q<r<;.n*s<t<u<v<w<x<y<z<A<9(F d k B<",
"R 9#L R V@V@Y Y j.L W Y R R Y R o R 8;8;(-M-C<(-u+c%W !!D<E<F<G<h!#@l-H<I<J<K<!)c@L<M<N<O<P<Q<R<S<T<U<V<W<i(X<Y<|%Z<`<8* [.[+[@[w~),#[$[%[&[*[h ^+R . A & Q =[-[;[>[,[I j.0#'[b$b$O.)[![<:~[{[][S:^[l</[([_[:[<[[[}[|[1[N:~[2[3[4[./5[6[7[8[#<9[0[a[b[c[d[l.Q s~",
"o R o # o V W W % L W N W W W a$V 9#8;c%/+W#C<M-(-/+d%e[f[g[h[i[`*j[P=a=k[l[m[n[o[p[q[r[k(s[t[u[v[w[x[._y[8*J'h!(]z[A[B[C[D[E[F[G[H[I[J[K[L[M[F N[1.A z A O[P[Q[R[S[T[}_j.y]b$b$o _+U[e<g<V[W[X[Y[Z[`[ }.}+}@}#}$}%}&}*}N:=}-};}6_>}O.,}'})}#<!}~}{}]}^}/}(}F F ",
"N W o y @ N N W W % + % W W R Y u+(+b#W#c%M-M-/+/+n*_}:}<}[}}}|}1}2}3}4}5}Y&6}>;7}u;_!8}9}0}a}b}c}d}e}@(;+f}/{g}h}{:/;i}j}k}>!l}m}n}o}p}q}r}U;F /-d%. !!t+s}t}u}v}w}x}y}b#9#c#V@y b z}A}~[C_B}][C}D}E}F}G}H}I}J}k<K}L}M}N:N}A}O}P}./I Q}R}S}T}U}V}W}X}Y}Z}`}E *.",
"W L W N . . N W W W L W W W L V V@d#c<o*c%W W c%(- |.|+|@|#|$|%|&|*|=|-|;|>|,|'|7&)|!|~|{|]|^|^)d]/|(|Z-_|3;|>W):|<|3#+[[|}|||1|2|3|4|5|6|7|8|*./-d%)]9|N-0|a|b|c|d|e|f|a#c#b$b#N 8 g|h|C_C_i|X[C}C}j|k|l|m|n|J}^[Y[o|p|q|N:r|s|s~t|I u|v|w|T}x|y|z|A|I(B|C|D|~ ",
"N # @ N z I W W W Y Y Y W L Y b#o*V Y 8;e&/+M-E|F|G|H|I|h!J|(~K|L|M|N|O|u,P|Q|R|S|K]r>X{T|3)U|V|W|X|s,Y|Z|`| 1m).1+1@1#1$1%1&1*1S>5>=1-1;1>1,1'1)1!1~1Q.{1]1^1/1(1Y:_1:1q V@c#V@j.3 <1h|C_C_[1}1Y[Y[j||111213141Y[C}5161A}718191}.N[N[01a1w<#<b1c1d1e1f1g1h1i1j1",
"% M N + z % W W W c%W W /+Y W /+/+t+s+k1l10:v]e[m1n1o1p1%]!-L!*/F-q1r1s1t1u1v1w1x12)y1z1A1B1C1D1E1F1G1x~7&'_H1I1J1K1L1M1w-N1O1P1Q1R1S1T1w^U1V1W1X1Y1Z1`1 2.2+2@2#2$2%2&2R o 9#V@M i *2=2-2;2>2,2'2'2)2!2~2{2]2^[k<^2/2(2_2:2<2[2D|d%d%}2|212223242526272829202a2",
"+ % z . z W W /+w+^+I I i.n*./i.y_b<b2c2d2e2f2g2h2i2j2k2l2m28&`|n2o2p2q2r2s2k:1)t2R(u2v2F1w2x2y2z2A2S!B2C2D2E2F2G2`!H2=>!-I2J2K2>-N;L2M2N2O2P2Q2R2S2T2U2V2W2X2Y2$2Z2`2 3% 9#c#(+O 8 .3+3@3#3$3%3'2&3'2Z[Z[^[k<*3k<k<=3-3;3>3,3'3P d%c )3!3w<~3{3]3^3/3(3_3:3<3[3",
"% . > z ./n*/-}38 /-={Y>|313233343536373839303a3b3n&K@~;c3d]d3.[e3f3g3h3i3_&j3k3|)l3m3=> ~n3#^o3p3q3r3s31^t3u3v3v37{k^w3x3y3z3Z*,-A3B3C3D3E3F3G3H3I3J3K3~3L3M3N3Z2O3P3Q38 R $ $ b g x+F E x+R3S3Y[Y[Y[Y[Z[%}j<R:Z[k<*3T3O/b a 5 Q i _+U3V3w<v<W3]3X3Y3Z3`3 4.4^1",
"W D z W I +4N-E @4#4$4%4&4|(*4=4-4;4>4,4'4)4!4~4{4]4r,$=^4/4F{(4_4:4<4[4#!}4|414243444546474o3o3849404P,a4b4c4h(1,d4e4f4g4h4),!{C]i4j4k4l4m4n4o4p4q4r4s4t4u4v4w4C_N}x4y41 * /-A N(a }.X%}.V$z4|:S:A4Y[Y[B4C4S3D4Z[k<E4F4G45 5 x+s~E *.H4I4#<v<J4K4L4M4N4O4P4Q4R4",
". I t|N[;..<S4T4U4V4W4X4/:Y4Z4`4g# 5.5+5@5#5$5%5&5*5=5-5;5>5,5'5)5!5~5{5]5^5/5(5_5:5<534[5}5|515253545L^N{5565z;75859505a5b5c5T*d5e5f5g5h5i5j5k5l5m5n5s4v<o5p5q5r5s5t5u5}.a 8 3 N->3v5w5x5y5z5A5B5C5D5E5F5G5H5I5J5K5L5M5N5O5P5Q5R5F D|S5T5U5V5W5X5Y5Z5`5 6.6+6@6",
"h I i,)]b%#6$6%6&6*6=6-6;6>6,6'6)6!6~6{6]6^6/6(6_6X(:6<6(=[6}6|6C^164^2636465666+~O;v17686}505H196+^06a6b6c6d6e6f6g6,_h6i6j6k6l6m6n6o6p6q6r6s6t6u6v6w6U2x6y6z6A6B6C6D6E6*.F d 5 a F6G6H6H6H6I6J6K6L6M6N6O6P6Q6R6S6T6U6V6W6X6X6Y6Z6}.`6 7.7+7@7#7$7%7Z5Y5&7*7=7-7",
"_+I ;./-+4r^;7>7,7'7)7!7~7{7]7^7/7(7_7:7<73'[7}7|7X(172737475767$$P)4^77E2J1879707<]a7b7c7d7e74*f7g7h7i7j78{k7l7m7n7o7p7q7r7s7Z/t7u7v7w7x7y7z7A7B7C7D7E7x6F7G7H7I7J7*.F F a F 1 F S;K7L7L7L7M7N7O7P7Q7R7s~S7T7U7V7W7X7Y7Z7Z7Z7`7 8}.D|F E F =..8+8%7Z5@8#8$8%8&8",
"*8O.+4_+=8-8;8>8,8'8)8!8~8{8]8^8/8(8_8:8<83'q#[8}8_8|81828384858R]68788!d48898085$+~a8b8c8d8e8v2d*f8g8h8i8j8k8l8m8n8o8p8q8r8s8t8u8>-v8w8x8F3y8z8A8B8C8D8s4E8F8G8: W@H8}.1 6 Q Q E 13I8J8K8L8M8N8O7O7O8P8*.F Q8R8S8T8U8V8Z7Z7Z7W8X8}.H8Y8=.F F Z8`8 9.9+9@9#9$9%9",
"&98#Q V$*9=9-9;9>9,9'9L,[7)9!9~9{9]9O!^9/9K,(9_9:9<9[9}9|9192939K,5]F^4959Z{69.@79<|89L)9909a9:~b9c9d9e9f9g9h9i9j9k9l9m9n9o9I)p9q9r9s9t9u9v9w9x9y9z9A9B9C9D9E9F9G9: | F _+V:H9#6P.I9J9K9L9M9N9O9O7O7P9Q9b<b>R9S9T9U9V9W9Z7Z7Z7X9Y9Z9`9 0.0F F +0@0#0$0%0&0*0=0-0",
";0V$H9u]>0,0'0)0!0P'~0^8{0]0^0/0(0_0:0<0[0}0w&V!|010X]|,20304050607^708050G,9000a0b0m[+=c0d0e0f0g0h0i0j0k0l0m0n0o0p0l3G)q0r0s0t0J2$/u0v0w0x0y0z0A0B0C0D0E0F0G0H0I0J0K0L0M0N0O0P0Q0R0S0T0U0V0W0X0Y0Z0`0 a.a+a@a#a$a%a&a*aZ7Z7Z7=a-a;a>a,a'a=.F )a!a~a{a]a^a/a$9(a",
"H7s+_a:a,4<a[a}a|aP'1a2a3a4a5a6a7a8a9a0aM{aabacadaeafaP]gahaiajaQ]<,<,kalama{5naoapat'qaM1rasatauavawaxayazaAaBaCaS|DaEaFaX/GaHaIaC~JaKaLaMaNaOaPaQaRaSaTaUaVaWaXaYaZa`a b.b+b@bL7L7#b$b%b&b*b=b-b-b;b>b,b>b'b)b!bZ7Z7Z7Z7Z7Z7~b{b]b^b/b(b_b*8U;'3b>z<:b<b%9[b}b",
")!n*|b1b2b3b4b5b6b2a7b~02a8b6a9b0babbbcbdbebfbgb5bhbibjbkblbmbnbP)obK,pbqbrbsbtbubvbL1wba82)xbybzbAbf4BbCbDbEbFb0_Gbl3HbIbJb8<KbLbMbNbObPbQbRbSbTbUbVbWbXbYbZb`bZa c.c+c@c#c$c%c&c@b*c=c-c;c>c,c'c)c!c~c{c]c^c/c(cZ7Z7Z7Z7Z7Z7_c:c<c[c}c|c1c2c3c4c5c6c7c8c9c0cac",
"d2(:bcccdcecfcgchcic:97b1ajc:9kcaabblcmcncocpcqcrcsctcucvcwcxc'9yc<868zcmaAcBcCcT^$!Dcv1/{EcFce0GcHcIcEbJcKcn9LcMcNcOcPcQcRcn}ScTct9JaUcVcWcXcYcZc`c d.d+d@d#d$d%d`aYa@c&d#c*d@b@b@b=d-d;d>cO7P7>d,d'd)d!d~d{d]d^dZ7Z7Z7Z7Z7/d(d_d:d<d[d}d|d1d2d3d4d5d6d7d8d9d0d",
"adbdcdddedfdgdhdidjdkdldmdaaqcndodpdqdrdsdtdudvdwdxdydzdAdBdCdDdEdp#FdGdHdIdJdKdLdMdNdw,s7OdPdQdPdRdSdRdTdRcUdVdWdXdYdZd`d e.e+e@e#e$e%e&e*e=e-e;e>e,e'e)e!e~e{e]e^e/e(e_e:e<e[e}e|e1e2e3e4e5e6e7e8e9e0eaebebeceZ7Z7Z7de^deefegeheiejekelemeneoepeqereseteueveve",
"wexeyezeAeBeCeDeEeFeGeHeIescvdJeKeLeMeNeOePeQe7bRe(0mdQeSeTey'UeVeWeXe:0YeZe`e fJd.fV,+f@f#f$fb(%f&fq7b7*f=f-f;f>fh5,fDaP1'f)f.{s8!f~f{f]f^f/f(f_f:f<f'e[f}f|f1f2f3f4f5f6f7f8f9f0fafbfcfdfefffgfhfifjfkflfmfnfofdepfZ7Z7qfrfsftfufvfvfwfxfyfzfAfBfCfDfEfFfGf[c[c",
"HfIfJfKfLfMfNfOfPfT]LdQfRfSfvdmcKescTfUfVfWfXfhbYfZf`f g4a.g+g@g#g$g%go_&g*g=g-gy;Kdg);g>gw1,g'g)gi=G{!g~gra{g]gp9^g/g(g_g:g<g[g}g|g1g2g3g4g5g6g7g8g9g0gagbgcgdgegfggghg5figjgkglgmgngogdepgpgqgZ7Z7Z7rgsg-ctgugvgwgZ7Z7xgygzgAgBgCgCgDgEgFgGgHgIgJgKgLgMgNgOgOg",
"PgQgRgSgTgUgVgYfyd6aWg&gXgYgZg`g h.h+h@h#h$h9budhb2a|0sc1a8b%h&h*h=h-h;h>h,h'h)h!h~h{h]h^h/hi5$fj{k3(h_h:h<h[h}h|h1h2h3h4h5h6h7h8h9h0hahbhchdhehfhghhhihjhkhlhmhnhohphqh5f5frh>b~cshthuhvhwhvhxhdeZ7Z7yhzh;c!cAhdevgZ7Z7BhChDhEhFhCgCgDgGhHhIhJhKhLhMhNhOhPh 9[c",
"QhRhSh`f|0ThNfThUh|a|aVhobWhYgwdXhYhZh+h`h i i.i+i@i2a:92a#i$ip#%i&iP)}8*i49=i-i;i>i,i84'i)i!i~i{i]i^i/i(ik:_i:i3h&)<i[i}i|i1i2i3i4i5i6i7i8i9i0iaibicidieifigihiiijikilimiminioipiqirisiwhtideZ7Z7Z7Z7uiviwixiyiziAiBiCiDiChEiFiGiCgCgDgHiIiJiKiLiMiNiOiPiQiRiSi",
"TiUiyd2aViWiXiVgYiZi`i+hYi j.j*_+jqdmc@j.h#j$j%j&j*j(0=j-jsc;j>jrc<8,j;iob'j)j!j~j<9{j]je^^j/j(j_jB~:j<j[jw^}j|j%)1jq)2j_^3j4j5j6j7j8j9j0jajbjcjdjejfjgjhjijjjkjljmjnjojpjqjrjsjtjujvjwjwhtixjyjdeZ7Z7zjAjBjCjDjEjygFjGjChygHjIjJjCgCgDgKjLjMjNjOjPjQjRjSjTjTjUj",
"VjZfVi7bZf5baaWjXjYjZjYiVgNfDe`j.! k.kvd+k@kVh#k$k%k%j$k$h7b&k*k=k<7<,5]-k;k>k:0,k'kHd)k!kva~k{kJ!]k^k/k(k_k:k<k[k[kK;N;A~}k|k1k2k3k4k5k6k7k8k9k0kakbkckdkekfkgkhkikjkkklkmknkokwhwhwhwhwhpkpkqkrkvgvgZ7Z7depgskChGjtkukFjvkwkxkykCgCgzkAkBkCkDkEkFkRjGkHkIkIkJk",
"Kk@jLkMkQ'scNkOkaaViPkUg;jYiOkwdz^h)QkTfRk+k~0SkTkUkUkVkWk gPkXkYkZk`kQ]ob#& l.l+lS)@lKd_8#l$lt,=,I'<]@~L;%l=)6>&l*lm/_5k3=l-l;l>l,l'l)l!l~l{l]l^l/l(l_l:l<l[l}l|l1l2l3l4l5l6l7l8l9l0lalblcldldlelfldlglhliljlklllmlnlolplqlrlsltlulvlwlxlylzlAlBlClDlElFlGlHlIl",
"JlMeKlLlMlNlMe@hOlnd#iMeMeMepdTfViPlQlRlSlTlUlVlWlVkXl%k iYl1aZl`l m494]^6<86868.m+m@m#m'k$mBd%m&m*m=mZ_-m;m>m,m'mk:)m!mj:~m{m]mjh^m/m(m_m:m<m[m}m|m1m2m3m4m5m6m7m8m9m0mambmcmdmemfmgmhmimjmkmlmmmnmompmqmrmsmtmumvmwmxmymzmAmBmCmDmEmFmGmHmImJmKmLmMmNmOmPmQmRm",
"SmMkTfKlTmTmNlNlUmVmNeWmXmTf@hTfpdYmZm`m n.n+n@n#n$n%n&n*n=nhb-n;n>nF^,n(>k]68<8'n7!)n)n!n~n{n]n^n/n(n_n:n<n1)[n^'}n|n1n2n3n4n5n6n7n8n_f9n0nanbncndnenfngnhnYcinjnknlnIhlnmnnnononlnpnqnpnrnsnontnunvnwnxnynznAnBnCnDnEnFnGnHnInJnKnLnMnNnOnPnQnRnSnRnRnTnUnVnWn",
"XnYnMeKlNlTmZnTmTmTmTmNl`nNeTfTfTfTfPk o.o96+oLe@o#o$o%o&o`i*o=o-o;o>o,o'o'o'o)o!o)nL'#mH,H,~o{ona]o^o/o(oF~_oo9:o<o[o}o|o1o2o3o4o,e5o6oSb7o d8o9o0o,eaobocodoeofogogohopnnnioonlnjokolomoonlnno[_oopoqorosotouovowoxoyozoAoBoCoDoEoFoGoOnHoIoJoKoLoMoNoOoPoQoRo",
"SoToUoVoWoXoYoZoZnTmTmTmNlWmLl+hTfTfTfqc`o pp/.p6)+pYl@p#p$p%p&pJ{db*p>ok& l50Hd=p~n-p;p;pg(v/>p,p'p)p!p~p{p]p(n^p/p(p_p:p<p[p}p|p1p2p3p,e4p5p6p7p8p9p4m6n0papbpcpdpepfpgpuniolnioiohpipjpkplpmpnpopppMouoxoqprpsptpupvpwpxpypzpApFoJoBpCpDpEpFpJoHoGpHpJoQoTnIp",
"JpKpLpMpNpOpPpQpRpTmTmTmNlWmLlTfTfSpZjUf2aTpUpVpWpXpYpZp`p q.q+q@q#q$q3a%qZfxd&q*q=q-qtbO,;q>q,q'q)q!qG2~q{q]q^q/q(q_q:q<q[q}q|q1q2q3q4q5q6qhn7q8qdjejdi9q0qaqbqcqdqeqepfqmngqgqhqhpiqjqkqlqmqnqoqpqqqrqwosqtquqvqwqxqyqzqAqBqRnSnQnTnRoCqDqEqFqGqHqIqJqKqLqMqNq",
"OqPqQqRqRqSqTqUqVqWqTmTmTmNe`nMepdLe7b1aXq^(YqZqin`q r.r+r@r#r$r%r}8&r*r=r-r^8@p;rS'Ad>r2^W(P,,rb6'r)r!r~r{r]r^r/r(r_r:r<r[r}r|r1r2r3r4r5rfj6r7r8r9r0rarbr6rcrdrerfrgrhrirmnjrjrkrlrmrnrorprqrBqrrsrtrurtrurvrwrxryrzrArBrCrDrErKoFrRnIpGrHr4dGrIrJrKrIqIqLrOoQo",
"MrNrOrPrQrRrSrTrUrZnTmTmTmMlKlLlmcpdab7b:9VrWrXrYrZrS]&hQ~`r s.s+s@s#s/0=r$s$s%s*r4a$s&s*s=s</-s,rq(I~V<V<;s>s,s's)s!s~s{s]s^s/s(s_s:s<s[s}s|s1s2s3s4s0n5s6s7s8s9s0sasbsIicsdsesfsgshsisWnisjsLqkslsuqmstqnsospsqsrssstsuspqNoKovsBpBpTnwsJoxsyszsAs5dBsBsCsDsEs",
"FsI(I(GsOrOrHsIsVqTmWqKlZnJsNeKs`gXh hPkOfLsMsNsOsPs!nQsRsL^SsTs{0*rUsR'xdVsWs3'XsYsZsZsZs`s t.t+t28@t#t$t%t&t*t=t-t;t>t,t't)t!t~t{t]t^tcn/t(t_t:t<t[t6q}t|t1t2t3t4t6c5t6t7t8t9ttqms0tattsbtJqctLrdtetLqyrftgthtitjtktltCrmtQnKontDrGpGpzlvsQnFpotptqtrtstttutvt",
"wtz|xtxtOrOrytztAtNeBtCtDtKlKlEtFtab8)GtHtItJtKtLtMtNtOtPtQtRtStTtUtVtWtXtYtZt`t u.u+u@u#u$u%u&u*u=u-u;u>u,u'u)u!u~u{u]u^u/u(u_u:u<u[u}u|u1u2u3u4u5u6u7u8u9u0uaubucudueu0tfuguhuiujukuluIoIoEoyrmuLqHonuoupuqurusutuqswrKqxqQnQnGoQnFoTnRnRnRnTnPoHquugtvuwuvuxu",
"yu[3Y}xt6(OrzuAuBuCuDumcKlTmTmlcEuFuGuHuIuJuKuLuMuNuOuPuQuRuOuSuTuUuVuMuWuXuYuZu`u v.v+v@vRu#v$v%v&v*v=v-v;v>v,v'v)v!v~v{v]v^v/v(v_v{v:v<v[v}v}v|v1v2v3v4v5v6v6v7v8v9vgu0vavbvcvdvevfvgvhvivjvkvlvmvqpnvovururpvvrwrqvrvbtLrsvsvLrPoWnRnRnvsJoprOoksPnIotvuvAszs",
"vvb|wvxvxtOrRryvzvAvRpKlKlTmKlOeBvCvDvKuKuKuEvFvGvHvIvJvKvLvMvNvOvPvQvRvSvTvUvVvWv!v!vXvYvZv`vLvTu w.w+w@w#wPv$w%w&w*w=w1v:v-w;w5v;w>w,w'w5v5v6v)w!w~w6v<v4v4v{w]w^w/wfu(w_wzq:w<w[w}w|wFn1w2wuo3w4wosur5wtrkv6wvq7wpu8wEoIodtdt9wFrFr0wawdtyrKrmebwcwbwdwewfwgw",
"hwb|u}u}iwjwkwlwmwnwowJspwZnqwrwswtwuwVuVuMvTvvwwwxwywzwAwBwCwDwEwFwEwGwHwIwJwKwLwMwNwOwPwQwIwRwSwTwUwSwVwWvWwXwOwYwZw`w x.x+x@x#x$x%x&x*x=x<v~w-x;x>x3v,x'x)x!x~x{xyr]x^x/x(x_x:x<x[x}x|x1x2x3x4x5x6x7x8x9x0xaxbx0xcxdxexfxdtgxdthxixtvjxkxlxmxnxjxoxpxqxrxsxkx",
"tx[3u}X}uxjwkwvxwxxxyxzxAxmwBxCxDxExFxGxHxIxJxKxLxMxNxOxIwIwPxQxRxSxTxUxSxLwVxWxXxYxZx`x y.y+y@y@y#y y$yGw%y&y*y=y-y;y>y,y=y'y)y!y~y{y]y^y/y/y(y`w_y:y<y[y!x}y|y1y2y3y3x4y5y6y7y8y9y0yaybycydyeyfygyhyiyjykylymyoxnygxawoypyqyryqyawsytyuyvywyxyyyzyAyByCyDyEyFy",
"GyHyIyJyKyLyMyNyOyPyQyRySyTyUyVyWyXy&yYyZyZy`yUw z.zPw+z7v@z#z$z%z&z*z*z*z=z-z;z>z,z'z)z!z~z)z*z{z]z!z!z^zXx/z(z_z)z:zZx<z[z=y}z|z1z2z3z!x4z5z,x6z4z}y|y7z|z|y]w8z0y9z3y0zaz3y7ybzczdzezdzfzhygzhzgzhzizjzkzlzmznztyozgwpzqzrzgx9wawhzsztzmyuzyyvzwzxzyzzzAzBzCz",
"DzEzFzGzGzHzHzIzRrOr5(6(JzKz5(OrLzMzNzOzPzQzRzSzYwTz]yUzVz{w2vWzXzYzZz`z A.A+A@A#A(zXx/z$AXxZxZx*z%A%A*z@A@A&A*A=A.A A-A;A;y>A,A'A)A!A~A{A]A]A^A|y]A,y,y,y;y/A(A_A:A<A<A[A:A[A}A|A1A2A3A4A5A6A7A8A9A9A0A9A8AaAbAcAdAeAfAgApzhAqziAAfjAkAlylyAylAxyyymAnAnxoApAqA",
"rAsAtAsAuAsAS}vAPr5(6(6(5(5(5(OrwAxAyAzAAA7v`wBACADAEAFAGAHAIAJAKALAMANAOAPA{zQARASATAUAVAWAXA*zYAreZAZA`z`z`z)zut`A B.Bly+B@B-AZA#B$B`z$B`z;y%B%B&B)z*B;A`z=B-B;B>B,B7A'B)B!B~B{B]B^B^B/B(B_B:B_B<B[B}B|B1B2Bmx3B4B5B5B6B6B7B8Bjx9Bpx0B0BaBdAdAbBcBdBvzdByzeBfB",
"gBhBhBsAiBsAw|jBSrOrOrOrOrOrOr5(kBlBmBnBoBGApBqBrBsBtBuBvBwBxByBzBABzBBBCBDBEBFBGBHBIBJBKBLBgtMBNBfwOBPBQButRBSBTBUB.AlymzVBVBWBXBtzYBWB+BZB+B@B+B-A~z-A-A`B#BZBmy C.C+C@C#C9A6A$C%C&C*C!B=C-C;C|B>C4B,C>C|B'Cmxlx)C!C~C{Crx9B]C{C]C^C9B/Cuy(C_C:C<CeB[Clx}CCy|C",
"1C2C3C4CsA5CHzvA6COrOrjwOrOrOr5(7C8C9C0CaCbCcCdCeCfCgChCiCjCkClCmCnCoCpCqCrCsCtCuCvCwCxCyCzCACBCCCDCfwfwECFCutTB=z{z+AGCHCICJCKCnznztzmymyLCYBMCtzNCOCPCQCRCSCTCTCAzUCVCVCWCFyDyXC9AYCZCYC`Cpz D,B.D!CpzhA+Dlx@D.D#D$Dkz%D&D*D{CkznzKC{C=Dty-D-DkxuybB:Cqx;D>DWC",
",D2CiBsAsA'D12)D6COrOrOrOrOrOr5(!D~D{D]D^D/D(D_D6z:DDA<D[D}D|D1D2D3D4D5D6D7D8D9Dty0DyCaDpubDcDdDWBOBjAPBQButeDfD^zgDhDYxiDTBjDkDlDmD A AnDoD,A;A@A-A@BpDqDkDrDAyAysDtDuDvDwDBzxDyDzDzDzD0A|B;CAD#C0A8A9A1B1BBDBD#C+DkxKCLCCDDDDD&DEDnznztyfw/C_CFDcAGDHD_CIDCyJD",
"KDLDsAtAHz'D12MD6C5(OrOrOr5(Or6(NDODPDQDRDSDTDUDVDWDXDYDZD`D E.E+E@E#E$E%E8z}y&E*E=E-E;E>EutQBPButiDZA%A,E>A'E)z^zXx`xWx)E)A,y;y!E;B&B~E@A:z{E]E^E^E;y;A*B+B/E(EyylA_E:EbBuDDyEy<E[E+C[B8A8A8A}E|E1E|B2E0A0A9A8A3E4E5E6EtypxKCkzKCpxgw7EKC8E-Dsx_C9EqxIDcB0EaEbE",
"cEdEsAtAHzS}eEfEgE5(5(jwjw5(Or5(hEiEjEkElEmEnEoEpEqErE`DsE`D`DtE+EuEvEwEqyxEyEzEAEBE~xCEDEEEFE/AGEHEIEJEKE*y[z|z*yLEMETzNE6zOEPEQERE}z%BSETEUEVEWENALEXEYEXEZE`E F.F+F(E@F#Ftz&D$F%F&F*F=F-Fpzpz.D+Dfy,B~B&FhA,BaB~B+D;FuyID>F,F'F8Emzkz%Fkx)FrxuyoA!F:CcB~FoA{F",
"]F^F/FtA(F(F(F_F:F<FgEgE6CNr[F6C}F|F1F2F3F4F5F6F7F8F9F0F3DaFbFcFdFeFfFgFhFiFjFkFlFmFnFoFpFqFrFqFDE]w1zLEsFtFuFRzNETzvFwFxFyFzFAFBFCFDFEFFFGFHFIFJFKFJFLFJFMFNFOFPFQFRFSFTFUFVFWFXFYFZF`F G.G+G@G#G$G%G&G%G*F*G=G-G;G>G,GQF'G'G)G!GWF~G{G]G^G/G(G_G:G<G;G;G;G;G&F",
"cE[G}G(F(F(FHz|G1G2G3G4G5G6G7G8G9G0GaGbGcGdGeGfGgGhGiGjGkGlGmGnGoGpGqGrGsGtGuGvGwGxGyGzGAGBGCGDGEGFGGGHGIGJGKGLGMGNGOGPGQGRGSGTGUGVGWGXGYGZGUG`G H.H+H@H#H$H%H&H*H=H-H;H>H,H'H)H!H~H{H;H]H^H/H(H_H:H<H[HU[}H|H}H[H1H2H3H4H4H5H6H7H8H9H0HaHbHcHdHeHfHgHfHhHiHjHkH",
"lH[GhBmHtAtAnHoHpH 9qHrHsHtHtHuHvHwHxHyHzHAHS}BHCHDHEHFHFHGHHHIHJHKHLHMHNHOHOHPHQHRHSHTHUHVHWHXHYHZH`H I.I+I@I#I$I%I&I*I=I-I;I>I,I,I'I)I!I~I{I]I^I/I(I_I:I<I[I}I|I1I>ISH2I3I4I5I6I7I4IsG8I9I0IaIbIcIdIeIfIgIhIiIjIkIlImInIoIpIpIqIrIsItIuIvIwIkIiIxIxIyIzIAIBICI",
"DI2CEIuAsAhBLDFI@8Og 9 9tHGIHIIIJIKI#<$<12'D'DT}LIMINIOIPIQIRISITIUIVIWIXIYIZI`I JSH.J+J@J#J$J%J&JNH*J=J@J-J;J>J,J'J)J!J~J{J]J$J$J^J/J;J-J-J(J_J:J<J[J}J|J1J2J3J3J4J5J6J7J8J9J0JaJbJcJdJeJfJgJhJiJjJkJlJmJnJoJpJqJrJsJtJuJvJwJxJyJzJAJBJCJDJEJFJGJHJIJJJKJLJMJNJ",
"OJ2C2CPJiBQJGzRJ@8SJTJUJSJtH 9VJWJXJ#<$<$<~3w<w<12YJZJ`J K.K+K@K#K$K%K&K*K=K-K;K/I>K,K'K)K$J!K;J/J~K{K]K^K/K(K_K:K&J$J!I<K[K}K|K1K2K3K4K5K6K7K}J#J8K9K0KaKbKcKdKeKeKfKgKhKiKjKkKlKmKnK5:oK5:pKAJJJqKrKsKtKuKvKwKxKyKzKzKAKBKCKDKnJEKFKGKHKIKJKzJKKwJLKMKNKOKPKQK",
"RKSKLDTKUKTK4CVKWKXKSJUJYKXKVJZK`K Lw<.Lw<#<w<.L+L@L#L$L%L&L*L=L-L;L-K>L,L'L)L!L~L{L]L^L>K/L}K(L_L:L<L[L}L]I|L1L!I2L&J3L^J^K_L4L5L<L6L7L8L9L/J^J(K[K0LaL]IeKbL7JcL-2dLvKeLfLeLgLhLiLjLhLkLlLmLnLoLpLqLrLeKsLtLuLpLvLwLxLyLzLALMKBLCLaJDLELFLGLHLGJILJLKLLLMLNLOL",
"PLQLdE[G[GTKRLSLWKXKTJTJsHTLULTLVLKI~3w<w<WL.L$<XLYLZL`L M M.M+M@M#M$M%M&M*M=M-M;M>M,M'M)M)K}K!M~M'K{M^K1L~L]M$J&J^M%J/M$J(M_M:M<M[M3L}M|M1M2M3M/J'K4M5M6M7M-2jJ8M8MDL9M0MaMpLKLbMcMKLdMeMfMgMhMiMjMkMlMmMnMoMpMqMrMsMkKtMuMvMwMpLxMhJyMzMyKKKGJAMBMCMDMEMFMGMHM",
"IMJM4CKMLMMM4CRJNMsHXKuHTJOMULPMQMCHw<w<w<w<w<w<+LRMSMTMUMVMWMWMXMWMYMYM&LZM`M N.N6K+N@N#N$N+N,M%N&N/M^J*N=N~L{I*N(M-N^J-N1L;N>N,N_L/M+N'N+N)N!N~N6K#J{N]NgM^NvJ/N(N_N5:CL:N:N<NoLnK[N}N|N1N2N3N4NjL5NsL6N7N8N9N0NaNqMbNcNdNeNfNgNhNiNjNkNlNmNvJnNoNpNqNrNsNtNuN",
"vNwN4CxNyNzNANBNSJTLULTLIIOMVJCNDNCHw<$<w<w<w<w<ENFNGNHNINVMWMJNKNLNMNNNONPNQNRNSNTN%NUNVNWN/L/M)N^LXN$J'J4JYN_KZN`N`N O~K]K.O+O@O/J^J*J#OrL$O%O&O*O=O-O4N;O>OLK,O'O)O!O~O{O:N]O^O/O(O_O:O<O[O}O|O1O2O3O4O5O6O)O7N7O8O9O0OaObOcOdOeOfOgOhO7J'O.OiOjOkOlOmOnOoOpO",
"qOUKJMrOsOtOuOvOwOxOyOCNzOzOCNzOAOBOLIv<v<w<CODOXLEOFOGOHOIOJOKOLOMONONOOOPOQOROSOUN+N%NTOUOVOWOUO3L9L[LXOOHYOZO O`O[K1L&J P.P+P@P$J}K#P$P%P&PnKfM*P=P-PjLfL;P>PX:,P'P)P!P~P{P]P^P^P:O/P(P3N_P:P<PcO[P}P|P1PuM2P3P4P:N9J5P6PCM7P8P9P!O<K:K_K0PaP!ObPcPdPePfPgPhP",
"iPjPkPlPmPnPoPpPqPrPsPtPuPvPwPxPyPzPAPBPCPDPEPFPGPHPIPJPKPLPMPNPOPPPQPRPSPTPUPHOVP+N~MWPXP)KYP~LZPZP`P*N Q)N/J Q}K.Q[K/K+Q@Q#Q$Q%Q&Q*Q#P{NjOkM=Q-Q;Q>Q6N,QiL'Q)Q!QdK~Q{Q]Q^Q/Q(Q_Q:Q<Q[Q}Q|QCM7P1Q8P2Q3Q4Q5QwK6Q7Q8Q7Q9Q0QwIaQbQcQdQeQ)LfQgQhQiQjQVIkQlQmQnQoQpQ",
"qQrQsQtQuQvQwQxQGiyQzQAQBQCQDQzQEQFQGQHQIQJQKQLQMQNQOQPQQQRQSQTQUQVQWQXQYQZQ`Q R.R+R@R#R$R%R|J,M&R&NZP*R4MZO!M=R;J.Q-R;R>R,R'R)R!R~R{R]R^RqLoK/R(R'O8M_R)Q:RX:<R[R}R|RdK1ReJ*O2R3R4R%2/P5R6RdL7R8R9R0R:PeL3QqJaRBLbR6QcRyMdReRfRgRhRiRjRkRlRmRnRoRpRqRrRsRtRuRvR",
"wRxRyRzRARBRCRDRERFRGRHRIRJRKRJRJRLRLRMRNRNRORPRQRRRSRQRTRURVRWRXRYRZR`R S.S R R+S@S#S$S%S&S*S=S_JXN-S*R-K O/J_L;S>S,S'S)S!S#J%J~S{S]S|JrLyKpJ5:^S/S3I[I(S_S:S<S[S}S|S1S2S3S4S5S6S/Q7S8S9SMKpKpK0SaSbScSdSeSfSgS9JMKhSiSjScQaQkSlSmSnSoSpSqSrSsStSuS$KvSwSxSySzS",
"ASBSCSDSESFSGSHSISORJSJSLRKSNRLSLSMSURNSUROSNRQRPSTRTRTRNSORORQSzQKSRSSSTSUSVSWSXSYSZS`S T.T+T@T#T$T%T*R&T$J~M6K_M*T@Q=T-T1L;T>T,T'T)T!T~T[RaMuM;I3I{T]T_S^T/T(T~Q~S_T:T]I<T[T}T|T1T2T2T3T4T'P5TzI6T7T9RnJ8T9T0TaT^SbTcTlNdT8M8JvLeTfTgThT+PjQiTjTkTlTmTaJnToTpT",
"qTrTsTtTuTvTwTxTyTORORORORSRNRLSURLSNSQRNSURLSQRTRTRTRTRRRHRLSOSzTATBTCTDTETFTGTHTITJTKT]RLTMTNTOTPTQTRTST|K'K!K&N&J#JTTUTVTWT}RXTYTZT!TWT`T U.U+U@U#U$U]Q%U&U*U=U-U}R;U>UbKgN,U,U{P'U2T)U!U~U{U]U^U/U(U_UiMtJ:U<U[U}U-2cR|U1U2U3UnJ4U5U5U6UpKrR7UVIaL8U9U0U^TaU",
"bUcUdUeUfUgUhUiUjUORVRVRORVRLSLSORVRURURNSNSURTRTRTRTRQRkUlULSMRmUnUoUpUqUrUsUIOtUuUvUwUxUyUzUAUBUbPZI+UCUDUEUFUFUGUEU>UHU.IIU%IJUKULU,TMU~TNU_ROUPUQURUSUTUUUVU=UcK.J.JWU*SXUYUgLZU`U T}R{QZU V.V+V@V#V$V%V%V&V3I*V=VDK1R,I-V;V>VKJlN5N,VvL1R'VVI)V!V~VgP)P{V]V",
"^V/V(V_V:V<V[V}V|VLSLSVRVRLSSRLSRRURURLSTRNSNSTR1VTRPSURLRLRORJR2VzT3V4V5V6V7V8V9V0VaVbVcVdVeVfVgVhV#OiV)UjVkV[OlVmVnVoV{N TpVqVrV>U%J#PsVMUjVtVuVvVwVxVyVzVAVBVCVDVEVFVGVHV3NIV V:SJVKVLVMVmMNVOVPVQVRVSVjSdQTVUVVVWVXVYV]IYHZV`V[R W}Q.W+W@W{L#W$W%W&WLUx4*W5I",
"=W-Wmnnn;W>W,W'W)WVRVRURMSSRURMSNSNSRRRRTRPSTRTRTRNS!W~W{W]W^WXR/W(W_W:W<WHO[W}W|W|W1W2WNN3W4W5W6W{L7W8W9W0WaWbWcWdWeWfWgWhW_J+JiWjW}LkWlWmWnW$R~SoWpWqWrWsWtW]PuW[QvWwW_QxWgNyWzW3IAWBW}J@JCWDWEWFWGWHWIWXT}UJW0MKWLWMWEJNWBKdJOWPW6QoLkMQWRWOWLV6MSWTWUWVWWWXW",
"YWYWjoZWZW`W X.X+XMSLSORURURURURURRR@X@XRRURPS1VNSLR#X$X%X/W&X*X=X-X;X>X,X'X[W)X!X)X~X{X]X^X/X(X_X:X<X[X}X|X1X2X3X4X5X6X7X8X9XZS}X0XaXbXcXdXeX8XfX3TgXhXiXjXx4kX*SlX5QgNmX,QnXoXWT+JpXqXrXsXtXuXvXwXxXyXzXAXBXCXpXDX7XEXgK3O0M}QcK4PFXGX^PHXlMIXJXKXLXMXNXOXPXQX",
"koRXioSXonknooTXUXRRMSVXURNSQRNSMSURORHRWXWXXXQROSYXZX#X{b`XMR Y.Y+Y@Y#Y$Y5D%Y&Y*Y=Y-Y;Y>Y,Y'Y)Y!Y~Y{Y]Y^Y/Y(Y_Y:Y<YbW[Y}Y|YxW1Y2Y3Y0W4Y5Y6Y7Y8Y9Y1N-U0YMHaYbYcYdYeYxLfYSVgYpK(R4ThYiYjYkYlYmYnYoYpYqYrYsYtYuYvYyWaO2NwY<PxYQWyYzYAYBYCYDY|Y>IEYFYGYHYIYJYKYLYMY"};
