/* XPM */
static char * west_xpm[] = {
"128 128 7168 2",
"  	c #544A4C",
". 	c #54494C",
"+ 	c #53494B",
"@ 	c #544B4D",
"# 	c #554B4E",
"$ 	c #554A4D",
"% 	c #55494C",
"& 	c #554849",
"* 	c #544749",
"= 	c #53464A",
"- 	c #544648",
"; 	c #534547",
"> 	c #554749",
", 	c #554748",
"' 	c #564847",
") 	c #554747",
"! 	c #584845",
"~ 	c #5A4744",
"{ 	c #594744",
"] 	c #554545",
"^ 	c #574745",
"/ 	c #574847",
"( 	c #534649",
"_ 	c #53484B",
": 	c #524549",
"< 	c #524649",
"[ 	c #564747",
"} 	c #564848",
"| 	c #544748",
"1 	c #574948",
"2 	c #564646",
"3 	c #574643",
"4 	c #564645",
"5 	c #584544",
"6 	c #5B4744",
"7 	c #5A4A46",
"8 	c #5B4845",
"9 	c #5A4844",
"0 	c #574541",
"a 	c #564440",
"b 	c #57423F",
"c 	c #583F3D",
"d 	c #583D3B",
"e 	c #553C3C",
"f 	c #553C3D",
"g 	c #543B3C",
"h 	c #533B3C",
"i 	c #563C3B",
"j 	c #573B3A",
"k 	c #553A39",
"l 	c #553B3B",
"m 	c #573C3A",
"n 	c #593D3A",
"o 	c #573B38",
"p 	c #563A36",
"q 	c #563B37",
"r 	c #583B37",
"s 	c #593C37",
"t 	c #593C39",
"u 	c #573C37",
"v 	c #553935",
"w 	c #563836",
"x 	c #573A37",
"y 	c #573B37",
"z 	c #573B36",
"A 	c #563A35",
"B 	c #5A3D3A",
"C 	c #5B3E3A",
"D 	c #5D423A",
"E 	c #5E443B",
"F 	c #5F453E",
"G 	c #61463F",
"H 	c #60463E",
"I 	c #61463E",
"J 	c #62473F",
"K 	c #624740",
"L 	c #604741",
"M 	c #5B4541",
"N 	c #5C443E",
"O 	c #5C443F",
"P 	c #5C4541",
"Q 	c #5E4642",
"R 	c #624944",
"S 	c #634A44",
"T 	c #644B44",
"U 	c #654C45",
"V 	c #695047",
"W 	c #664D45",
"X 	c #664D46",
"Y 	c #624A44",
"Z 	c #624943",
"` 	c #614943",
" .	c #654B44",
"..	c #674E45",
"+.	c #695148",
"@.	c #6A524A",
"#.	c #6B5349",
"$.	c #6C554C",
"%.	c #6C544B",
"&.	c #695149",
"*.	c #54494B",
"=.	c #52484A",
"-.	c #564949",
";.	c #574A49",
">.	c #564746",
",.	c #564644",
"'.	c #554342",
").	c #544343",
"!.	c #574443",
"~.	c #564443",
"{.	c #564444",
"].	c #544546",
"^.	c #53474A",
"/.	c #52464A",
"(.	c #534548",
"_.	c #544547",
":.	c #544445",
"<.	c #544344",
"[.	c #564544",
"}.	c #564442",
"|.	c #584542",
"1.	c #584541",
"2.	c #5A4542",
"3.	c #54403E",
"4.	c #55403E",
"5.	c #563F3D",
"6.	c #533B3B",
"7.	c #523A3A",
"8.	c #52393A",
"9.	c #563B3A",
"0.	c #553B3A",
"a.	c #553B39",
"b.	c #553A36",
"c.	c #533634",
"d.	c #543835",
"e.	c #543736",
"f.	c #553735",
"g.	c #543834",
"h.	c #553934",
"i.	c #543934",
"j.	c #533632",
"k.	c #523533",
"l.	c #533633",
"m.	c #543733",
"n.	c #543933",
"o.	c #553A34",
"p.	c #553A35",
"q.	c #563B36",
"r.	c #5A3D39",
"s.	c #5A3C37",
"t.	c #5B3E38",
"u.	c #5C423B",
"v.	c #5D433C",
"w.	c #5F443C",
"x.	c #5E443D",
"y.	c #5F4641",
"z.	c #5F4742",
"A.	c #5C4440",
"B.	c #5C4542",
"C.	c #614844",
"D.	c #604944",
"E.	c #624A43",
"F.	c #614843",
"G.	c #604843",
"H.	c #6A5146",
"I.	c #694F46",
"J.	c #654C44",
"K.	c #674F47",
"L.	c #524548",
"M.	c #544545",
"N.	c #554645",
"O.	c #544647",
"P.	c #554646",
"Q.	c #534344",
"R.	c #554544",
"S.	c #544444",
"T.	c #534343",
"U.	c #564342",
"V.	c #574342",
"W.	c #554344",
"X.	c #534446",
"Y.	c #564748",
"Z.	c #534648",
"`.	c #534447",
" +	c #544446",
".+	c #554443",
"++	c #554140",
"@+	c #584441",
"#+	c #58433F",
"$+	c #574340",
"%+	c #55403D",
"&+	c #543D3C",
"*+	c #563E3C",
"=+	c #583D3C",
"-+	c #533A3B",
";+	c #523939",
">+	c #4F3738",
",+	c #503737",
"'+	c #4E3535",
")+	c #4F3635",
"!+	c #513736",
"~+	c #533735",
"{+	c #553936",
"]+	c #553634",
"^+	c #553635",
"/+	c #523633",
"(+	c #523532",
"_+	c #533733",
":+	c #543833",
"<+	c #573B35",
"[+	c #5B3F39",
"}+	c #5C403A",
"|+	c #5C423C",
"1+	c #5D423C",
"2+	c #5D423B",
"3+	c #5E433C",
"4+	c #5F453D",
"5+	c #604640",
"6+	c #5E453E",
"7+	c #5D443D",
"8+	c #5F4741",
"9+	c #5F4842",
"0+	c #604842",
"a+	c #614944",
"b+	c #654D45",
"c+	c #674E44",
"d+	c #674D44",
"e+	c #684F45",
"f+	c #674E46",
"g+	c #695248",
"h+	c #504749",
"i+	c #53494C",
"j+	c #544A4D",
"k+	c #554B4D",
"l+	c #534342",
"m+	c #564343",
"n+	c #533E3F",
"o+	c #533F3F",
"p+	c #523F41",
"q+	c #524447",
"r+	c #514549",
"s+	c #524448",
"t+	c #524547",
"u+	c #524345",
"v+	c #524446",
"w+	c #524346",
"x+	c #554242",
"y+	c #55423F",
"z+	c #574441",
"A+	c #55413F",
"B+	c #58423F",
"C+	c #57403E",
"D+	c #553E3D",
"E+	c #563F3E",
"F+	c #543E3D",
"G+	c #543C3C",
"H+	c #523A3B",
"I+	c #51393A",
"J+	c #503838",
"K+	c #4E3839",
"L+	c #4F383A",
"M+	c #513839",
"N+	c #523938",
"O+	c #533A3A",
"P+	c #543936",
"Q+	c #543734",
"R+	c #523634",
"S+	c #543634",
"T+	c #543735",
"U+	c #563A37",
"V+	c #533732",
"W+	c #543732",
"X+	c #563933",
"Y+	c #583C36",
"Z+	c #5A3E38",
"`+	c #5B413A",
" @	c #5E443C",
".@	c #60453D",
"+@	c #5D443C",
"@@	c #5D433B",
"#@	c #5D473F",
"$@	c #5F4843",
"%@	c #5F4743",
"&@	c #5E4743",
"*@	c #604844",
"=@	c #634944",
"-@	c #644A44",
";@	c #664C44",
">@	c #684E44",
",@	c #6C554A",
"'@	c #4F484A",
")@	c #534A4C",
"!@	c #53484A",
"~@	c #574645",
"{@	c #544141",
"]@	c #533F40",
"^@	c #524142",
"/@	c #52474A",
"(@	c #504548",
"_@	c #504346",
":@	c #504344",
"<@	c #4F4244",
"[@	c #504245",
"}@	c #504143",
"|@	c #514244",
"1@	c #534242",
"2@	c #554340",
"3@	c #594441",
"4@	c #573E3D",
"5@	c #59423F",
"6@	c #553F3D",
"7@	c #523B3C",
"8@	c #543B3A",
"9@	c #533939",
"0@	c #523834",
"a@	c #553835",
"b@	c #553734",
"c@	c #533533",
"d@	c #533534",
"e@	c #533833",
"f@	c #563A34",
"g@	c #593D38",
"h@	c #5C4139",
"i@	c #5C413B",
"j@	c #5C433B",
"k@	c #5C433A",
"l@	c #5C4339",
"m@	c #5F443B",
"n@	c #5C433C",
"o@	c #5C433D",
"p@	c #5B4542",
"q@	c #5D4642",
"r@	c #5D4643",
"s@	c #634B41",
"t@	c #614942",
"u@	c #624A42",
"v@	c #634A43",
"w@	c #6E574A",
"x@	c #50494B",
"y@	c #50494A",
"z@	c #52484B",
"A@	c #54484B",
"B@	c #55494B",
"C@	c #544646",
"D@	c #534141",
"E@	c #543F40",
"F@	c #524143",
"G@	c #514447",
"H@	c #514448",
"I@	c #4F4346",
"J@	c #514548",
"K@	c #504448",
"L@	c #4F4345",
"M@	c #4F4245",
"N@	c #4E4243",
"O@	c #4D4041",
"P@	c #4E3F40",
"Q@	c #503F40",
"R@	c #524041",
"S@	c #533F3E",
"T@	c #543E3F",
"U@	c #543F41",
"V@	c #553E40",
"W@	c #523C3E",
"X@	c #513A3B",
"Y@	c #4E383A",
"Z@	c #4D383A",
"`@	c #4F393C",
" #	c #4B3537",
".#	c #4D3738",
"+#	c #4E3738",
"@#	c #4D3636",
"##	c #4D3435",
"$#	c #4E3536",
"%#	c #4F3535",
"&#	c #503433",
"*#	c #513532",
"=#	c #523530",
"-#	c #533631",
";#	c #583B36",
">#	c #593C35",
",#	c #5A3D34",
"'#	c #5B3F37",
")#	c #5B4037",
"!#	c #5B3E36",
"~#	c #5C4138",
"{#	c #5C423A",
"]#	c #5B4440",
"^#	c #5C4540",
"/#	c #644A43",
"(#	c #624942",
"_#	c #604841",
":#	c #654C43",
"<#	c #6E5849",
"[#	c #51494B",
"}#	c #51484B",
"|#	c #534142",
"1#	c #514041",
"2#	c #514143",
"3#	c #504246",
"4#	c #504145",
"5#	c #504347",
"6#	c #4E4041",
"7#	c #4E4042",
"8#	c #4F3F41",
"9#	c #544242",
"0#	c #553F41",
"a#	c #533C3E",
"b#	c #513A3C",
"c#	c #4F393B",
"d#	c #4F3A3C",
"e#	c #4D383B",
"f#	c #4A3638",
"g#	c #4A3538",
"h#	c #4B3639",
"i#	c #4D3639",
"j#	c #513838",
"k#	c #4F3636",
"l#	c #4C3434",
"m#	c #4E3637",
"n#	c #533836",
"o#	c #523631",
"p#	c #533834",
"q#	c #583C37",
"r#	c #593D36",
"s#	c #593E38",
"t#	c #5A3F36",
"u#	c #5C4036",
"v#	c #5D4038",
"w#	c #5E4139",
"x#	c #5D4139",
"y#	c #634A42",
"z#	c #694E42",
"A#	c #694F43",
"B#	c #684E43",
"C#	c #674D43",
"D#	c #6A5043",
"E#	c #725C4B",
"F#	c #564B4F",
"G#	c #564C4F",
"H#	c #574C4F",
"I#	c #534445",
"J#	c #534244",
"K#	c #524042",
"L#	c #514345",
"M#	c #514648",
"N#	c #514649",
"O#	c #504446",
"P#	c #4E4244",
"Q#	c #504244",
"R#	c #504042",
"S#	c #523F40",
"T#	c #584543",
"U#	c #584342",
"V#	c #523C3F",
"W#	c #513B3D",
"X#	c #4D383C",
"Y#	c #4B3638",
"Z#	c #4A3334",
"`#	c #4C3435",
" $	c #4B3332",
".$	c #4D3434",
"+$	c #4E3434",
"@$	c #4B3435",
"#$	c #4B3436",
"$$	c #513735",
"%$	c #513634",
"&$	c #503431",
"*$	c #533734",
"=$	c #523632",
"-$	c #563B35",
";$	c #593C36",
">$	c #583C35",
",$	c #5A3E36",
"'$	c #5C4038",
")$	c #5C4137",
"!$	c #5D4137",
"~$	c #5D4238",
"{$	c #5E433B",
"]$	c #5E463F",
"^$	c #654C42",
"/$	c #674D42",
"($	c #664D44",
"_$	c #664C43",
":$	c #684E45",
"<$	c #685046",
"[$	c #6B5147",
"}$	c #695046",
"|$	c #695045",
"1$	c #6A5143",
"2$	c #735C4C",
"3$	c #574E51",
"4$	c #574D50",
"5$	c #574C50",
"6$	c #564B4E",
"7$	c #524244",
"8$	c #514144",
"9$	c #514245",
"0$	c #504447",
"a$	c #4E4043",
"b$	c #4E4144",
"c$	c #534040",
"d$	c #554243",
"e$	c #554040",
"f$	c #523D3F",
"g$	c #513B3E",
"h$	c #4C383A",
"i$	c #4A363A",
"j$	c #493336",
"k$	c #4A3335",
"l$	c #4C3334",
"m$	c #523735",
"n$	c #523734",
"o$	c #523835",
"p$	c #533936",
"q$	c #5A3D36",
"r$	c #5A3C35",
"s$	c #5C4037",
"t$	c #5E4339",
"u$	c #5E4338",
"v$	c #5F4236",
"w$	c #624438",
"x$	c #624439",
"y$	c #62453A",
"z$	c #63453B",
"A$	c #61453B",
"B$	c #63473D",
"C$	c #634840",
"D$	c #634943",
"E$	c #624841",
"F$	c #634941",
"G$	c #644A41",
"H$	c #664C42",
"I$	c #674C43",
"J$	c #684D43",
"K$	c #664D42",
"L$	c #654B43",
"M$	c #694F44",
"N$	c #695247",
"O$	c #6A5346",
"P$	c #6B5246",
"Q$	c #6B5247",
"R$	c #6C5347",
"S$	c #6B5143",
"T$	c #71594A",
"U$	c #564C4E",
"V$	c #4F4144",
"W$	c #4F4446",
"X$	c #4E4143",
"Y$	c #504041",
"Z$	c #4F3E40",
"`$	c #503E40",
" %	c #513F41",
".%	c #513F42",
"+%	c #533E3E",
"@%	c #503C3E",
"#%	c #4E3A3E",
"$%	c #4D393C",
"%%	c #4C373B",
"&%	c #4B373A",
"*%	c #4C3639",
"=%	c #4B363A",
"-%	c #4C373A",
";%	c #4A3436",
">%	c #4C3536",
",%	c #4B3536",
"'%	c #4B3335",
")%	c #4A3234",
"!%	c #4F3434",
"~%	c #4F3534",
"{%	c #533837",
"]%	c #513737",
"^%	c #513633",
"/%	c #523733",
"(%	c #583A34",
"_%	c #5A3D35",
":%	c #583B34",
"<%	c #593B31",
"[%	c #5B3D34",
"}%	c #5C3D34",
"|%	c #5E4037",
"1%	c #604338",
"2%	c #61433A",
"3%	c #624338",
"4%	c #62453B",
"5%	c #62463B",
"6%	c #63493C",
"7%	c #64483C",
"8%	c #64493F",
"9%	c #654B41",
"0%	c #654B42",
"a%	c #654C40",
"b%	c #654C41",
"c%	c #664C41",
"d%	c #664D43",
"e%	c #694E43",
"f%	c #694F45",
"g%	c #674E43",
"h%	c #694F42",
"i%	c #6A5045",
"j%	c #695243",
"k%	c #6A5345",
"l%	c #6B5345",
"m%	c #6B5344",
"n%	c #6B5244",
"o%	c #715848",
"p%	c #4E4345",
"q%	c #4E4145",
"r%	c #4E4245",
"s%	c #4D3F42",
"t%	c #504043",
"u%	c #503F41",
"v%	c #513E40",
"w%	c #523E41",
"x%	c #523D40",
"y%	c #513C3F",
"z%	c #4F3B3E",
"A%	c #4D393B",
"B%	c #4E383B",
"C%	c #4D373A",
"D%	c #4C3537",
"E%	c #4E3638",
"F%	c #513535",
"G%	c #523635",
"H%	c #513636",
"I%	c #503534",
"J%	c #513734",
"K%	c #573A35",
"L%	c #583B35",
"M%	c #5C3E38",
"N%	c #5F4137",
"O%	c #5E4138",
"P%	c #5E4036",
"Q%	c #614238",
"R%	c #634338",
"S%	c #634439",
"T%	c #63453A",
"U%	c #64453B",
"V%	c #66473A",
"W%	c #64463A",
"X%	c #63463B",
"Y%	c #65493C",
"Z%	c #674B3F",
"`%	c #664A3F",
" &	c #654B3F",
".&	c #644B40",
"+&	c #654B40",
"@&	c #644B41",
"#&	c #684E42",
"$&	c #674E41",
"%&	c #6A5144",
"&&	c #695143",
"*&	c #6A5243",
"=&	c #6A5244",
"-&	c #6B5245",
";&	c #765C4B",
">&	c #514749",
",&	c #51484A",
"'&	c #4E4044",
")&	c #524749",
"!&	c #504144",
"~&	c #4F4043",
"{&	c #514246",
"]&	c #503F42",
"^&	c #503E41",
"/&	c #4F3C3F",
"(&	c #4F3C3E",
"_&	c #4E3B3D",
":&	c #4B3A3C",
"<&	c #4B393B",
"[&	c #4B383B",
"}&	c #4E393B",
"|&	c #543837",
"1&	c #533937",
"2&	c #563B39",
"3&	c #553A37",
"4&	c #593B36",
"5&	c #5B3E37",
"6&	c #604138",
"7&	c #624237",
"8&	c #624339",
"9&	c #634438",
"0&	c #644539",
"a&	c #64453A",
"b&	c #65463A",
"c&	c #644538",
"d&	c #614336",
"e&	c #66493D",
"f&	c #654A3E",
"g&	c #664C40",
"h&	c #664D41",
"i&	c #6A4F43",
"j&	c #6B5346",
"k&	c #6A5145",
"l&	c #6C5348",
"m&	c #6D5346",
"n&	c #755B4B",
"o&	c #51464A",
"p&	c #504648",
"q&	c #4F4145",
"r&	c #514347",
"s&	c #524145",
"t&	c #514145",
"u&	c #524245",
"v&	c #4E3D41",
"w&	c #4F3E43",
"x&	c #503E42",
"y&	c #503D40",
"z&	c #4E3B3E",
"A&	c #4D3B3D",
"B&	c #4C3A3D",
"C&	c #4D3C3F",
"D&	c #4A383B",
"E&	c #4E393C",
"F&	c #503A3B",
"G&	c #553938",
"H&	c #533736",
"I&	c #543935",
"J&	c #543A37",
"K&	c #593D37",
"L&	c #5D3F38",
"M&	c #604139",
"N&	c #634036",
"O&	c #644337",
"P&	c #634337",
"Q&	c #644335",
"R&	c #644537",
"S&	c #634436",
"T&	c #624337",
"U&	c #624538",
"V&	c #64473B",
"W&	c #664A3D",
"X&	c #664B3F",
"Y&	c #664C3E",
"Z&	c #664D3F",
"`&	c #684E41",
" *	c #684F42",
".*	c #684F43",
"+*	c #6B5144",
"@*	c #6C5346",
"#*	c #715A49",
"$*	c #53474B",
"%*	c #4E3E42",
"&*	c #4D3D41",
"**	c #4D3C40",
"=*	c #4F3F42",
"-*	c #4F3D41",
";*	c #4F3E41",
">*	c #4D3B3F",
",*	c #4E3C40",
"'*	c #4A393B",
")*	c #4A3539",
"!*	c #4D3739",
"~*	c #4C3638",
"{*	c #543838",
"]*	c #563937",
"^*	c #563936",
"/*	c #553733",
"(*	c #583A35",
"_*	c #5A3C36",
":*	c #5B3C34",
"<*	c #5D3F36",
"[*	c #5E3F37",
"}*	c #5F3F35",
"|*	c #614136",
"1*	c #634335",
"2*	c #644436",
"3*	c #634539",
"4*	c #634437",
"5*	c #614236",
"6*	c #614237",
"7*	c #644639",
"8*	c #66483B",
"9*	c #674A3D",
"0*	c #674C3D",
"a*	c #674B3B",
"b*	c #684D3F",
"c*	c #694F41",
"d*	c #6A5042",
"e*	c #695042",
"f*	c #6C5446",
"g*	c #715A4A",
"h*	c #4D3E42",
"i*	c #4B3B3E",
"j*	c #4A3A3C",
"k*	c #4B3A3D",
"l*	c #4C3A3E",
"m*	c #4A393C",
"n*	c #4A373B",
"o*	c #4A383C",
"p*	c #4B393C",
"q*	c #4B393D",
"r*	c #4B383C",
"s*	c #49373A",
"t*	c #473539",
"u*	c #483538",
"v*	c #473438",
"w*	c #49383B",
"x*	c #4C383B",
"y*	c #503434",
"z*	c #513534",
"A*	c #523431",
"B*	c #533532",
"C*	c #593A32",
"D*	c #583930",
"E*	c #5B3C32",
"F*	c #5D3D34",
"G*	c #603F34",
"H*	c #5E3D32",
"I*	c #624234",
"J*	c #644435",
"K*	c #634334",
"L*	c #624235",
"M*	c #614133",
"N*	c #614134",
"O*	c #614234",
"P*	c #604134",
"Q*	c #624334",
"R*	c #644536",
"S*	c #654638",
"T*	c #664839",
"U*	c #684A39",
"V*	c #684D3E",
"W*	c #684E3F",
"X*	c #6A4F42",
"Y*	c #6B5343",
"Z*	c #6C5445",
"`*	c #6D5446",
" =	c #6F5748",
".=	c #504547",
"+=	c #514547",
"@=	c #4C3D41",
"#=	c #4C3C40",
"$=	c #4B3A3F",
"%=	c #4B3A3E",
"&=	c #4A3A3D",
"*=	c #4A3A3E",
"==	c #4A373A",
"-=	c #49373B",
";=	c #48363A",
">=	c #4C393C",
",=	c #4D393D",
"'=	c #4D3A3D",
")=	c #4C383C",
"!=	c #493438",
"~=	c #4B3336",
"{=	c #4D3334",
"]=	c #51342F",
"^=	c #543631",
"/=	c #553731",
"(=	c #553730",
"_=	c #56372F",
":=	c #593931",
"<=	c #5C3C33",
"[=	c #604135",
"}=	c #614135",
"|=	c #644434",
"1=	c #624333",
"2=	c #634234",
"3=	c #614233",
"4=	c #654535",
"5=	c #674736",
"6=	c #6A4B3A",
"7=	c #6B4C3B",
"8=	c #6A4B3B",
"9=	c #6A4E40",
"0=	c #684C3C",
"a=	c #6A4D3E",
"b=	c #6B4F41",
"c=	c #6C5345",
"d=	c #6D5444",
"e=	c #6C5344",
"f=	c #6C5545",
"g=	c #49383C",
"h=	c #49363A",
"i=	c #4A393D",
"j=	c #4A363B",
"k=	c #483639",
"l=	c #483539",
"m=	c #483438",
"n=	c #453235",
"o=	c #483236",
"p=	c #473134",
"q=	c #483134",
"r=	c #483235",
"s=	c #463133",
"t=	c #493235",
"u=	c #4C3335",
"v=	c #4E3231",
"w=	c #4F3332",
"x=	c #503330",
"y=	c #53352E",
"z=	c #55362E",
"A=	c #573831",
"B=	c #59392F",
"C=	c #5A392F",
"D=	c #5C3C31",
"E=	c #5F4034",
"F=	c #614033",
"G=	c #604032",
"H=	c #624232",
"I=	c #624231",
"J=	c #634233",
"K=	c #644232",
"L=	c #624130",
"M=	c #614131",
"N=	c #614231",
"O=	c #604031",
"P=	c #604131",
"Q=	c #5F4031",
"R=	c #614232",
"S=	c #634332",
"T=	c #694938",
"U=	c #6B4D3C",
"V=	c #6B4C3C",
"W=	c #6C4E3D",
"X=	c #6B4E3E",
"Y=	c #6C503F",
"Z=	c #6C4F40",
"`=	c #6C5141",
" -	c #6E5443",
".-	c #6D5343",
"+-	c #6E5545",
"@-	c #6D5545",
"#-	c #6B5545",
"$-	c #6B5446",
"%-	c #6D5445",
"&-	c #6E5647",
"*-	c #6D5546",
"=-	c #70584A",
"--	c #54484C",
";-	c #4C3C3F",
">-	c #49373C",
",-	c #49363B",
"'-	c #473337",
")-	c #463337",
"!-	c #473235",
"~-	c #463336",
"{-	c #493539",
"]-	c #483437",
"^-	c #4B3538",
"/-	c #473336",
"(-	c #4B3437",
"_-	c #4C3233",
":-	c #4D3131",
"<-	c #4C302F",
"[-	c #4F3231",
"}-	c #4F3230",
"|-	c #503430",
"1-	c #51342E",
"2-	c #563730",
"3-	c #56362E",
"4-	c #58372F",
"5-	c #5D3D32",
"6-	c #5F3F32",
"7-	c #614132",
"8-	c #634130",
"9-	c #624230",
"0-	c #654330",
"a-	c #644430",
"b-	c #634432",
"c-	c #634433",
"d-	c #634230",
"e-	c #634331",
"f-	c #634231",
"g-	c #644330",
"h-	c #634333",
"i-	c #654534",
"j-	c #664635",
"k-	c #674735",
"l-	c #684836",
"m-	c #684837",
"n-	c #694939",
"o-	c #6A4C3A",
"p-	c #6A4D3B",
"q-	c #6A4E3D",
"r-	c #6A4F3E",
"s-	c #6A4F3D",
"t-	c #6B5040",
"u-	c #6C5443",
"v-	c #6B5444",
"w-	c #6C5444",
"x-	c #6F5646",
"y-	c #705746",
"z-	c #6E5646",
"A-	c #6D5744",
"B-	c #6C5644",
"C-	c #6F5747",
"D-	c #4E3F42",
"E-	c #4F4246",
"F-	c #504345",
"G-	c #4D3F43",
"H-	c #4B3B3F",
"I-	c #48373A",
"J-	c #453539",
"K-	c #49353A",
"L-	c #48353A",
"M-	c #473236",
"N-	c #463236",
"O-	c #473135",
"P-	c #4B3337",
"Q-	c #4B3539",
"R-	c #4A3233",
"S-	c #483030",
"T-	c #482E2E",
"U-	c #4C2F2E",
"V-	c #4E312F",
"W-	c #4E312E",
"X-	c #513430",
"Y-	c #53342E",
"Z-	c #55352D",
"`-	c #54342B",
" ;	c #5B3A30",
".;	c #5D3D31",
"+;	c #5E3E32",
"@;	c #603F32",
"#;	c #624133",
"$;	c #644334",
"%;	c #644332",
"&;	c #644331",
"*;	c #634330",
"=;	c #63422D",
"-;	c #63412F",
";;	c #644130",
">;	c #64432F",
",;	c #654533",
"';	c #684835",
");	c #694A37",
"!;	c #6A4A37",
"~;	c #6A4B38",
"{;	c #6B4E3C",
"];	c #6B503D",
"^;	c #6B533F",
"/;	c #6D5542",
"(;	c #6D5645",
"_;	c #725847",
":;	c #715846",
"<;	c #725846",
"[;	c #735947",
"};	c #725946",
"|;	c #705647",
"1;	c #725947",
"2;	c #725A48",
"3;	c #745B48",
"4;	c #725948",
"5;	c #745A48",
"6;	c #4D3D3F",
"7;	c #4C3B3F",
"8;	c #4E3F43",
"9;	c #48383A",
"0;	c #473538",
"a;	c #463335",
"b;	c #453133",
"c;	c #483337",
"d;	c #483336",
"e;	c #483135",
"f;	c #493234",
"g;	c #472F30",
"h;	c #472E2E",
"i;	c #492E2D",
"j;	c #4B2E2C",
"k;	c #4C2F2B",
"l;	c #4C2F2C",
"m;	c #4D302C",
"n;	c #4F302B",
"o;	c #51322B",
"p;	c #54342C",
"q;	c #54352D",
"r;	c #57372E",
"s;	c #59382D",
"t;	c #5B3A2F",
"u;	c #5D3C30",
"v;	c #634132",
"w;	c #654431",
"x;	c #654433",
"y;	c #644431",
"z;	c #64432E",
"A;	c #64432D",
"B;	c #64442E",
"C;	c #664634",
"D;	c #684935",
"E;	c #6B4B37",
"F;	c #6A4B35",
"G;	c #6B4C33",
"H;	c #6B4C36",
"I;	c #6B4C38",
"J;	c #6C4D3C",
"K;	c #6C513C",
"L;	c #6C533E",
"M;	c #6D5341",
"N;	c #6D5541",
"O;	c #6B5541",
"P;	c #6C5540",
"Q;	c #6E5543",
"R;	c #705744",
"S;	c #735A46",
"T;	c #745A47",
"U;	c #755B47",
"V;	c #755B48",
"W;	c #745A49",
"X;	c #755B49",
"Y;	c #775C49",
"Z;	c #49393B",
"`;	c #4B3B3D",
" >	c #4C3D3F",
".>	c #4F3F43",
"+>	c #4C3C3E",
"@>	c #483739",
"#>	c #4A3639",
"$>	c #493337",
"%>	c #483133",
"&>	c #493032",
"*>	c #492F2F",
"=>	c #492F2E",
"->	c #4A302F",
";>	c #4C2F2D",
">>	c #4F322F",
",>	c #50322E",
"'>	c #51332E",
")>	c #55352C",
"!>	c #55352B",
"~>	c #57372B",
"{>	c #5A392D",
"]>	c #5B3A2D",
"^>	c #603C2D",
"/>	c #613F30",
"(>	c #63402E",
"_>	c #64422D",
":>	c #654432",
"<>	c #65442E",
"[>	c #64442D",
"}>	c #664633",
"|>	c #694B35",
"1>	c #6A4D35",
"2>	c #6A4B34",
"3>	c #6B4D34",
"4>	c #6B4E39",
"5>	c #6E503B",
"6>	c #6F523C",
"7>	c #71543C",
"8>	c #70553F",
"9>	c #715743",
"0>	c #715742",
"a>	c #715842",
"b>	c #745944",
"c>	c #755A45",
"d>	c #755B46",
"e>	c #765C47",
"f>	c #765C49",
"g>	c #765B47",
"h>	c #755A48",
"i>	c #765C48",
"j>	c #765B48",
"k>	c #765B49",
"l>	c #785E4A",
"m>	c #503C3D",
"n>	c #49393A",
"o>	c #48393A",
"p>	c #493A3B",
"q>	c #4E4346",
"r>	c #473437",
"s>	c #493538",
"t>	c #463033",
"u>	c #462F32",
"v>	c #493031",
"w>	c #493030",
"x>	c #4A2F2F",
"y>	c #4D302E",
"z>	c #4D2F2B",
"A>	c #4F312D",
"B>	c #51332C",
"C>	c #54342D",
"D>	c #54342A",
"E>	c #553529",
"F>	c #5B392D",
"G>	c #5E3B30",
"H>	c #5D3B2E",
"I>	c #5F3C2E",
"J>	c #603D2E",
"K>	c #63402D",
"L>	c #65422D",
"M>	c #64432C",
"N>	c #65442F",
"O>	c #664631",
"P>	c #684834",
"Q>	c #6B4A35",
"R>	c #694934",
"S>	c #6B4C34",
"T>	c #6F5037",
"U>	c #70523B",
"V>	c #70523C",
"W>	c #73553F",
"X>	c #74563F",
"Y>	c #745844",
"Z>	c #735843",
"`>	c #755944",
" ,	c #755B45",
".,	c #765C46",
"+,	c #765B46",
"@,	c #775C48",
"#,	c #785D49",
"$,	c #775D49",
"%,	c #795F4A",
"&,	c #79604C",
"*,	c #7C624F",
"=,	c #49383A",
"-,	c #4C3B3E",
";,	c #4D3D42",
">,	c #4D4043",
",,	c #4D4144",
"',	c #4F4344",
"),	c #4B3C3F",
"!,	c #48383B",
"~,	c #463438",
"{,	c #493135",
"],	c #493133",
"^,	c #4A2E2F",
"/,	c #4A2D2C",
"(,	c #4A2E2E",
"_,	c #4B2F2E",
":,	c #4F322E",
"<,	c #4F312C",
"[,	c #51332B",
"},	c #53332B",
"|,	c #56352B",
"1,	c #59392B",
"2,	c #5B3A2C",
"3,	c #5E3C2D",
"4,	c #633D2E",
"5,	c #653F2E",
"6,	c #643F2C",
"7,	c #64442F",
"8,	c #63432D",
"9,	c #65442C",
"0,	c #66452D",
"a,	c #67472F",
"b,	c #684830",
"c,	c #694931",
"d,	c #6B4E34",
"e,	c #704E38",
"f,	c #72523A",
"g,	c #74553D",
"h,	c #73543C",
"i,	c #74563E",
"j,	c #745640",
"k,	c #735740",
"l,	c #745943",
"m,	c #755A44",
"n,	c #765B45",
"o,	c #785D48",
"p,	c #795E49",
"q,	c #785E49",
"r,	c #775D48",
"s,	c #7A604D",
"t,	c #7E6350",
"u,	c #826451",
"v,	c #493639",
"w,	c #4A383A",
"x,	c #4A3235",
"y,	c #4A3132",
"z,	c #4A2F31",
"A,	c #4C3030",
"B,	c #4B2E2D",
"C,	c #4C2E2A",
"D,	c #4F2F29",
"E,	c #4F302C",
"F,	c #50312B",
"G,	c #503029",
"H,	c #51312A",
"I,	c #533229",
"J,	c #523128",
"K,	c #513228",
"L,	c #513127",
"M,	c #583729",
"N,	c #58392A",
"O,	c #5D3B2C",
"P,	c #5F3B2C",
"Q,	c #633E2C",
"R,	c #643F2B",
"S,	c #64422F",
"T,	c #654430",
"U,	c #66452E",
"V,	c #66462C",
"W,	c #67472E",
"X,	c #694930",
"Y,	c #6A4A32",
"Z,	c #6C4E35",
"`,	c #6F5239",
" '	c #72553B",
".'	c #73553C",
"+'	c #755641",
"@'	c #755844",
"#'	c #755843",
"$'	c #745A44",
"%'	c #79604B",
"&'	c #7B614D",
"*'	c #806350",
"='	c #806451",
"-'	c #7C6352",
";'	c #765D4C",
">'	c #513E3F",
",'	c #4D3C41",
"''	c #4D3E41",
")'	c #4D3D40",
"!'	c #473439",
"~'	c #463538",
"{'	c #473639",
"]'	c #4A373C",
"^'	c #493436",
"/'	c #4B3133",
"('	c #4B3030",
"_'	c #4A2E2D",
":'	c #4E302C",
"<'	c #52332F",
"['	c #53332C",
"}'	c #53332A",
"|'	c #52332A",
"1'	c #533129",
"2'	c #503127",
"3'	c #523226",
"4'	c #543427",
"5'	c #573629",
"6'	c #5A3929",
"7'	c #5A3A29",
"8'	c #5F3C2B",
"9'	c #633F2B",
"0'	c #63422E",
"a'	c #65442D",
"b'	c #63422B",
"c'	c #62422C",
"d'	c #65452F",
"e'	c #674631",
"f'	c #674730",
"g'	c #6A4B32",
"h'	c #6A4B33",
"i'	c #6B4B33",
"j'	c #6B4D35",
"k'	c #6E5239",
"l'	c #72543B",
"m'	c #74543B",
"n'	c #74553C",
"o'	c #765743",
"p'	c #755943",
"q'	c #7C614C",
"r'	c #7B6350",
"s'	c #7A6351",
"t'	c #7C6351",
"u'	c #745D4A",
"v'	c #5F493A",
"w'	c #4A352C",
"x'	c #4D3A3C",
"y'	c #4F4044",
"z'	c #463539",
"A'	c #463338",
"B'	c #453337",
"C'	c #493437",
"D'	c #492E30",
"E'	c #4A2F30",
"F'	c #4B2F2C",
"G'	c #4B2F2D",
"H'	c #4B2E2A",
"I'	c #4E302A",
"J'	c #4E3029",
"K'	c #543129",
"L'	c #54322A",
"M'	c #523229",
"N'	c #543429",
"O'	c #563629",
"P'	c #57362A",
"Q'	c #58382A",
"R'	c #593829",
"S'	c #5C3B2A",
"T'	c #5D3B2A",
"U'	c #5C3B27",
"V'	c #613D2A",
"W'	c #60402C",
"X'	c #63422C",
"Y'	c #62412A",
"Z'	c #66452C",
"`'	c #664530",
" )	c #674731",
".)	c #674733",
"+)	c #6B4D33",
"@)	c #6D4F36",
"#)	c #6E5038",
"$)	c #71533A",
"%)	c #74553B",
"&)	c #76583F",
"*)	c #755942",
"=)	c #755841",
"-)	c #745942",
";)	c #745A45",
">)	c #785F4A",
",)	c #78604B",
"')	c #79614C",
"))	c #79624F",
"!)	c #796350",
"~)	c #796452",
"{)	c #76604D",
"])	c #6C5747",
"^)	c #4C3830",
"/)	c #311E19",
"()	c #35211C",
"_)	c #463439",
":)	c #443237",
"<)	c #493134",
"[)	c #482F31",
"})	c #472E2F",
"|)	c #492F30",
"1)	c #4B302F",
"2)	c #4C302D",
"3)	c #4D302B",
"4)	c #513129",
"5)	c #55332A",
"6)	c #54322B",
"7)	c #533328",
"8)	c #533227",
"9)	c #553428",
"0)	c #573729",
"a)	c #59382A",
"b)	c #5A3A27",
"c)	c #5C3A28",
"d)	c #5E3D28",
"e)	c #61402B",
"f)	c #63412C",
"g)	c #66442C",
"h)	c #67462F",
"i)	c #684933",
"j)	c #6B4E35",
"k)	c #6D5036",
"l)	c #705339",
"m)	c #6D5237",
"n)	c #6B4F35",
"o)	c #6E5137",
"p)	c #705338",
"q)	c #74553A",
"r)	c #75553B",
"s)	c #75563C",
"t)	c #75583F",
"u)	c #755840",
"v)	c #79614B",
"w)	c #79604A",
"x)	c #79614D",
"y)	c #79634E",
"z)	c #796251",
"A)	c #6E5749",
"B)	c #533D32",
"C)	c #341F19",
"D)	c #2B1915",
"E)	c #301D18",
"F)	c #382421",
"G)	c #4D3B3E",
"H)	c #4A3B3D",
"I)	c #4C3D40",
"J)	c #4D3C3E",
"K)	c #4A383D",
"L)	c #453236",
"M)	c #493132",
"N)	c #4A3030",
"O)	c #4D2F2A",
"P)	c #50312A",
"Q)	c #51322A",
"R)	c #523129",
"S)	c #533228",
"T)	c #503228",
"U)	c #513229",
"V)	c #533327",
"W)	c #543326",
"X)	c #553528",
"Y)	c #573728",
"Z)	c #593826",
"`)	c #5A3927",
" !	c #5B3B27",
".!	c #5E3B29",
"+!	c #5F3D2A",
"@!	c #603F2B",
"#!	c #5F402B",
"$!	c #64412B",
"%!	c #64422C",
"&!	c #66452F",
"*!	c #68472E",
"=!	c #6B5035",
"-!	c #6C5237",
";!	c #6C5035",
">!	c #6F5238",
",!	c #75563D",
"'!	c #75563B",
")!	c #75573F",
"!!	c #775C47",
"~!	c #795F49",
"{!	c #78614C",
"]!	c #765D4A",
"^!	c #77604D",
"/!	c #705848",
"(!	c #5B4538",
"_!	c #3A251F",
":!	c #2D1915",
"<!	c #2A1915",
"[!	c #311D18",
"}!	c #341E19",
"|!	c #3A2621",
"1!	c #503B3D",
"2!	c #4E3D42",
"3!	c #48363B",
"4!	c #48373B",
"5!	c #483032",
"6!	c #482F30",
"7!	c #482F2F",
"8!	c #4A2F2D",
"9!	c #4C2F2A",
"0!	c #4D3029",
"a!	c #4F302A",
"b!	c #52302A",
"c!	c #523329",
"d!	c #533329",
"e!	c #503128",
"f!	c #56362A",
"g!	c #56372A",
"h!	c #593828",
"i!	c #593929",
"j!	c #5B3A27",
"k!	c #5D3E2B",
"l!	c #5E402A",
"m!	c #60412A",
"n!	c #64422B",
"o!	c #694932",
"p!	c #6E5238",
"q!	c #6F5339",
"r!	c #72543A",
"s!	c #73543A",
"t!	c #75553A",
"u!	c #75553C",
"v!	c #75573E",
"w!	c #745A43",
"x!	c #6E5645",
"y!	c #5E4739",
"z!	c #402A22",
"A!	c #2F1813",
"B!	c #2D1814",
"C!	c #301C18",
"D!	c #311D19",
"E!	c #341F1A",
"F!	c #37211B",
"G!	c #3C2623",
"H!	c #513C3D",
"I!	c #503A3D",
"J!	c #503D41",
"K!	c #493B3C",
"L!	c #453338",
"M!	c #453437",
"N!	c #473638",
"O!	c #453237",
"P!	c #493335",
"Q!	c #493233",
"R!	c #4A3031",
"S!	c #49302E",
"T!	c #4B302E",
"U!	c #4D312B",
"V!	c #53312A",
"W!	c #523328",
"X!	c #55342A",
"Y!	c #57362C",
"Z!	c #57372A",
"`!	c #563527",
" ~	c #583828",
".~	c #583928",
"+~	c #5A3A26",
"@~	c #5C3B25",
"#~	c #5D3E28",
"$~	c #5F3F29",
"%~	c #63412B",
"&~	c #66452B",
"*~	c #684831",
"=~	c #694A30",
"-~	c #6A4B31",
";~	c #71543A",
">~	c #74573E",
",~	c #745841",
"'~	c #755C47",
")~	c #705745",
"!~	c #604939",
"~~	c #463126",
"{~	c #341C17",
"]~	c #321B16",
"^~	c #331D18",
"/~	c #321F19",
"(~	c #331F19",
"_~	c #38251F",
":~	c #39231D",
"<~	c #3C2824",
"[~	c #533E40",
"}~	c #514043",
"|~	c #4F3F44",
"1~	c #4E3D40",
"2~	c #4F3C40",
"3~	c #4A393E",
"4~	c #47363A",
"5~	c #473032",
"6~	c #4B3230",
"7~	c #4A302E",
"8~	c #492F2D",
"9~	c #4A2F2E",
"0~	c #4C2F28",
"a~	c #4C2E29",
"b~	c #55352A",
"c~	c #57382B",
"d~	c #583829",
"e~	c #583728",
"f~	c #563528",
"g~	c #573727",
"h~	c #563526",
"i~	c #573626",
"j~	c #583824",
"k~	c #5A3A25",
"l~	c #5C3B24",
"m~	c #5D3C26",
"n~	c #5F4029",
"o~	c #61412A",
"p~	c #624129",
"q~	c #614129",
"r~	c #64442B",
"s~	c #67462C",
"t~	c #68482F",
"u~	c #6C4F35",
"v~	c #6D5338",
"w~	c #705439",
"x~	c #73553B",
"y~	c #74543A",
"z~	c #75573D",
"A~	c #745941",
"B~	c #755A43",
"C~	c #725A43",
"D~	c #715941",
"E~	c #6F563F",
"F~	c #644C3A",
"G~	c #4D382B",
"H~	c #36201A",
"I~	c #331B16",
"J~	c #341D18",
"K~	c #331E19",
"L~	c #331E18",
"M~	c #33221A",
"N~	c #34201A",
"O~	c #35211A",
"P~	c #38231C",
"Q~	c #3D2826",
"R~	c #503F44",
"S~	c #47353A",
"T~	c #443337",
"U~	c #433337",
"V~	c #453135",
"W~	c #463134",
"X~	c #482F32",
"Y~	c #4B3132",
"Z~	c #482E2D",
"`~	c #482D2D",
" {	c #4B2E2B",
".{	c #482E2C",
"+{	c #4A2E2C",
"@{	c #4F322A",
"#{	c #503229",
"${	c #51332A",
"%{	c #543329",
"&{	c #563429",
"*{	c #553628",
"={	c #563729",
"-{	c #573829",
";{	c #573628",
">{	c #573827",
",{	c #573725",
"'{	c #5B3B25",
"){	c #5E3E28",
"!{	c #62422A",
"~{	c #63422A",
"{{	c #65442B",
"]{	c #67462E",
"^{	c #6A4E34",
"/{	c #6C5137",
"({	c #6E5338",
"_{	c #6E5339",
":{	c #705238",
"<{	c #74563B",
"[{	c #74563C",
"}{	c #74573F",
"|{	c #6E563D",
"1{	c #6E563E",
"2{	c #67513B",
"3{	c #553E30",
"4{	c #39221A",
"5{	c #311C17",
"6{	c #321E19",
"7{	c #39241F",
"8{	c #35201A",
"9{	c #36221B",
"0{	c #3E2A26",
"a{	c #523E3D",
"b{	c #504146",
"c{	c #524347",
"d{	c #514346",
"e{	c #504044",
"f{	c #503F43",
"g{	c #503E43",
"h{	c #4B3C3E",
"i{	c #4A3B3C",
"j{	c #463437",
"k{	c #473033",
"l{	c #4A2F2C",
"m{	c #482F2E",
"n{	c #492E2C",
"o{	c #4C302A",
"p{	c #4C302B",
"q{	c #4D302A",
"r{	c #4E2F2B",
"s{	c #4F3128",
"t{	c #503129",
"u{	c #523227",
"v{	c #543426",
"w{	c #553427",
"x{	c #573726",
"y{	c #563625",
"z{	c #5D3B26",
"A{	c #603F28",
"B{	c #614028",
"C{	c #64432A",
"D{	c #67472D",
"E{	c #694A31",
"F{	c #6D5137",
"G{	c #6D5238",
"H{	c #715439",
"I{	c #725439",
"J{	c #70553C",
"K{	c #6E553C",
"L{	c #6C553F",
"M{	c #6A543D",
"N{	c #624D38",
"O{	c #554131",
"P{	c #432E23",
"Q{	c #341E18",
"R{	c #352019",
"S{	c #34211A",
"T{	c #37231D",
"U{	c #37221C",
"V{	c #38251E",
"W{	c #3E2A23",
"X{	c #533D3E",
"Y{	c #513F43",
"Z{	c #513E43",
"`{	c #503D42",
" ]	c #442F32",
".]	c #452F32",
"+]	c #452D30",
"@]	c #462E2F",
"#]	c #472D2B",
"$]	c #482C2A",
"%]	c #482C28",
"&]	c #4B2E28",
"*]	c #4B2E27",
"=]	c #4E302B",
"-]	c #4C3029",
";]	c #4E3028",
">]	c #543325",
",]	c #543327",
"']	c #58372A",
")]	c #5A3A2A",
"!]	c #5A3B28",
"~]	c #5C3C28",
"{]	c #5F3E2A",
"]]	c #614029",
"^]	c #67462B",
"/]	c #69482E",
"(]	c #715339",
"_]	c #735439",
":]	c #73543B",
"<]	c #73563E",
"[]	c #71553F",
"}]	c #69523C",
"|]	c #5E4938",
"1]	c #4F372A",
"2]	c #40291F",
"3]	c #3B241D",
"4]	c #38231B",
"5]	c #35231A",
"6]	c #35221A",
"7]	c #36211A",
"8]	c #342019",
"9]	c #37231B",
"0]	c #36241B",
"a]	c #37241C",
"b]	c #36231B",
"c]	c #38251D",
"d]	c #3E2A24",
"e]	c #513D3D",
"f]	c #524343",
"g]	c #514142",
"h]	c #513F44",
"i]	c #4E3C41",
"j]	c #4C3A3F",
"k]	c #453336",
"l]	c #442E32",
"m]	c #452E31",
"n]	c #472E31",
"o]	c #472E2D",
"p]	c #4A2E2B",
"q]	c #4B2E29",
"r]	c #4B2D27",
"s]	c #4E3129",
"t]	c #4F3129",
"u]	c #543428",
"v]	c #563627",
"w]	c #5D3C27",
"x]	c #5F3E28",
"y]	c #68472D",
"z]	c #69492F",
"A]	c #6B4C32",
"B]	c #6D5037",
"C]	c #71543B",
"D]	c #6F553D",
"E]	c #684E3B",
"F]	c #5C4235",
"G]	c #4D352A",
"H]	c #452C24",
"I]	c #402721",
"J]	c #3D261F",
"K]	c #38241B",
"L]	c #38241C",
"M]	c #3A231D",
"N]	c #3A241E",
"O]	c #3A251E",
"P]	c #3B231D",
"Q]	c #3B241E",
"R]	c #39241D",
"S]	c #39241C",
"T]	c #3E2924",
"U]	c #503D3D",
"V]	c #503F3D",
"W]	c #524241",
"X]	c #524242",
"Y]	c #524246",
"Z]	c #4C3B40",
"`]	c #453034",
" ^	c #452F33",
".^	c #442D30",
"+^	c #462D30",
"@^	c #462D2E",
"#^	c #462C2C",
"$^	c #482C2B",
"%^	c #482B29",
"&^	c #492C29",
"*^	c #4A2C28",
"=^	c #4D2F29",
"-^	c #4E312B",
";^	c #50322A",
">^	c #503126",
",^	c #523228",
"'^	c #503026",
")^	c #523225",
"!^	c #533325",
"~^	c #533226",
"{^	c #543324",
"]^	c #543422",
"^^	c #583825",
"/^	c #5C3A25",
"(^	c #5C3E27",
"_^	c #60412B",
":^	c #68482D",
"<^	c #6A4C33",
"[^	c #6E5138",
"}^	c #70523A",
"|^	c #694E39",
"1^	c #5E4435",
"2^	c #52362B",
"3^	c #4A2F26",
"4^	c #462C23",
"5^	c #432821",
"6^	c #41251E",
"7^	c #3B251E",
"8^	c #3A241D",
"9^	c #3F2720",
"0^	c #3F2923",
"a^	c #3E2722",
"b^	c #402923",
"c^	c #412923",
"d^	c #3E2721",
"e^	c #3C241E",
"f^	c #39251F",
"g^	c #3D2822",
"h^	c #513E3E",
"i^	c #514240",
"j^	c #534443",
"k^	c #524243",
"l^	c #534345",
"m^	c #524144",
"n^	c #463135",
"o^	c #452D2E",
"p^	c #452C2D",
"q^	c #492D2A",
"r^	c #4A2D29",
"s^	c #4B2D29",
"t^	c #4B2D2A",
"u^	c #4E312A",
"v^	c #4E2E26",
"w^	c #513124",
"x^	c #533326",
"y^	c #543425",
"z^	c #553424",
"A^	c #5A3925",
"B^	c #5D3B25",
"C^	c #5E3D26",
"D^	c #5F3F28",
"E^	c #64432B",
"F^	c #67472C",
"G^	c #68472C",
"H^	c #6F5237",
"I^	c #6F5036",
"J^	c #6F5138",
"K^	c #6D4E38",
"L^	c #644634",
"M^	c #5A3D2E",
"N^	c #4F3227",
"O^	c #472A22",
"P^	c #452A23",
"Q^	c #472B24",
"R^	c #472B25",
"S^	c #482C27",
"T^	c #462A23",
"U^	c #412823",
"V^	c #432923",
"W^	c #442B25",
"X^	c #472D29",
"Y^	c #482D29",
"Z^	c #442B27",
"`^	c #442A25",
" /	c #432A24",
"./	c #412822",
"+/	c #422822",
"@/	c #3F2620",
"#/	c #3C2620",
"$/	c #3B2621",
"%/	c #39251D",
"&/	c #39241E",
"*/	c #3E2822",
"=/	c #554647",
"-/	c #564849",
";/	c #554848",
">/	c #442F33",
",/	c #442E31",
"'/	c #462E30",
")/	c #482D2E",
"!/	c #482D2C",
"~/	c #472C2C",
"{/	c #492C28",
"]/	c #4A2D2A",
"^/	c #4C2E2B",
"//	c #52322A",
"(/	c #4D2F28",
"_/	c #4F3029",
":/	c #513028",
"</	c #533125",
"[/	c #543225",
"}/	c #543323",
"|/	c #553522",
"1/	c #583726",
"2/	c #5B3A24",
"3/	c #5F3E26",
"4/	c #604029",
"5/	c #6B4B32",
"6/	c #6F5137",
"7/	c #6E5036",
"8/	c #6C4E34",
"9/	c #6B4B35",
"0/	c #694B34",
"a/	c #624330",
"b/	c #5B3D2D",
"c/	c #513327",
"d/	c #4D3027",
"e/	c #4A2D25",
"f/	c #492C25",
"g/	c #4B2F28",
"h/	c #4D312A",
"i/	c #4F322C",
"j/	c #4F322D",
"k/	c #4D312C",
"l/	c #4C3129",
"m/	c #482E26",
"n/	c #472E26",
"o/	c #442A24",
"p/	c #442A23",
"q/	c #432922",
"r/	c #422821",
"s/	c #3E2620",
"t/	c #3B2823",
"u/	c #3B2620",
"v/	c #3A2520",
"w/	c #402924",
"x/	c #564947",
"y/	c #534549",
"z/	c #492D2B",
"A/	c #472B2A",
"B/	c #4E2E2B",
"C/	c #4D2E2B",
"D/	c #4C2E27",
"E/	c #4C2E26",
"F/	c #543229",
"G/	c #54332B",
"H/	c #533225",
"I/	c #533323",
"J/	c #533320",
"K/	c #543423",
"L/	c #563624",
"M/	c #5A3924",
"N/	c #5F3D27",
"O/	c #603E29",
"P/	c #63412A",
"Q/	c #6D4F35",
"R/	c #705137",
"S/	c #6C4D34",
"T/	c #6D4E35",
"U/	c #6A4C34",
"V/	c #63452E",
"W/	c #5A3A2C",
"X/	c #4F2F24",
"Y/	c #4A2C24",
"Z/	c #4C2F27",
"`/	c #51342A",
" (	c #52352C",
".(	c #52342C",
"+(	c #56372E",
"@(	c #563A30",
"#(	c #593D34",
"$(	c #573A31",
"%(	c #543731",
"&(	c #52352F",
"*(	c #51342C",
"=(	c #50332B",
"-(	c #4F312A",
";(	c #4B2D26",
">(	c #482C26",
",(	c #452A24",
"'(	c #452921",
")(	c #44271F",
"!(	c #442721",
"~(	c #402620",
"{(	c #3D2621",
"](	c #564846",
"^(	c #524445",
"/(	c #514243",
"((	c #514446",
"_(	c #4C3C41",
":(	c #453033",
"<(	c #452E32",
"[(	c #482D2F",
"}(	c #4C2E2E",
"|(	c #4A2D2B",
"1(	c #53342A",
"2(	c #54352C",
"3(	c #55372C",
"4(	c #56372C",
"5(	c #543527",
"6(	c #533421",
"7(	c #533420",
"8(	c #543322",
"9(	c #543520",
"0(	c #553621",
"a(	c #5E3C26",
"b(	c #64402B",
"c(	c #67462D",
"d(	c #735339",
"e(	c #705036",
"f(	c #694A32",
"g(	c #5E3D2C",
"h(	c #4F3024",
"i(	c #4B2C22",
"j(	c #4E2F26",
"k(	c #53352B",
"l(	c #593A30",
"m(	c #5A3C33",
"n(	c #613F32",
"o(	c #65493D",
"p(	c #65483C",
"q(	c #61443A",
"r(	c #614338",
"s(	c #604136",
"t(	c #5E3E36",
"u(	c #5F4036",
"v(	c #5B3D35",
"w(	c #5A3B34",
"x(	c #4F322B",
"y(	c #4D3129",
"z(	c #4B2E26",
"A(	c #4B2D25",
"B(	c #482C24",
"C(	c #452820",
"D(	c #442922",
"E(	c #3D2520",
"F(	c #3A2620",
"G(	c #463034",
"H(	c #492F32",
"I(	c #482D2A",
"J(	c #50322B",
"K(	c #58372E",
"L(	c #664339",
"M(	c #754D40",
"N(	c #764C3E",
"O(	c #6B4537",
"P(	c #5F3B2E",
"Q(	c #58362A",
"R(	c #573627",
"S(	c #563525",
"T(	c #573623",
"U(	c #54361F",
"V(	c #55371F",
"W(	c #593922",
"X(	c #5F3A26",
"Y(	c #5F3B26",
"Z(	c #6D4D34",
"`(	c #725238",
" _	c #6F4D35",
"._	c #5B3926",
"+_	c #533121",
"@_	c #5B3B30",
"#_	c #6B4B3C",
"$_	c #6F4F3F",
"%_	c #745142",
"&_	c #785344",
"*_	c #765545",
"=_	c #715043",
"-_	c #684A3D",
";_	c #65473B",
">_	c #6A483C",
",_	c #6A4A3E",
"'_	c #68493D",
")_	c #64463B",
"!_	c #614337",
"~_	c #4D3028",
"{_	c #452821",
"]_	c #46261E",
"^_	c #45271F",
"/_	c #45261D",
"(_	c #3F241D",
"__	c #39231C",
":_	c #37251D",
"<_	c #584945",
"[_	c #554648",
"}_	c #4E3E43",
"|_	c #4F3D42",
"1_	c #523E43",
"2_	c #493033",
"3_	c #4B2D2C",
"4_	c #4B2D2B",
"5_	c #623F35",
"6_	c #825044",
"7_	c #9B6256",
"8_	c #A76B5E",
"9_	c #A76A5D",
"0_	c #9D6254",
"a_	c #935C4F",
"b_	c #875649",
"c_	c #7E5143",
"d_	c #6C4738",
"e_	c #654434",
"f_	c #613F2E",
"g_	c #603E2B",
"h_	c #613A28",
"i_	c #623C28",
"j_	c #633B29",
"k_	c #643C29",
"l_	c #65412B",
"m_	c #6B4A31",
"n_	c #6F4D34",
"o_	c #704C34",
"p_	c #724F37",
"q_	c #6F4C34",
"r_	c #67422F",
"s_	c #5F3A2C",
"t_	c #5D372A",
"u_	c #653E2F",
"v_	c #6C4537",
"w_	c #714B3D",
"x_	c #745241",
"y_	c #795745",
"z_	c #7F5B49",
"A_	c #835D4C",
"B_	c #835D4B",
"C_	c #7D5A48",
"D_	c #7E5847",
"E_	c #7B5445",
"F_	c #7A5846",
"G_	c #765143",
"H_	c #704D40",
"I_	c #714D40",
"J_	c #734E42",
"K_	c #735043",
"L_	c #704D41",
"M_	c #6C4C3E",
"N_	c #65463B",
"O_	c #5F4037",
"P_	c #593A31",
"Q_	c #57372C",
"R_	c #4C2E25",
"S_	c #482921",
"T_	c #46271F",
"U_	c #45251C",
"V_	c #42241C",
"W_	c #40251E",
"X_	c #3E241D",
"Y_	c #36231C",
"Z_	c #5C4B47",
"`_	c #534444",
" :	c #514344",
".:	c #4D3E43",
"+:	c #514044",
"@:	c #514146",
"#:	c #534144",
"$:	c #524044",
"%:	c #4B3234",
"&:	c #4B3233",
"*:	c #653E33",
"=:	c #895649",
"-:	c #9A5E51",
";:	c #B17465",
">:	c #B37566",
",:	c #A96B59",
"':	c #A86A57",
"):	c #A96A58",
"!:	c #A36858",
"~:	c #A16859",
"{:	c #986455",
"]:	c #8E5D4D",
"^:	c #87574A",
"/:	c #825446",
"(:	c #7E4F42",
"_:	c #7C4C3F",
"::	c #774838",
"<:	c #6E4734",
"[:	c #6B4632",
"}:	c #67432F",
"|:	c #67432E",
"1:	c #694430",
"2:	c #6A4330",
"3:	c #694330",
"4:	c #68422F",
"5:	c #67402D",
"6:	c #673F30",
"7:	c #623A2C",
"8:	c #653B30",
"9:	c #724537",
"0:	c #7C4C3E",
"a:	c #865646",
"b:	c #8B5D4C",
"c:	c #8B5E4D",
"d:	c #906351",
"e:	c #946654",
"f:	c #956554",
"g:	c #916451",
"h:	c #895C4B",
"i:	c #835748",
"j:	c #7E5345",
"k:	c #795345",
"l:	c #795043",
"m:	c #7B5144",
"n:	c #7A5043",
"o:	c #754F41",
"p:	c #734E40",
"q:	c #6E4B3D",
"r:	c #664739",
"s:	c #624238",
"t:	c #5F3D34",
"u:	c #5D3C31",
"v:	c #5C3B30",
"w:	c #59382E",
"x:	c #56362C",
"y:	c #4F3026",
"z:	c #4D2E25",
"A:	c #4A2B23",
"B:	c #462A22",
"C:	c #45261E",
"D:	c #3A221C",
"E:	c #624E48",
"F:	c #5B4945",
"G:	c #574644",
"H:	c #514045",
"I:	c #513E42",
"J:	c #483033",
"K:	c #4A3032",
"L:	c #4D3232",
"M:	c #6A433C",
"N:	c #996054",
"O:	c #AB6D5E",
"P:	c #A66958",
"Q:	c #C18573",
"R:	c #A76C5B",
"S:	c #9A5F50",
"T:	c #A16354",
"U:	c #AF6F5D",
"V:	c #B67663",
"W:	c #B77969",
"X:	c #AE7261",
"Y:	c #AA6E5E",
"Z:	c #A36859",
"`:	c #9B6356",
" <	c #976052",
".<	c #915A4C",
"+<	c #855346",
"@<	c #835145",
"#<	c #815043",
"$<	c #7B4D40",
"%<	c #784A3D",
"&<	c #744839",
"*<	c #704538",
"=<	c #714337",
"-<	c #7C4B3F",
";<	c #885548",
"><	c #955F51",
",<	c #986354",
"'<	c #9B6657",
")<	c #9D6758",
"!<	c #9D6658",
"~<	c #A06A5B",
"{<	c #A16C5D",
"]<	c #9E6A5C",
"^<	c #996759",
"/<	c #936352",
"(<	c #8D5C4C",
"_<	c #875648",
":<	c #845647",
"<<	c #845547",
"[<	c #815346",
"}<	c #794F42",
"|<	c #734C3D",
"1<	c #6D4A3A",
"2<	c #694637",
"3<	c #664336",
"4<	c #643D33",
"5<	c #5F3A2F",
"6<	c #5D3A2E",
"7<	c #5B392E",
"8<	c #58362B",
"9<	c #513126",
"0<	c #4B2C24",
"a<	c #462820",
"b<	c #44261E",
"c<	c #40241C",
"d<	c #38211B",
"e<	c #624D46",
"f<	c #5E4A45",
"g<	c #4E3E40",
"h<	c #534245",
"i<	c #4E3A3D",
"j<	c #65413B",
"k<	c #945B4D",
"l<	c #B57564",
"m<	c #BF806F",
"n<	c #A96C5A",
"o<	c #C58673",
"p<	c #985C49",
"q<	c #905241",
"r<	c #9C5E4D",
"s<	c #B97766",
"t<	c #C68574",
"u<	c #C68575",
"v<	c #BB7B6A",
"w<	c #B47564",
"x<	c #AB6C5B",
"y<	c #A76A5A",
"z<	c #A86B5B",
"A<	c #AA6D5F",
"B<	c #A16758",
"C<	c #9E6456",
"D<	c #965E51",
"E<	c #915C4F",
"F<	c #8D584B",
"G<	c #885448",
"H<	c #895447",
"I<	c #905648",
"J<	c #9C604F",
"K<	c #A56654",
"L<	c #A96B58",
"M<	c #AE7160",
"N<	c #AF7161",
"O<	c #B17564",
"P<	c #AE7465",
"Q<	c #AB7163",
"R<	c #AA7162",
"S<	c #A87061",
"T<	c #A36C5E",
"U<	c #9D6759",
"V<	c #936151",
"W<	c #8E5B4D",
"X<	c #8C574B",
"Y<	c #845347",
"Z<	c #7E5044",
"`<	c #805144",
" [	c #774D40",
".[	c #724A3A",
"+[	c #6C4837",
"@[	c #664133",
"#[	c #653C31",
"$[	c #603B2E",
"%[	c #5B382B",
"&[	c #573529",
"*[	c #503027",
"=[	c #47271F",
"-[	c #43251C",
";[	c #3E231D",
">[	c #3A211B",
",[	c #38201A",
"'[	c #38221C",
")[	c #36201B",
"![	c #5C4A46",
"~[	c #574544",
"{[	c #524344",
"][	c #4F3E42",
"^[	c #4C3538",
"/[	c #4D3638",
"([	c #65403B",
"_[	c #965C4F",
":[	c #A36152",
"<[	c #BF7B6A",
"[[	c #C1816F",
"}[	c #AA6D5A",
"|[	c #C58571",
"1[	c #8E5542",
"2[	c #89503F",
"3[	c #9C604E",
"4[	c #B57664",
"5[	c #B87C6B",
"6[	c #B47462",
"7[	c #AD6D5A",
"8[	c #A96A59",
"9[	c #AE6D5C",
"0[	c #B2705E",
"a[	c #B77464",
"b[	c #B97868",
"c[	c #BB7868",
"d[	c #B77363",
"e[	c #B47261",
"f[	c #B2705F",
"g[	c #AF705F",
"h[	c #AE6D5D",
"i[	c #AE6B5A",
"j[	c #AF705E",
"k[	c #B57665",
"l[	c #BB7A69",
"m[	c #B77866",
"n[	c #B77A69",
"o[	c #B98270",
"p[	c #B9806F",
"q[	c #B67C6B",
"r[	c #B67969",
"s[	c #B87D6C",
"t[	c #B27667",
"u[	c #AC7265",
"v[	c #A86D5F",
"w[	c #A46C5E",
"x[	c #976355",
"y[	c #8C584B",
"z[	c #855246",
"A[	c #7D4E41",
"B[	c #7B4C3E",
"C[	c #76493B",
"D[	c #724838",
"E[	c #6B4534",
"F[	c #684233",
"G[	c #663E30",
"H[	c #64392D",
"I[	c #603A2D",
"J[	c #593429",
"K[	c #553127",
"L[	c #553329",
"M[	c #492A22",
"N[	c #47281F",
"O[	c #47271E",
"P[	c #42251C",
"Q[	c #3F251D",
"R[	c #3D231D",
"S[	c #3B221C",
"T[	c #615049",
"U[	c #5A4B47",
"V[	c #4D3536",
"W[	c #5C3D3A",
"X[	c #975E50",
"Y[	c #BA7463",
"Z[	c #BF7965",
"`[	c #C6816C",
" }	c #B97966",
".}	c #A06553",
"+}	c #C17F6D",
"@}	c #874E3D",
"#}	c #844E40",
"$}	c #9F6354",
"%}	c #AB6D5C",
"&}	c #A76B5B",
"*}	c #A76959",
"=}	c #AD6D5C",
"-}	c #B87362",
";}	c #C37C6B",
">}	c #C47F6E",
",}	c #C57F6E",
"'}	c #C48070",
")}	c #C88270",
"!}	c #C78170",
"~}	c #C27D6C",
"{}	c #C28171",
"]}	c #C38371",
"^}	c #C2806D",
"/}	c #C48372",
"(}	c #C58776",
"_}	c #C48675",
":}	c #C58775",
"<}	c #C38675",
"[}	c #C18675",
"}}	c #C38776",
"|}	c #C28775",
"1}	c #BB8573",
"2}	c #B87E6D",
"3}	c #B4796A",
"4}	c #AA6F61",
"5}	c #A56B5C",
"6}	c #A06758",
"7}	c #9C6557",
"8}	c #955E52",
"9}	c #92594F",
"0}	c #8E584C",
"a}	c #8D574A",
"b}	c #885447",
"c}	c #875346",
"d}	c #844E42",
"e}	c #78493B",
"f}	c #6B4034",
"g}	c #673C2F",
"h}	c #653A2C",
"i}	c #62382B",
"j}	c #5F382C",
"k}	c #5A362B",
"l}	c #59362A",
"m}	c #56352A",
"n}	c #56342A",
"o}	c #472922",
"p}	c #462922",
"q}	c #42251E",
"r}	c #321D18",
"s}	c #624F4A",
"t}	c #4D3F41",
"u}	c #524045",
"v}	c #4C393B",
"w}	c #5A3E3B",
"x}	c #8B5448",
"y}	c #B57362",
"z}	c #C17967",
"A}	c #C8826D",
"B}	c #CB856F",
"C}	c #B1705C",
"D}	c #8B5847",
"E}	c #B47262",
"F}	c #7F4A3C",
"G}	c #855245",
"H}	c #935B4D",
"I}	c #9A5E50",
"J}	c #A96958",
"K}	c #B87564",
"L}	c #C37969",
"M}	c #C97B6B",
"N}	c #CB7E6D",
"O}	c #C9806E",
"P}	c #C98574",
"Q}	c #C88675",
"R}	c #C98775",
"S}	c #C88674",
"T}	c #C78574",
"U}	c #C88877",
"V}	c #C98A7A",
"W}	c #CD9080",
"X}	c #D09485",
"Y}	c #CE9283",
"Z}	c #CC9284",
"`}	c #C98C7C",
" |	c #C98D7D",
".|	c #C78C7C",
"+|	c #BC8674",
"@|	c #B98372",
"#|	c #B57969",
"$|	c #AC7365",
"%|	c #AA7062",
"&|	c #A66B5C",
"*|	c #A26758",
"=|	c #9C6657",
"-|	c #986154",
";|	c #935A4E",
">|	c #955B4F",
",|	c #925A4D",
"'|	c #875144",
")|	c #7F4C3E",
"!|	c #784738",
"~|	c #704236",
"{|	c #6B3C31",
"]|	c #693F31",
"^|	c #683E32",
"/|	c #663C32",
"(|	c #643E34",
"_|	c #5F3B2F",
":|	c #5B382C",
"<|	c #59362B",
"[|	c #43251D",
"}|	c #3F241C",
"||	c #351E19",
"1|	c #301C17",
"2|	c #2A1612",
"3|	c #5C4E47",
"4|	c #493A3C",
"5|	c #503B3E",
"6|	c #573D3D",
"7|	c #8C5347",
"8|	c #B56C5C",
"9|	c #C6816E",
"0|	c #B36A58",
"a|	c #CB846F",
"b|	c #AE6B59",
"c|	c #764737",
"d|	c #91584B",
"e|	c #7A493C",
"f|	c #8E564A",
"g|	c #A66355",
"h|	c #B66D5D",
"i|	c #C47666",
"j|	c #C87B6B",
"k|	c #C97C6B",
"l|	c #CC826F",
"m|	c #CA8673",
"n|	c #CB8975",
"o|	c #CA8A79",
"p|	c #C98978",
"q|	c #C88978",
"r|	c #C88979",
"s|	c #CB8F80",
"t|	c #D49788",
"u|	c #D59788",
"v|	c #D29688",
"w|	c #CD9487",
"x|	c #CB9486",
"y|	c #CB9284",
"z|	c #C48C7D",
"A|	c #B88777",
"B|	c #B98271",
"C|	c #B77B6B",
"D|	c #AF7466",
"E|	c #A96F61",
"F|	c #A96F60",
"G|	c #A56959",
"H|	c #985F52",
"I|	c #92584B",
"J|	c #894F42",
"K|	c #814B3D",
"L|	c #7A4939",
"M|	c #764838",
"N|	c #764638",
"O|	c #774639",
"P|	c #79483C",
"Q|	c #78493C",
"R|	c #734738",
"S|	c #694434",
"T|	c #58372C",
"U|	c #46271E",
"V|	c #41251D",
"W|	c #361E19",
"X|	c #342119",
"Y|	c #321E18",
"Z|	c #2C1813",
"`|	c #2B1410",
" 1	c #291714",
".1	c #291713",
"+1	c #2B1612",
"@1	c #554845",
"#1	c #4E3D3E",
"$1	c #49393C",
"%1	c #4D3E3F",
"&1	c #4E3B3F",
"*1	c #543D3D",
"=1	c #7F4D43",
"-1	c #B76A5B",
";1	c #C67969",
">1	c #CE8B7C",
",1	c #D09180",
"'1	c #AF6B5A",
")1	c #B76F5E",
"!1	c #B3705F",
"~1	c #6F3C2F",
"{1	c #794136",
"]1	c #92574A",
"^1	c #AD6757",
"/1	c #C67767",
"(1	c #C77969",
"_1	c #C9796A",
":1	c #CC7B6C",
"<1	c #CD8571",
"[1	c #D08D7A",
"}1	c #D19180",
"|1	c #D29384",
"11	c #D09385",
"21	c #CB9182",
"31	c #CA9183",
"41	c #CA9182",
"51	c #CD9183",
"61	c #CF9587",
"71	c #CE9488",
"81	c #CA9386",
"91	c #C79182",
"01	c #C18A7B",
"a1	c #B88574",
"b1	c #B47A6B",
"c1	c #AF7465",
"d1	c #A86E5F",
"e1	c #A76D5E",
"f1	c #A16657",
"g1	c #985C4D",
"h1	c #905548",
"i1	c #854C3F",
"j1	c #7F4A3B",
"k1	c #7D4A3B",
"l1	c #7C4A3C",
"m1	c #7E4C3F",
"n1	c #814E42",
"o1	c #7B4C3F",
"p1	c #784B3C",
"q1	c #694234",
"r1	c #583429",
"s1	c #4B2B23",
"t1	c #492922",
"u1	c #472821",
"v1	c #462721",
"w1	c #2F1B17",
"x1	c #2E1B17",
"y1	c #2A1713",
"z1	c #2B130F",
"A1	c #2C130E",
"B1	c #2A1511",
"C1	c #2F1914",
"D1	c #4B3D3B",
"E1	c #423538",
"F1	c #393232",
"G1	c #3A3130",
"H1	c #47383A",
"I1	c #453538",
"J1	c #403437",
"K1	c #413337",
"L1	c #45363A",
"M1	c #49393D",
"N1	c #513E41",
"O1	c #513D41",
"P1	c #4F3C41",
"Q1	c #4F3A3D",
"R1	c #4C3A3C",
"S1	c #4C3B3D",
"T1	c #714640",
"U1	c #B26A5C",
"V1	c #CF7F6F",
"W1	c #D28876",
"X1	c #D1917F",
"Y1	c #D29282",
"Z1	c #B97768",
"`1	c #894B40",
" 2	c #763F33",
".2	c #8D5140",
"+2	c #AD6555",
"@2	c #C07565",
"#2	c #CB7D6C",
"$2	c #C8806F",
"%2	c #CA8774",
"&2	c #CD8976",
"*2	c #D08F7D",
"=2	c #D79686",
"-2	c #D29485",
";2	c #D29486",
">2	c #D29687",
",2	c #D19587",
"'2	c #D09587",
")2	c #D19A8A",
"!2	c #D19C8B",
"~2	c #D19586",
"{2	c #CE9284",
"]2	c #CF9486",
"^2	c #CE9387",
"/2	c #CA9084",
"(2	c #BE8777",
"_2	c #B98371",
":2	c #B77D6B",
"<2	c #A76C5C",
"[2	c #A0685A",
"}2	c #A06657",
"|2	c #9C6152",
"12	c #93584A",
"22	c #8A4E3F",
"32	c #854B3B",
"42	c #844A3B",
"52	c #804A3C",
"62	c #865044",
"72	c #845144",
"82	c #7C4E40",
"92	c #774A3D",
"02	c #714638",
"a2	c #673F31",
"b2	c #5D372C",
"c2	c #543026",
"d2	c #502F26",
"e2	c #4C2D25",
"f2	c #4A2C25",
"g2	c #482A23",
"h2	c #452822",
"i2	c #3A221B",
"j2	c #301B17",
"k2	c #2B140F",
"l2	c #2C1511",
"m2	c #2E1712",
"n2	c #321C16",
"o2	c #49332A",
"p2	c #5B4338",
"q2	c #423434",
"r2	c #383132",
"s2	c #282624",
"t2	c #292523",
"u2	c #373033",
"v2	c #383032",
"w2	c #352E30",
"x2	c #383336",
"y2	c #3B3335",
"z2	c #3A3233",
"A2	c #3E3234",
"B2	c #413336",
"C2	c #423337",
"D2	c #4B3C40",
"E2	c #4A3B3E",
"F2	c #524043",
"G2	c #523E42",
"H2	c #523B3D",
"I2	c #513D40",
"J2	c #5E3E3D",
"K2	c #A36355",
"L2	c #C87C6C",
"M2	c #CB7C6C",
"N2	c #D18673",
"O2	c #D48E7B",
"P2	c #CD8070",
"Q2	c #AD695B",
"R2	c #6F3A2F",
"S2	c #784034",
"T2	c #915143",
"U2	c #A25B4B",
"V2	c #B46757",
"W2	c #CB7F6F",
"X2	c #CC8573",
"Y2	c #CB8A78",
"Z2	c #CC8C7A",
"`2	c #D09080",
" 3	c #CF9182",
".3	c #D49688",
"+3	c #D19485",
"@3	c #D49687",
"#3	c #D69788",
"$3	c #D39688",
"%3	c #D19689",
"&3	c #CE988A",
"*3	c #CE9E8D",
"=3	c #CE9587",
"-3	c #CA9283",
";3	c #C38879",
">3	c #B3796A",
",3	c #AF7567",
"'3	c #AC7163",
")3	c #9B6154",
"!3	c #965E4F",
"~3	c #955C4D",
"{3	c #925648",
"]3	c #8C5142",
"^3	c #874D40",
"/3	c #874D41",
"(3	c #8A5145",
"_3	c #8C5549",
":3	c #814F42",
"<3	c #704537",
"[3	c #643C2F",
"}3	c #5A3329",
"|3	c #562E26",
"13	c #532D26",
"23	c #512C26",
"33	c #4F2D27",
"43	c #482B25",
"53	c #422620",
"63	c #38221B",
"73	c #2C1814",
"83	c #2D1712",
"93	c #301C19",
"03	c #352320",
"a3	c #3D2A27",
"b3	c #483630",
"c3	c #554038",
"d3	c #614C3D",
"e3	c #695541",
"f3	c #6D5944",
"g3	c #735B48",
"h3	c #38302E",
"i3	c #272626",
"j3	c #191A19",
"k3	c #1D1D1C",
"l3	c #2C2A2C",
"m3	c #2E2B2D",
"n3	c #2E2926",
"o3	c #353030",
"p3	c #363132",
"q3	c #2F2A29",
"r3	c #312A28",
"s3	c #372F2F",
"t3	c #3B3133",
"u3	c #4D3B40",
"v3	c #523D42",
"w3	c #513D42",
"x3	c #503C3F",
"y3	c #4F3B3F",
"z3	c #523E40",
"A3	c #523D41",
"B3	c #533C3D",
"C3	c #533B3D",
"D3	c #4D3A3B",
"E3	c #824F45",
"F3	c #C67967",
"G3	c #CE8A74",
"H3	c #C5806D",
"I3	c #B06959",
"J3	c #BD7162",
"K3	c #B16859",
"L3	c #8B4C3F",
"M3	c #773C2F",
"N3	c #985445",
"O3	c #A75B4C",
"P3	c #AA5D4E",
"Q3	c #B06354",
"R3	c #BA6F60",
"S3	c #C27E6D",
"T3	c #CD8D7C",
"U3	c #CA8977",
"V3	c #CF8E7D",
"W3	c #D09283",
"X3	c #D19588",
"Y3	c #CC9388",
"Z3	c #CC9588",
"`3	c #CB9487",
" 4	c #C99284",
".4	c #C58D7D",
"+4	c #B5796B",
"@4	c #AB7062",
"#4	c #A2685A",
"$4	c #9F6558",
"%4	c #9B6155",
"&4	c #955C50",
"*4	c #92594C",
"=4	c #895245",
"-4	c #8A5143",
";4	c #8C5446",
">4	c #8E5446",
",4	c #8D5447",
"'4	c #8F574A",
")4	c #8A5549",
"!4	c #825043",
"~4	c #663D30",
"{4	c #5F3529",
"]4	c #572F26",
"^4	c #553025",
"/4	c #563228",
"(4	c #532E29",
"_4	c #4E2E28",
":4	c #492B27",
"<4	c #472824",
"[4	c #452621",
"}4	c #3E221D",
"|4	c #371E19",
"14	c #351D17",
"24	c #351C17",
"34	c #36231F",
"44	c #3F2A25",
"54	c #45312C",
"64	c #4C3933",
"74	c #54413A",
"84	c #5F4C3E",
"94	c #675342",
"04	c #6B5745",
"a4	c #6C5A44",
"b4	c #6D5B44",
"c4	c #705B45",
"d4	c #725B47",
"e4	c #755C48",
"f4	c #25241F",
"g4	c #151916",
"h4	c #121514",
"i4	c #161817",
"j4	c #262626",
"k4	c #20201F",
"l4	c #1D1E1B",
"m4	c #2A2929",
"n4	c #2D2B2C",
"o4	c #1F201E",
"p4	c #252523",
"q4	c #242321",
"r4	c #2D2825",
"s4	c #403234",
"t4	c #483A3A",
"u4	c #513C40",
"v4	c #543B3D",
"w4	c #543C3D",
"x4	c #583C3B",
"y4	c #AD6454",
"z4	c #CE8570",
"A4	c #D08B74",
"B4	c #D3907D",
"C4	c #B67667",
"D4	c #85493E",
"E4	c #7E4236",
"F4	c #814033",
"G4	c #9C5646",
"H4	c #AE6654",
"I4	c #AC6151",
"J4	c #A95B4D",
"K4	c #A65B4C",
"L4	c #A55D4F",
"M4	c #B67867",
"N4	c #C68776",
"O4	c #CA8976",
"P4	c #BF7F6C",
"Q4	c #D09182",
"R4	c #D69685",
"S4	c #D79788",
"T4	c #C09082",
"U4	c #BB8879",
"V4	c #AF7768",
"W4	c #955D50",
"X4	c #8F574C",
"Y4	c #8E5449",
"Z4	c #8A5246",
"`4	c #834A3E",
" 5	c #834A3D",
".5	c #854D40",
"+5	c #854E41",
"@5	c #844D40",
"#5	c #814D40",
"$5	c #7E4A3E",
"%5	c #704337",
"&5	c #653B2F",
"*5	c #5C332A",
"=5	c #5A3229",
"-5	c #573027",
";5	c #583329",
">5	c #533128",
",5	c #4D2E27",
"'5	c #492B24",
")5	c #42251F",
"!5	c #3C211B",
"~5	c #3A201A",
"{5	c #39201A",
"]5	c #3A201B",
"^5	c #3C231D",
"/5	c #422922",
"(5	c #4C322B",
"_5	c #523931",
":5	c #584037",
"<5	c #5E493C",
"[5	c #64513F",
"}5	c #695642",
"|5	c #6B5943",
"15	c #6E5B45",
"25	c #6C5B45",
"35	c #6C5B43",
"45	c #6E5B44",
"55	c #6D5B43",
"65	c #745C47",
"75	c #1C1A16",
"85	c #101414",
"95	c #131414",
"05	c #151715",
"a5	c #181B19",
"b5	c #171917",
"c5	c #131514",
"d5	c #181A18",
"e5	c #161917",
"f5	c #191B19",
"g5	c #131615",
"h5	c #292524",
"i5	c #3D3235",
"j5	c #463738",
"k5	c #423335",
"l5	c #453436",
"m5	c #523C40",
"n5	c #523C3D",
"o5	c #553D3F",
"p5	c #583F3F",
"q5	c #583F3E",
"r5	c #7D4A41",
"s5	c #C77863",
"t5	c #DC9578",
"u5	c #E49981",
"v5	c #CE8874",
"w5	c #AC6E60",
"x5	c #884D41",
"y5	c #904E3F",
"z5	c #A65C4D",
"A5	c #BB7161",
"B5	c #B76C5B",
"C5	c #AE6253",
"D5	c #A75A4C",
"E5	c #A05F4F",
"F5	c #B47664",
"G5	c #BB8270",
"H5	c #BC7F6D",
"I5	c #BE7E6B",
"J5	c #C1816E",
"K5	c #C98977",
"L5	c #CA8775",
"M5	c #CD8B78",
"N5	c #C78C7D",
"O5	c #C48B7B",
"P5	c #BE8E81",
"Q5	c #B38072",
"R5	c #A97063",
"S5	c #9A6255",
"T5	c #945C50",
"U5	c #8C5145",
"V5	c #8D5246",
"W5	c #874C40",
"X5	c #854A3E",
"Y5	c #864F42",
"Z5	c #854D41",
"`5	c #764337",
" 6	c #724235",
".6	c #673A2F",
"+6	c #60372D",
"@6	c #583128",
"#6	c #552E26",
"$6	c #532E26",
"%6	c #502B24",
"&6	c #4B2A22",
"*6	c #492921",
"=6	c #45251E",
"-6	c #3D211A",
";6	c #3A1E19",
">6	c #3B201A",
",6	c #492D26",
"'6	c #51352E",
")6	c #553B32",
"!6	c #5A4136",
"~6	c #644F3E",
"{6	c #695442",
"]6	c #6B5843",
"^6	c #6F5B45",
"/6	c #735D47",
"(6	c #131310",
"_6	c #0E1313",
":6	c #111414",
"<6	c #151815",
"[6	c #111514",
"}6	c #111714",
"|6	c #101715",
"16	c #111513",
"26	c #0E1210",
"36	c #262321",
"46	c #362F2F",
"56	c #3A2F2F",
"66	c #403333",
"76	c #382E2A",
"86	c #423333",
"96	c #4F3A3E",
"06	c #58403E",
"a6	c #5A423E",
"b6	c #563D3C",
"c6	c #533D3C",
"d6	c #533F3C",
"e6	c #533C3C",
"f6	c #563939",
"g6	c #AE624E",
"h6	c #D48974",
"i6	c #E79A84",
"j6	c #E39782",
"k6	c #C17B68",
"l6	c #9E5C4B",
"m6	c #A45B4C",
"n6	c #B06655",
"o6	c #BB6D5B",
"p6	c #BD705F",
"q6	c #BE7261",
"r6	c #AD6352",
"s6	c #A55E4F",
"t6	c #A56655",
"u6	c #B07261",
"v6	c #B37564",
"w6	c #B87A69",
"x6	c #B77667",
"y6	c #BF7968",
"z6	c #C37D6D",
"A6	c #C37F6F",
"B6	c #BD7C6D",
"C6	c #B37767",
"D6	c #B07567",
"E6	c #AC7466",
"F6	c #A97466",
"G6	c #9F675A",
"H6	c #8F584C",
"I6	c #8E554A",
"J6	c #8C5147",
"K6	c #905347",
"L6	c #98594B",
"M6	c #925548",
"N6	c #93574B",
"O6	c #81483C",
"P6	c #763F34",
"Q6	c #723A2F",
"R6	c #6F3C31",
"S6	c #65382B",
"T6	c #5C3227",
"U6	c #50281F",
"V6	c #4A261E",
"W6	c #48231B",
"X6	c #4A251C",
"Y6	c #47241C",
"Z6	c #43221A",
"`6	c #42231C",
" 7	c #44251E",
".7	c #4F3329",
"+7	c #573D32",
"@7	c #5C4337",
"#7	c #5F463A",
"$7	c #634A3C",
"%7	c #65503E",
"&7	c #685540",
"*7	c #6A5942",
"=7	c #6C5A43",
"-7	c #715C46",
";7	c #6F5C45",
">7	c #745E48",
",7	c #181917",
"'7	c #141615",
")7	c #131513",
"!7	c #111313",
"~7	c #0F1213",
"{7	c #0C0E0F",
"]7	c #0F1514",
"^7	c #131815",
"/7	c #101413",
"(7	c #0F1413",
"_7	c #242424",
":7	c #332D2F",
"<7	c #322B2B",
"[7	c #433335",
"}7	c #302825",
"|7	c #2E2824",
"17	c #453335",
"27	c #503B3C",
"37	c #503A3C",
"47	c #523A3C",
"57	c #533B3A",
"67	c #573D3B",
"77	c #5B413D",
"87	c #5B423C",
"97	c #5A403C",
"07	c #57413D",
"a7	c #533E3C",
"b7	c #4B3739",
"c7	c #7D4A42",
"d7	c #C87865",
"e7	c #CF8670",
"f7	c #D28873",
"g7	c #BD725E",
"h7	c #A75D4B",
"i7	c #B36453",
"j7	c #C16F5B",
"k7	c #C07160",
"l7	c #C2725F",
"m7	c #C17260",
"n7	c #C77766",
"o7	c #BA6C5C",
"p7	c #A65D4D",
"q7	c #9D594A",
"r7	c #9A5A4B",
"s7	c #9E6050",
"t7	c #945747",
"u7	c #975B4D",
"v7	c #995C4D",
"w7	c #9E6052",
"x7	c #A76859",
"y7	c #AD6A5B",
"z7	c #AF6D5D",
"A7	c #AB6A5B",
"B7	c #A06458",
"C7	c #965D51",
"D7	c #8D554A",
"E7	c #895449",
"F7	c #824E43",
"G7	c #895147",
"H7	c #8F5549",
"I7	c #8D5145",
"J7	c #96584A",
"K7	c #9B5B4C",
"L7	c #8E5347",
"M7	c #7F4A3D",
"N7	c #784437",
"O7	c #743C33",
"P7	c #6D342A",
"Q7	c #623127",
"R7	c #592D22",
"S7	c #54291E",
"T7	c #4D251E",
"U7	c #48221C",
"V7	c #46211A",
"W7	c #452019",
"X7	c #46231B",
"Y7	c #503328",
"Z7	c #5D4236",
"`7	c #674B3E",
" 8	c #67503F",
".8	c #685240",
"+8	c #6A5441",
"@8	c #6B5742",
"#8	c #6C5842",
"$8	c #6E5C45",
"%8	c #1B1C18",
"&8	c #1A1B1A",
"*8	c #181918",
"=8	c #121413",
"-8	c #101312",
";8	c #0E1112",
">8	c #0D1011",
",8	c #121715",
"'8	c #0F1412",
")8	c #1E1F1E",
"!8	c #2C2B2D",
"~8	c #2A2927",
"{8	c #2A2723",
"]8	c #443637",
"^8	c #2C2724",
"/8	c #23211C",
"(8	c #403233",
"_8	c #4C3739",
":8	c #503837",
"<8	c #4F3736",
"[8	c #50393A",
"}8	c #604039",
"|8	c #5D403A",
"18	c #5C413C",
"28	c #5B433C",
"38	c #573F3B",
"48	c #54403C",
"58	c #503839",
"68	c #4B3434",
"78	c #5A3A36",
"88	c #B46C5C",
"98	c #CE846F",
"08	c #C36F59",
"a8	c #B55D46",
"b8	c #AF553C",
"c8	c #B65F4B",
"d8	c #C8725C",
"e8	c #C8715A",
"f8	c #C47462",
"g8	c #C2715E",
"h8	c #C0705D",
"i8	c #BD6B56",
"j8	c #A45C4A",
"k8	c #8B4C3A",
"l8	c #7D4234",
"m8	c #763D31",
"n8	c #783F32",
"o8	c #7E463A",
"p8	c #7B4236",
"q8	c #7E4439",
"r8	c #884D40",
"s8	c #8C5143",
"t8	c #8E5144",
"u8	c #875042",
"v8	c #7F4B3E",
"w8	c #7D493D",
"x8	c #7A463C",
"y8	c #714137",
"z8	c #683B30",
"A8	c #6A3B31",
"B8	c #743E34",
"C8	c #8E5244",
"D8	c #985C4E",
"E8	c #A06253",
"F8	c #985C4F",
"G8	c #894F45",
"H8	c #7B463A",
"I8	c #6D3C31",
"J8	c #5F3127",
"K8	c #53261D",
"L8	c #50261E",
"M8	c #4E281F",
"N8	c #4B271E",
"O8	c #4B2820",
"P8	c #5D3F30",
"Q8	c #654834",
"R8	c #6B4F38",
"S8	c #6B5239",
"T8	c #6B553D",
"U8	c #6B553F",
"V8	c #6B543D",
"W8	c #68553E",
"X8	c #6A5640",
"Y8	c #6B5741",
"Z8	c #6C5942",
"`8	c #6C5A42",
" 9	c #6E5B43",
".9	c #6F5B44",
"+9	c #725B45",
"@9	c #6F5B43",
"#9	c #1E1D1B",
"$9	c #1B1C1A",
"%9	c #121412",
"&9	c #181A19",
"*9	c #141716",
"=9	c #0E1414",
"-9	c #101514",
";9	c #1B1D1A",
">9	c #1F211D",
",9	c #272623",
"'9	c #37302E",
")9	c #211F1C",
"!9	c #1C1D18",
"~9	c #342E2B",
"{9	c #3A2F2D",
"]9	c #382F2A",
"^9	c #3D312F",
"/9	c #412F2E",
"(9	c #4A3537",
"_9	c #4B3334",
":9	c #523737",
"<9	c #583833",
"[9	c #8A5C38",
"}9	c #B57041",
"|9	c #A15836",
"19	c #7B4837",
"29	c #614339",
"39	c #57423C",
"49	c #543D3B",
"59	c #905445",
"69	c #CD836D",
"79	c #CC836D",
"89	c #BC644F",
"99	c #B0543B",
"09	c #B4553C",
"a9	c #BF644C",
"b9	c #C87159",
"c9	c #C46F59",
"d9	c #B96957",
"e9	c #AB5F4F",
"f9	c #904D3E",
"g9	c #70372B",
"h9	c #643128",
"i9	c #4D231C",
"j9	c #361914",
"k9	c #45241E",
"l9	c #5A2E24",
"m9	c #68352C",
"n9	c #6A372D",
"o9	c #6A342B",
"p9	c #6D382C",
"q9	c #67352A",
"r9	c #633128",
"s9	c #5C2F26",
"t9	c #572D25",
"u9	c #4F261F",
"v9	c #53261E",
"w9	c #68362B",
"x9	c #7C4439",
"y9	c #925749",
"z9	c #A46656",
"A9	c #A56756",
"B9	c #94594B",
"C9	c #824A3E",
"D9	c #69362C",
"E9	c #572C23",
"F9	c #4A241C",
"G9	c #4C271F",
"H9	c #4C2820",
"I9	c #502C22",
"J9	c #5A382A",
"K9	c #6C4E39",
"L9	c #6F533C",
"M9	c #71563E",
"N9	c #6C553B",
"O9	c #6F553C",
"P9	c #6E563C",
"Q9	c #6C583E",
"R9	c #6D583F",
"S9	c #6D5940",
"T9	c #6F5A42",
"U9	c #6E5C44",
"V9	c #20211E",
"W9	c #141514",
"X9	c #181A16",
"Y9	c #1E1E1D",
"Z9	c #191B1A",
"`9	c #0E1413",
" 0	c #111615",
".0	c #121816",
"+0	c #151917",
"@0	c #171A17",
"#0	c #1E201C",
"$0	c #24231F",
"%0	c #1E1F1B",
"&0	c #191B17",
"*0	c #21221E",
"=0	c #22211E",
"-0	c #22201D",
";0	c #28221E",
">0	c #332B26",
",0	c #40302D",
"'0	c #493333",
")0	c #4C3436",
"!0	c #503636",
"~0	c #533635",
"{0	c #683B2F",
"]0	c #CB9E58",
"^0	c #EAD1AC",
"/0	c #E1B184",
"(0	c #C06D3B",
"_0	c #854C33",
":0	c #634136",
"<0	c #5A433C",
"[0	c #5B3B34",
"}0	c #B76550",
"|0	c #CB7C67",
"10	c #C6775F",
"20	c #C0664E",
"30	c #C45A42",
"40	c #B3573E",
"50	c #B8634E",
"60	c #B36250",
"70	c #A65C4B",
"80	c #94503D",
"90	c #7A4034",
"00	c #673229",
"a0	c #79453B",
"b0	c #9F5D50",
"c0	c #A35D50",
"d0	c #532A24",
"e0	c #351713",
"f0	c #3E1C18",
"g0	c #451C16",
"h0	c #4A1C17",
"i0	c #3E1915",
"j0	c #321510",
"k0	c #331510",
"l0	c #351611",
"m0	c #3A1914",
"n0	c #391914",
"o0	c #3C1814",
"p0	c #4A201C",
"q0	c #66352B",
"r0	c #804B3F",
"s0	c #905649",
"t0	c #995D4F",
"u0	c #975B4C",
"v0	c #8A4F42",
"w0	c #81493C",
"x0	c #753F34",
"y0	c #592B23",
"z0	c #4F261D",
"A0	c #4C291E",
"B0	c #6B4C37",
"C0	c #70513A",
"D0	c #72543C",
"E0	c #72553D",
"F0	c #6F573E",
"G0	c #6E583F",
"H0	c #705941",
"I0	c #6F5941",
"J0	c #705A43",
"K0	c #6B5B44",
"L0	c #6A5A44",
"M0	c #6C5B44",
"N0	c #1C1E1B",
"O0	c #161816",
"P0	c #121513",
"Q0	c #151716",
"R0	c #0F1414",
"S0	c #151816",
"T0	c #141815",
"U0	c #141916",
"V0	c #151915",
"W0	c #1A1B19",
"X0	c #1D1F1B",
"Y0	c #1B1D18",
"Z0	c #171A16",
"`0	c #191A17",
" a	c #23211D",
".a	c #372E27",
"+a	c #3B302A",
"@a	c #372C28",
"#a	c #3A2B29",
"$a	c #473234",
"%a	c #4E3230",
"&a	c #513332",
"*a	c #74402C",
"=a	c #DBAD5F",
"-a	c #ECDDC3",
";a	c #EADDC9",
">a	c #E9BE8E",
",a	c #C6723E",
"'a	c #7C4732",
")a	c #5B413C",
"!a	c #543B39",
"~a	c #C5664F",
"{a	c #C8755E",
"]a	c #BF705B",
"^a	c #BF6C58",
"/a	c #C55942",
"(a	c #C45941",
"_a	c #B05338",
":a	c #A5533B",
"<a	c #904E39",
"[a	c #834638",
"}a	c #6F372C",
"|a	c #6A342A",
"1a	c #7F4A3E",
"2a	c #995E51",
"3a	c #AA695B",
"4a	c #B56E5F",
"5a	c #874C41",
"6a	c #6D372F",
"7a	c #6F3B35",
"8a	c #622F28",
"9a	c #532620",
"0a	c #3C1713",
"aa	c #381915",
"ba	c #58302B",
"ca	c #592B24",
"da	c #491C17",
"ea	c #3B1915",
"fa	c #481C17",
"ga	c #572B25",
"ha	c #6A352B",
"ia	c #764135",
"ja	c #7F473C",
"ka	c #81483B",
"la	c #80483B",
"ma	c #774436",
"na	c #723F35",
"oa	c #66372D",
"pa	c #49251C",
"qa	c #674A34",
"ra	c #71553C",
"sa	c #6D573D",
"ta	c #6E573D",
"ua	c #6D553B",
"va	c #6D583E",
"wa	c #6E583E",
"xa	c #6C583F",
"ya	c #6C5A41",
"za	c #6D5B42",
"Aa	c #6C5940",
"Ba	c #6B5941",
"Ca	c #6B5A43",
"Da	c #6B5942",
"Ea	c #695841",
"Fa	c #675843",
"Ga	c #675845",
"Ha	c #675844",
"Ia	c #665742",
"Ja	c #655642",
"Ka	c #675946",
"La	c #121414",
"Ma	c #0D0E0F",
"Na	c #0B0B0C",
"Oa	c #101212",
"Pa	c #0F1313",
"Qa	c #1A1B17",
"Ra	c #1C1E1A",
"Sa	c #191B18",
"Ta	c #1B1C19",
"Ua	c #1A1C18",
"Va	c #161815",
"Wa	c #101313",
"Xa	c #1D1C19",
"Ya	c #272420",
"Za	c #26201C",
"`a	c #3D2E2A",
" b	c #462D2D",
".b	c #4C2F2F",
"+b	c #78412C",
"@b	c #DFA555",
"#b	c #EFDBB3",
"$b	c #E8DECF",
"%b	c #F0DCB3",
"&b	c #ECBA72",
"*b	c #AD683A",
"=b	c #654539",
"-b	c #5A423C",
";b	c #54423C",
">b	c #8B4F3B",
",b	c #CC7A5C",
"'b	c #CB7A67",
")b	c #C36E58",
"!b	c #BA6C5A",
"~b	c #BD644E",
"{b	c #AE5238",
"]b	c #A15036",
"^b	c #8D4C37",
"/b	c #773F32",
"(b	c #5A2921",
"_b	c #59241C",
":b	c #763D32",
"<b	c #81493D",
"[b	c #7E443B",
"}b	c #864B41",
"|b	c #8F554A",
"1b	c #8E4F43",
"2b	c #9E5749",
"3b	c #774037",
"4b	c #592822",
"5b	c #582821",
"6b	c #764239",
"7b	c #7D4339",
"8b	c #4B1F19",
"9b	c #311611",
"0b	c #3C1A15",
"ab	c #4B1D18",
"bb	c #54231B",
"cb	c #5B2920",
"db	c #6C3228",
"eb	c #71372D",
"fb	c #613327",
"gb	c #5D3025",
"hb	c #532C21",
"ib	c #563827",
"jb	c #664933",
"kb	c #6F543B",
"lb	c #6D573E",
"mb	c #6C573C",
"nb	c #6E5840",
"ob	c #6E5941",
"pb	c #6E593F",
"qb	c #6C573D",
"rb	c #6C573E",
"sb	c #6C593F",
"tb	c #6C5941",
"ub	c #6A5941",
"vb	c #6B5A42",
"wb	c #685841",
"xb	c #655640",
"yb	c #665845",
"zb	c #685945",
"Ab	c #685A45",
"Bb	c #675945",
"Cb	c #695A46",
"Db	c #181916",
"Eb	c #0E0F11",
"Fb	c #0A090A",
"Gb	c #0C0C0D",
"Hb	c #0D0E10",
"Ib	c #0E1012",
"Jb	c #0F1113",
"Kb	c #131515",
"Lb	c #1A1B18",
"Mb	c #20211D",
"Nb	c #191C18",
"Ob	c #181A17",
"Pb	c #0D0E11",
"Qb	c #141715",
"Rb	c #1E1B18",
"Sb	c #2D2724",
"Tb	c #433131",
"Ub	c #453032",
"Vb	c #432E2E",
"Wb	c #3E2C29",
"Xb	c #412D2B",
"Yb	c #66392C",
"Zb	c #D58C3D",
"`b	c #F3D695",
" c	c #EBDDC3",
".c	c #EED9A1",
"+c	c #F0D16F",
"@c	c #D5A656",
"#c	c #885A35",
"$c	c #60453B",
"%c	c #934F37",
"&c	c #D1875F",
"*c	c #D08A71",
"=c	c #C97661",
"-c	c #B86754",
";c	c #B46756",
">c	c #9F5743",
",c	c #894B39",
"'c	c #713A2F",
")c	c #55261E",
"!c	c #421A16",
"~c	c #4F1F18",
"{c	c #6C3128",
"]c	c #773D34",
"^c	c #723830",
"/c	c #6C3229",
"(c	c #7F453B",
"_c	c #A1584B",
":c	c #B06454",
"<c	c #965549",
"[c	c #753B32",
"}c	c #7B3F36",
"|c	c #9F5E51",
"1c	c #B26F60",
"2c	c #A35F51",
"3c	c #411C17",
"4c	c #371A15",
"5c	c #461C17",
"6c	c #55271F",
"7c	c #5F2E24",
"8c	c #622E25",
"9c	c #652E24",
"0c	c #5D2B21",
"ac	c #562E20",
"bc	c #5E3926",
"cc	c #6B4F36",
"dc	c #6F533A",
"ec	c #6E553B",
"fc	c #6C563C",
"gc	c #6C543A",
"hc	c #6B543B",
"ic	c #6C563D",
"jc	c #6C5740",
"kc	c #6B573E",
"lc	c #6B563D",
"mc	c #6C5A40",
"nc	c #695740",
"oc	c #685640",
"pc	c #675642",
"qc	c #675745",
"rc	c #675842",
"sc	c #665844",
"tc	c #665743",
"uc	c #695943",
"vc	c #1A1A19",
"wc	c #0F1012",
"xc	c #0C0C0E",
"yc	c #0D0F12",
"zc	c #101213",
"Ac	c #151615",
"Bc	c #171916",
"Cc	c #181B18",
"Dc	c #1A1C19",
"Ec	c #1C1D1B",
"Fc	c #1A1B1B",
"Gc	c #191A1A",
"Hc	c #151616",
"Ic	c #0D0F11",
"Jc	c #1C1B19",
"Kc	c #25221F",
"Lc	c #2F2923",
"Mc	c #392B27",
"Nc	c #3B2C29",
"Oc	c #352A26",
"Pc	c #422E2D",
"Qc	c #472D2D",
"Rc	c #4F2F2C",
"Sc	c #A56931",
"Tc	c #EABD5E",
"Uc	c #F0D066",
"Vc	c #F1D68B",
"Wc	c #F1D15F",
"Xc	c #E7C05D",
"Yc	c #A67643",
"Zc	c #694C3C",
"`c	c #644942",
" d	c #644A40",
".d	c #975540",
"+d	c #CF7D60",
"@d	c #DA9473",
"#d	c #CC806A",
"$d	c #BD6C57",
"%d	c #B36B5B",
"&d	c #965447",
"*d	c #68372F",
"=d	c #58312B",
"-d	c #542C26",
";d	c #441C17",
">d	c #501F18",
",d	c #502019",
"'d	c #53221A",
")d	c #612D24",
"!d	c #713930",
"~d	c #894C42",
"{d	c #70392F",
"]d	c #7C4035",
"^d	c #A15D4F",
"/d	c #C48171",
"(d	c #C78271",
"_d	c #9E5D4E",
":d	c #643329",
"<d	c #3C1B16",
"[d	c #461B16",
"}d	c #491E19",
"|d	c #51261C",
"1d	c #532B1F",
"2d	c #573225",
"3d	c #5F3E2F",
"4d	c #664732",
"5d	c #6B5238",
"6d	c #6B553C",
"7d	c #6A543B",
"8d	c #68543C",
"9d	c #6C573F",
"0d	c #6A553D",
"ad	c #6B553E",
"bd	c #6B563E",
"cd	c #6B563F",
"dd	c #66543D",
"ed	c #6A5740",
"fd	c #67553E",
"gd	c #695640",
"hd	c #685642",
"id	c #665642",
"jd	c #65553E",
"kd	c #675743",
"ld	c #675640",
"md	c #1E1C1B",
"nd	c #141515",
"od	c #121313",
"pd	c #111213",
"qd	c #161916",
"rd	c #161716",
"sd	c #222221",
"td	c #0E1011",
"ud	c #0C0D0E",
"vd	c #0E1212",
"wd	c #201D19",
"xd	c #2F2621",
"yd	c #2B231F",
"zd	c #271F1C",
"Ad	c #2F2520",
"Bd	c #3D2C29",
"Cd	c #5F3D28",
"Dd	c #C58E40",
"Ed	c #F0C34D",
"Fd	c #F3CF4F",
"Gd	c #F2CF52",
"Hd	c #EAC154",
"Id	c #CA924D",
"Jd	c #AC7A59",
"Kd	c #A67E6D",
"Ld	c #AE8871",
"Md	c #B87862",
"Nd	c #B05C48",
"Od	c #BC6D59",
"Pd	c #B26A55",
"Qd	c #A25C4A",
"Rd	c #5C352F",
"Sd	c #563330",
"Td	c #56342F",
"Ud	c #58322F",
"Vd	c #542E28",
"Wd	c #542E25",
"Xd	c #563027",
"Yd	c #4D231E",
"Zd	c #4A1D17",
"`d	c #4F2019",
" e	c #501E18",
".e	c #56231C",
"+e	c #5C281F",
"@e	c #6A3026",
"#e	c #824536",
"$e	c #995848",
"%e	c #B7715F",
"&e	c #B26D5B",
"*e	c #81483A",
"=e	c #583326",
"-e	c #4F2E25",
";e	c #4E2C24",
">e	c #4E2C23",
",e	c #512E23",
"'e	c #59392C",
")e	c #5B3D2F",
"!e	c #5C4134",
"~e	c #5D4638",
"{e	c #614738",
"]e	c #664737",
"^e	c #694C37",
"/e	c #6B543A",
"(e	c #6B533A",
"_e	c #6B5339",
":e	c #69533A",
"<e	c #67533B",
"[e	c #67533C",
"}e	c #6A543C",
"|e	c #69553E",
"1e	c #6B573F",
"2e	c #6C5841",
"3e	c #6B5842",
"4e	c #6A573F",
"5e	c #67553D",
"6e	c #67543D",
"7e	c #66533C",
"8e	c #65533C",
"9e	c #66543E",
"0e	c #67553F",
"ae	c #65533D",
"be	c #65553F",
"ce	c #675541",
"de	c #685541",
"ee	c #685741",
"fe	c #6A5843",
"ge	c #241F1C",
"he	c #1B1B19",
"ie	c #171818",
"je	c #161717",
"ke	c #171918",
"le	c #1A1C1A",
"me	c #1A1C1B",
"ne	c #1D1E1D",
"oe	c #232321",
"pe	c #232422",
"qe	c #212220",
"re	c #1C1E1C",
"se	c #0F1212",
"te	c #171915",
"ue	c #1C1A15",
"ve	c #231F1B",
"we	c #25201D",
"xe	c #241C18",
"ye	c #27211D",
"ze	c #382B26",
"Ae	c #462D2B",
"Be	c #4E322A",
"Ce	c #9B7933",
"De	c #C39333",
"Ee	c #DC9F3C",
"Fe	c #EAB244",
"Ge	c #EEBB46",
"He	c #E7B049",
"Ie	c #CF964A",
"Je	c #966A47",
"Ke	c #5D352C",
"Le	c #7C3C2F",
"Me	c #62342A",
"Ne	c #5A3028",
"Oe	c #55342C",
"Pe	c #55342F",
"Qe	c #563434",
"Re	c #563534",
"Se	c #563634",
"Te	c #563530",
"Ue	c #57352E",
"Ve	c #553128",
"We	c #502B23",
"Xe	c #4F2820",
"Ye	c #502620",
"Ze	c #51241F",
"`e	c #582920",
" f	c #5F271E",
".f	c #6E3228",
"+f	c #793D30",
"@f	c #784434",
"#f	c #62392B",
"$f	c #573A2E",
"%f	c #5B3E32",
"&f	c #5B4033",
"*f	c #5A4234",
"=f	c #564334",
"-f	c #584437",
";f	c #5B463A",
">f	c #5F483B",
",f	c #664E3D",
"'f	c #6B543C",
")f	c #69563E",
"!f	c #6A563E",
"~f	c #69543E",
"{f	c #68543D",
"]f	c #66543C",
"^f	c #67543C",
"/f	c #69553D",
"(f	c #65523B",
"_f	c #65543D",
":f	c #65543E",
"<f	c #665540",
"[f	c #66543F",
"}f	c #695643",
"|f	c #282522",
"1f	c #20201E",
"2f	c #171718",
"3f	c #151516",
"4f	c #161617",
"5f	c #151817",
"6f	c #1F201D",
"7f	c #232320",
"8f	c #1F211F",
"9f	c #131614",
"0f	c #141414",
"af	c #161615",
"bf	c #171816",
"cf	c #1F1D19",
"df	c #322922",
"ef	c #402E26",
"ff	c #4A312B",
"gf	c #573D2B",
"hf	c #C6AA31",
"if	c #DFC02B",
"jf	c #D8B32F",
"kf	c #D7A530",
"lf	c #D49A30",
"mf	c #8A5D2D",
"nf	c #5B382D",
"of	c #4D2F2C",
"pf	c #52322B",
"qf	c #533029",
"rf	c #552E27",
"sf	c #542F28",
"tf	c #553432",
"uf	c #563535",
"vf	c #563635",
"wf	c #573735",
"xf	c #573734",
"yf	c #583631",
"zf	c #59352C",
"Af	c #58352B",
"Bf	c #5A352B",
"Cf	c #512820",
"Df	c #4F211A",
"Ef	c #52241B",
"Ff	c #4F241C",
"Gf	c #552C24",
"Hf	c #57352A",
"If	c #55362A",
"Jf	c #54352A",
"Kf	c #54362C",
"Lf	c #553830",
"Mf	c #563930",
"Nf	c #583E34",
"Of	c #564034",
"Pf	c #543F37",
"Qf	c #533F38",
"Rf	c #554239",
"Sf	c #59443C",
"Tf	c #5C463C",
"Uf	c #634D3C",
"Vf	c #69513B",
"Wf	c #6A553E",
"Xf	c #6A553C",
"Yf	c #6A563D",
"Zf	c #65523C",
"`f	c #66513C",
" g	c #65513C",
".g	c #67543E",
"+g	c #67543F",
"@g	c #66533D",
"#g	c #66533E",
"$g	c #675440",
"%g	c #695641",
"&g	c #675441",
"*g	c #695644",
"=g	c #1C1C1B",
"-g	c #191A18",
";g	c #181817",
">g	c #181919",
",g	c #1B1C1C",
"'g	c #191919",
")g	c #1B1C1B",
"!g	c #0F1111",
"~g	c #171A15",
"{g	c #101111",
"]g	c #191A16",
"^g	c #27221B",
"/g	c #362720",
"(g	c #422E27",
"_g	c #5B432E",
":g	c #CEBD31",
"<g	c #E6DA25",
"[g	c #E6D826",
"}g	c #E5D527",
"|g	c #D0B730",
"1g	c #533726",
"2g	c #462A28",
"3g	c #54332A",
"4g	c #553530",
"5g	c #593935",
"6g	c #593934",
"7g	c #583835",
"8g	c #593732",
"9g	c #58352F",
"0g	c #59352B",
"ag	c #563428",
"bg	c #553326",
"cg	c #573328",
"dg	c #583529",
"eg	c #55362B",
"fg	c #54362F",
"gg	c #553A33",
"hg	c #563B34",
"ig	c #543F39",
"jg	c #53403B",
"kg	c #54413B",
"lg	c #56443C",
"mg	c #55443C",
"ng	c #58453C",
"og	c #65503D",
"pg	c #65513B",
"qg	c #654F3A",
"rg	c #654D39",
"sg	c #664C39",
"tg	c #644E3C",
"ug	c #644F3C",
"vg	c #67533E",
"wg	c #66533F",
"xg	c #685440",
"yg	c #6A5743",
"zg	c #1F1F1D",
"Ag	c #191918",
"Bg	c #1D1B1A",
"Cg	c #23211E",
"Dg	c #201D1A",
"Eg	c #151515",
"Fg	c #111314",
"Gg	c #1D1F1C",
"Hg	c #21221D",
"Ig	c #22221D",
"Jg	c #20201B",
"Kg	c #181A15",
"Lg	c #1C1D19",
"Mg	c #29231D",
"Ng	c #332920",
"Og	c #463525",
"Pg	c #C7B62E",
"Qg	c #D1BF35",
"Rg	c #553B2B",
"Sg	c #4E312D",
"Tg	c #502D29",
"Ug	c #4E2E2A",
"Vg	c #5A3833",
"Wg	c #603D34",
"Xg	c #644136",
"Yg	c #664136",
"Zg	c #613F35",
"`g	c #5C3933",
" h	c #593831",
".h	c #58362E",
"+h	c #5A362C",
"@h	c #5A372A",
"#h	c #593827",
"$h	c #5A3828",
"%h	c #533429",
"&h	c #563A31",
"*h	c #5A4035",
"=h	c #594138",
"-h	c #57433B",
";h	c #57433C",
">h	c #54453C",
",h	c #53433C",
"'h	c #54463C",
")h	c #5B493B",
"!h	c #6D563D",
"~h	c #65503C",
"{h	c #66523C",
"]h	c #654E39",
"^h	c #644C39",
"/h	c #654C3A",
"(h	c #644D3C",
"_h	c #654F3C",
":h	c #66553F",
"<h	c #685641",
"[h	c #675540",
"}h	c #1E1C19",
"|h	c #181818",
"1h	c #1C1C18",
"2h	c #221F1D",
"3h	c #121314",
"4h	c #171717",
"5h	c #0D0F10",
"6h	c #22231F",
"7h	c #23231D",
"8h	c #1F201C",
"9h	c #1E201B",
"0h	c #1A1B16",
"ah	c #191B16",
"bh	c #161915",
"ch	c #20201C",
"dh	c #26231E",
"eh	c #292219",
"fh	c #3C2D1C",
"gh	c #C7AE2E",
"hh	c #E9D523",
"ih	c #E8D523",
"jh	c #E9D623",
"kh	c #E1C731",
"lh	c #AD9338",
"mh	c #A78E39",
"nh	c #A18636",
"oh	c #856931",
"ph	c #59372E",
"qh	c #7F5734",
"rh	c #B98038",
"sh	c #BB8137",
"th	c #BF8337",
"uh	c #B88138",
"vh	c #6D4436",
"wh	c #5E3B32",
"xh	c #5E3B31",
"yh	c #A48733",
"zh	c #BDA632",
"Ah	c #BEA631",
"Bh	c #BFA42F",
"Ch	c #9E7C32",
"Dh	c #573427",
"Eh	c #523326",
"Fh	c #543328",
"Gh	c #583D33",
"Hh	c #5C4236",
"Ih	c #5B433D",
"Jh	c #59443E",
"Kh	c #544440",
"Lh	c #53443D",
"Mh	c #53443C",
"Nh	c #56463C",
"Oh	c #5D4A3B",
"Ph	c #67523E",
"Qh	c #6D5840",
"Rh	c #6D563E",
"Sh	c #6B573D",
"Th	c #664F3A",
"Uh	c #66503B",
"Vh	c #161616",
"Wh	c #191917",
"Xh	c #1A1A17",
"Yh	c #131314",
"Zh	c #262522",
"`h	c #242420",
" i	c #1F211E",
".i	c #1B1D19",
"+i	c #1D1E1A",
"@i	c #24231C",
"#i	c #372E1D",
"$i	c #C7A72F",
"%i	c #EDCB1F",
"&i	c #EDCC1E",
"*i	c #EECD1E",
"=i	c #ECCE23",
"-i	c #E7D528",
";i	c #E6D828",
">i	c #E5D829",
",i	c #C5AC38",
"'i	c #583929",
")i	c #59372B",
"!i	c #9A692D",
"~i	c #E8A72A",
"{i	c #EBA929",
"]i	c #EDAC30",
"^i	c #DC9E2D",
"/i	c #734631",
"(i	c #603B31",
"_i	c #643A2E",
":i	c #63402B",
"<i	c #CCB42F",
"[i	c #E8D526",
"}i	c #EAD322",
"|i	c #EAD223",
"1i	c #C9A92D",
"2i	c #5C3927",
"3i	c #543529",
"4i	c #533428",
"5i	c #573A2F",
"6i	c #5C4439",
"7i	c #59453D",
"8i	c #55463E",
"9i	c #53453E",
"0i	c #51433C",
"ai	c #52453C",
"bi	c #584939",
"ci	c #604C39",
"di	c #64503B",
"ei	c #64503C",
"fi	c #65503B",
"gi	c #65533E",
"hi	c #665440",
"ii	c #675641",
"ji	c #1E1C17",
"ki	c #1E1B1A",
"li	c #201E1B",
"mi	c #101112",
"ni	c #1F1C1A",
"oi	c #1D1C1A",
"pi	c #1E1F1C",
"qi	c #23221E",
"ri	c #21221F",
"si	c #222321",
"ti	c #282826",
"ui	c #262623",
"vi	c #272724",
"wi	c #20201D",
"xi	c #25251F",
"yi	c #332A1C",
"zi	c #C19B29",
"Ai	c #ECCA20",
"Bi	c #EBCA24",
"Ci	c #EDCB21",
"Di	c #ECCD22",
"Ei	c #E7D926",
"Fi	c #C2AB2D",
"Gi	c #593728",
"Hi	c #57342A",
"Ii	c #59372C",
"Ji	c #5A372B",
"Ki	c #96682C",
"Li	c #E8A727",
"Mi	c #EAA928",
"Ni	c #EDAC2F",
"Oi	c #DDA22D",
"Pi	c #75472D",
"Qi	c #5F3B2D",
"Ri	c #CEB22F",
"Si	c #ECD01F",
"Ti	c #ECCF1D",
"Ui	c #EBD11F",
"Vi	c #CFAB2C",
"Wi	c #613B28",
"Xi	c #563427",
"Yi	c #553429",
"Zi	c #55372A",
"`i	c #5A433A",
" j	c #55453C",
".j	c #52443C",
"+j	c #50433D",
"@j	c #4E423E",
"#j	c #4E423D",
"$j	c #51433B",
"%j	c #56483A",
"&j	c #5E4D3B",
"*j	c #64523D",
"=j	c #68553D",
"-j	c #634D3A",
";j	c #624B38",
">j	c #5F4D3A",
",j	c #62503B",
"'j	c #63513C",
")j	c #22201C",
"!j	c #1E1E1E",
"~j	c #1F1E1E",
"{j	c #201D1C",
"]j	c #1E1B19",
"^j	c #1D1D1B",
"/j	c #1C1C1C",
"(j	c #1C1B18",
"_j	c #231E19",
":j	c #1F1C19",
"<j	c #22231E",
"[j	c #292826",
"}j	c #282824",
"|j	c #282825",
"1j	c #242522",
"2j	c #20221D",
"3j	c #C49D2C",
"4j	c #EBC822",
"5j	c #E9C527",
"6j	c #ECC522",
"7j	c #EBCD24",
"8j	c #E7D826",
"9j	c #E6D926",
"0j	c #C4AB31",
"aj	c #5B3928",
"bj	c #59352A",
"cj	c #563328",
"dj	c #59392D",
"ej	c #5C3B31",
"fj	c #99672D",
"gj	c #EAA92B",
"hj	c #ECAB2C",
"ij	c #ECAA2A",
"jj	c #E3A42D",
"kj	c #7A4D2E",
"lj	c #5A372C",
"mj	c #CFB12E",
"nj	c #EECC1C",
"oj	c #EECC1B",
"pj	c #EDCF1E",
"qj	c #D1B12F",
"rj	c #69402C",
"sj	c #5E372A",
"tj	c #56382C",
"uj	c #553A32",
"vj	c #553D35",
"wj	c #55443A",
"xj	c #50433C",
"yj	c #4E423C",
"zj	c #4D423C",
"Aj	c #4E413C",
"Bj	c #4F423C",
"Cj	c #53453C",
"Dj	c #5A4B3D",
"Ej	c #63523C",
"Fj	c #64513B",
"Gj	c #5F4B39",
"Hj	c #5D4C3A",
"Ij	c #5C4C3A",
"Jj	c #5F4C3A",
"Kj	c #5E4C3A",
"Lj	c #634F3B",
"Mj	c #68543F",
"Nj	c #68543E",
"Oj	c #1C1C19",
"Pj	c #1B1B1B",
"Qj	c #1A1A18",
"Rj	c #1A1917",
"Sj	c #1A1A16",
"Tj	c #2B251F",
"Uj	c #322B22",
"Vj	c #29251F",
"Wj	c #23221D",
"Xj	c #262521",
"Yj	c #242421",
"Zj	c #5B4D29",
"`j	c #897637",
" k	c #897638",
".k	c #826F33",
"+k	c #826F35",
"@k	c #393123",
"#k	c #131716",
"$k	c #322B1F",
"%k	c #C89C2E",
"&k	c #ECC121",
"*k	c #EABC24",
"=k	c #ECBC24",
"-k	c #ECC527",
";k	c #E8D527",
">k	c #E8D625",
",k	c #E8D427",
"'k	c #C8A232",
")k	c #70422A",
"!k	c #6A3F2A",
"~k	c #6B402C",
"{k	c #67402B",
"]k	c #6D492D",
"^k	c #6E4F31",
"/k	c #694A2D",
"(k	c #A1712C",
"_k	c #EBAB27",
":k	c #EDAC22",
"<k	c #EDAC1F",
"[k	c #E6A728",
"}k	c #7D502F",
"|k	c #5B392B",
"1k	c #5A392B",
"2k	c #624128",
"3k	c #CEAC27",
"4k	c #EECB1B",
"5k	c #EECB1C",
"6k	c #D6B02F",
"7k	c #7E542D",
"8k	c #744D28",
"9k	c #734B2D",
"0k	c #6D4431",
"ak	c #5C382A",
"bk	c #563728",
"ck	c #553729",
"dk	c #56392D",
"ek	c #563C33",
"fk	c #534235",
"gk	c #514339",
"hk	c #4F433C",
"ik	c #53463C",
"jk	c #52443D",
"kk	c #4E433C",
"lk	c #4E423B",
"mk	c #53453B",
"nk	c #5A4B3B",
"ok	c #604E3A",
"pk	c #5F4C39",
"qk	c #604D3A",
"rk	c #624F3C",
"sk	c #68543B",
"tk	c #68533B",
"uk	c #604F3A",
"vk	c #60503C",
"wk	c #5E4E3A",
"xk	c #5F4F3C",
"yk	c #242220",
"zk	c #131413",
"Ak	c #171716",
"Bk	c #1F1C18",
"Ck	c #2F2822",
"Dk	c #342C25",
"Ek	c #2C2821",
"Fk	c #282621",
"Gk	c #2E2B26",
"Hk	c #1E201D",
"Ik	c #1F1F1C",
"Jk	c #A68E2E",
"Kk	c #E7CF2D",
"Lk	c #E9CD2D",
"Mk	c #E7CA2A",
"Nk	c #E5C932",
"Ok	c #6B5B2B",
"Pk	c #312A1B",
"Qk	c #D09E24",
"Rk	c #F2B71B",
"Sk	c #F3B71E",
"Tk	c #F0B71E",
"Uk	c #F0BD1F",
"Vk	c #ECCA21",
"Wk	c #E3A530",
"Xk	c #DB8630",
"Yk	c #D98330",
"Zk	c #D88532",
"`k	c #D99534",
" l	c #DBBF2F",
".l	c #DEC932",
"+l	c #DCC72F",
"@l	c #E3C42F",
"#l	c #EFC021",
"$l	c #EFC11E",
"%l	c #EEC11D",
"&l	c #E8B326",
"*l	c #81532F",
"=l	c #5D3B2D",
"-l	c #5D392C",
";l	c #654129",
">l	c #CCA024",
",l	c #F3BB1B",
"'l	c #F0BD1C",
")l	c #EDB920",
"!l	c #EBB525",
"~l	c #E4AF2B",
"{l	c #E5AD2F",
"]l	c #E6A73B",
"^l	c #C28B40",
"/l	c #673E2C",
"(l	c #55382F",
"_l	c #563D32",
":l	c #524334",
"<l	c #4F4336",
"[l	c #4D4338",
"}l	c #50433B",
"|l	c #4E413B",
"1l	c #4D413B",
"2l	c #4E423A",
"3l	c #52433A",
"4l	c #5A4B38",
"5l	c #64543F",
"6l	c #5B4C39",
"7l	c #5C4C39",
"8l	c #604C3B",
"9l	c #5F4C3B",
"0l	c #634E3C",
"al	c #644C3B",
"bl	c #634E3A",
"cl	c #68533A",
"dl	c #644F3A",
"el	c #5F4E39",
"fl	c #5A4A37",
"gl	c #584936",
"hl	c #574A38",
"il	c #57483C",
"jl	c #57493B",
"kl	c #58493A",
"ll	c #231F1D",
"ml	c #171817",
"nl	c #101110",
"ol	c #121212",
"pl	c #121213",
"ql	c #0F1011",
"rl	c #211D19",
"sl	c #24241E",
"tl	c #262621",
"ul	c #23221F",
"vl	c #AC9035",
"wl	c #EACD2C",
"xl	c #EBCD2B",
"yl	c #E9D028",
"zl	c #E7CC30",
"Al	c #71602C",
"Bl	c #131715",
"Cl	c #312816",
"Dl	c #DAA222",
"El	c #F5B61A",
"Fl	c #F3B91B",
"Gl	c #EDC71D",
"Hl	c #ECC421",
"Il	c #EBA32A",
"Jl	c #EB8C2B",
"Kl	c #EC8D2D",
"Ll	c #ED8F2D",
"Ml	c #EDAA2F",
"Nl	c #E8D528",
"Ol	c #E7D727",
"Pl	c #EACF23",
"Ql	c #EFC71C",
"Rl	c #F0C51C",
"Sl	c #EFC61B",
"Tl	c #E8B528",
"Ul	c #81512E",
"Vl	c #613A2C",
"Wl	c #63392B",
"Xl	c #6C422A",
"Yl	c #D19E26",
"Zl	c #EFB721",
"`l	c #EEB721",
" m	c #EEB622",
".m	c #EBB029",
"+m	c #EBAF2D",
"@m	c #EBAD2F",
"#m	c #D29941",
"$m	c #6E4330",
"%m	c #553527",
"&m	c #543528",
"*m	c #553728",
"=m	c #55382E",
"-m	c #543E33",
";m	c #534334",
">m	c #504335",
",m	c #4E4337",
"'m	c #51453B",
")m	c #52463C",
"!m	c #4D423B",
"~m	c #4E4039",
"{m	c #4D3F3A",
"]m	c #4C403A",
"^m	c #4D4139",
"/m	c #4D3D3A",
"(m	c #514336",
"_m	c #584938",
":m	c #604F3B",
"<m	c #64523C",
"[m	c #5D4A39",
"}m	c #5B4A38",
"|m	c #594937",
"1m	c #584836",
"2m	c #584736",
"3m	c #594634",
"4m	c #5B4734",
"5m	c #5C4934",
"6m	c #5B4835",
"7m	c #5B4935",
"8m	c #5B4735",
"9m	c #5D4835",
"0m	c #5D4A37",
"am	c #564A3A",
"bm	c #564836",
"cm	c #574936",
"dm	c #574937",
"em	c #564A39",
"fm	c #554A3B",
"gm	c #544A3C",
"hm	c #1D1B19",
"im	c #171613",
"jm	c #131411",
"km	c #10100F",
"lm	c #0D0D0D",
"mm	c #0D0D0E",
"nm	c #1D1B18",
"om	c #221E1B",
"pm	c #24241F",
"qm	c #252622",
"rm	c #1F201F",
"sm	c #221F1B",
"tm	c #AD8E35",
"um	c #EACC2C",
"vm	c #EBCF2B",
"wm	c #E9CF28",
"xm	c #E6CB2E",
"ym	c #695624",
"zm	c #332A16",
"Am	c #DDA423",
"Bm	c #ECC422",
"Cm	c #EAC426",
"Dm	c #EBBE28",
"Em	c #EAA02E",
"Fm	c #E9892A",
"Gm	c #EA882B",
"Hm	c #EC8C2C",
"Im	c #EDA92E",
"Jm	c #E8D628",
"Km	c #EBD024",
"Lm	c #EEC521",
"Mm	c #EFBB24",
"Nm	c #F0C41C",
"Om	c #EBB724",
"Pm	c #81502F",
"Qm	c #65392B",
"Rm	c #65392A",
"Sm	c #6E4129",
"Tm	c #D3A12A",
"Um	c #EFB81E",
"Vm	c #EEB820",
"Wm	c #EEB81E",
"Xm	c #EDB423",
"Ym	c #EDAD2E",
"Zm	c #EDAD37",
"`m	c #E9A93C",
" n	c #CD9144",
".n	c #724431",
"+n	c #59392A",
"@n	c #563D2F",
"#n	c #564133",
"$n	c #553E31",
"%n	c #523F34",
"&n	c #4E4037",
"*n	c #504239",
"=n	c #52453B",
"-n	c #4F433A",
";n	c #4D403A",
">n	c #4C3E3B",
",n	c #4C3F39",
"'n	c #4D4039",
")n	c #4D3F39",
"!n	c #4F4139",
"~n	c #52463B",
"{n	c #59493A",
"]n	c #62503C",
"^n	c #5D4D3A",
"/n	c #574835",
"(n	c #564534",
"_n	c #544434",
":n	c #544433",
"<n	c #534333",
"[n	c #554332",
"}n	c #564330",
"|n	c #534434",
"1n	c #554635",
"2n	c #544534",
"3n	c #564736",
"4n	c #574938",
"5n	c #544A3B",
"6n	c #443E3C",
"7n	c #413C3C",
"8n	c #3F3A38",
"9n	c #443C38",
"0n	c #443A34",
"an	c #423832",
"bn	c #403834",
"cn	c #453E39",
"dn	c #3C3734",
"en	c #373431",
"fn	c #383332",
"gn	c #2E2D2C",
"hn	c #2E2D2B",
"in	c #34312F",
"jn	c #383432",
"kn	c #35302E",
"ln	c #302823",
"mn	c #372D23",
"nn	c #372B1D",
"on	c #3E3221",
"pn	c #3D3020",
"qn	c #382F1D",
"rn	c #3A311C",
"sn	c #3A301D",
"tn	c #3C311F",
"un	c #AF9434",
"vn	c #EACC2B",
"wn	c #EBCB2A",
"xn	c #EACA29",
"yn	c #E8C631",
"zn	c #7A6438",
"An	c #373331",
"Bn	c #353332",
"Cn	c #30302E",
"Dn	c #323131",
"En	c #32302F",
"Fn	c #32302E",
"Gn	c #43392C",
"Hn	c #DAA430",
"In	c #F1B527",
"Jn	c #F1B626",
"Kn	c #F2B524",
"Ln	c #F0B71F",
"Mn	c #ECBC22",
"Nn	c #EBB927",
"On	c #EAB82F",
"Pn	c #EAA235",
"Qn	c #E5822B",
"Rn	c #EA892B",
"Sn	c #EB8C2C",
"Tn	c #ECA72D",
"Un	c #E9D027",
"Vn	c #ECC226",
"Wn	c #EDB928",
"Xn	c #EEBA24",
"Yn	c #E8B62A",
"Zn	c #845837",
"`n	c #694135",
" o	c #6A4335",
".o	c #7A4F3C",
"+o	c #D5A132",
"@o	c #EEB822",
"#o	c #EFB820",
"$o	c #ECB124",
"%o	c #ECAB2E",
"&o	c #EBA934",
"*o	c #E9A53E",
"=o	c #C8863F",
"-o	c #784D38",
";o	c #62463A",
">o	c #5E4337",
",o	c #604538",
"'o	c #61473B",
")o	c #61463A",
"!o	c #5F4337",
"~o	c #5F453B",
"{o	c #614B3E",
"]o	c #664E42",
"^o	c #644E43",
"/o	c #604F43",
"(o	c #625246",
"_o	c #645449",
":o	c #605248",
"<o	c #5E5046",
"[o	c #594D42",
"}o	c #52453F",
"|o	c #4D3F3C",
"1o	c #4C3D3B",
"2o	c #4C3F3A",
"3o	c #4F4439",
"4o	c #55483C",
"5o	c #5C4D3C",
"6o	c #5B4B38",
"7o	c #584A36",
"8o	c #534433",
"9o	c #544635",
"0o	c #554736",
"ao	c #554A3A",
"bo	c #55493B",
"co	c #9D9693",
"do	c #A39D9A",
"eo	c #A6A09C",
"fo	c #A8A09B",
"go	c #A99F99",
"ho	c #AAA09B",
"io	c #A79E9A",
"jo	c #A8A09C",
"ko	c #A49E9B",
"lo	c #A5A09D",
"mo	c #A5A09C",
"no	c #A49F9B",
"oo	c #A59F9C",
"po	c #A9A19E",
"qo	c #A69F9B",
"ro	c #A19B97",
"so	c #A19288",
"to	c #C69546",
"uo	c #D19E24",
"vo	c #D5A02B",
"wo	c #D8A133",
"xo	c #D0A831",
"yo	c #D3B33C",
"zo	c #D2B339",
"Ao	c #D0B437",
"Bo	c #E0B530",
"Co	c #F1BD21",
"Do	c #F2BC1E",
"Eo	c #F1BA21",
"Fo	c #ECB52F",
"Go	c #B99F89",
"Ho	c #A8A19D",
"Io	c #A5A09E",
"Jo	c #A6A19E",
"Ko	c #A7A3A0",
"Lo	c #A49F9D",
"Mo	c #9D9896",
"No	c #A09995",
"Oo	c #BCA391",
"Po	c #C5A88D",
"Qo	c #C5A88E",
"Ro	c #C7A88A",
"So	c #DBAD64",
"To	c #EFB723",
"Uo	c #F2B620",
"Vo	c #F1B422",
"Wo	c #EEAC2B",
"Xo	c #E89D2D",
"Yo	c #E7A12F",
"Zo	c #EBA430",
"`o	c #EBAE2E",
" p	c #EDCB23",
".p	c #EBC628",
"+p	c #E7BB38",
"@p	c #D2A875",
"#p	c #CFAD7D",
"$p	c #CCAF7D",
"%p	c #C8AA80",
"&p	c #AE9B91",
"*p	c #A59792",
"=p	c #A19690",
"-p	c #A99991",
";p	c #DDB052",
">p	c #EDBF23",
",p	c #EBC126",
"'p	c #EEBE23",
")p	c #EDAF27",
"!p	c #EC962D",
"~p	c #EC972E",
"{p	c #EB9433",
"]p	c #D99256",
"^p	c #AF9287",
"/p	c #A8958D",
"(p	c #AA9992",
"_p	c #A7968D",
":p	c #A8968D",
"<p	c #A9988F",
"[p	c #A89790",
"}p	c #A6958F",
"|p	c #A7968F",
"1p	c #A89791",
"2p	c #A99790",
"3p	c #A6968F",
"4p	c #A69790",
"5p	c #A79892",
"6p	c #A99A94",
"7p	c #A79891",
"8p	c #A1948F",
"9p	c #A1908A",
"0p	c #8A7C77",
"ap	c #544743",
"bp	c #4C3F3B",
"cp	c #4C3E3A",
"dp	c #4B3F3A",
"ep	c #4D413A",
"fp	c #4E433A",
"gp	c #54493C",
"hp	c #594B39",
"ip	c #594A37",
"jp	c #594A36",
"kp	c #584A37",
"lp	c #564735",
"mp	c #544535",
"np	c #514435",
"op	c #524435",
"pp	c #534536",
"qp	c #544839",
"rp	c #544739",
"sp	c #53483A",
"tp	c #52473B",
"up	c #544A3D",
"vp	c #54493F",
"wp	c #544A3E",
"xp	c #544B3F",
"yp	c #AEA7A3",
"zp	c #B0AAA6",
"Ap	c #B0ABA7",
"Bp	c #AFAAA6",
"Cp	c #B0AAA7",
"Dp	c #B0ABA8",
"Ep	c #B1ABA8",
"Fp	c #B1AAA6",
"Gp	c #B0A9A6",
"Hp	c #B4A89F",
"Ip	c #E3AE5B",
"Jp	c #F3B61B",
"Kp	c #EDBE24",
"Lp	c #EBCA2B",
"Mp	c #E9CB28",
"Np	c #EAC227",
"Op	c #F0B821",
"Pp	c #F0B81E",
"Qp	c #EEB71D",
"Rp	c #EBB231",
"Sp	c #BDA293",
"Tp	c #B8B0AC",
"Up	c #B4B0AD",
"Vp	c #B4AFAC",
"Wp	c #B2ACAA",
"Xp	c #ADA8A6",
"Yp	c #9E9896",
"Zp	c #9B9593",
"`p	c #A19B99",
" q	c #AEA6A2",
".q	c #CDA781",
"+q	c #F1B622",
"@q	c #F0B81F",
"#q	c #EAB927",
"$q	c #EAB925",
"%q	c #EAB926",
"&q	c #EAB827",
"*q	c #F0C01C",
"=q	c #F1C11B",
"-q	c #F0BC1F",
";q	c #E7B24C",
">q	c #B4A9A2",
",q	c #B0ABA9",
"'q	c #B1ACA9",
")q	c #B2ACA9",
"!q	c #B1A8A3",
"~q	c #DDAA6A",
"{q	c #E9B52B",
"]q	c #EBB826",
"^q	c #EDBE25",
"/q	c #EBAA2A",
"(q	c #EC8E2C",
"_q	c #EC8D2C",
":q	c #EA8A2A",
"<q	c #DD925B",
"[q	c #BBA69D",
"}q	c #B5A6A0",
"|q	c #B6A7A1",
"1q	c #B8A7A1",
"2q	c #B7A69F",
"3q	c #B7A7A1",
"4q	c #B7A7A2",
"5q	c #B8A8A4",
"6q	c #B7A7A3",
"7q	c #B7A8A4",
"8q	c #B9A9A4",
"9q	c #B9A9A5",
"0q	c #B5A7A3",
"aq	c #B5A6A2",
"bq	c #B7A9A4",
"cq	c #B5A6A1",
"dq	c #AEA09B",
"eq	c #746964",
"fq	c #4B3D3A",
"gq	c #4D413C",
"hq	c #4C413B",
"iq	c #4B403A",
"jq	c #4F443B",
"kq	c #574A39",
"lq	c #534535",
"mq	c #504436",
"nq	c #524738",
"oq	c #524637",
"pq	c #534637",
"qq	c #53483B",
"rq	c #53463B",
"sq	c #50443C",
"tq	c #52473C",
"uq	c #53493C",
"vq	c #54483D",
"wq	c #544A41",
"xq	c #544B43",
"yq	c #544C43",
"zq	c #554C44",
"Aq	c #B0A8A4",
"Bq	c #B3ADAA",
"Cq	c #B2ADAA",
"Dq	c #B3AEAB",
"Eq	c #AEA9A6",
"Fq	c #AEA8A5",
"Gq	c #B3A8A2",
"Hq	c #DFAD60",
"Iq	c #F4B51A",
"Jq	c #EDBC24",
"Kq	c #EBCA2A",
"Lq	c #EAC929",
"Mq	c #EAC528",
"Nq	c #ECB823",
"Oq	c #EBB122",
"Pq	c #ECAE24",
"Qq	c #EAAD35",
"Rq	c #A58D82",
"Sq	c #ABA4A2",
"Tq	c #B3AFAC",
"Uq	c #B5AEAF",
"Vq	c #B6AEB1",
"Wq	c #B8B1B0",
"Xq	c #B3ADAB",
"Yq	c #A9A2A0",
"Zq	c #938D8D",
"`q	c #888384",
" r	c #C9A581",
".r	c #F2B622",
"+r	c #EEB521",
"@r	c #E7B329",
"#r	c #EABC23",
"$r	c #EABD25",
"%r	c #EABC26",
"&r	c #F0BF1C",
"*r	c #F0C41B",
"=r	c #F1BF1C",
"-r	c #E8B34F",
";r	c #B2A7A1",
">r	c #AFAAA8",
",r	c #D8A772",
"'r	c #EBB12C",
")r	c #EAB623",
"!r	c #EBB925",
"~r	c #EBA729",
"{r	c #EA892A",
"]r	c #EB8928",
"^r	c #E09253",
"/r	c #BDA59A",
"(r	c #B5A7A2",
"_r	c #B9A8A3",
":r	c #B9A8A4",
"<r	c #BAA9A4",
"[r	c #B8AAA5",
"}r	c #B9AAA6",
"|r	c #B9ABA6",
"1r	c #B9A9A6",
"2r	c #B7ACA8",
"3r	c #B9ABA7",
"4r	c #B6A7A2",
"5r	c #998D89",
"6r	c #524541",
"7r	c #4C4039",
"8r	c #4C3E3C",
"9r	c #4C403C",
"0r	c #4D4339",
"ar	c #53483C",
"br	c #564937",
"cr	c #544838",
"dr	c #534738",
"er	c #51443C",
"fr	c #51453D",
"gr	c #50443E",
"hr	c #50453F",
"ir	c #51463F",
"jr	c #52463F",
"kr	c #544A42",
"lr	c #554D44",
"mr	c #B1ACA8",
"nr	c #AEA7A4",
"or	c #9E9693",
"pr	c #8F8885",
"qr	c #C99E53",
"rr	c #F4B61D",
"sr	c #F5B61B",
"tr	c #EEBF24",
"ur	c #ECCB2C",
"vr	c #EBC528",
"wr	c #ECB224",
"xr	c #EAAB27",
"yr	c #E8A827",
"zr	c #E5A636",
"Ar	c #A1887C",
"Br	c #8E8889",
"Cr	c #A19B9A",
"Dr	c #A49E9D",
"Er	c #A7A1A0",
"Fr	c #A59F9E",
"Gr	c #A59E9C",
"Hr	c #A59F9D",
"Ir	c #A29B99",
"Jr	c #908A8A",
"Kr	c #868283",
"Lr	c #B49276",
"Mr	c #EDB227",
"Nr	c #EBB42C",
"Or	c #EABA27",
"Pr	c #ECB82C",
"Qr	c #ECBB30",
"Rr	c #F1BA20",
"Sr	c #F0BA1D",
"Tr	c #F1BC1D",
"Ur	c #E4B049",
"Vr	c #A0948E",
"Wr	c #ADA6A3",
"Xr	c #AFA8A5",
"Yr	c #D1A078",
"Zr	c #EAB238",
"`r	c #E9B429",
" s	c #EBB22E",
".s	c #ECA42C",
"+s	c #E9852A",
"@s	c #E98329",
"#s	c #EB892A",
"$s	c #E3924D",
"%s	c #C3A395",
"&s	c #B7A6A0",
"*s	c #B9A7A1",
"=s	c #B9A8A2",
"-s	c #B8A7A2",
";s	c #B7A9A5",
">s	c #B8A9A6",
",s	c #B7A8A5",
"'s	c #B9A8A5",
")s	c #B5ACA9",
"!s	c #B8ABA7",
"~s	c #B8A8A5",
"{s	c #AEA19D",
"]s	c #6A5F5D",
"^s	c #493A3A",
"/s	c #4C3C3C",
"(s	c #4D423E",
"_s	c #55493A",
":s	c #54493B",
"<s	c #54483A",
"[s	c #544738",
"}s	c #534739",
"|s	c #51463A",
"1s	c #54483C",
"2s	c #53483E",
"3s	c #50443D",
"4s	c #52463E",
"5s	c #4F4340",
"6s	c #52473F",
"7s	c #554A43",
"8s	c #AFA7A4",
"9s	c #C4A48A",
"0s	c #D0A87B",
"as	c #CEA06F",
"bs	c #B09268",
"cs	c #D29F43",
"ds	c #EDAD20",
"es	c #F0B01F",
"fs	c #EFAF1F",
"gs	c #EEB322",
"hs	c #ECBD26",
"is	c #EBC027",
"js	c #ECC126",
"ks	c #E9B43B",
"ls	c #DDA869",
"ms	c #DCA860",
"ns	c #D6A053",
"os	c #D19D55",
"ps	c #A1897C",
"qs	c #868182",
"rs	c #868183",
"ss	c #888485",
"ts	c #868282",
"us	c #847F80",
"vs	c #92847D",
"ws	c #AE8E6D",
"xs	c #A4896C",
"ys	c #A2886A",
"zs	c #B9925F",
"As	c #EEA729",
"Bs	c #F1A620",
"Cs	c #EFA723",
"Ds	c #E7A745",
"Es	c #E2AA51",
"Fs	c #E5B151",
"Gs	c #DCA853",
"Hs	c #D29F58",
"Is	c #E8AA32",
"Js	c #EBAF26",
"Ks	c #EAB127",
"Ls	c #DF9F40",
"Ms	c #9A746A",
"Ns	c #9F817B",
"Os	c #B3948C",
"Ps	c #B59A93",
"Qs	c #B1AAA7",
"Rs	c #BCA598",
"Ss	c #CAA481",
"Ts	c #C8A37D",
"Us	c #CFA47C",
"Vs	c #DE9D61",
"Ws	c #EC8725",
"Xs	c #ED8522",
"Ys	c #EE8722",
"Zs	c #E98D3F",
"`s	c #D6927A",
" t	c #D18E7D",
".t	c #CE8C7D",
"+t	c #C89385",
"@t	c #CD937A",
"#t	c #CF9378",
"$t	c #CF8F72",
"%t	c #C9937A",
"&t	c #B7A49D",
"*t	c #B6A7A4",
"=t	c #B6A8A4",
"-t	c #B6A8A5",
";t	c #B5A8A5",
">t	c #B5AAA7",
",t	c #B4ACA9",
"'t	c #B4A6A3",
")t	c #948885",
"!t	c #524140",
"~t	c #493B3A",
"{t	c #4B3E3A",
"]t	c #4D423D",
"^t	c #53473D",
"/t	c #54493D",
"(t	c #564A3C",
"_t	c #574A3B",
":t	c #564B3C",
"<t	c #554B3C",
"[t	c #544A40",
"}t	c #51463E",
"|t	c #524740",
"1t	c #4F443D",
"2t	c #4E433D",
"3t	c #544942",
"4t	c #594B47",
"5t	c #B2ACA8",
"6t	c #A7A09E",
"7t	c #9A9594",
"8t	c #99918D",
"9t	c #D6A447",
"0t	c #F0B322",
"at	c #F3B41F",
"bt	c #F2B41F",
"ct	c #EDAC23",
"dt	c #E4A12B",
"et	c #E9A82A",
"ft	c #E9A829",
"gt	c #E9A725",
"ht	c #EDAE24",
"it	c #ECAF26",
"jt	c #EEB124",
"kt	c #E5A850",
"lt	c #BDAEA8",
"mt	c #B4ABA7",
"nt	c #A59C98",
"ot	c #A29895",
"pt	c #9C9695",
"qt	c #989392",
"rt	c #908C8C",
"st	c #837F80",
"tt	c #858081",
"ut	c #878384",
"vt	c #858080",
"wt	c #B28D6A",
"xt	c #ECAE27",
"yt	c #EAAD24",
"zt	c #E9A925",
"At	c #E9A529",
"Bt	c #ED902C",
"Ct	c #EB8A29",
"Dt	c #EA8C2D",
"Et	c #CD9C7D",
"Ft	c #C1B1AA",
"Gt	c #C2AFA7",
"Ht	c #B5A39A",
"It	c #A0867C",
"Jt	c #DC8338",
"Kt	c #E78529",
"Lt	c #E6872A",
"Mt	c #E47C2B",
"Nt	c #C33D30",
"Ot	c #C93F31",
"Pt	c #CA3C33",
"Qt	c #C34E45",
"Rt	c #9A8C88",
"St	c #999290",
"Tt	c #9A928F",
"Ut	c #9E9895",
"Vt	c #A8A29F",
"Wt	c #AEA8A4",
"Xt	c #B2A9A5",
"Yt	c #C69A81",
"Zt	c #F08B22",
"`t	c #F18B1D",
" u	c #EE8423",
".u	c #E74C2E",
"+u	c #E6442D",
"@u	c #E6402C",
"#u	c #E65030",
"$u	c #E8712A",
"%u	c #E87429",
"&u	c #E77228",
"*u	c #DE7938",
"=u	c #BE9D8E",
"-u	c #B6A9A5",
";u	c #B4AAA6",
">u	c #AB9F9C",
",u	c #685D5B",
"'u	c #483B3A",
")u	c #4D423F",
"!u	c #504440",
"~u	c #574C42",
"{u	c #584C3F",
"]u	c #584B3D",
"^u	c #594D40",
"/u	c #594C3E",
"(u	c #574B3C",
"_u	c #544B41",
":u	c #534940",
"<u	c #534840",
"[u	c #584C45",
"}u	c #5A4D46",
"|u	c #5B5045",
"1u	c #ABA6A3",
"2u	c #8E8989",
"3u	c #89817F",
"4u	c #D29B43",
"5u	c #F0AF1E",
"6u	c #F4B41B",
"7u	c #EBAA22",
"8u	c #E5A32A",
"9u	c #E6A52A",
"0u	c #E7A62B",
"au	c #E7A626",
"bu	c #E9AA29",
"cu	c #E8A726",
"du	c #E5A94F",
"eu	c #BCB1AB",
"fu	c #BAB3B0",
"gu	c #BAB2AE",
"hu	c #B8B2B0",
"iu	c #B6B0B0",
"ju	c #B4AFAD",
"ku	c #B2ADAB",
"lu	c #8A8484",
"mu	c #868181",
"nu	c #878283",
"ou	c #B59069",
"pu	c #F1B121",
"qu	c #F1B01C",
"ru	c #F2B11C",
"su	c #EDA425",
"tu	c #ED8E2B",
"uu	c #EB8A2A",
"vu	c #EB8C2E",
"wu	c #CD9B7F",
"xu	c #C0B4AF",
"yu	c #BEB1AC",
"zu	c #BAACA6",
"Au	c #B89D92",
"Bu	c #E08539",
"Cu	c #E88329",
"Du	c #E9872A",
"Eu	c #E77C2B",
"Fu	c #CB372D",
"Gu	c #C92F2C",
"Hu	c #C72F2C",
"Iu	c #C2423D",
"Ju	c #8F7F7C",
"Ku	c #888280",
"Lu	c #878180",
"Mu	c #868081",
"Nu	c #8C8585",
"Ou	c #9F9896",
"Pu	c #ADA7A3",
"Qu	c #C5977D",
"Ru	c #ED7E23",
"Su	c #E74529",
"Tu	c #E73F29",
"Uu	c #E73E28",
"Vu	c #E84C29",
"Wu	c #E77327",
"Xu	c #E67426",
"Yu	c #E57023",
"Zu	c #DE7936",
"`u	c #C19D8E",
" v	c #B6A7A3",
".v	c #BAA9A3",
"+v	c #B5A7A4",
"@v	c #B3A9A6",
"#v	c #B3AAA6",
"$v	c #B7A9A6",
"%v	c #B5A9A6",
"&v	c #B2A6A2",
"*v	c #8B817F",
"=v	c #4E3F3F",
"-v	c #4D3F3B",
";v	c #4D413D",
">v	c #4D413E",
",v	c #4D4241",
"'v	c #544944",
")v	c #584E44",
"!v	c #594E45",
"~v	c #574D42",
"{v	c #564B3E",
"]v	c #594C41",
"^v	c #584C41",
"/v	c #594E42",
"(v	c #554B3E",
"_v	c #544C42",
":v	c #544B40",
"<v	c #52483C",
"[v	c #51443D",
"}v	c #534941",
"|v	c #554C43",
"1v	c #564D44",
"2v	c #594F45",
"3v	c #5B5245",
"4v	c #B3ADA9",
"5v	c #AFA9A6",
"6v	c #ADA7A4",
"7v	c #ACA6A3",
"8v	c #897F7B",
"9v	c #CE9C47",
"0v	c #F1B21C",
"av	c #EAA926",
"bv	c #E3A12E",
"cv	c #E7A628",
"dv	c #E8A729",
"ev	c #E9A929",
"fv	c #EAAC28",
"gv	c #E7A625",
"hv	c #E1A54E",
"iv	c #BCB1AC",
"jv	c #BAB4B1",
"kv	c #B9B2AF",
"lv	c #B6B1AE",
"mv	c #B7B1B0",
"nv	c #B6AFAF",
"ov	c #B0AAA8",
"pv	c #ABA5A3",
"qv	c #9E9795",
"rv	c #828081",
"sv	c #878383",
"tv	c #B9906D",
"uv	c #EEAD23",
"vv	c #F0AF1D",
"wv	c #F0AE1D",
"xv	c #ECA125",
"yv	c #EB8B2A",
"zv	c #EB8B2B",
"Av	c #E9892C",
"Bv	c #CA9778",
"Cv	c #BCB0AC",
"Dv	c #BCADA8",
"Ev	c #B6AAA4",
"Fv	c #B69C8F",
"Gv	c #E0853A",
"Hv	c #E57A28",
"Iv	c #E78129",
"Jv	c #E77C2D",
"Kv	c #C9352C",
"Lv	c #C82F2C",
"Mv	c #C62E2B",
"Nv	c #BD3B36",
"Ov	c #987E78",
"Pv	c #878282",
"Qv	c #857E7F",
"Rv	c #867E7D",
"Sv	c #8C8787",
"Tv	c #9C9492",
"Uv	c #C2937A",
"Vv	c #ED7C25",
"Wv	c #E8482A",
"Xv	c #E73B27",
"Yv	c #E73A27",
"Zv	c #E74A29",
"`v	c #E57226",
" w	c #E47528",
".w	c #E47325",
"+w	c #E17932",
"@w	c #C5A08D",
"#w	c #B7A8A3",
"$w	c #B8A8A3",
"%w	c #B8A8A2",
"&w	c #B4A8A4",
"*w	c #B4A9A5",
"=w	c #B5A9A5",
"-w	c #B6ACA8",
";w	c #B6ADA9",
">w	c #A89D99",
",w	c #615553",
"'w	c #4A3B3B",
")w	c #4B3C3C",
"!w	c #4F4243",
"~w	c #4E4242",
"{w	c #514546",
"]w	c #534845",
"^w	c #534842",
"/w	c #554C41",
"(w	c #564C41",
"_w	c #564D42",
":w	c #554C42",
"<w	c #51463C",
"[w	c #544A3F",
"}w	c #53483F",
"|w	c #594E44",
"1w	c #5A5146",
"2w	c #B5B0AC",
"3w	c #ACA5A1",
"4w	c #978A84",
"5w	c #92827D",
"6w	c #908179",
"7w	c #928074",
"8w	c #CF9C45",
"9w	c #EEAC24",
"0w	c #F0AD1F",
"aw	c #F2B21E",
"bw	c #E7A337",
"cw	c #E09C3D",
"dw	c #E4A033",
"ew	c #E4A13D",
"fw	c #E7A535",
"gw	c #E9A928",
"hw	c #EAA927",
"iw	c #DFA14A",
"jw	c #BFADA5",
"kw	c #BBB0AC",
"lw	c #B8AEA9",
"mw	c #B6ADAA",
"nw	c #B8ABA9",
"ow	c #A99A96",
"pw	c #928584",
"qw	c #918482",
"rw	c #90837F",
"sw	c #8D807B",
"tw	c #91837A",
"uw	c #C19166",
"vw	c #EDA926",
"ww	c #EDA821",
"xw	c #EAA227",
"yw	c #EC9A2C",
"zw	c #E98429",
"Aw	c #E8862B",
"Bw	c #B87D5C",
"Cw	c #92807C",
"Dw	c #90807C",
"Ew	c #8D7E7A",
"Fw	c #997970",
"Gw	c #DE7B36",
"Hw	c #E57728",
"Iw	c #E57928",
"Jw	c #E1732C",
"Kw	c #C1312B",
"Lw	c #C42D2B",
"Mw	c #C22D2B",
"Nw	c #C24039",
"Ow	c #BE8D7D",
"Pw	c #A1877E",
"Qw	c #9A8379",
"Rw	c #938277",
"Sw	c #8C8079",
"Tw	c #87807F",
"Uw	c #857F7E",
"Vw	c #86807E",
"Ww	c #AD8872",
"Xw	c #E38B37",
"Yw	c #E58831",
"Zw	c #E5852E",
"`w	c #E5772E",
" x	c #E54227",
".x	c #E54428",
"+x	c #E16D2A",
"@x	c #E87128",
"#x	c #E87227",
"$x	c #E37733",
"%x	c #CA9B86",
"&x	c #BEA39A",
"*x	c #BEA29B",
"=x	c #BAA199",
"-x	c #B7A5A0",
";x	c #B4A9A6",
">x	c #B4ABA8",
",x	c #B6ABA8",
"'x	c #B6AAA7",
")x	c #887E7B",
"!x	c #4F423E",
"~x	c #4C3E3D",
"{x	c #4D403C",
"]x	c #4D413F",
"^x	c #4F4343",
"/x	c #4F4441",
"(x	c #4F4440",
"_x	c #534A41",
":x	c #554D43",
"<x	c #564D43",
"[x	c #564E43",
"}x	c #584F43",
"|x	c #52493F",
"1x	c #574D44",
"2x	c #B5B0AD",
"3x	c #B1ABA7",
"4x	c #B4A69D",
"5x	c #D68A4B",
"6x	c #DD8039",
"7x	c #DD8338",
"8x	c #E18737",
"9x	c #E6882C",
"0x	c #E68927",
"ax	c #E88528",
"bx	c #E58427",
"cx	c #CE652D",
"dx	c #B9372C",
"ex	c #BE3D2C",
"fx	c #BF4031",
"gx	c #C86D3D",
"hx	c #E09D2E",
"ix	c #E5A324",
"jx	c #E6A525",
"kx	c #DA9339",
"lx	c #9B564F",
"mx	c #915451",
"nx	c #955B56",
"ox	c #9D5D58",
"px	c #BC554D",
"qx	c #CB5648",
"rx	c #C75147",
"sx	c #C14A42",
"tx	c #D28647",
"ux	c #E3A546",
"vx	c #E0A441",
"wx	c #DFA33B",
"xx	c #E59C32",
"yx	c #E88328",
"zx	c #E77E27",
"Ax	c #E67B26",
"Bx	c #E87825",
"Cx	c #EA7428",
"Dx	c #EA7127",
"Ex	c #EA7329",
"Fx	c #D95F30",
"Gx	c #D35241",
"Hx	c #D35344",
"Ix	c #D04F42",
"Jx	c #D14637",
"Kx	c #CE422F",
"Lx	c #C93F2C",
"Mx	c #C73F2B",
"Nx	c #C13A2A",
"Ox	c #981F1F",
"Px	c #921D1D",
"Qx	c #941E1E",
"Rx	c #9F2E23",
"Sx	c #E18435",
"Tx	c #E68F36",
"Ux	c #E08B35",
"Vx	c #DF8C36",
"Wx	c #B7875C",
"Xx	c #898483",
"Yx	c #848080",
"Zx	c #88807D",
"`x	c #8D8079",
" y	c #907F79",
".y	c #927C74",
"+y	c #A76F62",
"@y	c #E13F2D",
"#y	c #E63C27",
"$y	c #E54327",
"%y	c #E54426",
"&y	c #E74B28",
"*y	c #E6522C",
"=y	c #E25439",
"-y	c #DF513E",
";y	c #DD5140",
">y	c #D06351",
",y	c #BA9E96",
"'y	c #B8AAA6",
")y	c #B5ABA8",
"!y	c #B3AAA7",
"~y	c #B5AAA6",
"{y	c #A19693",
"]y	c #5D504E",
"^y	c #4D3F3D",
"/y	c #4D403D",
"(y	c #4E4241",
"_y	c #4F4341",
":y	c #514842",
"<y	c #544C44",
"[y	c #574E45",
"}y	c #544B3E",
"|y	c #554B3D",
"1y	c #554C40",
"2y	c #53493D",
"3y	c #574E40",
"4y	c #5A5144",
"5y	c #B2ADA9",
"6y	c #A0938B",
"7y	c #DD883F",
"8y	c #E98629",
"9y	c #E98729",
"0y	c #EA8829",
"ay	c #E77C27",
"by	c #E77B27",
"cy	c #E37A29",
"dy	c #C7572F",
"ey	c #BD2A2B",
"fy	c #C02C2B",
"gy	c #BB292A",
"hy	c #C05E3C",
"iy	c #E3A13C",
"jy	c #E6A426",
"ky	c #D88D2E",
"ly	c #86261C",
"my	c #721F1A",
"ny	c #791D1A",
"oy	c #8B191A",
"py	c #B62827",
"qy	c #CB312C",
"ry	c #CB302C",
"sy	c #CB322C",
"ty	c #DE852A",
"uy	c #EDAA20",
"vy	c #EEAB1D",
"wy	c #EEAA1E",
"xy	c #EDA01F",
"yy	c #E77A27",
"zy	c #E67827",
"Ay	c #E57525",
"By	c #E77224",
"Cy	c #EB7028",
"Dy	c #EC7129",
"Ey	c #EB7029",
"Fy	c #E75728",
"Gy	c #E63A27",
"Hy	c #E43925",
"Iy	c #E53926",
"Jy	c #E2382B",
"Ky	c #C22C2B",
"Ly	c #C12D2C",
"My	c #921B1C",
"Ny	c #8D181A",
"Oy	c #972A1F",
"Py	c #E7862B",
"Qy	c #ED8E2C",
"Ry	c #EA882A",
"Sy	c #EB8C2D",
"Ty	c #CA926B",
"Uy	c #A39C99",
"Vy	c #9F9A97",
"Wy	c #A09A97",
"Xy	c #938C8A",
"Yy	c #847D7C",
"Zy	c #857C7B",
"`y	c #9B7772",
" z	c #E14133",
".z	c #E73B28",
"+z	c #E73C27",
"@z	c #E74129",
"#z	c #E43F27",
"$z	c #E23D26",
"%z	c #DE4933",
"&z	c #C09D96",
"*z	c #B5ADAA",
"=z	c #B3ACA9",
"-z	c #B2AAA6",
";z	c #AEA39E",
">z	c #7C716D",
",z	c #4F4442",
"'z	c #504644",
")z	c #534A46",
"!z	c #564E46",
"~z	c #595145",
"{z	c #574E44",
"]z	c #594F43",
"^z	c #584D40",
"/z	c #584E40",
"(z	c #584E42",
"_z	c #5A5143",
":z	c #584F42",
"<z	c #5C5244",
"[z	c #5B5143",
"}z	c #5B5244",
"|z	c #605546",
"1z	c #645749",
"2z	c #B4AEAB",
"3z	c #B5B0AE",
"4z	c #B7B1AF",
"5z	c #AAA4A0",
"6z	c #968780",
"7z	c #D8893F",
"8z	c #E88529",
"9z	c #E88229",
"0z	c #E77E28",
"az	c #E67B27",
"bz	c #E37A2A",
"cz	c #C65735",
"dz	c #B7282A",
"ez	c #BE533C",
"fz	c #E0A04F",
"gz	c #E7A527",
"hz	c #E5A426",
"iz	c #D9912B",
"jz	c #7B291C",
"kz	c #7A1D1A",
"lz	c #7D1D1A",
"mz	c #8C191B",
"nz	c #B52928",
"oz	c #CA302C",
"pz	c #CA312C",
"qz	c #DA812B",
"rz	c #ECAA28",
"sz	c #EEAA20",
"tz	c #EC9F1F",
"uz	c #E67927",
"vz	c #E77727",
"wz	c #E57324",
"xz	c #E76F21",
"yz	c #EA7027",
"zz	c #EB7129",
"Az	c #EC712A",
"Bz	c #E65627",
"Cz	c #E43C26",
"Dz	c #E43926",
"Ez	c #E63929",
"Fz	c #E2382C",
"Gz	c #CC302C",
"Hz	c #CC312E",
"Iz	c #C42E2C",
"Jz	c #BF2C2B",
"Kz	c #982D20",
"Lz	c #E5862D",
"Mz	c #E8852A",
"Nz	c #E78028",
"Oz	c #E8842B",
"Pz	c #CF9878",
"Qz	c #A49D9A",
"Rz	c #918987",
"Sz	c #967A75",
"Tz	c #E04535",
"Uz	c #E73D28",
"Vz	c #E73D29",
"Wz	c #E73C29",
"Xz	c #E7452B",
"Yz	c #E54229",
"Zz	c #E54028",
"`z	c #E04B34",
" A	c #C19C93",
".A	c #B3ABA8",
"+A	c #B6A9A6",
"@A	c #B3A6A2",
"#A	c #9D918C",
"$A	c #564A46",
"%A	c #4E4240",
"&A	c #514646",
"*A	c #544A45",
"=A	c #554C45",
"-A	c #594E43",
";A	c #5C5042",
">A	c #5F5343",
",A	c #5B5043",
"'A	c #595043",
")A	c #595042",
"!A	c #584E41",
"~A	c #5B5144",
"{A	c #584E3F",
"]A	c #5C5243",
"^A	c #615646",
"/A	c #645748",
"(A	c #625648",
"_A	c #615747",
":A	c #625748",
"<A	c #B3AEAA",
"[A	c #ABA29E",
"}A	c #C69879",
"|A	c #D1946E",
"1A	c #D49268",
"2A	c #D99764",
"3A	c #D5956B",
"4A	c #D49365",
"5A	c #D08D68",
"6A	c #D08E69",
"7A	c #C17C6A",
"8A	c #B76760",
"9A	c #B55F59",
"0A	c #B65D56",
"aA	c #C3786A",
"bA	c #D5A079",
"cA	c #DAA163",
"dA	c #DDA452",
"eA	c #D79B5A",
"fA	c #92554B",
"gA	c #99534B",
"hA	c #8C4B45",
"iA	c #8A4942",
"jA	c #B05049",
"kA	c #BF5A54",
"lA	c #B5544E",
"mA	c #B9554F",
"nA	c #CF8A5D",
"oA	c #DFA95F",
"pA	c #DEA75D",
"qA	c #E1A95C",
"rA	c #E0A75E",
"sA	c #DC8D5F",
"tA	c #DD7D50",
"uA	c #DC7F51",
"vA	c #DB7E51",
"wA	c #E07D4F",
"xA	c #E0794A",
"yA	c #E27645",
"zA	c #DC5E3F",
"AA	c #DB5743",
"BA	c #D85542",
"CA	c #D75241",
"DA	c #D6503F",
"EA	c #CC594A",
"FA	c #C6564D",
"GA	c #C0574E",
"HA	c #C25D53",
"IA	c #A54F47",
"JA	c #994540",
"KA	c #9A4942",
"LA	c #AB5847",
"MA	c #DD8843",
"NA	c #DE833D",
"OA	c #DD7B3B",
"PA	c #E2853C",
"QA	c #CA9A7F",
"RA	c #B29A94",
"SA	c #D57A6D",
"TA	c #D77364",
"UA	c #D87465",
"VA	c #DB796A",
"WA	c #DC7968",
"XA	c #D67968",
"YA	c #D87867",
"ZA	c #D87D6B",
"`A	c #D57867",
" B	c #D67969",
".B	c #D67869",
"+B	c #D27B6C",
"@B	c #BDA29A",
"#B	c #B6AAA6",
"$B	c #B3A9A5",
"%B	c #AEA29F",
"&B	c #756965",
"*B	c #4E4344",
"=B	c #504544",
"-B	c #534946",
";B	c #554B46",
">B	c #5A5045",
",B	c #5F5546",
"'B	c #605545",
")B	c #594F41",
"!B	c #5A5043",
"~B	c #5A5245",
"{B	c #5A4F40",
"]B	c #5B5142",
"^B	c #5C5344",
"/B	c #625647",
"(B	c #645848",
"_B	c #655948",
":B	c #68594C",
"<B	c #B6AEAA",
"[B	c #B7AFAB",
"}B	c #B5AFAB",
"|B	c #B6AFAB",
"1B	c #B6AEAB",
"2B	c #B6ABA7",
"3B	c #B5ABA6",
"4B	c #B7ABA7",
"5B	c #B7ACA7",
"6B	c #B7ADA7",
"7B	c #B8ACA8",
"8B	c #B6ABA9",
"9B	c #B5AAA8",
"0B	c #B3A8A5",
"aB	c #B4AAA8",
"bB	c #B6ABA6",
"cB	c #B6ABA5",
"dB	c #B6A9A3",
"eB	c #B7AAA4",
"fB	c #B7ABA5",
"gB	c #B7A9A3",
"hB	c #BAA9A2",
"iB	c #B8A69E",
"jB	c #B8A49E",
"kB	c #BAA59F",
"lB	c #BAA59E",
"mB	c #B8A69F",
"nB	c #B8A6A0",
"oB	c #B6A5A0",
"pB	c #BAA79F",
"qB	c #B9A499",
"rB	c #BAA399",
"sB	c #B9A59A",
"tB	c #B5A9A3",
"uB	c #B9ACA8",
"vB	c #B9AAA5",
"wB	c #B7AAA6",
"xB	c #B8ADA8",
"yB	c #BAAEA9",
"zB	c #BAAEAA",
"AB	c #B9AFAA",
"BB	c #B8ABA8",
"CB	c #B7AAA7",
"DB	c #B5ABA7",
"EB	c #B1A9A5",
"FB	c #938682",
"GB	c #524A4A",
"HB	c #4C4547",
"IB	c #4E4343",
"JB	c #534944",
"KB	c #544B44",
"LB	c #564E47",
"MB	c #5D5448",
"NB	c #5A4F42",
"OB	c #5C5143",
"PB	c #554C3F",
"QB	c #574D40",
"RB	c #5B4F40",
"SB	c #5E5344",
"TB	c #5D5344",
"UB	c #5D5445",
"VB	c #5E5446",
"WB	c #B4ADAB",
"XB	c #B4AEAC",
"YB	c #B5AFAD",
"ZB	c #B4ADAA",
"`B	c #B2ABA8",
" C	c #AEA9A8",
".C	c #AFA9A7",
"+C	c #AFAAA7",
"@C	c #ADA9A8",
"#C	c #B2ABA7",
"$C	c #B7AEAA",
"%C	c #B5AEAA",
"&C	c #B6B0AC",
"*C	c #B6B1AD",
"=C	c #B5AEAB",
"-C	c #B0A6A2",
";C	c #B2A6A3",
">C	c #B3A6A3",
",C	c #AC9F9A",
"'C	c #665D5E",
")C	c #4E4648",
"!C	c #4D4648",
"~C	c #4E4547",
"{C	c #4D4445",
"]C	c #534847",
"^C	c #554C47",
"/C	c #585049",
"(C	c #595148",
"_C	c #605548",
":C	c #584E43",
"<C	c #574E41",
"[C	c #5A5042",
"}C	c #615545",
"|C	c #645847",
"1C	c #584F41",
"2C	c #564D3F",
"3C	c #B4ADAD",
"4C	c #B4AEAA",
"5C	c #B2A7A3",
"6C	c #B3A7A3",
"7C	c #B4AAA7",
"8C	c #8D8280",
"9C	c #534C4E",
"0C	c #4F494C",
"aC	c #50484B",
"bC	c #4E4749",
"cC	c #4C4647",
"dC	c #514745",
"eC	c #534947",
"fC	c #544A49",
"gC	c #534A49",
"hC	c #564E44",
"iC	c #574E43",
"jC	c #594E40",
"kC	c #65584A",
"lC	c #635647",
"mC	c #5D5243",
"nC	c #5A4E3F",
"oC	c #574D3F",
"pC	c #564C3E",
"qC	c #B4AEAD",
"rC	c #B4ADAC",
"sC	c #B4ADA9",
"tC	c #B4ACA8",
"uC	c #B2A8A5",
"vC	c #B1A8A4",
"wC	c #B1A7A4",
"xC	c #B3A7A4",
"yC	c #B2A7A4",
"zC	c #B2A8A4",
"AC	c #A69B99",
"BC	c #625B5E",
"CC	c #504B52",
"DC	c #504A4F",
"EC	c #504A4C",
"FC	c #4F4749",
"GC	c #4B4748",
"HC	c #4C4748",
"IC	c #4D4647",
"JC	c #4D4446",
"KC	c #4F4547",
"LC	c #4F4444",
"MC	c #504647",
"NC	c #534A4A",
"OC	c #544C45",
"PC	c #574F46",
"QC	c #574D43",
"RC	c #5F5344",
"SC	c #5F5446",
"TC	c #5C5345",
"UC	c #ADA5A2",
"VC	c #B5AFAE",
"WC	c #B4AEAE",
"XC	c #B3ACA8",
"YC	c #B1A6A3",
"ZC	c #817978",
"`C	c #504C52",
" D	c #504C53",
".D	c #524C51",
"+D	c #514A4C",
"@D	c #4C4749",
"#D	c #504849",
"$D	c #4D4345",
"%D	c #544A4B",
"&D	c #544B4A",
"*D	c #544B4B",
"=D	c #564E4B",
"-D	c #585047",
";D	c #584F45",
">D	c #5F5547",
",D	c #5C5247",
"'D	c #5B5247",
")D	c #5B5246",
"!D	c #5E5548",
"~D	c #605649",
"{D	c #ADA5A1",
"]D	c #B4AFAE",
"^D	c #B2AAA7",
"/D	c #B3ABA7",
"(D	c #B1A7A3",
"_D	c #B0A6A3",
":D	c #99928F",
"<D	c #585255",
"[D	c #504B53",
"}D	c #4F4B52",
"|D	c #4E4A4E",
"1D	c #50494C",
"2D	c #4D484B",
"3D	c #4D4849",
"4D	c #4D4748",
"5D	c #4D4749",
"6D	c #4D484A",
"7D	c #524B4F",
"8D	c #544D4F",
"9D	c #554E51",
"0D	c #534B4C",
"aD	c #4F4847",
"bD	c #544D48",
"cD	c #574F44",
"dD	c #585046",
"eD	c #5B5347",
"fD	c #5C5447",
"gD	c #B2A9A6",
"hD	c #A8A19E",
"iD	c #6E6667",
"jD	c #4D4951",
"kD	c #4D4950",
"lD	c #4F494D",
"mD	c #4E494E",
"nD	c #4D494C",
"oD	c #4B4749",
"pD	c #4E4849",
"qD	c #524A4D",
"rD	c #524B4E",
"sD	c #534B4F",
"tD	c #4F494A",
"uD	c #524A47",
"vD	c #514845",
"wD	c #524843",
"xD	c #554D47",
"yD	c #595046",
"zD	c #595247",
"AD	c #AEA6A3",
"BD	c #877F7F",
"CD	c #4A4548",
"DD	c #474244",
"ED	c #4B4648",
"FD	c #4E4A4F",
"GD	c #4E494D",
"HD	c #4C4849",
"ID	c #524A4C",
"JD	c #50494D",
"KD	c #4F4746",
"LD	c #514944",
"MD	c #544B46",
"ND	c #5A5147",
"OD	c #5E554B",
"PD	c #ACA3A0",
"QD	c #B0A7A3",
"RD	c #AFA7A3",
"SD	c #9C9491",
"TD	c #3B3635",
"UD	c #2D2A2A",
"VD	c #3C373A",
"WD	c #464043",
"XD	c #4C484C",
"YD	c #4D494B",
"ZD	c #4E494B",
"`D	c #4E494C",
" E	c #524A4E",
".E	c #544B4F",
"+E	c #504746",
"@E	c #524945",
"#E	c #524944",
"$E	c #564E45",
"%E	c #59524B",
"&E	c #B1A8A5",
"*E	c #B0A7A4",
"=E	c #ACA4A0",
"-E	c #A69E9A",
";E	c #5E5857",
">E	c #171714",
",E	c #343032",
"'E	c #4A4445",
")E	c #4B484A",
"!E	c #4C484B",
"~E	c #4D494E",
"{E	c #4D484C",
"]E	c #504A4E",
"^E	c #4F4A4D",
"/E	c #52494C",
"(E	c #52494B",
"_E	c #524948",
":E	c #534B46",
"<E	c #534A45",
"[E	c #544D46",
"}E	c #ABA3A0",
"|E	c #B1A9A6",
"1E	c #B0AAA5",
"2E	c #AEA9A5",
"3E	c #AFA9A5",
"4E	c #B0A9A5",
"5E	c #B0A8A5",
"6E	c #ADA6A2",
"7E	c #ADA6A1",
"8E	c #AEA7A2",
"9E	c #AEA8A3",
"0E	c #ACA5A0",
"aE	c #A9A19C",
"bE	c #8C8481",
"cE	c #0C0D0C",
"dE	c #1E1D1D",
"eE	c #373639",
"fE	c #484547",
"gE	c #474245",
"hE	c #4A4649",
"iE	c #4B4850",
"jE	c #4D494F",
"kE	c #4D494D",
"lE	c #514A4E",
"mE	c #4F494B",
"nE	c #534A4B",
"oE	c #50484A",
"pE	c #524849",
"qE	c #534945",
"rE	c #AEA8A6",
"sE	c #B2ABA9",
"tE	c #AFA8A4",
"uE	c #AAA39D",
"vE	c #A49D98",
"wE	c #554F4E",
"xE	c #090808",
"yE	c #0B0C0B",
"zE	c #1D1D1D",
"AE	c #323033",
"BE	c #282728",
"CE	c #3C393E",
"DE	c #49474D",
"EE	c #4B474D",
"FE	c #4E4A50",
"GE	c #514C52",
"HE	c #514C51",
"IE	c #514B51",
"JE	c #4F4849",
"KE	c #504444",
"LE	c #A9A29E",
"ME	c #ADA8A4",
"NE	c #ADA7A5",
"OE	c #ADA9A6",
"PE	c #ACA6A1",
"QE	c #ABA39E",
"RE	c #A8A19C",
"SE	c #847D7A",
"TE	c #151312",
"UE	c #080707",
"VE	c #0B0B0B",
"WE	c #0E0E0E",
"XE	c #3C393C",
"YE	c #49454A",
"ZE	c #4C4A53",
"`E	c #4E4A52",
" F	c #524D53",
".F	c #534D53",
"+F	c #504A4D",
"@F	c #4E484A",
"#F	c #AAA29F",
"$F	c #ABA49F",
"%F	c #ACA5A2",
"&F	c #A8A29C",
"*F	c #A09994",
"=F	c #393534",
"-F	c #0B0A0A",
";F	c #323035",
">F	c #423F46",
",F	c #47444A",
"'F	c #4F4A50",
")F	c #514C53",
"!F	c #4E4B52",
"~F	c #514B50",
"{F	c #534C51",
"]F	c #544E52",
"^F	c #524D52",
"/F	c #524B50",
"(F	c #514B4F",
"_F	c #A8A09D",
":F	c #ADA8A5",
"<F	c #B1AAA8",
"[F	c #AAA39E",
"}F	c #A9A29D",
"|F	c #6E6866",
"1F	c #0C0B0B",
"2F	c #0C0C0C",
"3F	c #1A1A1B",
"4F	c #2F2C2F",
"5F	c #2E2B2E",
"6F	c #403C40",
"7F	c #4F4B53",
"8F	c #4E4A53",
"9F	c #4D4A53",
"0F	c #534D52",
"aF	c #524C53",
"bF	c #ACA6A2",
"cF	c #ACA4A1",
"dF	c #ABA4A0",
"eF	c #948D8A",
"fF	c #211F1F",
"gF	c #0A0909",
"hF	c #0A0A0A",
"iF	c #0C0D0D",
"jF	c #2B2829",
"kF	c #403C41",
"lF	c #494750",
"mF	c #4B4953",
"nF	c #4C4953",
"oF	c #514D53",
"pF	c #564E52",
"qF	c #544D53",
"rF	c #AFA6A3",
"sF	c #ADA4A0",
"tF	c #ACA49F",
"uF	c #AEA5A1",
"vF	c #A6A09B",
"wF	c #5C5856",
"xF	c #090909",
"yF	c #0C0C0B",
"zF	c #0D0C0C",
"AF	c #111111",
"BF	c #232222",
"CF	c #363439",
"DF	c #424049",
"EF	c #484752",
"FF	c #494754",
"GF	c #554E53",
"HF	c #564D52",
"IF	c #B6AFAC",
"JF	c #B8B0AD",
"KF	c #B7B0AC",
"LF	c #B5AEA9",
"MF	c #B5ADA9",
"NF	c #B4ADA8",
"OF	c #B7AFAC",
"PF	c #B8AFAB",
"QF	c #B6AFAA",
"RF	c #B7ADA9",
"SF	c #B9B1AD",
"TF	c #BBB3AF",
"UF	c #BAB1AC",
"VF	c #B8B1AD",
"WF	c #B9B2AE",
"XF	c #B8B1AC",
"YF	c #BCB4B0",
"ZF	c #BCB3AF",
"`F	c #BBB2AE",
" G	c #B8B0AB",
".G	c #B7ADAA",
"+G	c #B8ADAA",
"@G	c #B8ADA9",
"#G	c #B6ADA8",
"$G	c #B7ABA6",
"%G	c #B7ACA9",
"&G	c #B4AAA5",
"*G	c #958E8B",
"=G	c #1A1918",
"-G	c #080808",
";G	c #111311",
">G	c #212222",
",G	c #302E32",
"'G	c #413F47",
")G	c #484652",
"!G	c #454450",
"~G	c #494753",
"{G	c #504B4F",
"]G	c #C4BCB7",
"^G	c #CAC2BD",
"/G	c #CAC2BE",
"(G	c #CBC1BD",
"_G	c #CCC2BE",
":G	c #C9C1BB",
"<G	c #C9C1BC",
"[G	c #C9C0BC",
"}G	c #C9C0BB",
"|G	c #C8BFBA",
"1G	c #C8C0BB",
"2G	c #CAC0BC",
"3G	c #C9BFBB",
"4G	c #C8BEBA",
"5G	c #C7C0BA",
"6G	c #C7BEBA",
"7G	c #CAC1BC",
"8G	c #C7BFBA",
"9G	c #C7BEB9",
"0G	c #C6BEB9",
"aG	c #C7BFB9",
"bG	c #C8BEB9",
"cG	c #CAC1BD",
"dG	c #C8BFBB",
"eG	c #CDC1BD",
"fG	c #CCC3BF",
"gG	c #CDC4C0",
"hG	c #CFC5C1",
"iG	c #D0C7C3",
"jG	c #D1C8C4",
"kG	c #D3CAC7",
"lG	c #D2CAC6",
"mG	c #CEC6C2",
"nG	c #CDC3BF",
"oG	c #CDC3C0",
"pG	c #CEC2BE",
"qG	c #CFC4C0",
"rG	c #CDC2BF",
"sG	c #CDC2BE",
"tG	c #CEC3BF",
"uG	c #CCC1BD",
"vG	c #CBC0BC",
"wG	c #CEC4C1",
"xG	c #CEC5C1",
"yG	c #CDC0BC",
"zG	c #CBBFBB",
"AG	c #B5ACA8",
"BG	c #252423",
"CG	c #090809",
"DG	c #0A0B0A",
"EG	c #1F1F1F",
"FG	c #302E33",
"GG	c #393945",
"HG	c #3F3E4A",
"IG	c #484653",
"JG	c #494854",
"KG	c #4A4854",
"LG	c #CFC6C2",
"MG	c #D0C7C4",
"NG	c #D1C7C4",
"OG	c #D2C8C5",
"PG	c #D2C9C5",
"QG	c #D1C8C5",
"RG	c #D3CAC6",
"SG	c #D3C9C6",
"TG	c #D0C6C2",
"UG	c #D4CBC8",
"VG	c #D4CAC8",
"WG	c #D4CCC9",
"XG	c #D4CBC9",
"YG	c #D4CBC7",
"ZG	c #D1C6C3",
"`G	c #CEC5C2",
" H	c #CDC4BF",
".H	c #CFC5C2",
"+H	c #CFC6C3",
"@H	c #D2C9C6",
"#H	c #D2C7C4",
"$H	c #D0C6C3",
"%H	c #D2C7C3",
"&H	c #D4C8C5",
"*H	c #D6C9C5",
"=H	c #D5CAC7",
"-H	c #D6CBC8",
";H	c #D5C9C6",
">H	c #D6C9C6",
",H	c #D6CBC9",
"'H	c #D7CDCB",
")H	c #D8CECC",
"!H	c #D7D0CD",
"~H	c #D7D0CE",
"{H	c #D6CFCD",
"]H	c #D6CFCC",
"^H	c #D7D1CE",
"/H	c #D7CFCD",
"(H	c #D6CECC",
"_H	c #D7CECC",
":H	c #D8CECD",
"<H	c #D8CFCD",
"[H	c #D8CFCC",
"}H	c #D7CECB",
"|H	c #D8D0CD",
"1H	c #D9CFCD",
"2H	c #D8CDCB",
"3H	c #D5CBC8",
"4H	c #D6CCCA",
"5H	c #D9D0CE",
"6H	c #D9D0CD",
"7H	c #D8CCCA",
"8H	c #BCB4B1",
"9H	c #282727",
"0H	c #0E100F",
"aH	c #111211",
"bH	c #262527",
"cH	c #32303B",
"dH	c #353442",
"eH	c #3F3F4C",
"fH	c #464551",
"gH	c #474552",
"hH	c #4E4B53",
"iH	c #D3C9C5",
"jH	c #D5CCC9",
"kH	c #D5CCCA",
"lH	c #D5CECB",
"mH	c #D5CFCC",
"nH	c #D6D0CD",
"oH	c #D5CDCB",
"pH	c #D6CDCB",
"qH	c #D7CCC9",
"rH	c #D5CAC8",
"sH	c #D5CDCA",
"tH	c #D6CECB",
"uH	c #D7CCCA",
"vH	c #D7CBC9",
"wH	c #D6CCCB",
"xH	c #D9CECC",
"yH	c #D9CECD",
"zH	c #D8CDCC",
"AH	c #D7CDCC",
"BH	c #D9D1CE",
"CH	c #DAD1CF",
"DH	c #D8D1CE",
"EH	c #DAD2CF",
"FH	c #D9D1CF",
"GH	c #D9D2CF",
"HH	c #D8D2CF",
"IH	c #DBD2CF",
"JH	c #D8D0CE",
"KH	c #DBD3D1",
"LH	c #DAD2D0",
"MH	c #DAD3D1",
"NH	c #BEB6B4",
"OH	c #282827",
"PH	c #0B0C0C",
"QH	c #0F1110",
"RH	c #2E2D34",
"SH	c #313040",
"TH	c #343242",
"UH	c #373644",
"VH	c #3B3A48",
"WH	c #474653",
"XH	c #D3C9C7",
"YH	c #D7D2CF",
"ZH	c #D6D2CF",
"`H	c #DAD1CE",
" I	c #DAD0CE",
".I	c #D9CFCE",
"+I	c #DCD3D1",
"@I	c #DCD4D1",
"#I	c #DBD3D0",
"$I	c #DBD2D0",
"%I	c #DCD4D2",
"&I	c #DBD4D1",
"*I	c #D8D1CF",
"=I	c #BDB5B3",
"-I	c #292827",
";I	c #0C0E0D",
">I	c #0D0F0F",
",I	c #0D0E0D",
"'I	c #0E0F0E",
")I	c #0F100F",
"!I	c #121312",
"~I	c #131412",
"{I	c #121311",
"]I	c #262628",
"^I	c #2F2E38",
"/I	c #302E3C",
"(I	c #32303F",
"_I	c #383845",
":I	c #34333E",
"<I	c #262526",
"[I	c #48454A",
"}I	c #D6D1CE",
"|I	c #D8D2D0",
"1I	c #D7D2D0",
"2I	c #D7D2D1",
"3I	c #D9D3D2",
"4I	c #D8D3D1",
"5I	c #D9D3D0",
"6I	c #DBD4D2",
"7I	c #D9CECE",
"8I	c #DAD0CF",
"9I	c #D9D2D0",
"0I	c #DBD1D0",
"aI	c #DCD5D2",
"bI	c #DCD6D3",
"cI	c #DCD5D3",
"dI	c #DCD6D4",
"eI	c #DDD5D3",
"fI	c #B9B0AE",
"gI	c #262424",
"hI	c #0C0E0C",
"iI	c #0F1211",
"jI	c #0A0A09",
"kI	c #1D1E1F",
"lI	c #2C2B31",
"mI	c #333240",
"nI	c #343443",
"oI	c #31303C",
"pI	c #1D1D1E",
"qI	c #353336",
"rI	c #4A484F",
"sI	c #CEC4C2",
"tI	c #D5CCCB",
"uI	c #D9D3D1",
"vI	c #D7D1CF",
"wI	c #DACFCE",
"xI	c #DDD6D4",
"yI	c #DDD7D5",
"zI	c #DDD8D6",
"AI	c #BBB2B0",
"BI	c #101210",
"CI	c #111413",
"DI	c #0D0F0E",
"EI	c #0B0B0A",
"FI	c #232224",
"GI	c #33313F",
"HI	c #333141",
"II	c #29282F",
"JI	c #272628",
"KI	c #3A3B44",
"LI	c #3D3C48",
"MI	c #C0B6B4",
"NI	c #2C2B29",
"OI	c #0E100E",
"PI	c #0F110F",
"QI	c #141512",
"RI	c #141511",
"SI	c #10110E",
"TI	c #0D100E",
"UI	c #252428",
"VI	c #2F2D36",
"WI	c #252527",
"XI	c #1C1E1D",
"YI	c #32323D",
"ZI	c #363644",
"`I	c #C7C1BE",
" J	c #D4CECC",
".J	c #DAD2D1",
"+J	c #D8D2D1",
"@J	c #D9D0CF",
"#J	c #C0B7B5",
"$J	c #141613",
"%J	c #171914",
"&J	c #1C1E19",
"*J	c #111310",
"=J	c #1D1E19",
"-J	c #1E1E19",
";J	c #161713",
">J	c #181915",
",J	c #121410",
"'J	c #151614",
")J	c #0E110F",
"!J	c #222320",
"~J	c #1D1F1E",
"{J	c #C6C0BD",
"]J	c #CFCBC8",
"^J	c #D4CFCC",
"/J	c #D9D1D0",
"(J	c #D8CECE",
"_J	c #DBD2D1",
":J	c #D8CFCE",
"<J	c #D7CECD",
"[J	c #D8D0CF",
"}J	c #DBD5D3",
"|J	c #C3BAB8",
"1J	c #302E2D",
"2J	c #26251F",
"3J	c #29271F",
"4J	c #181A14",
"5J	c #181B17",
"6J	c #151612",
"7J	c #131410",
"8J	c #11130F",
"9J	c #13130F",
"0J	c #141411",
"aJ	c #0F100D",
"bJ	c #171712",
"cJ	c #1A1B15",
"dJ	c #171A18",
"eJ	c #2F2F37",
"fJ	c #C8C0BD",
"gJ	c #D3CBC9",
"hJ	c #D4CCCA",
"iJ	c #D5CECC",
"jJ	c #D7CFCE",
"kJ	c #D7CFCC",
"lJ	c #DAD3D0",
"mJ	c #C5BCBA",
"nJ	c #312F2E",
"oJ	c #181913",
"pJ	c #23231C",
"qJ	c #151813",
"rJ	c #101310",
"sJ	c #161813",
"tJ	c #16150F",
"uJ	c #1C1B13",
"vJ	c #232119",
"wJ	c #1C1B15",
"xJ	c #181812",
"yJ	c #26231A",
"zJ	c #282219",
"AJ	c #2E271C",
"BJ	c #2B2720",
"CJ	c #1D1F20",
"DJ	c #2D2C31",
"EJ	c #C7C0BB",
"FJ	c #D9D2D1",
"GJ	c #D9D1D1",
"HJ	c #D9D0D0",
"IJ	c #D8CFCF",
"JJ	c #DAD1D0",
"KJ	c #DCD3D2",
"LJ	c #C2B7B5",
"MJ	c #302D2C",
"NJ	c #1A1714",
"OJ	c #161611",
"PJ	c #171812",
"QJ	c #171711",
"RJ	c #15140E",
"SJ	c #11120F",
"TJ	c #141612",
"UJ	c #161711",
"VJ	c #222018",
"WJ	c #2A241A",
"XJ	c #262219",
"YJ	c #282118",
"ZJ	c #33281F",
"`J	c #3C2C22",
" K	c #412D22",
".K	c #524131",
"+K	c #403529",
"@K	c #181814",
"#K	c #111210",
"$K	c #0F1210",
"%K	c #D6CDCC",
"&K	c #D8D1D0",
"*K	c #D7D0CF",
"=K	c #D6CFCE",
"-K	c #D6D0CE",
";K	c #D6D1CF",
">K	c #C2B5B3",
",K	c #342F2D",
"'K	c #14130E",
")K	c #191915",
"!K	c #1B1B15",
"~K	c #211C16",
"{K	c #251F18",
"]K	c #13140F",
"^K	c #10130F",
"/K	c #141410",
"(K	c #252219",
"_K	c #292419",
":K	c #2C251D",
"<K	c #2F231B",
"[K	c #412F22",
"}K	c #563F2E",
"|K	c #5A402F",
"1K	c #5B4333",
"2K	c #392A22",
"3K	c #12120D",
"4K	c #10110D",
"5K	c #CBC2BE",
"6K	c #D5CDCC",
"7K	c #D6D1D0",
"8K	c #DBD1CF",
"9K	c #D6CAC8",
"0K	c #C1B5B2",
"aK	c #3D3532",
"bK	c #1A1813",
"cK	c #211D18",
"dK	c #28211A",
"eK	c #30241B",
"fK	c #3B2A22",
"gK	c #231F18",
"hK	c #12140E",
"iK	c #151510",
"jK	c #1D1A14",
"kK	c #1E1913",
"lK	c #282019",
"mK	c #34281F",
"nK	c #37291D",
"oK	c #433325",
"pK	c #554130",
"qK	c #5E4733",
"rK	c #684C36",
"sK	c #34261C",
"tK	c #131311",
"uK	c #171713",
"vK	c #1C1916",
"wK	c #CDC4C1",
"xK	c #D1C9C7",
"yK	c #D2CBC8",
"zK	c #D4CDCC",
"AK	c #D5D0D0",
"BK	c #D6D2D1",
"CK	c #D7D1D1",
"DK	c #D8CFD0",
"EK	c #DAD4D2",
"FK	c #DAD3D2",
"GK	c #BFB1AC",
"HK	c #4A3C36",
"IK	c #3B2A21",
"JK	c #402E24",
"KK	c #3C2E22",
"LK	c #3D2D22",
"MK	c #473127",
"NK	c #3A2B21",
"OK	c #211D15",
"PK	c #221D14",
"QK	c #3C2C20",
"RK	c #422E23",
"SK	c #472F22",
"TK	c #553C2C",
"UK	c #523D2A",
"VK	c #42311D",
"WK	c #533C2A",
"XK	c #664B35",
"YK	c #7C5A44",
"ZK	c #463428",
"`K	c #2B231A",
" L	c #2B2118",
".L	c #31231A",
"+L	c #C9C1BD",
"@L	c #CFC7C4",
"#L	c #CFC8C5",
"$L	c #D0C9C6",
"%L	c #D3CECD",
"&L	c #D1CECE",
"*L	c #D2CFD0",
"=L	c #D7CECE",
"-L	c #BDAEA9",
";L	c #564339",
">L	c #4A3429",
",L	c #483428",
"'L	c #34251C",
")L	c #37281E",
"!L	c #483328",
"~L	c #372C20",
"{L	c #3F3022",
"]L	c #51392B",
"^L	c #513629",
"/L	c #503629",
"(L	c #573A2A",
"_L	c #614734",
":L	c #5C412E",
"<L	c #573A28",
"[L	c #6A4C35",
"}L	c #7A5640",
"|L	c #7E5943",
"1L	c #694B38",
"2L	c #513927",
"3L	c #584131",
"4L	c #4B3527",
"5L	c #473226",
"6L	c #C5BCB8",
"7L	c #D3CBC8",
"8L	c #D2CCCB",
"9L	c #D2CAC8",
"0L	c #D4CFCE",
"aL	c #D5D1CF",
"bL	c #DBD3D2",
"cL	c #D6D2D0",
"dL	c #B6A8A3",
"eL	c #524439",
"fL	c #463129",
"gL	c #1C1711",
"hL	c #1F1812",
"iL	c #33271D",
"jL	c #3E2E23",
"kL	c #453327",
"lL	c #4B3B2C",
"mL	c #513D2D",
"nL	c #4F382B",
"oL	c #4D3729",
"pL	c #51392A",
"qL	c #5C402E",
"rL	c #634630",
"sL	c #654732",
"tL	c #71513E",
"uL	c #7E5843",
"vL	c #73503B",
"wL	c #61412D",
"xL	c #604230",
"yL	c #5E4331",
"zL	c #57402C",
"AL	c #533B2C",
"BL	c #C7BDB9",
"CL	c #D2C9C7",
"DL	c #D1CAC8",
"EL	c #CDC6C2",
"FL	c #D0C8C5",
"GL	c #D3CCCA",
"HL	c #D6CECD",
"IL	c #D9CFCF",
"JL	c #D5CBC9",
"KL	c #D6C8C5",
"LL	c #B5A9A4",
"ML	c #342E28",
"NL	c #211C13",
"OL	c #221C15",
"PL	c #1B1713",
"QL	c #161310",
"RL	c #0F0E0C",
"SL	c #1A1610",
"TL	c #322A1D",
"UL	c #33281D",
"VL	c #423324",
"WL	c #47382A",
"XL	c #3F3226",
"YL	c #392C1F",
"ZL	c #3E2E20",
"`L	c #544130",
" M	c #1F1B13",
".M	c #2F2419",
"+M	c #503A2E",
"@M	c #614437",
"#M	c #5D4231",
"$M	c #583D2E",
"%M	c #413021",
"&M	c #3A2D1E",
"*M	c #C7BDB8",
"=M	c #D0C8C6",
"-M	c #CDC6C3",
";M	c #CDC5C1",
">M	c #D1C8C6",
",M	c #D6CCC9",
"'M	c #D3CAC8",
")M	c #D4C9C6",
"!M	c #D2CAC7",
"~M	c #D4CAC7",
"{M	c #D8C9C6",
"]M	c #372E2B",
"^M	c #181510",
"/M	c #1A1711",
"(M	c #29231B",
"_M	c #2E281D",
":M	c #252117",
"<M	c #1C1811",
"[M	c #282319",
"}M	c #201C14",
"|M	c #272319",
"1M	c #2D271C",
"2M	c #312B20",
"3M	c #282317",
"4M	c #2F2519",
"5M	c #433426",
"6M	c #3E3125",
"7M	c #251F14",
"8M	c #1A1913",
"9M	c #1E1A14",
"0M	c #42332A",
"aM	c #493529",
"bM	c #483226",
"cM	c #261F16",
"dM	c #181914",
"eM	c #C6BBB7",
"fM	c #CFC6C4",
"gM	c #CBC3BF",
"hM	c #D1C6C2",
"iM	c #CABFBC",
"jM	c #D0C8C4",
"kM	c #D1C9C6",
"lM	c #D2C8C6",
"mM	c #D5D0CE",
"nM	c #D4CDCB",
"oM	c #D3C8C5",
"pM	c #D4C9C7",
"qM	c #D4CAC9",
"rM	c #D3C8C6",
"sM	c #D0C6C4",
"tM	c #D1C5C3",
"uM	c #D4C7C5",
"vM	c #D4C7C3",
"wM	c #3C312A",
"xM	c #4E3C32",
"yM	c #422F25",
"zM	c #45362A",
"AM	c #3B3023",
"BM	c #332B1A",
"CM	c #392E21",
"DM	c #41332B",
"EM	c #3E3126",
"FM	c #3E3327",
"GM	c #4C3E30",
"HM	c #332B20",
"IM	c #2B261A",
"JM	c #2B2619",
"KM	c #362D21",
"LM	c #322918",
"MM	c #372D1C",
"NM	c #342C1E",
"OM	c #2F2A1E",
"PM	c #282419",
"QM	c #32271D",
"RM	c #403428",
"SM	c #211C14",
"      . + @ # $ % & * = * - ; ; > , ' ) ! ~ { ] ^ / / ( _ : : : ( < : - - - [ - } } } | 1 2 3 4 5 6 7 8 6 9 0 a b c d e f g h h h h i j k l m n o p q r s t u v w x y z z A y t B C D E F G H I J K L M N N O P Q R S T U V W X Y Z R T ` R  ...V +.@.#.$.%.&.#.",
"*.    . =.    _ < : : ( - | & -.;.> , >.,.'.).!.~.{.].: ^.^./.< < ^.| , - - - (.(.; ; _.:.!.<.[.}.|.1.2.|.|.3.4.5.g h h h 6.7.8.6.h g 9.0.a.b.b.c.d.e.f.g.h.i.j.k.l.m.n.o.p.A q.r.s.t.u.v.u.v.w.x.y.z.A.B.B.P Q C.R S S S T Y D.E.F.C.R z.G.R R T V H.V I.J.S K.",
".             ^.: L.; M.N.O.P.N.].P.] Q.R.S.T.U.V.W.X.L.< = < L.< : , Y.(.(.- Z.L.`.X. +.+'.'.++2.@+#+$+b %+&+*+=+l 7.-+-+;+>+,+,+'+)+!+~+g.n.m.c.{+]+^+c./+(+_+:+:+:+:+i.o.o.<+r.[+}+|+1+2+3+w.4+5+6+7+8+9+0+C.a+R R S S S b+S S T S Y S ` T S S U c+d+e+f+J.g+",
"h+i+  j+k+      ^.( - [ >.2 N.M.M.S.S.T.l+T.~.m+n+o+p+q+: < r+^.^.L.; s+(.t+u+u+v+u+w+S.x+y+z+A+$+B+C+D+E+F+G+6.H+I+;+;+J+K+L+M+N+;+O+O+P+g.:+l.Q+Q+R+S+T+U+g.m.V+W+:+Q+g.h.X+z <+Y+Z+`+ @w..@+@@@2+3+ @4+#@$@%@&@%@G.%@` a+*@R C.F.C.R *@R R Z Z =@-@;@>@T T ,@",
"'@)@        k+# $   !@| ] ~@:.].X.X.X.Q.<.'.{@]@]@]@^@q+: /./@^.^.< : : (@_@:@<@[@}@}@|@1@2@1.@+3@C+%+4@5@6@g g 7@7@H+7.7.O+7.8@O+h 9@N+0@a@g.m.b@S+c@d@c.c.:+:+l.e@g.i.o.f@<+g@[+h@i@u.j@k@v.l@D m@ @v.n@o@n@N O p@q@r@G.Z F.R R ` S S R R Z s@t@Z -@Z u@F.v@w@",
"x@y@z@_ _ A@. . _ . B@* C@) (.; _.O._.:.S.D@E@o+]@F@q+G@r+< r+H@I@J@G@K@J@H@J@L@M@N@O@P@Q@R@S@]@T@T@U@T@V@W@X@Y@Z@`@ #.#+#@###$#,+,+)+%#&#*#=#-#g._+j._+_+g.h.g.i.o.A z ;#A A >#,#,#'#)#!#~#j@k@{#D n@n@o@]#o@o@A.^#q@%@Z /#E.(#(#` S a+R R (#t@_#(#T T v@R :#<#",
"[#}#_ . . . . _ + *._ < L.; X.v+v+`.Q.Q.^@D@|#1#R@2#3#4#3#_@5#G@J@: H@J@H@K@_@M@[@6#7#8#8#1#o+9#U@E@E@0#a#b#c#d#e#f#g#h#i#J+j#,+k#l#>+m#k#n#_+o#_+i.v v i.p.A _+p#h.h.A y q#r#s#t#u#~#v#{#w#x#m@m@ @ @7+6+N 8+%@z.F.y#/#:#z#A#B#C#:#;@W e+J./#S y#Z Y J.J.c+D#E#",
"@ . k+F#k+G#H#G#  _ =.< < ( Z.t+L.; I#Q.J#K#K#2#L#M@M@G@: : < ^.< = M#N#H@_@O#P#_@Q#R#8#R#1#S#x+T#U#E@V#W#c#c#X#X#g#g# #Y#Z#`# $.$+$@$#$$#$$%$&$*$l.=$o#=$_+i.m.g.p.p.-$Y+;$>$,$t#u#'$)$!$~$D j@{$ @4+x.x.]$0+v@S S ^$/$B#A#>@B#d+($T _$J._$:#;@;@:$<$[$}$|$1$2$",
"3$k+H#4$5$4$6$$       !@^.J@J@N#G@5#s+7$8$9$9$L#_@0$(@: : : = ^./@< J@0$0$0$I@a$b$Q#|@7$R#R@9#c$d$e$E@f$g$b#c#h$e#i$g#Y#j$k$`#l#l$l$##'+%#R+m$!+n$o$n$p$0@p p.o.z r ;#z q$r$s$t$u$v$w$x$x$y$z$A$A$B$C$D$E$F$G$F$H$:#C#C#z#I$J$K$:#_$L$J$B#M$:$>@e+N$O$P$Q$R$S$T$",
"U$  k+6$# 6$6$6$. + _ O#H@I@J@0$5#_@_@M@M@V$M@M@O#J@0$0$G@r+: : : J@0$W$0$L@P#X$V$8#R#Y$Z$`$ %.%]@n++%@%#%$%%%&%*%=%-%-%g#;%>%,%'%)%.$!%~%m${%]%n$p#%$^%/%A A <+(%_%:%<%[%}%|%1%2%3%z$z$z$z$4%5%6%7%8%9%0%a%b%c%C#d%e%z#A#B#B#M$|$f%g%e%h%A#i%B#j%k%l%P$m%n%h%o%",
"k+  *.          _ /@N#(@H@p%X$b$b$X$b$a$b$b$q%G@/@^.< J@J@/.< I@P#r%I@L@I@M@b$s%a$t%8$R#Y$u%v%v%w%x%y%z%W#d#$%X#e#A%B%C%Z@i#D%D%#$@$E%~%F%G%H%I%J%d.n#b.K%L%s >#M%N%O%P%Q%R%S%T%U%V%W%W%z$z$4%X%Y%Z%`% &.&+&@&L$ &_$/$C##&d%B#e%$&A#z##&D#%&%&&&*&%&=&P$-&-&-&;&",
">&,&,&/@_ _ *.^.r+J@G@M@'&a$a$P#L@L@L@M@b$b$b$O#J@< /.)&M#/.J@0$I@M@<@_@5#_@_@!&~&~&{&}@8#Z$]&^&/&(&/&z%_&:&<&[&A%d#}&-%h#Z@c#Y@h$}&Z@,+{%|&{%1&2&3&e@A 4&;$5&6&7&8&3%9&0&S%a&b&c&T%d&w$S%z$z$z$X%e&f&g&h&/$+&/$$&e%D#D#i&D#*&1$n%l%j&P$k&%&k&n%%&=&%&P$l&m&=&n&",
"j+/@o&N#p&/@< N#_@I@0$0$_@0$0$_@5#_@q&X$a$X$M@5#5#J@J@J@H@(@K@L@a$P#b$b$r&r&H@r&s&t&u&u+.%v&w&x&y&z&A&B&C&:&D&<&[&A%e#g#Y#h#-%e#E&c#F&;+k G&H&~+I&J&p r K&L&M&N&O&9&P&Q&R&T%W%T%S%S&T&w$w$w$T%U&V&W&X&Y&Z&`&z#i& *.**&1$-&n%n%n%-&n%m%-&+*%&n%%&%&n%@*@*R$j&%&#*",
"^._ $*/@!@!@/@^.^.^.< G@L.J@J@N#< J@J@0$J@_@_@0$0$J@J@< J@0$0$r%'&a$'&%*t%v&&***=*-*;*;*x&>***,*C&,*>*C&>*:&D&'*[&i$)*C%B%!**%*%~*m#!+!+{*]*^*j.:+:+/*(*_*:*<*[*}*|*1*2*c&b&3*9&4*1*5*6*d&x$9&7*8*9*0*a*0*b*c*d*e*e**&m%m%n%-&n%m%m%j&l%n%n%m%n%m%l%l%l%l%f*m%g*",
"M#/@^.< /@_ !@/@< /.< M#L.J@J@M#M#J@0$_@0$_@5#I@_@M@G@_@5#I@M@a$h*****i*j*i*k*l*m*n*m*o*l*p*q*m*r*s*s*t*u*v*D&w*)*h#x*E&x*Z@~*~*D%y*%#z*A*B*-#j.V+h.;#C*D*E*F*G*H*I*1*J*K*S&L*M*I*N*O*P*N*I*Q*Q*R*S*T*U*V*W*d*X*d*1$n%m%l%m%m%m%m%m%n%n%m%*&m%Y*1$l%l%l%Z*`*n% =",
".=G@J@r+N#< : H@_@0$J@J@H@J@J@r+= _ ^.M#J@_@M@0$I@I@G@+=G@0$_@a$@=#=$=%=&=*=%=o*==D&q*o*r*p*l*o*-=;=D&D&o*p*r*>=,='=)=-%g#!=~=##{=z*~+l.=$j.]=^=/=(=_=:=<=[=|*}=K*|=K*|=J*K*1=2=K*N*K*3=I*I*K*4=5=6=7=8=9=0=a=9=b=1$n%c=Z*d=l%m%m%m%Z*d=d=e=m%m%l%f=l%j&l%`*`* =",
"J@M@O#.=J@J@J@< < J@J@L.< < < ^.^.$*. _ _ !@/@J@_@M@b$b$_@M@b$h*i*g=s*h=-=o*i=j=D&p*D&-=k=l=v*l=u*m=l=m=m=!=!=n=o=p=q=r=s=t=u=u=v=w=R+x==#V+-#y=z=A=B=C=D=E=F=G=H=I=J=K=L=M=N=O=P=Q=N=R=S=|=|=5=T=U=V=V=W=X=Y=Z=`= -.-.-.-m%n%m%m%m%`*Z*+-l%f*@-#-$-%-&-Z*&-*-=-",
"O#r%b$V$M@M@0$5#M@_@0$0$0$5#_@H@/@--$ . /@N#< H@_@5#J@0$_@M@q&h*;-&=>->-s*o*,-l=,-k=s*h=l='-)-'-m=!-~-u*{-!=!=]-&%Y#^-/-p=(-_-:-<-[-}-|-1-y=z=2-3-4-B=5-6-G=7-8-9-I=K=0-a-b-c-9-d-e-f-g-h-i-j-k-l-m-n-n-o-7=p-o-q-r-s-t-1$*&m%u-v-m%Z*%-w-m%e=@*`*`*x-y-z-A-B-C-",
"D-'&b$q%M@M@E-I@M@L@0$L@F-_@P#0$J@< ^.--A@/@)&< G@5#+=0$b$G-&*#=H-g=I-J-l=-=K-;=L-l=s*k=)-]-M-'-M-N-'-{-]-!-O-j$P-Q-^-#$@$R-S-T-U-V-W-V-X-Y-Z-`-Z- ;.;+;@;#;$;%;&;&;*;=;-;%;%;g-;;8-g->;,;j-k-k-k-l-';);!;~;o-V={;];^;/;w-Y*m%w-m%(;w-y-_;:;<;_;[;};|;1;2;3;4;5;",
"6;7;&*b$r%E-V$a$M@P#I@I@0$H@: /.^.^.^._ ^.*._ : : 0$O#L@b$b$8;&***;-:&9;s*0;0;;=t*v*a;b;c;{-m=m=c;o=m=l=d;!-o=e;r=e;k$f;f;g;h;i;j;k;l;m;n;o;p;q;r;s;t;u;v;$;w;x;y;z;A;g-,;i-|=|=g-g->;B;C;k-k-k-D;E;F;G;H;I;7=J;K;L;M;N;O;P;Q;R;y-S;T;T;U;U;V;W;T;T;U;T;V;X;X;Y;",
"(&Z;`; >8;M@r%r%I@I@_@L@I@0$: : ^.^.< _ ^.= /.)&J@+=0$M@M@q&q&.>+>'*@>k=;=k=;=h=h=l=u*)*#>m={-{-c;!={-{-=%!=$>g#g#r=%>g;&>*>=>->;>W->>,>'>q;)>Z-!>~>{>]>^>/>(>_>z;>;a-w;,;:>y;w;z;>;<>[>}>';l-';|>1>2>3>4>U=5>6>7>8>9>0>0>a>b>c>c>d>e>f>g>d>h>i>j>U;i>V;d>V;k>l>",
"m>n>o>p>k*&*s%s%a$b$b$P#'&b$q>: : N#: : ^.^.M#G@J@L@O#0$_@M@8#&=I-@>0;)-v*r>k=l=v*m=s*k=m=s>c;{-{-m=m={-m=o=$>!=M-t>u>v>w>=>x><-V-y>z>A>B>C>Z-D>E>F>G>H>I>J>K>L>z;z;z;z;z;A;A;A;A;A;M>N>O>P>Q>R>2>S>S>T>U>V>W>W>X>Y>Z>Y>`>b> ,.,., ,+,@,@,Y;f>#,g>d>U;i>$,%,&,*,",
"#>)-;==,-=-,&*;,G->,,,>,G->,b$M@M@_@H@< < )&J@0$0$q&_@',a$),Z;!,s*I-;=I-L-l=v*~,t*v*v*0;l===%%=%n*i$s>!=g#h#g#$>o={,],^,/,(,_,m;>>:,<,[,},p;`-!>|,1,{>2,3,4,5,6,_>z;A;B;7,z;A;M>A;8,M>9,0,a,b,c,G;d,e,f,g,h,i,j,k,l,m,n,+, ,o,p,p,p,q,p,o,r,Y;$,U;@,#,p,%,s,t,u,",
"d#v,n*s*'*B&#=h*>,G-G-h*G-a$X$r%M@_@O#0$G@0$+=0$0$M@'&b$V$8;**&=Z;I-l=D&k=u*-=n*k=w,s*l=v,D&r*s*[&i${-]-!-r=x,f;],y,z,A,<-B,C,D,E,F,G,H,I,J,K,L,E>M,N,O,P,Q,R,S,T,z;M>z;B;z;A;M>B;<>U,V,W,X,Y,G;G;3>Z,`, '.'+'@'#'`>$'$'+,@,#,p,p,r,e>@,i>q,#,#,$,%,%'&'*'='-';'",
">'n*[&k*p*%=m*-,#=;,**,'&*''G-a$b$L@0$_@M@E-r%q&>,''G-)';-`;D&t*!'v*)-~,t*l=l=t*v*u*~'{'k=s*-=s*]'h={-m=^'D%'%)%/'('_'U-;>A>:'<'['}'|'1'J,2'3'4'E>5'6'7'8'9'0'A;a'M>b'c'A;9,M>M>M>d'e'f'c,g'h'i'G;G;j'k'l'm'n'o'p'm,d>+,r,$,$,Y;Y;g>V;Y;#,g>e>%,%'q'r's't'u'v'w'",
"x'i$==h=s*>-9;m*-,i*$=%=%=**&*h*8;'&b$P#M@E-_@q&'&y'''-,p*I-z'A'A'A'A'B')-)-l=v*t*v*{'!,D&s*-=s*l=l=h#C'f;],&>D'E'->F'G'H'I'J'}'K'L'M'M'}'N'O'P'Q'R'S'T'U'V'W'X'M>b'Y'M>9,Z'0,`'`' ).)2>i'G;3>+)Z,@)#)$)m'%)&)*)=)-);)d>q,>)l>$,f>#,$,q,q,$,,)')))!)~){)])^)/)()",
"A%h=D&p*D&-=I-;=-,&*,'h*h*h*h*G-8;a$a$X$'&q&q&%*C&&*#=k*D&h=t*~,_):)A')-'-v*l=t*t*{'{'{'{'s*s*h=k=l=c;r=<)[)})|)1)2)k;W-3)J'4)L'5)6)N'7)7)8)9)0)a)R'b)c)d)e)f)M>M>A;M>9,9,g)0,d'h)i)S>j)G;k)l)m)n)o)p)q)r)s)t)s)u)-) ,o,%,v)%,%,%,w)w)w)%'>)x)y)s'z)A)B)C)D)E)F)",
"m>)=G)`;H)j*m*k*7;7;l*#=&*,'&*h*~&<@D-I)I)#=J);-k*m*7;%=q*K)-=;=z'~'!'!'0;t*t*t*{'t*0;{'h=l=t*r>L)N-M-p=M)N)x>_,l;k;C,O)P)Q)R)S)J,T)U)V)W)4'N'X)Y)Z)`) !.!+!@!#!$!%!%!M>M>9,Z'&!*!c,g'+)=!-!k);!Z,>!q)r),!s)'!'!)!,!m,!!l>w)%,~!%'')')'){!]!,)^!/!(!_!:!<![!}!|!",
"1!E&Z$)')';-i*;-H)H)7;******&*;,2!Z$v&h*%*;-+>I)j*k*q*%=%=m*w*h=t*3!;=!'_){'4!I-I-@>k=I-h=v,v*~-/-O-p=5!6!7!T-8!l;O)9!0!a!b!R)c!D>d!e!d!!>f!g!0)h!i!h!i!j!U'k!l!m!Y'n!9,M>9,9,0,a,o!Y,3>n)p!q!q!r!s!t!t!t!t!u!t!v!*)w!l,+,.,r,o,~!w)%'w)p,V;x!y!z!A!B!C!D!E!F!G!",
"H!I!J!**`;`;j*;-`;K!&*h*@=,';-&*****v&2!**`;j*=,=,i$;=]'h=h=i$4!-=l=_)L!M!)-_)t*~'N!v*~,O!)-v*'-]-P!Q!R!w>S!S!T!2)9!U!<,[,H,V!N'D>N'W!X!Y!Z!Q'R'R'`!`! ~.~+~+~@~#~$~Y'%~%!9,&~0,*~=~-~n)p!;~s!t!q)t!t!t!t!t!t!t!r)v!>~,~$'$'@,.,., ,r,'~)~!~~~{~]~^~/~C)(~_~:~<~",
"F&[~}~|~;-&*#=l*-,I)&*1~7;%=;-v&w&.>-*2~k*k*Z;D&i$h=t*;=g=!,i=3~g=I-4~_)t*B'_)~,A'B'~,l=t*v*v*v*!-5~y,6~7~8~8~9~j;k;k;O)0~a~4)M'U)c!b~D>f!c~d~e~M,f~g~h~i~j~k~l~m~n~o~p~q~r~s~*!t~g'd,u~v~w~r!s!x~y~t!t!t!t!q)t!t!s)z~>~A~B~ ,n,C~D~E~F~G~H~I~J~K~L~M~(~N~O~P~Q~",
"-%p+X.4#a$8;**&*h*y'=*.>,'**v&y'R~,*G)k*D&p*o*o*]';=;=D&&=j*#=7;q*s*S~_)_)A'B'T~B'L)U~B'B'L)V~V~W~X~Y~Z~`~j; {.{+{j;l;k;9!O)a!@{#{${%{&{*{={-{={0)X);{>{,{j~'{l~){q~!{!{~{{{&~]{c,^{d,d,/{({_{l):{l)s!q)t!t!t!t!t!n'<{[{}{-)D~|{1{2{3{4{5{L~J~J~K~6{/~E!7{8{9{0{",
"a{T.O.L._@[@y'q&b{{&c{d{e{e{e{f{g{2~G)`;B&n*K-L-_)!'l=s*H)h{i{j*&=q*L-_)~,~'j{)-L!B'O!)-k=0;)-]-p=k{6!7!7!l{l{m{n{ {o{C,p{q{r{J's{T)t{u{v{w{X)w{f~;{Y)x{y{j~@~z{A{B{p~C{{{Z'D{E{h'd,Z,F{F{G{l)G{H{;~r!I{q)y~s!s!t!s!l'J{K{L{M{N{O{P{8{Q{N~R{Q{[!S{(~C)C)T{U{V{W{",
"X{D@J#X.u+7$t%8#D-t&u&w+Y{Z{g{`{g{`{>*B&p*D&s*L-!'v*l=D&k*#=;-H)p>!,t*A'B'L)B'_)L!O!L)L)L)L)V~ ].]+]@]7!7!T-#]#]$]%]&]*]9!=]O)0!-]0!;]V)>]>],]9)']5'`!)]i!!]~]{]]]A{q~Z'Z'^]s~/]g'3>Z,F{F{({r!;~l'$)(](]_]y~s!r!:]:]<][]}]|]1]2]3]4]S{5]O~6]7]8]9]9{0]a]b]c]c]d]",
"W#e]D@f]T.7$g]R#d{s&t&r&!&h]e{2!i],*,*:&D&'*l*j]n*====k***%*''6;J)m*m*D&h=A'~,B'~,~,L)L)O!k]V~V~l]m]n]g;h;o]8~p]j;q]r]&]0!t{s]t]t]d!M'V)W)W)u]4'X)f~>]v] ~b)+~w]x]n~~{&~^]^]y]z]A]3>B]p!l)s!m'%);~(]$)l)s!r!:]y~C]D]E]F]G]H]I]J]3]9]K]L]M]L]N]O]P]Q]R]S]L]a]a]T]",
"(&U]V]W]X]2#g]`$}~w+Y]G@V$t&q+!&f{.>g{**>*>*>*Z]7;p*j*B&v&%*f{f{v&-,'*D&h=O!L!A'O!A'V~V~`]V~ ^ ].^+^@^@^#^$^%^&^*^r]=^I'-^;^0!>^t]c!,^'^)^!^~^,]w{>]>]>]{^]^^^/^l~(^_^9,&~&~^]:^=~<^j)q!l):]s!r!v~l)[^l)l':]}^|^1^2^3^4^5^6^7^8^8^7^9^0^I]a^b^c^d^e^Q]Q]R]8^f^g^",
"h^i^l+j^T.u+k^|@7$l^l^Q.u+w+q+c{w+{&w+{&{&4#.>.>.>.>e{d{t&9${&m^f{)'`;:&w*~,_)!'!'!'v*)-O-p=n^ ^+]o^p^#^#^q^r^s^t^q]u^t]3)I'v^3'L,7)W!u{w^x^,]>]>]>]>]y^z^j~A^B^C^D^E^Z'^]^]F^G^z]g'j)l)q!p!Z,@)Z,H^I^J^K^L^M^N^O^P^Q^R^S^T^U^V^W^X^Y^Z^`^ /./+/d^@/e^#/$/%/&/*/",
"X]I#=/-/;/, Y.-/} , ; Q.7$u&0$H@H@: L.L.L.L.9$e{t&Y]u&c{{&d{c{m^8$]&>*k*D&h=j=K-K-S~K-i$v*N-N->/,/'/@])/!/~/$^{/]/^///P)s^r](/_/:/M'N'7)u],]</[/>]>]>]}/}/|/1/2/m~3/4/M>&~^]s~^]y]5/u~6/7/8/G;G;9/0/a/b/c/d/e/f/*]g/0~h/i/j/k/U!l/o{&]m/n/o/p/p/q/r/s/s/t/u/v/w/",
"x/].[ , ( - : y/- (.I#Q.u&v+r&5#(.: : : L.G@q&!&4#.>g{R~f{w&w&f{f{%*7;&=n*i$r*D&D&D&=,==i$l=)-L)l].^,/`~z/A/$]z/H'C,B/C/a~D/E/J'F/G/D>N'W)H/>]>]>]{^I/J/K/]^L/M/l~N/O/P/9,^]s~=~A]Q/@)R/S/T/U/V/W/X/Y/Z/t{`/ (.(+(@(#(#($(%(-#&(*(=(-(0!;(>(S^,(P^'()(!(~({(N]d^",
"](| * ;/* (.L.Z., O.^(/(|@_@d{v+((0$_@_@5#_@3#'&V$h*&***,';,;,;,;,;,_($=$=7;v&-*-*,*B&p*:&D&l=L):(m]<([(}(+{|(]/r^r]t^z>z>;^;^1(2(3(4(f!E>5(>]>]{^6(7(8(9(0(2/@~l~a(b(M>c(/]-~8/Q/d(R/e(f(g(h(i(j(k(l(m(F*n(W%o(p(q(r(s(t(u(<*v(w(_=[,x(y(z(A(B(T^C(D('(~(E(9{F(",
"' , (.- - I#q+; X.v+L#V$a$b$V$|@D-P#b$M@X$a$a$;,;,;,;,,'**;,;,;,;,@=;,2!w&g{g{Z{g{,*C&,*-,:&h=m=M-N-G(H(B,|(]/]/I(r^s^O)J(1(K(L(M(N(O(P(Q(d~g~R(S(T(|/U(V(W(B^X(Y(R,Z's~-~G;Z(`(`( _&!._+_9)@_}*w$c&#_$_%_&_*_=_-_;_V%>_,_'_)_!_m(2(x(-^@{~_D/B({_]_^_/_(___9{:_",
"<_2 [_, ) X.X.l^u+L#L@r%'&h*8;X$b$b$b$b$b$b$b$G-'&;,;,h*f{w&2!}_;,2!|_w&f{1_Z{Z{g{-*v&>*,*-*'===C'~-!-2_B,B,B,3_4_t^C,Q)D>5_6_7_8_9_0_a_b_c_d_e_/>f_g_h_h_i_j_k_l_Z'F^m_n_o_p_q_r_s_t_u_v_w_x_y_z_A_B_C_D_E_F_G_H_I_J_K_L_M_N_O_P_Q_!>d!d!;]R_S_T_U_V_W_X_e^P~Y_",
"Z_! [.M.`_l^Q. :<@a$b$a$G-&*&*;,h*h*;,.:G-h*G-G-.:G-h*G-g{w&|_w&+:e{@:q+#:$:Z{Z{Z{g{h]Z{g{|_C&'=x*v,]-)%%:&:R-('B,;>i/`-*:=:-:;:>:,:':):!:~:{:]:^:/:(:_:::<:[:}:|:1:2:3:4:5:6:7:8:9:0:a:b:c:d:e:f:f:g:h:i:j:k:l:m:n:o:p:q:r:s:t:u:v:w:x:u{y:z:A:B:C(C:W_D:H~8{()",
"E:F:G:Q.Q.Q.F@a$a$h*G-s%h***7;7;&*&***;,h*G-q&b$8;G-h*G-R~h]g{2!R~H:: q+s&Z{I:Z{Z{$:8$$:Y{`{,*B&B&>=&%j$P!r=J:X~K:L:*#M:N:O:P:Q:R:S:T:U:V:W:>:X:Y:Z:`: <.<=:+<@<#<(:$<%<&<*<=<-<;<><,<'<)<!<~<{<]<^</<(<_<_<:<<<[<}<|<1<2<3<4<5<6<7<8<X!u{u{9<0<a<b<c<d<}!C)C)E!",
"e<f<[.M.Q.2#g<Q#V$a$a$b$a$'''',';,h*;,;,;,}_5#r&~&8;8;b$f{Z{Z{g{Z{H:s+L.h<Y{Z{Z{Z{Y{Y{h]g{`{`{z&'=i<A%i$N-'-e;M-P!+$j<k<l<m<n<o<p<q<r<s<t<u<v<w<x<y<z<A<y<B<C<D<E<F<G<H<I<J<K<L<M<N<O<;:P<Q<R<S<T<U<V<W<X<=:Y<Z<`< [.[+[@[#[$[%[&[9)7)*[z:R_0<=[-[;[>[,[O~'[:~)[",
"E:![~[_.L#{[L#_@q&'&8;b$G-&*&*.:s%h*G-h*;,;,}_}_}_|_g{y'f{Z{h]t&t&H:Y]l^l^$:H:g{][x&,*>*>*B&p*B&'=G)n>h=)-N-'-^[/[([_[:[<[[[}[|[1[2[3[4[5[6[7[8[9[0[a[b[c[d[e[f[g[h[i[j[k[l[m[n[o[p[q[r[s[t[u[v[w[x[E<y[;<z[A[B[C[D[E[F[G[H[I[J[K[L[%{2'z:M[N[O[P[Q[R[S[O~O~E!K~",
"T[U[2 `.v+u+[@r%G-8;8;a$a$h*G-h*h*h*;,;,;,h*h*2!|_w&g{g{w&g{w&Z{Z{w&|_R~c{c{Z{g{h]h]I:i]**7;j*j*z&-,p>s*v*v*#>V[W[X[Y[Z[`[ }.}+}@}#}$}%}&}*}=}-};}>},}'})}!}~}{}]}^}/}(}_}:}<}[}}}|}1}2}3}4}5}6}7}8}9}0}a}b}c}d}e}9:f}g}h}i}j}k}l}m}n}J,*[M[o}p}q}D:F!E![!r}K~[!",
"s}/ l^l^v+_@a$t}h*h*h*G-h*G-.:a$G-G-;,;,;,;,;,|_w&2!w&|_w&w&g{Z{Z{|_;,,'%*9$+:Z{u}$:+:g{2!2!&*`;`;`;p>D&==p*v}w}x}y}z}A}B}C}D}E}F}G}H}I}J}K}L}M}N}O}P}Q}R}S}T}U}V}W}X}Y}Z}`} | |.|+|@|#|$|%|&|*|=|-|;|>|,|'|)|!|~|{|g}]|^|/|(|_|:|<|X!U)0<[|}|4{||J~r}1|C!1|:!2|",
"3|:.Q.7$Q#s%**C&;,h*;,;,2!8;%*%*%*][;,;,;,;,w&H:t&H:Z{Z{g{g{2!|_g{2!2!}_+:q+Y]+:#:7$1_Z{J!|_f{**H)4|-,>*G)5|6|7|8|)}9|0|a|b|c|d|e|f|g|h|i|j|M}k|l|m|n|o|p|q|r|q|s|t|u|u|v|w|x|y|z|A|B|C|D|E|%|F|G|H|I|J|K|L|M|N|O|P|Q|R|S|#[G>T|n}J,0<U|V|,[W|X|Y|1|Z|`| 1.1`|+1",
"@1#1$14|%1+>:&q*#=;,7;;-2!,'&*2!2!;,;,;,;,;,|_g{m^Z{Z{Z{Z{Z{2!2!g{Y{R~H:w+u&u&m^u&$:I:z%_&z&B&j*p>j*-,2~&1*1=1-1;1>1,1'1)1!1~1{1]1^1/1(1_1:1N}<1[1}1|111s|21314151t|u|u|6171819101a1b1c1d1e1v[f1g1h1i1j1k1l1m1n1n1o1p1q1$[r1*[s1t1u1v1(_d<}!w1x1y1z1A1B1z1z1A1C1",
"D1E1F1G1H1I1J1K1L1M1I-9;w*&=#=;,&*;,;,&*;,;,2!g{Z{Z{Z{Z{g{,*/&Z{Z{+:u&h]h]Z{N1y%^&O1|_P1&1Q1'=B&R1'=S1B&_&T1U1V1W1X1Y1Z1`1_[ 2.2+2@2#2M}$2%2&2*2=2u|-2;2>2,2'2)2!2~2{2]2^2/2(2_2:2c1<2[2}2|21222324252d}6272829202a2b2c2d2e2f2g2h2X_i2||r}j2y1B1B1k2l2m2n2u/o2p2",
"q2r2s2t2u2v2w2x2y2z2A2B2C2t*g=Z;p>D2@=E2#=;,|_Z{Z{1_1_Z{Z{v&2~i]`{h]s&F2Z{1_G2W@W#H2W@I21!B&B&B&p*:&B&B&J2K2L2M2N2O2P2Q2R2S2T2U2V2/1W2X2Y2Z2`2 3.3+3@3.3#3$3%3&3*3=3-331;3C|>3,3'3Z:)3!3~3{3]3^3/3(3_3z[:3<3[3}3|3132333;(43h253e^63(~[!73l2839303a3b3c3d3e3f3g3",
"h3i3j3k3l3m3n3o3p3q3r3s3t3B2A't*n>p>'*j*-,7;u3`{O1v3Z{w3Z{w3x3y3J!I:x&z3x%A3B3C3B3h h 7@d#>=B&B&B&k*:&D3E3F3G3H3I3J3K3L3M3N3O3P3Q3R3S3T3U3,1V3W3u|@3#3u|#3X3Y3Z3`3 4.4+4@4#4$4%4&4*4=4-4;4>4,4'4)4!4Q|~4{4]4^4/4F/(4_4:4<4[4}4|41424[!3444546474849404a4b4c4d4e4",
"f4g4h4i4j4k4l4m4n4o4p4q4r4s4B't*@>t49;n>p*p*m*v&u4A3O1V#A3I:O1x%x%x%w%G2N1a#h v4a#w4h h `@-%x':&>=B&:&x4y4z4A4B4C4D4E4F4G4H4I4J4K4L4M4N4Q:O4P4Q4}1R4S4.3u|]2x|x|T4U4V4#4W4X4Y4Z4`4 5`4.5+5@5#5$5%5&5*5=5-5;5>5J,,5'5)5!5~5{5]5^5/5(5_5:5<5[5}5|515d425b435455565",
"75859505a5b5c5d5o4e5f5g5h5i5B2U~n>j5k5l5v,p*'=V#O1I2I:x%y3y%A3m5W@n5B3V#C3h h o5p5q5g h 7@c#d#x*p*'=>=r5s5t5u5v5w5x5y5z50|A5B5C5D5E5F5G5H5I5J5K5L5M5`2 3N5O5P5T4Q5R5S5T5/3U5x5V5W5X5i1Y5Z5`5 6.6+6@6#6$6%6&6*6=6-6;6>653,6'6)6!6v'~6{6]6a4^6353535353555353555/6",
"(6_6:6:6<6h4_6[6}6|616263646s356=,667686v,$%,='=x*$%96i<r*>=1!7@7@h h h h h h 06]#a6b6c6d6e67@[&D&p*f6g6h6i6j6k6l6m6n6o6p6/1q6r6s6t6j[u6v6*}w6x6y6z6A6B6C6D6E6F6G6H6I6J6K6L6M6N6V5O6P6Q6R6S6T6U6V6W6X6Y6Z6`6 7O^.7+7@7#7$7%7&7*7=73535353535353515^6^6b4-7^6;7>7",
",7i4'7)7!7~7{7]7]7^7/7(7_7:7<7r4[7}7|717s*{-v,i$v*{-i$i$i$E&d#2737`@47H+H+57h 6777879707a7a7h b7#> #c7d7e7f7g7h7i7j7k7l7m7n7o7p7q7r7s7t7u7v7w7x7y7z7A7B7C7D7E7G<F7G7H7I7J7K7L7M7N7O7P7Q7R7S7T7U7V7W7X7S_Y7Z77%`7%7 8.8+8@8#83535353555354545353535353535353535$8",
"%8&8*8=8-8;8>8_6(7,8'8(7)8!8~8{8]8^8/8(8u*n=V~N-/-C'h#C%Y@x*x*A%C%_8K+:8<8[8d O%}8|818283848h 586878889808a8b8c8d8e8f8g8h8i8j8k8l8m8n8o8p8q8r8s8t8u8v8w8x8y8z8A8B8o8C8D8E8F8G8H8I8J8K8L8U6M8N8O8x^P8Q8R8S8T8U8V8W8X8Y8Z8`83555 9.9+9@9@9553535353535351535b435;7",
"#9$9*8!7%9&9*9_6_6]7=9-9,8;9>9,9'9)9!9~9{9]9^9/9%>(9A%e#/[~*m#_8@$_9`#J+:9<9[9}9|91929|+8739498@j#596979899909a9b9c9d9i7e9f9g9h9i9j9j9k9l9m9n9o9p9q9r9s9t9u9v9w9x9y9z9A9B9C9P6D9E9F9G9H9I9J99-K9L9M9N9O9P9Q9R9S9S9T9 955353555 9@9.9^6b43535353535353535353535U9",
"V9$9i4W9X9Y9Z9=9`9-9 0.0,8+0@0#0$0%0&0*0=0-0;0>0,0'0^'/-/[)+V[)0_9_9&:!0~0{0]0^0/0(0_0:0|+<038b.[0}0|01020093040506070809000a0b0c0d0e0f0g0h0i0j0k0l0m0n0o0p0q0r0s0t0u0v0w0x0w9y0z0A00)&;B0C0D0E0K{P9R9F0G0R9H0I0J0J0@935555535 95535353535353535353535K0K0L0L0M0",
"N0O0h4!7P0i4Q0R0-9S0T0U0V0@0W0X0N0Y0Z0b5h4g5`0 a.a+a@a#a$a@$+$l$y,y,y,%a&a*a=a-a;a>a,a'aD n@)a!a~|~a{a]a^a/a(a_a:a<a[a}a|a1a2a3a4a5a6a7a8a9a0aaabacadaeafagahaiajakalamanaoaU6pa6'qa`,rasasatauaQ9vaR9wawaQ9xaya`8zayaya`8yaAaya`8Ba*7=7Ca353535DaEaFaGaHaIaJaKa",
"X9LaMaNaMaOaPaPag5$9QaRaX0X0<6SaTaUaVaLa~7WaQ0XaYa$0!9Za`aP!Z#R-@^ bT-F'.b+b@b#b$b%b&b*b=b|+-b;b>b,b'b)b!b~b{b]b^b/b(b_b:b<b[b}b|b1b2bK63b4b5b6bV57b8b9b0babbbcbdbebp9fbgbhbibjb`,v~;~kblbmbvanbobpbQ9Q9qbrbQ9AasbsbsbQ9Q9rbxasbtb`8Ca35CaDaubvbwbxbybzbHaAbBbCb",
"DbEbNaFbGbHbIbJbKbW0Lb$9!9MbNb%8Ob05La;8Pb;8PaKbO0QbS0RbSbTbUbVbWbXb})9~_,YbZb`b c.c+c@c#c$cn@j@%c&c*c=c-c;c>c,c'c)c!c~c{c]c^c/c(c_c:c<c[c}c|c1c2c7b3c9b4c5c6c7c8c9c0cacbch)ccdcecfcgcN9hcicR9I0jcrbkclclclcrbxarbrbQ9rbQ9Q9mc`8`8=7vbvbncubBaocpcJaqcrcsctcucK0",
"vcwcEbPbxcPbyczcAcBc0505<6CcCcDcEcFcGcHc~7Ic>8;8!7_685JcKcLcMcNcOcMcPcQc(,RcScTcUcVcWcXcYcZc`c d.d+d@d#d$d%d&d*d=d-d;dfa>d,d'd)d!d~d1b{d]d^d/d(d_d:dj94c<d[d}d|d1d2d3d4dh'G;-!5dfcN96d7d8dhc9dR9lc0d0dlclclcrbadrbbdrbbdrbrbxatbtbcdW8ddW8edfdgdhdidjdkdtcldub]6",
"mdnd95odwcpdKb:6i4qdAcrdf5Z9Z9d5O0*8)8sd)8c5tdudvd_6/7,7wdZaxdydzdAdBdi;4_j;CdDdEdFdGdHdIdJdKdLdMdNdOdPdQd1aRdSdTdUdVdWdXdYdZd`d e.e+e@e#e$e%e&e*e=e-e;e>e,eP''e)e!e~e{e]e^e5d/e(e_e:e<e[e}e6dT86d6dT8cd|elcbdbd1ecd2e3e`84eW85e6e7e8e8edddd9e0e9eaebecedeeefe}5",
"gehei4'7ndLa95La95iejeQbkele$9meS0j3neoepeqere'7seR0g5h4teuevewexeyezeAe+{BeCeDeEeFeGeHeIeJe6*y=KeLeo9MeNeOePeQeReSeTeUe<|VeWeXeYeZe`e f.f+f#e@f#fJ9Q'O'g!$f%f&f*f=f-f;f>f,fjclcrb6d(e7d'fT8T8T8T8bd)f!f~f{f]f{f^f6e/f0d{f^f8e(f8e8e8e8e8eae_f9e8e8e_f:f<f[fhd}f",
"|f1flevcj3rdHc2f3f4fHcQb5fmelele'7Kb05&0Ra6f7f8f*89f<695O0050fafbfcfdfefffgfhfifjfkflfmfnf+{H'^/ofpfqfrfsfp;tfufvfwfxfyfzfAfBfBf;5CfDf'dEfFfGfHfb~IfD>JfKfLfMfNfOfPfQfRfSfTfUfVfrbT8T86d6dT8Wf0dU8adXfYf{f7e8e7e^f7e^f7eZf`f`fZf gZf8e8e8eaeae.g+g@g#g$g%g&gde*g",
"36=g-gk3&8;g>g,g'gbfndg5je)gUa@0!gseW9Sa%8;9l4EcTa~gZ0b5O0b5{g95'7]g^g/g(g_g:g<g[g}g|g1g2gI(ofC/^/J(//3gD>4gxfxf5g6g7g8g9gAf0gagbgbgcgdgbg~^,]N'b~egD>|'J(.(fggghgigjgkglgmgng<5ogM{T8lcT86d6dT80d}e6d:e7e8epgZfpgZfZf(fqgrgsgtgtgug gZf gZf g7evgae@gwgxg%gceyg",
"zgb5O0AgAgBgW0vcCgDgEgLaFg>g$905udPaO0Gg6fHgIgIgJgUaKgLbLbTa`0VaqdLgcfMgNgOgPg<g<g<gQgRgH'Sg=]TgUg}'D>D>X!9gVgWgXgYgZg`g h.h+h@h#h`)`)$hv{7)d!u]%h}'d!${J(|'.(&h*h=h-h;hlg>h,h'h)hugbdR9!h!hqblcbdT8:e<e8e8e8epgqg~h{h(f]h^h/h(h(htg~h_h{h6e8e#gae#g@g:h<h$g[h|5",
"}hje2f2f|h&8$9Qa1h2hbf3h=84h-gnd5h!7*8)gl46h7h/88h9hTa0hahKg<6bhObTachdhehfhghhhihjhkhlhmhnhohS)M'D>D>X!|,phqhrhshthuhvhwhxhI>yhzhAhBhChDh)^Eh,]N'FhN'|'%h|'|'GhHhn@IhJhJhKhLhMhNhOhPhlcQhRhShU8!f8d8e7e g_hTh(fZf~h7e[eZfUh~h g gZf8e8evg@gae[f_f:f[f[f:hae[fhd",
"1hVh4h4f4hWhhe)gJcXhO03f{gYhKbc5LaQ0)gl4Ecl4*0Zh`h i i8h.iSa&0Lg#0+i8h$0@i#i$i%i&i*i=i-i;i>i,i'iN'n}n}Hfm})i!i~i{i]i^i/i(i_i:i<i[i}i|i1i2i>]W)u]E>D>3i4iu]N'D>5i*h6in@7i8i9iLh0i0iaibicidi7e8e8e8e7e7e8e g_heiZffiZf8e8e8eZf8e7e7e@g8e8eaegi8e:f[fhi[f9e9e9eiice",
"jind4fjeAc|hk3BgkilineHcmipdHcQ0'7Tal4nioiEcpiqi-0risitiuiviviuiq4wiMbIgxiyiziAiBiCiDiEi<g<gFiGi&{Hi0gIiJiF>KiLiMiNiOiPi6<Qi]]RiSiTiUiViWiXiYi={Z!E>JfN'FhN'N'Zi5i*h`i jMhMh.j+j@j#j$j%j&j*j8e8e8e=j7e8epg-j;j;j>j,j'j8e8e8edd{f6edd6e9e#g_f9e9e[f&g0e:h.g.ghi[f",
")jbf2f3fndGc!j~j{j]j^j-g>g/j&8j3O0(j_j:jTaMb<j[jpesiV9}j|j|j1jre-gleN02j7hyi3j4j5j6j7j8j<g9j0jajbj&[cjdj5-ejfjgjhjijjjkjlj+h$~mjnjojpjqjrjsj0gf~`!*{E>E>N'Ifb~b~tjujvjwjMh.jxjyjzjAjBjxjCjDjEj7e7e6e7e8eFjGjGjHjIjJjKjLjZf8e6e7edd6e{f7evgMjddddddvg@g:h6eNj@gae",
",9OjAg4f4fPjQjQjRjSjQa]g$9)gEcTaRjTjUjVjWjXj`hYj6fZj`j k.k+k@k#kg5b5Qa%0Hg$k%k&k*k=k-k;k>k,k'k)k!k~k{k]k^k/k(k_k:k<k[k}k|k1k2k3k4koj5k6k7k8k9k0kakbku]N'D>Ifg!f!ckdkekfkgkhkikjkkkzjzjBjlkmknk@gW8|e7e8eokpkHjIjIjqkGjrktg g~hZf{h7e7e[e^fsksktk^f7e8eEjukvkwkxk",
"ykAg4f3fHcHc3hzk4fAkDbXhW0W0b5]gBkCkDkEkFkGkYjHkIkJkKkLkMkNkOkS005O0O0Sa;9PkQkRkSkTkUknjnjVkWkXkYkZk`k l.l+l@l#l$l%l&l*l=l-l;l>l,l'l)l!l~l{l]l^l/l0)4'W)W)u]E>Jf={(l_l:l<l[l}lhkzjzj|l1lzj2l3l4l5laeaeEjHjIj6l7lIjKjKj8l9l0lalblpg8eZf gZfcl[edlelflglhlbiiljlkl",
"llW0mlnd95YhnlolpdplqlW9W9odmind`0RbrlsltlYjri)8ulvlwlxlylzlAlQ0BlQbQbO0<6ClDlElElElFlGl5kHlIlJlKlLlMlNlOlOlPlQlRlSlTlUlVlWlXlYlSkZl`l m.m+m@m#m$m-{;{%m>]>]W)&m*m=m-m;m>m,m'm)myj!m~m{m]m^m/m(m_m:m<m'jIjIjIj7lHj[m}m|m1m2m3m4m5m6m7m8m9m0m}mambmcmdmemfmgmgmgm",
"vehm4hjeAcBc05imimjmkmlmmmplndDbnmom-0pmqmqerm)8smtmumvmwmxmym-gqd'7<6,7BczmAmElElElFlBmCmDmEmFmGmHmImJmOlOlKmLmMmNmOmPmQmRmSmTmUmVmWmXmYmZm`m n.n%[+nQ'*{4'w{%m*{@n#n$n%n&n*n=n-n!m;n>n,n'n)n!n~n{n]n<m:m^n7l4l/n(n(n_n:n<n[n}n|n1n2n|n|n3nemam4nfm5ngmgmgmgmgm",
"6n7n8n9n0nanbncndnenfngnhninjnknlnmnnnonpnqnrnsntnunvnwnxnynznAnBnCnDnEnFnGnHnInJnKnLnMnNnOnPnQnRnSnTnNlOlOlUnVnWnXnYnZn`n o.o+oUm@o#o$o%o&o*o=o-oW%;o>o,o'o)o!o~o{o]o^o/o(o_o:o<o[o}o|o1o2o2o;n2l3o4o5o6ogl7o1n_n8o|n|n|n|n;m|n|nbm1n9o0oaobofmgmgmgmgmgmgmgmgm",
"codoeofogohoiojokolomonooopoqorosotouovowoxoyozoAoBoCoDoEoFoGoHoIoJoKoLoMoNoOoPoQoRoSoToUoVoWoXoYoZo`o p4j.p+p@p#p$p%p&p*p=p-p;p>p,p'p)p!p~p{p]p^p/p(p_p:p<p[p}p|p1p2p3p4p5p6p7p8p9p0papbp2ocpdp]mepfpgphpipjpkplpmp1n2n2n9onp<lop|nppqprpsptpgpgpgmgmupvpwpxpxp",
"ypzpApBpCpDpDpApEpEpCpApEpEpFpGpHpIpJpElElKpLpLpMpNpOpPpQpRpSpTpUpVpUpWpXpYpZpZp`p q.q+qElEl@q#q$q%q&q*q=q-q;q>qWp,qEp'q)qzp!q~q{q]q^q/q(q_q:q<q[q}q|q1q2q3q4q5q6q7q8q5q9q0q0qaqbqcqdqeqbpfq;ngqhq!miqjqgpamkpkqao9o1n9o9o0olqmqnqlqoqpqpqqqrqsqtquqvqwqxqxqyqzq",
"Aq'qBqCqBqDqDqDqBqBqBqBqBq'qEqFqGqHqElElIqJqKqLpLqMqNqOqPqQqRqSqTqUqVqWqXqYqZq`q`qZp r.rElEl+r@r#r$r%r&r*r=r-r;r>r,qDqTqTqDpAq,r'r)r!r~r:q{r]r^r/r(r_r_r:r<r8q8q8q7q[r}r|r1r9q9q2r3r4r5r6r7r2o8rbpzj9r0rjqargmkqkpcmdmkpbrcrpqdrqppqdrrpqpar)myjerfrgrhrirjrkrlr",
"mrTqDqBqDqDqTqVpBqBqDqDqBqCpnrorprqrrrElsrtrurwnxnvrwrxryrzrArBrCrDrErFrGrHrIrJrKr`qLrKnElElMrNrOrPrQrRrSrTrUrVrWrEpBqDqDqDpXrYrZr`r s.s+s@s#s$s%s&s3q4q*s=s*s-s=s5qbq7q;s>s,s's)s!s~s{s]sD1^s/sbpzj(s!m0r#jtqfmbrkqkqem_s:s5n<s[s}s|s}sgm1s2sfr3s4szj5sgr6s7szq",
")qUpVpVpVpVpDqDqDqWpWp'q8s9s0sasbscsdsesfsgshsisjskslsmsnsospsKrqsrssstsusqsvswsxsyszsAsBsCsDsEsFsGsHsIsJsKsLsMsNsOsPsQsEpQsEqRsSsTsUsVsWsXsYsZs`s t.t+t@t#t$t%t&t8q8q*t=t-t;t;t>t,t>s't)t!t^s~t{t|o]t(szjzjkk^t/t(tam_t:t<tgmgmgmgpuquqgmgpgp[t}tfr|t1t2t3t4tU[",
"5tVpUpUpVpDqTqVpDqWp6t7t8t9t0tatbtctdtetftgthtitjtktltmtntotptqtrtstttutqsvtwtxtytztAtBtCtDtEtFtGtHtItJtKtLtMtNtOtPtQtRtStTtUtVtWtXtAqYtZt`t`t u.u+u@u#u$u%u&u*u=u5q<r<r<r's's-u;u>t~s*t>u,ui{'ufq1l(s)u(s]t(s!ukr~u{u]u^u/u{u(uupxpgmuquqgmgm_u:u<ukryqxq[u}u|u",
"5tUpUpUpVpVpDqBqBqEp1u2u3u4u5u6uEl7u8u9u0uaubucucudueufuguhuiujukuDrlumuKrnuoupuqurusutuuuvuwuxuyuzuAuBuCuDuEuFuGuHuIuJuKuLuMuNuOuWrPuQuZt`t`tRuSuTuUuVuWuXuYuZu`u v8q<r.v7q+v@v#v>t$v%v&v*v=vt4~t-v;v>vN@)u,v:@'v)v!v~v{v]v^v/v(v_v:v<vaitqgp/t[v}vyq|v1v2v|u3v",
"4vUpUpUpUpUpDq)q5v6v7vOu8v9v0v6uElavbvcvdvevfvMigvhvivjvkvlvmvnvovpvqvMurvsvtvuvvvwvxvyvzvAvBvCvDvEvFvGvHvIvJvKvLvMvNvOvPvutnuQvRvSvTvUvZt`t`tVvWvXvYvZv`v w.w+w@wcq#w$w%w$w&w*w=w-w;w>t,s>w,w'w'w)w|o;v!w~wP#{w]w^w/w)v(w_w:w~vxp:v/tar<wtqargm[w}w_vyqyq1v|w1w",
"4v2wUpUpUpVpBqEp3w4w5w6w7w8w9w0wawbwcwdwewfwgwhwauiwjwkwlwmwnw7qowpwqwrwswtwuwvwwwxwyw{rzwAwBwCwDwEwFwGwHwIwJwKwLwMwNwOwPwQwRwSwTwUwVwWwXwYwZw`w xYvYv.x+x@x#x$x%x&x*x=x-x#w;u;x#v>x,x'x>s't)x!x~x8r|o{x]xN@N@^x/x(x_x:x|v<x[x}x:x:vgmaruqgmuqgm|x_uxpyqyq:w1x3v",
"BqUp2xTqUpVpBq3x4x5x6x7x8x9x0xaxbxcxdxexfxgxhxixjxkxlxmxnxoxpxqxrxsxtxuxvxwxxxyxzxAxBxCxDxExFxGxHxIxJxKxLxMxNxOxPxQxRxSxTxUxVxWxXxutYxZx`x y.y+y@yYvYv#y$y%y&y*y=y-y;y>y,y'y)y;u!y;u-u~y~s+v{y]y;v{x^y/y(s(yP#P#_y(x:y<y[y}xyq|vxp}y}y}y|y1yxpgm2y_uyq<x/w3y}x4y",
"5yVpVpUpUpUpCqko6y7y8y9y0y@saybycydyeyfygyhyiyjxjykylymynyoypyqyrysytyuyvywyxyyyzyAyByCyDyEyFyGyHyIyJyGuLvKyLyMyNyNyOyPyQyRySyTyUy`pVyWyXyYyZy`y zYvYv.zYvYv+zUu@z#z$z%z&z*z=z#v;u-z#v#v;s-t;z>z@j]t)u]t(y(yP#P#<@,z'z)z!z~z{z]z^z/z/z(z4y_z:zgm(v_z<z[z}z<z|z1z",
"5t2zVpUp3z4zVp5z6z7z8z9z9y0zazIwbzczdzgyeyezfzgzhzizjzkzlzmznzozLvpzqzrzszwytzuzvzwzxzyzzzAzBzCzDzEzFzGzHzIzJzMyNyNyKzLzMzNzOzPz=z)qCp)qCpQzRzSzTzYv.z.zUzVzWzTuXzYzZz`z A=z.A~y#v#v#v#v+A=w@A#A$A%AN@%A~w~wN@P#<@P#',&A*A=A!v-A;A>A,A'A)A!A~A{A)A]A^A/A^A(A_A:A",
"zpDqDqVpUplv3z<A[A}A|A1A2A3A4A5A6A7A8A9A0AaAbAcAdAeAfAgAhAiAjAkAlAmAnAoApAqArAsAtAuAvAwAxAyAzAAABACADAEAFAGAHAIAJAKALAMANAOAPAQA,t4vBqDqBqBq-zRASATAUAVAWAXAYAZA`A B.B+B@B,t>x%v#v!y#B;u%v=w$B%B&BF-*BN@N@P#P#P#P#P#P#P#=B-B;B>B,B'B,A)B)B!B~B{B]B^B'B/B(B(B_B:B",
"XrBqDqTqVpUpVpDqDq2z2z<Blw[B}B|B[B1Bmw2B~y3B4B5B6B7B8B9B0B*w~y;u>taB)ybBbBbBcB2BdBeBbBfBgBhBiBjBjBkBkBlBmBnB-xoBaqbq3qpBqBrBsBtB,tBqBqBq4vBq)suBvB4BwBxByB3rzBAB2rBBCB)y=zBqBqDB#v;u~yEBXt0B$B@AFBGBHBp%P#p%p%p%*BP#~wN@IBJBKBLBMB3vNBOB)BPBQBRBSBTB}z^BUB<zTBVB",
"XrBqBqBqBq2zVpVpTqTqVpVpVpUpUpVpUpUpVpVpjuUpVpUpVpVpDq2zDqXqBqBqWBXqXBXBVpVpVpVpXBYB2z}BZB`B>r C C.C+CQs C CCp@C@C@C+CCpFp-zEp#C,tBqBq,t-wBqBq$C;w4v%C|B&C&C*C2w=C[BBqBqZBBqBqBqDB#v-z-C;C0B$B>C,C'C'@)C!C~CL@*B{CP#P#*BP#=B]C^C/C(CMB_C:C<C[C}C|C/B<z1C{A2C)A_w",
"XrBqBqBqBqDq2xUpBqVpVpVpVpUpUpDqUpUpUpUpUpUp2zUpUpVpDqTqVpVpVpVpVpUpVpUpUpjuVpVpXB3CDqDqBq)qXqWp)q=z=z5t`BEp`Bov>r`B`BEpEp`B)q=zZBBqDqBqDqDqDq2zDqDqVpDqVpVp2w|B%C2z%CZBZBBqZBBq4C)y@v5C6C0B7C&w@A8C9C0CaCbC(@(@!CcC{CP#P#',dCeCfCfCgCeChCiCQBjC'BkClCmCjCnCoCpC",
"ypBqBqBqBqBq2zVpBqDqBqDqDqVp2zVpVp2zDqDqUpVpUpVpVpUpUpVpVpVpUpUpUpVpVpDqVp2zqCqCqCXqXBDqBqBqXqrCrCXqWBBqBqBqBq=zBqBqBqBq)qBqBqBqBqBqBqBqBqBqBqBqBqBqBqDqBq=zBqBqBqDq%C%CsCtC#C,t)y-zuCvCwC5CxCyCzCACBCCCDCECFC>&bCGCHCICJC~CKCLCMC>&GBNCOCPChCQC'A^ARCSC!B~A_zTC",
"UC=zBq4vBqBqBqBqBqBqBqBqBqBqBqDqBqBqBqDqTqDqVpDqDq2zDqDqBqBqDq2zVpVpVpUpVpVpYBVCWCXqXqBqBqBqBqXqBqDqDqBqBqBqBqBqBqBq)qAp3x)qBqBqDBDB,tBqBqBq=z=z=zXC=zBq=zBqBqBqBqBqZB)s)y7CyC;x)y!yXtXtXtXt0BzCXtYCZC`C D.D+D[#[#'@@D@D#DFCcC$DJCbC[#%D&D*D=D-D;DVB>D,D'D)D!D~D",
"{DXC=zXCXC4vBq4vBqBqBqBqBqBqBqBqBqBqBqBqDqUpVpBqBqBqBqBqBqBqBqBqBqDq2zVpVpVp]D]DXBWBXq=z#CBq=zDqBqDqDqBqBqBq5t3x)q)q)q#C^D.ABq.A-z=zBqBqBq=zXCXC`B/D#C.A4v=z4v)yBqBq>t#v#v$B(DzC-zyC>CuCXt@vxC>C;C_D:D<D[D}D|D1Dx@x@2D@D3DGCGCHC4D5D6D7D8D9D0DaDbDPCcD:wiCdDeDfD",
"UC#C-z#C-z-z#C.ABqBqBqBqBqBqBqBqBqBqBqBqBqVpUpBqBqDqBqBqBqBqBqBqBqBqBqBqBqDq2zDqDq2zBqBqXC=z=zBqBqBqDqBq=zBqBq)q4vBqBqBqBqBq=z=z`BXCBqBq=zBqBq=z`B`B=z=z#C-z/D;xmtXC#v-z-z-zXt-z-zEBXt-zgDgD0B0ByCWrhDiD}DjDkD1D1DlDmDnDGCoDGCGCGCHCpD0CqDrDsDlDtDuDvDwDKBxDyDzD",
"{D-z-zzpzp-z#v!y#CBqBqBqBqBqBqBqBqBqBqBqBq*z2zDqDqBqBqBqBqBqBqBqBqBqBqBqBqBqBqBqBqDqDq4vXC=z`B=zBqBqBqBqXCBqBqBqBqBqBqBqBq4v=z=z=z=z=z=zXC=z)y>tBqBqBq=z!y#v-z-z-z-z-z-z-zgD-z-z-z#v;u;uxCXt^D0BwCADWrBDCDDDED6DmDFDmDGD6DHDGCGCGCGC3DID+DrD.DJD7Dy@KDLDwDMDNDOD",
"PDFpzpFpFp-z-z-zQs`B5tXCBqBqBqBqBqBqBqBqBqZBBqBqBqBqBqBq=zBqWpBqBqBqBqBqBqBqBqDqBqBq4v`B^D^D-z`B=z4vBqBq.A=z#CFp-zFp-z^D^DXCXC`B=z.A=z.A/D>x7C;u!y/D`BXC;u-zFpFpgDzC-z-z-z-z-z-z-z-z#v-zyCAqQDwCAqRD3wSDTDUDVDWD@DXDnDnDYDYDGCGCoDHDHDZD`D0C EID.E@ #D+E@E#E$E%E",
"{DFpCp^D-z-z-zFpBpGpzpFp=z%C%CBqBqBqBqBqBqBq4vBqBqBqBqBqBq)qWpBqBqBqBqBqBqBqBqDqBq4vXC=z=z=z)q=z=zBqBq)ymt.A=zXC#C-z-z-z-zmt>t.A.A.A;u-z#v-z-z#v;u;u-z-z-z-z-zFp&EyCEB-zEB-zEB-zgDgD0BgD(DwCAq*E(DAD=E-E;E>EEc,E'EGC)E!EXDYD~E{E2D]E^E]E1DZD/E[#(E'@y@_E:E<E[E=A",
"}EGpGpFpGpGp|E1E2E2E2EGpCpQs`B`BEp`B)q)q=z`BBqBq=zBqBqBqBqBqBqBqBqBqBqBqBqBq4v#C5t5t=z=z=z5t^D#C/DBqBq,t=z=z=zXC#C-z-z-z-zmt)y>t~y;u-z-z-z-z-z#v#v#v-zEBFpzp3E3EXr2EvCuC4E8s5E8sWt6E8sWt3w7E8Enr9EPu0EaEbE{jcEdEeEfEgEhEiEXDjEkE`D]ElEDC]EmE(E  nEoEbCpEgCKD@EqE",
"Ho2E2E3E2ErE6vFq2E2E4E5v5vFp-zzpGpzpsE)qWp3xEpEpsE=z5t)qXCXCXC5t5tsE)q)qEp5t^D-z#C-z#C#C-z-z-z#C/D#C.A!y#C-z-z-zEBtE4EEBFp#v-z-z#v-z-z-z-z-z-z-z#v#v-z-z-zFpFpXtEBtE3EAqnrWt3E8sWtFq3EPuWtWtPu6EPu{D=EuEvEwExEyEzEAEBECEDEEEjD~EFEGEHEIE]E0C[#(EJEJE5DHCHCbC*BKE",
"LE2EWtME6vWrWrNEOEFq2E2E2EzpFpzpzpCpEpDpCp5v.C2EzpFpFp-z`BBqBqBqBqBqBqBq=z=zXC#C#C-z-z-z-z-z-z#C#C-z-z-z-zFpEBEB5E8stE qXr4EEBXt^D/D;u/D!y;u;u-z-z-z-z-z-z-z-z#vFp3EEBtEAq4E4E3E2EFqWt6E6EPE6vWrWr6E=EQERESETEUEVE0fWEzEXEYEiEZE`ECC F.FHE+FmEx@'@[#@FZD6D3DFC)C",
"#F2E6vWrWrWrWrPuWr6vWtFq2EEqEqEq2EEqEq5v.C5vzpFpQs`B#C`B`BEpDpDpEp#C#CEp)qXC=z=z5t`B-z-z-z-z-z-z-z-z-z-zFp3E8s8s4EEBXrPutEwCAqxCgD-z%v)y'x7C7C#v#C#CFp-z-z-z-zXt3EWtWtADPu6vWt3EWtnr6v3w$F%FWr3w=E=EQEuE&F*F=FUEUEUExE-F&8;F>F,FjE'F D)F D!F~F{F]F^F/F(FGD`Dx@@F",
"_F6vWrWrWrWrWrWrWr6vNEFq:FEqEqXpOEEq2EOEEq2EEqFpCp<F`B`B#CDp+C+CCp^D-z-z-z^D#C-zFpFp-z-z-zFpFp-zFpFpFp4E3E3E4EEB3E2E3EAqEBFp-zuC-z-z#C4v!y!y)y=z`BXC^D-z-z-zFp4E3E2E3EXr3E4E3E3E3EWt6vWr%F6EUCUC$FQE[F}F[F}F|F1FUExExExE2F3F4F5F6F~E7F8F9F9F8F7F D F F0FaFHE/FlE",
"jobF6EWrWrWrWrWrWr6v6v6vPuWrWrWrWrPuWt6vWtWt6vFqWtME2E3E2E2E2EEq5vFpFp-z-z-z-z-z-zFp-z4E3EFpFp4E3E2E2E2EWtFqtEXr4E3E3Enr5EFp-z-z-z-z-z^D-z/D/D#C-z-zFpFp4E4E3EWt6v6vWt6E8s3E3E2EFqnrWr=E=E3w3w3w3wcF$F[FQEdFeFfFVEgFxEhF-FiF95afjFkFlFmFnFnF9F9F9FoF.FpFqF.D~FGD",
"poPuWr6vWr6vWrWr6EUCWrWrWrWr6E6EWrWrWrnrFq2E2E6v2EWtXrXr2E2EGpzpzpzpFp-z-zGp3E3EFp^DFpFpzpFp-z3E3E3E3EtE8sWtFqtEFqFqWtAD8s3E3Ezpzpzp4E4EFpzpzp-z3E3EXrtEnrnr6EUCUCUC3w=ErF8snrnrRD{D{D=E{DsFtF{DuFADADUC3w$FvFwFlmVExEUExFVEyFzFAFBFCFDFEFFFmFnF9F DoFGFHF0F/FDC",
"#C}B2zIFJFKF[B[B[B|B[B|B|B$CLF<B<B<B<B[BKFKFKF}BsC,tMFNF%C|BOFPF[B<B|B[B[B<B=C|BQF[B<B<B%CRF[BPF[B[BPFTpSFSFTFTFTFTFUF[B[BKFKFKFVFWFTpXFWFTFTFYFYFguZFgu`Fgu G GPF$C.G+G@GRF,t#GwB$G@G7B@G%G$G4B2BtC.A#C/D&G3B*G=GVEgFgF-GhFxFgFxF;G>G,G'G)G!G~GZE9F7F F{F~FJD{G",
"]G^G/G(G_G(G:G<G[G}G|G|G1G2G3G4G|G|G5G4G1G<G[G}G|G6G[G[G7G7G[G}G}G}G8G9G6G|G0G9GaG6GbG|G1G|G}GcG}G3G}G[G}GdG}G[GcG(GeGfGfGcG[G[GcG(G_GgGhGiGjGkGlGiGmGmGgGgGfGnGoGoGoGpGqGqGrGsGtGtGsGuGsGuGvG2GuGwGxGfGuGyGzGAGBGVEVEVEgFVECGUEUEDGW9EGFGGGHGIGJGKGKG8F}D{G^E]E",
"LGMGNGOGNGPGQGRGkGlGSGOGPGOGjGQGPGTGwGxGjGSGkGUGVGWGXGXGYGRGOGNGZGLGNGNGiG`GgGgG H.HhG`G+HMGNGQG@HSGPGQGNGZG#H$H%H&H*H=H-HUGVGVG;H>H,H'H)H!H~H!H{H]H!H^H/H(H_H:H:H:H<H[H[H[H}H[H!H|H1H[H:H)H2H3H4H!H!H~H5H6H7H8H9H0HVEVEgFVExExEhF-FVEaHbHcHdHeHfHgHJGZE8F)FGEhH",
"$HOGiHSGkGjHkHUGXGkHkHjHjHYGUGUGUGUGUGkHlHmHmH{HnHoHkHkHkHpHjHUGUGUGjHqHrHkGUGkGkGXGUGXGUGsH]HlHtH(H_H_HuHvH7HuHuHwH'HxHyHyHyHzHAHuH)H<H~HBHCHBHDHDH^HEH^H!H!HDHFHFHGHHHEHEHEHIHEHCHFH|HJHJHBHKHLHMHMHEHKHFH~HNHOHPHVEQHVE-FxEgFVEkm2FcEGcRHSHTHUHVHWHfH'GjD9F9F",
"$HXH,H4HsHkHlHtH(H]H{H]H_HAHkHXG4H_H<H^HYHYHZHYH^H!HpHAH/HDHDH!H^H/HAHyHyHyH)H)H<H~HCHFH/H~H~H^H^HDHBH`H IBH5H1H1H1HyHyH.I1H1H1HJH I IBHGH+I@IKH#IKH#I@IEHEHGHEH$I$IKH#I%I%I%I@I%I+I+IKH#I#IKH%I%I%I&I#I%IKH*I=I-I;I>IP0,IxE'Ilm)I!I~IVE{I]I^I/I(IdH_I:I<I[I9F9F",
"oGpH4HpHlHlH}IFH|IMH|IHHLHCH~H}I!H^H*I}I1I2I3I4I5I!H/H/HFHKH6IKHEHFH<H)H7I.I$I8I$IEH#I#I9IKHKHKHKH#I`HBHBHKH#I$I`H|HJH$I$I I1H1H0I$I`HCH$I%I@IKHEH+I+I%I%I%I@IKHKHKH@IaIbIcIdI%I%IcIeIdIcIcI%I%I%I%I%I%I%ILH/HfIgIhIiI:6QHxFjI2F2F2FWENa2F!IlekIlImInIoIpIqIrInF",
"sIpHtInH}I^H}IHHMHMHuIKH%ILH~H~H}I}IJHvIvI|I1I|IHHHH5I*IuIuI3I%IKH$IEH^H1H I#IKH%I%I$IKH%I%I%I%I%IKHBH^HDHKH%I@I#I$IEH%I%IKHyHwIKH`HBH#I%I%I%I+I%IdIdIdIxIyIdIcI%I%IKHdIyIzIzIcIcIdIzIzIzIxI%I%I%I%I%I%I+IBH~HAI[j~IBICIDIVEEIhFVEVE2F,IVEVE;I26FIGIHIIImlJIKILI",
"`GpH}I1IuI&I9IMH%IMHMHMHHH~H_H<H~H^HHH~H~H/H~H^H<H9IMHHHuI6I6IcIcIcI%I6I$I#IEHEHKH#I%IdIzIyI%IKHKH%ILHvIDHEH&I%IKHKHEH%IcIKHCH`H`H`HEH#I%IaI$I#IdIzIzIzIyIcIcI%I%I%I%IdIzIzIzIzIzIxIzIzIzIyI%I%IcIdIxIdI%IKH*IMINI`0QaDbOIPIQIRISIBIcE'IPIcEcETIjeUIVIWI)7XIYIZI",
"`I J}IuIYH^HJH5HKH%I6ILH9IFH<H}I^HDHLHLHFH_HyH<HAHFH.JuI+JMHMHKHKH%I%I6I%I%I+IKH%IcI%I&IcIcI%I$I#I#I6ILH~HDHFHKHLHCHHH%I&IIHIH$I#I`HEHKH#I`H`H$I#I%IzIzIyI%I%I%I%I%I%IyIzIzIzIzIzIyIzIzIzIzI%I%IcIdIyIcI&I%I@J#Jhn$J%J&J*J=J7h-J;J>J;G,J'J$JBI)J$Jte!JleRI~JoIZI",
"{J]J^J}I}IYH/J(J.I_J*IJHFH5H1HyH:JvI%I%IKH<H.IyHAH'HpH<J[J*IFHFH@JLH%I%I%I%I%I%I%IcIaI@I%I%IKHLHEH#IKH9IDHBHLHCHFHJH5HCH#IEHCH`H%IKH$I#I+IKH$I#I`HIH%IdIdI%IKH%I%I%I%IyIzIyIdIzIzIzIzIzIzIyI%I%IcIcIdI}J%IKHBH|J1J=8Kg.iVa2J3J4J5J6J7J8J9J0J(6aJbJcJ@i`h<6dJeJZI",
"fJgJhJhJiJ4I%I.JjJ[J<H_HAHyHyHyH5HEH6IKHLHKHMH~HkJJHjJ/HJH@J5H.I5HJHGHKH+I%I+I+I%I6I@I&I#IGHlJGH`H5HJHFH9IGHFH<H5H.I1H5HEHKHCH`HEH@I%I%IcIdIKH#I`H`HIHKH%IKHBH#I%I@I%IcIxIcIcIyIyIxIdIdIxIyI%I%I%IcIcIcI6IKHFHmJnJ05Kg$9LboJpJqJrJQIsJtJuJvJwJxJyJzJAJBJ>Jh4CJDJ",
"EJUGkHkH(H+JFJGJHJIJpHpHzHyH1H1H5H5H IFHMHKHMH2IvIYHFJ9IJJCHFHLHLH@JCH$I$I#IDH^H^H^HGHKH#I$I#IGHBHBHDHFHGHEHKJJH<H.I6H`H`H$IGHLHKH%IdIcIcIdI%I+I$IIH#I%IcI@IBH$IdI%I%IcIcI%I%IcIcIcIcIcIcI%I%I%I%I%I%I%ILHFHAHLJMJNJOJPJQJRJSJTJ8J0JUJVJWJXJYJZJ`J K.K+K@K#K$KQ0",
"fGkHkHkH%K&K*K=K<JIJJH_H_H_H(J:J<H<HyH~H9ILHvI-KiJ-K;KvIJHJH~HlJKHJJLHCH+I5H5HBHBH9IKH%I+I%I%I%ILHDH<H5HLHlJKHLHCH I IKHKH+I%I%IdIcIcIcI%IzIyIcIcIdIbIcI%IKHLH&IxIdI%I%IdIyI%I%IcIcIcIcI%I%I%I%I%I%I%I%I I:H4H>K,K'K)K!K~K{K]K^K$J/KbJ(K_K:K<K[K}K|K1K2K3K4K,I9f",
"5KXGkHkHkHpH%KtIkH6K{H;K7KvI-KjJ_HzHyH5HlJKH[J{HnH{H}I~H<HyH_HjJFHLHMHKH+I$ICH`H`HGH5I6I%I%I6I6IKHFH:J/HDHKHKHKHMH:JyH8K+I%IdIcIxIxIcIcIcIyIyIyIxIzIzIyI%I%IKHcIdI%I%ILH6IcIKHKHKH%I%I%I%I%I%I%I%I%I%I$I@J.I9K0KaKbKcKdKeKfKgKhKiKjKkKlKmKnKoKpKqKrK|^sK'KtKuKvK",
"wK@HxKyKXGkHpHtIkHiJzKAKBKBKCKvI*IJHyH.I9IMH*I{H{H^H^H~HyH(JHJDK/J*I[J8I8IJH8I ICH*I*I%I6IEK6IFK6IKH5IYHYH|IHH|I*I*I1H1H0IKHcIcIdIyIdIcIcIxIyIzIzIzIcI%IcI%I%IcIcI#I+IGHEHEHBHEH@IaIcI%I%IKH%I%I%I%IKHFHJJ5H9KGKHKIKJKKKLKMKNKOKPKQKRKSKTKUKVKWKXKg,YKZK~K`K L.L",
"+L@L#L$L$LXGkHoHoH%L&L*LBK7K*K=LFJ+J5H<H9IuI5IvI}InH/H<HyH<J:J@JHJ<HJH:JyH!HHHFHGHLHDHKHKHMH6I&IKHMHKHKHKHlJ}IvIJHLH@J1H.IEH%IcIcIcIcI%I%I%IxIzIzIzIcIcIcI%IcI%IKH#I$ICHCH`H`H`HGH%I%I%IKHCHKH6I%I&IJHkJLH.I;H-L;L>L,L'L)L,L!L~L{L]L^L/L(L_L:L<L[L}L|L1L2L3L4L5L",
"6L`G7L8LgJ9L7LXGkHkHtI0LaL{HjJ:JbL%IFHpHpH{H}I;KcL*IJH!H:H_H:J.J%KpHkHpH1H~HlJFHCH<H/HJHJHDHHHlJDHYHvIMHMHuI*I^H9I9IKHLHLH6I%I6I6I%I%I%I%I%I%I%I%IcIcI%I%IcIcI%I%IEH`H5HBH5H I I5HGH%I%ICHyH5H@JHJ5HyHpHpHuH>HdLeLfLJKgLhLiLjLkLlLmLnLoLpLqLrLsLtLuLvLwLxLyLzLAL",
"BLgGCLkH(HDLELFLUGXGhJhJGLoHoHHL_JJJAHpHpHkH{H}I|InH<JpH_H_HAHpHpHkHXGkH'H<JAH<HJHpHkHkHwH(H(H]H]H/HFH/HJHJH<HjJ5I9I|IuI6I9IFH!HKH%I%I%I%I%I%I%I%I%I%I$IIH%I+IKHEH$I`H5H1H1HyH8IwIIL.JFJ#I8IJHIJ:J:HkHUGJL-HKLLLMLNLOLPLQLRLSLTLULVLWLXLYLZL`LoK M.M+M@M#M$M%M&M",
"*MwKFL9LhJ=M-M;MTGNG>MXGkHkHoHkHkH,M3H,H3HSG'MoH(HkHkHkHkHJLjH4HjHkH)M=HJLpH_HkHXG!MCLUGUGUGkH(HlHpH_HpHkH4HwH(H~H{H^H+J1I2I~HoHpH<H I8I8I8I.I8IFH8ICH`H`HEHEHEH`H I`H5H:HzHzH1HyH:H[JbL#I@JyHAH'H'HXG~MJL,H{MzB]M^M/M(M_M:M<M[M}M|M1M2M3M4M5M6M7M8M9M0MaMbMcMdM",
"eM5KmGEL`GfMgMcG}G^GfG;MMGVGkGOGjGNGZGhMqG_GgG@H>M@HSGCL@H`G5KwG+HrGiM3G[GwKwKgG`G@LQGMGjM!MDLkMQG@HQGNGMG$H$HlM'MyK^J;KmMnM7L@H@L>MlMVG~M@HVGkGJLrH3HXG,H,M=H3H#HoM,H=HSGpM=HJLJLqMXGgJCLCLrM.HsM`GwKgGtMuMvM#BwMxMyMzMAMBMCMDMEMFMGMHMIMJMKMLMMMNMOMPMQMRMSMxJ"};
